(G-CODE GENERATED BY FLATCAM v8.994 - www.flatcam.org - Version Date: 2020/11/7)

(Name: global_vu-PTH.drl_cnc)
(Type: G-code from Geometry)
(Units: MM)

(Created on Monday, 12 August 2024 at 19:50)

(This preprocessor is used with a motion controller loaded with GRBL firmware.)
(It is configured to be compatible with almost any version of GRBL firmware.)


(TOOLS DIAMETER: )
(Tool: 1 -> Dia: 0.3)
(Tool: 2 -> Dia: 0.9)
(Tool: 3 -> Dia: 1.0)

(FEEDRATE Z: )
(Tool: 1 -> Feedrate: 30.0)
(Tool: 2 -> Feedrate: 30.0)
(Tool: 3 -> Feedrate: 30.0)

(FEEDRATE RAPIDS: )
(Tool: 1 -> Feedrate Rapids: 1500)
(Tool: 2 -> Feedrate Rapids: 1500)
(Tool: 3 -> Feedrate Rapids: 1500)

(Z_CUT: )
(Tool: 1 -> Z_Cut: -1.8)
(Tool: 2 -> Z_Cut: -1.8)
(Tool: 3 -> Z_Cut: -1.8)

(Tools Offset: )
(Tool: 1 -> Offset Z: 0.0)

(DEPTH_PER_CUT: )
(Tool: 1 -> DeptPerCut: 0.3)
(Tool: 2 -> DeptPerCut: 0.3)
(Tool: 3 -> DeptPerCut: 0.3)

(Z_MOVE: )
(Tool: 1 -> Z_Move: 2)
(Tool: 2 -> Z_Move: 2)
(Tool: 3 -> Z_Move: 2)

(Z Toolchange: 7.0 mm)
(X,Y Toolchange: 0.0000, 0.0000 mm)
(Z Start: None mm)
(Z End: 7.0 mm)
(X,Y End: None mm)
(Steps per circle: 64)
(Steps per circle: 64)
(Preprocessor Excellon: GRBL_11_no_M6)

(X range:    3.5250 ...   97.0250  mm)
(Y range:    3.9710 ...   44.7710  mm)

(Spindle Speed: 1000 RPM)
G21
G90
G17
G94


G01 F30.00

M5             
G00 Z7.0000
G00 X0.0000 Y0.0000                
T1
(MSG, Change to Tool Dia = 0.3000 ||| Total drills for tool T1 = 27)
M0
G00 Z7.0000
        
G01 F30.00
M03 S1000
G00 X6.3790 Y30.1210
G01 Z-0.3000
G01 Z0
G00 Z2.0000
G01 Z-0.6000
G01 Z0
G00 Z2.0000
G01 Z-0.9000
G01 Z0
G00 Z2.0000
G01 Z-1.2000
G01 Z0
G00 Z2.0000
G01 Z-1.5000
G01 Z0
G00 Z2.0000
G01 Z-1.8000
G01 Z0
G00 Z2.0000
G00 X13.3790 Y30.1210
G01 Z-0.3000
G01 Z0
G00 Z2.0000
G01 Z-0.6000
G01 Z0
G00 Z2.0000
G01 Z-0.9000
G01 Z0
G00 Z2.0000
G01 Z-1.2000
G01 Z0
G00 Z2.0000
G01 Z-1.5000
G01 Z0
G00 Z2.0000
G01 Z-1.8000
G01 Z0
G00 Z2.0000
G00 X21.8790 Y40.1210
G01 Z-0.3000
G01 Z0
G00 Z2.0000
G01 Z-0.6000
G01 Z0
G00 Z2.0000
G01 Z-0.9000
G01 Z0
G00 Z2.0000
G01 Z-1.2000
G01 Z0
G00 Z2.0000
G01 Z-1.5000
G01 Z0
G00 Z2.0000
G01 Z-1.8000
G01 Z0
G00 Z2.0000
G00 X29.0550 Y41.8060
G01 Z-0.3000
G01 Z0
G00 Z2.0000
G01 Z-0.6000
G01 Z0
G00 Z2.0000
G01 Z-0.9000
G01 Z0
G00 Z2.0000
G01 Z-1.2000
G01 Z0
G00 Z2.0000
G01 Z-1.5000
G01 Z0
G00 Z2.0000
G01 Z-1.8000
G01 Z0
G00 Z2.0000
G00 X35.8790 Y42.6210
G01 Z-0.3000
G01 Z0
G00 Z2.0000
G01 Z-0.6000
G01 Z0
G00 Z2.0000
G01 Z-0.9000
G01 Z0
G00 Z2.0000
G01 Z-1.2000
G01 Z0
G00 Z2.0000
G01 Z-1.5000
G01 Z0
G00 Z2.0000
G01 Z-1.8000
G01 Z0
G00 Z2.0000
G00 X42.8790 Y40.1210
G01 Z-0.3000
G01 Z0
G00 Z2.0000
G01 Z-0.6000
G01 Z0
G00 Z2.0000
G01 Z-0.9000
G01 Z0
G00 Z2.0000
G01 Z-1.2000
G01 Z0
G00 Z2.0000
G01 Z-1.5000
G01 Z0
G00 Z2.0000
G01 Z-1.8000
G01 Z0
G00 Z2.0000
G00 X53.3790 Y40.6210
G01 Z-0.3000
G01 Z0
G00 Z2.0000
G01 Z-0.6000
G01 Z0
G00 Z2.0000
G01 Z-0.9000
G01 Z0
G00 Z2.0000
G01 Z-1.2000
G01 Z0
G00 Z2.0000
G01 Z-1.5000
G01 Z0
G00 Z2.0000
G01 Z-1.8000
G01 Z0
G00 Z2.0000
G00 X60.3790 Y40.6210
G01 Z-0.3000
G01 Z0
G00 Z2.0000
G01 Z-0.6000
G01 Z0
G00 Z2.0000
G01 Z-0.9000
G01 Z0
G00 Z2.0000
G01 Z-1.2000
G01 Z0
G00 Z2.0000
G01 Z-1.5000
G01 Z0
G00 Z2.0000
G01 Z-1.8000
G01 Z0
G00 Z2.0000
G00 X69.8790 Y39.1210
G01 Z-0.3000
G01 Z0
G00 Z2.0000
G01 Z-0.6000
G01 Z0
G00 Z2.0000
G01 Z-0.9000
G01 Z0
G00 Z2.0000
G01 Z-1.2000
G01 Z0
G00 Z2.0000
G01 Z-1.5000
G01 Z0
G00 Z2.0000
G01 Z-1.8000
G01 Z0
G00 Z2.0000
G00 X69.8790 Y44.6210
G01 Z-0.3000
G01 Z0
G00 Z2.0000
G01 Z-0.6000
G01 Z0
G00 Z2.0000
G01 Z-0.9000
G01 Z0
G00 Z2.0000
G01 Z-1.2000
G01 Z0
G00 Z2.0000
G01 Z-1.5000
G01 Z0
G00 Z2.0000
G01 Z-1.8000
G01 Z0
G00 Z2.0000
G00 X75.8790 Y42.1210
G01 Z-0.3000
G01 Z0
G00 Z2.0000
G01 Z-0.6000
G01 Z0
G00 Z2.0000
G01 Z-0.9000
G01 Z0
G00 Z2.0000
G01 Z-1.2000
G01 Z0
G00 Z2.0000
G01 Z-1.5000
G01 Z0
G00 Z2.0000
G01 Z-1.8000
G01 Z0
G00 Z2.0000
G00 X79.8790 Y41.1210
G01 Z-0.3000
G01 Z0
G00 Z2.0000
G01 Z-0.6000
G01 Z0
G00 Z2.0000
G01 Z-0.9000
G01 Z0
G00 Z2.0000
G01 Z-1.2000
G01 Z0
G00 Z2.0000
G01 Z-1.5000
G01 Z0
G00 Z2.0000
G01 Z-1.8000
G01 Z0
G00 Z2.0000
G00 X83.3790 Y38.1210
G01 Z-0.3000
G01 Z0
G00 Z2.0000
G01 Z-0.6000
G01 Z0
G00 Z2.0000
G01 Z-0.9000
G01 Z0
G00 Z2.0000
G01 Z-1.2000
G01 Z0
G00 Z2.0000
G01 Z-1.5000
G01 Z0
G00 Z2.0000
G01 Z-1.8000
G01 Z0
G00 Z2.0000
G00 X85.8790 Y34.6210
G01 Z-0.3000
G01 Z0
G00 Z2.0000
G01 Z-0.6000
G01 Z0
G00 Z2.0000
G01 Z-0.9000
G01 Z0
G00 Z2.0000
G01 Z-1.2000
G01 Z0
G00 Z2.0000
G01 Z-1.5000
G01 Z0
G00 Z2.0000
G01 Z-1.8000
G01 Z0
G00 Z2.0000
G00 X92.3790 Y30.1210
G01 Z-0.3000
G01 Z0
G00 Z2.0000
G01 Z-0.6000
G01 Z0
G00 Z2.0000
G01 Z-0.9000
G01 Z0
G00 Z2.0000
G01 Z-1.2000
G01 Z0
G00 Z2.0000
G01 Z-1.5000
G01 Z0
G00 Z2.0000
G01 Z-1.8000
G01 Z0
G00 Z2.0000
G00 X92.3790 Y26.1210
G01 Z-0.3000
G01 Z0
G00 Z2.0000
G01 Z-0.6000
G01 Z0
G00 Z2.0000
G01 Z-0.9000
G01 Z0
G00 Z2.0000
G01 Z-1.2000
G01 Z0
G00 Z2.0000
G01 Z-1.5000
G01 Z0
G00 Z2.0000
G01 Z-1.8000
G01 Z0
G00 Z2.0000
G00 X92.8790 Y23.6210
G01 Z-0.3000
G01 Z0
G00 Z2.0000
G01 Z-0.6000
G01 Z0
G00 Z2.0000
G01 Z-0.9000
G01 Z0
G00 Z2.0000
G01 Z-1.2000
G01 Z0
G00 Z2.0000
G01 Z-1.5000
G01 Z0
G00 Z2.0000
G01 Z-1.8000
G01 Z0
G00 Z2.0000
G00 X92.8790 Y13.6210
G01 Z-0.3000
G01 Z0
G00 Z2.0000
G01 Z-0.6000
G01 Z0
G00 Z2.0000
G01 Z-0.9000
G01 Z0
G00 Z2.0000
G01 Z-1.2000
G01 Z0
G00 Z2.0000
G01 Z-1.5000
G01 Z0
G00 Z2.0000
G01 Z-1.8000
G01 Z0
G00 Z2.0000
G00 X78.8790 Y6.6210
G01 Z-0.3000
G01 Z0
G00 Z2.0000
G01 Z-0.6000
G01 Z0
G00 Z2.0000
G01 Z-0.9000
G01 Z0
G00 Z2.0000
G01 Z-1.2000
G01 Z0
G00 Z2.0000
G01 Z-1.5000
G01 Z0
G00 Z2.0000
G01 Z-1.8000
G01 Z0
G00 Z2.0000
G00 X75.8790 Y4.6210
G01 Z-0.3000
G01 Z0
G00 Z2.0000
G01 Z-0.6000
G01 Z0
G00 Z2.0000
G01 Z-0.9000
G01 Z0
G00 Z2.0000
G01 Z-1.2000
G01 Z0
G00 Z2.0000
G01 Z-1.5000
G01 Z0
G00 Z2.0000
G01 Z-1.8000
G01 Z0
G00 Z2.0000
G00 X71.8790 Y4.6210
G01 Z-0.3000
G01 Z0
G00 Z2.0000
G01 Z-0.6000
G01 Z0
G00 Z2.0000
G01 Z-0.9000
G01 Z0
G00 Z2.0000
G01 Z-1.2000
G01 Z0
G00 Z2.0000
G01 Z-1.5000
G01 Z0
G00 Z2.0000
G01 Z-1.8000
G01 Z0
G00 Z2.0000
G00 X58.8790 Y6.6210
G01 Z-0.3000
G01 Z0
G00 Z2.0000
G01 Z-0.6000
G01 Z0
G00 Z2.0000
G01 Z-0.9000
G01 Z0
G00 Z2.0000
G01 Z-1.2000
G01 Z0
G00 Z2.0000
G01 Z-1.5000
G01 Z0
G00 Z2.0000
G01 Z-1.8000
G01 Z0
G00 Z2.0000
G00 X58.3790 Y4.1210
G01 Z-0.3000
G01 Z0
G00 Z2.0000
G01 Z-0.6000
G01 Z0
G00 Z2.0000
G01 Z-0.9000
G01 Z0
G00 Z2.0000
G01 Z-1.2000
G01 Z0
G00 Z2.0000
G01 Z-1.5000
G01 Z0
G00 Z2.0000
G01 Z-1.8000
G01 Z0
G00 Z2.0000
G00 X54.3790 Y6.6210
G01 Z-0.3000
G01 Z0
G00 Z2.0000
G01 Z-0.6000
G01 Z0
G00 Z2.0000
G01 Z-0.9000
G01 Z0
G00 Z2.0000
G01 Z-1.2000
G01 Z0
G00 Z2.0000
G01 Z-1.5000
G01 Z0
G00 Z2.0000
G01 Z-1.8000
G01 Z0
G00 Z2.0000
G00 X51.3790 Y4.1210
G01 Z-0.3000
G01 Z0
G00 Z2.0000
G01 Z-0.6000
G01 Z0
G00 Z2.0000
G01 Z-0.9000
G01 Z0
G00 Z2.0000
G01 Z-1.2000
G01 Z0
G00 Z2.0000
G01 Z-1.5000
G01 Z0
G00 Z2.0000
G01 Z-1.8000
G01 Z0
G00 Z2.0000
G00 X11.3790 Y13.1210
G01 Z-0.3000
G01 Z0
G00 Z2.0000
G01 Z-0.6000
G01 Z0
G00 Z2.0000
G01 Z-0.9000
G01 Z0
G00 Z2.0000
G01 Z-1.2000
G01 Z0
G00 Z2.0000
G01 Z-1.5000
G01 Z0
G00 Z2.0000
G01 Z-1.8000
G01 Z0
G00 Z2.0000
G00 X8.3790 Y13.1210
G01 Z-0.3000
G01 Z0
G00 Z2.0000
G01 Z-0.6000
G01 Z0
G00 Z2.0000
G01 Z-0.9000
G01 Z0
G00 Z2.0000
G01 Z-1.2000
G01 Z0
G00 Z2.0000
G01 Z-1.5000
G01 Z0
G00 Z2.0000
G01 Z-1.8000
G01 Z0
G00 Z2.0000
M05
G00 Z7.00


