(G-CODE GENERATED BY FLATCAM v8.994 - www.flatcam.org - Version Date: 2020/11/7)

(Name: deck_bundle-PTH.drl_cnc)
(Type: G-code from Geometry)
(Units: MM)

(Created on Monday, 02 September 2024 at 19:50)

(This preprocessor is used with a motion controller loaded with GRBL firmware.)
(It is configured to be compatible with almost any version of GRBL firmware.)


(TOOLS DIAMETER: )
(Tool: 1 -> Dia: 0.4)
(Tool: 2 -> Dia: 0.9)
(Tool: 3 -> Dia: 1.1)
(Tool: 4 -> Dia: 1.19)

(FEEDRATE Z: )
(Tool: 1 -> Feedrate: 20.0)
(Tool: 2 -> Feedrate: 20.0)
(Tool: 3 -> Feedrate: 20.0)
(Tool: 4 -> Feedrate: 20.0)

(FEEDRATE RAPIDS: )
(Tool: 1 -> Feedrate Rapids: 1500)
(Tool: 2 -> Feedrate Rapids: 1500)
(Tool: 3 -> Feedrate Rapids: 1500)
(Tool: 4 -> Feedrate Rapids: 1500)

(Z_CUT: )
(Tool: 1 -> Z_Cut: -2.4)
(Tool: 2 -> Z_Cut: -2.4)
(Tool: 3 -> Z_Cut: -2.4)
(Tool: 4 -> Z_Cut: -2.4)

(Tools Offset: )
(Tool: 1 -> Offset Z: 0.0)

(DEPTH_PER_CUT: )
(Tool: 1 -> DeptPerCut: 0.4)
(Tool: 2 -> DeptPerCut: 0.4)
(Tool: 3 -> DeptPerCut: 0.4)
(Tool: 4 -> DeptPerCut: 0.4)

(Z_MOVE: )
(Tool: 1 -> Z_Move: 2)
(Tool: 2 -> Z_Move: 2)
(Tool: 3 -> Z_Move: 2)
(Tool: 4 -> Z_Move: 2)

(Z Toolchange: 7.0 mm)
(X,Y Toolchange: 0.0000, 0.0000 mm)
(Z Start: None mm)
(Z End: 5.5 mm)
(X,Y End: None mm)
(Steps per circle: 64)
(Steps per circle: 64)
(Preprocessor Excellon: GRBL_11_no_M6)

(X range:  -64.8000 ...   63.8000  mm)
(Y range:  -39.8000 ...   42.4500  mm)

(Spindle Speed: 1000 RPM)
G21
G90
G17
G94


G01 F20.00

M5             
G00 Z7.0000
G00 X0.0000 Y0.0000                
T1
(MSG, Change to Tool Dia = 0.4000 ||| Total drills for tool T1 = 20)
M0
G00 Z7.0000
        
G01 F20.00
M03 S1000
G00 X51.9000 Y-39.6000
G01 Z-0.4000
G01 Z0
G00 Z2.0000
G01 Z-0.8000
G01 Z0
G00 Z2.0000
G01 Z-1.2000
G01 Z0
G00 Z2.0000
G01 Z-1.6000
G01 Z0
G00 Z2.0000
G01 Z-2.0000
G01 Z0
G00 Z2.0000
G01 Z-2.4000
G01 Z0
G00 Z2.0000
G00 X43.5000 Y-39.5000
G01 Z-0.4000
G01 Z0
G00 Z2.0000
G01 Z-0.8000
G01 Z0
G00 Z2.0000
G01 Z-1.2000
G01 Z0
G00 Z2.0000
G01 Z-1.6000
G01 Z0
G00 Z2.0000
G01 Z-2.0000
G01 Z0
G00 Z2.0000
G01 Z-2.4000
G01 Z0
G00 Z2.0000
G00 X3.0000 Y-37.0000
G01 Z-0.4000
G01 Z0
G00 Z2.0000
G01 Z-0.8000
G01 Z0
G00 Z2.0000
G01 Z-1.2000
G01 Z0
G00 Z2.0000
G01 Z-1.6000
G01 Z0
G00 Z2.0000
G01 Z-2.0000
G01 Z0
G00 Z2.0000
G01 Z-2.4000
G01 Z0
G00 Z2.0000
G00 X3.0000 Y-32.0000
G01 Z-0.4000
G01 Z0
G00 Z2.0000
G01 Z-0.8000
G01 Z0
G00 Z2.0000
G01 Z-1.2000
G01 Z0
G00 Z2.0000
G01 Z-1.6000
G01 Z0
G00 Z2.0000
G01 Z-2.0000
G01 Z0
G00 Z2.0000
G01 Z-2.4000
G01 Z0
G00 Z2.0000
G00 X3.0000 Y-20.0000
G01 Z-0.4000
G01 Z0
G00 Z2.0000
G01 Z-0.8000
G01 Z0
G00 Z2.0000
G01 Z-1.2000
G01 Z0
G00 Z2.0000
G01 Z-1.6000
G01 Z0
G00 Z2.0000
G01 Z-2.0000
G01 Z0
G00 Z2.0000
G01 Z-2.4000
G01 Z0
G00 Z2.0000
G00 X3.0000 Y-14.0000
G01 Z-0.4000
G01 Z0
G00 Z2.0000
G01 Z-0.8000
G01 Z0
G00 Z2.0000
G01 Z-1.2000
G01 Z0
G00 Z2.0000
G01 Z-1.6000
G01 Z0
G00 Z2.0000
G01 Z-2.0000
G01 Z0
G00 Z2.0000
G01 Z-2.4000
G01 Z0
G00 Z2.0000
G00 X-12.6000 Y-1.0000
G01 Z-0.4000
G01 Z0
G00 Z2.0000
G01 Z-0.8000
G01 Z0
G00 Z2.0000
G01 Z-1.2000
G01 Z0
G00 Z2.0000
G01 Z-1.6000
G01 Z0
G00 Z2.0000
G01 Z-2.0000
G01 Z0
G00 Z2.0000
G01 Z-2.4000
G01 Z0
G00 Z2.0000
G00 X-22.0000 Y5.0000
G01 Z-0.4000
G01 Z0
G00 Z2.0000
G01 Z-0.8000
G01 Z0
G00 Z2.0000
G01 Z-1.2000
G01 Z0
G00 Z2.0000
G01 Z-1.6000
G01 Z0
G00 Z2.0000
G01 Z-2.0000
G01 Z0
G00 Z2.0000
G01 Z-2.4000
G01 Z0
G00 Z2.0000
G00 X-15.0000 Y25.0000
G01 Z-0.4000
G01 Z0
G00 Z2.0000
G01 Z-0.8000
G01 Z0
G00 Z2.0000
G01 Z-1.2000
G01 Z0
G00 Z2.0000
G01 Z-1.6000
G01 Z0
G00 Z2.0000
G01 Z-2.0000
G01 Z0
G00 Z2.0000
G01 Z-2.4000
G01 Z0
G00 Z2.0000
G00 X-9.0000 Y27.0000
G01 Z-0.4000
G01 Z0
G00 Z2.0000
G01 Z-0.8000
G01 Z0
G00 Z2.0000
G01 Z-1.2000
G01 Z0
G00 Z2.0000
G01 Z-1.6000
G01 Z0
G00 Z2.0000
G01 Z-2.0000
G01 Z0
G00 Z2.0000
G01 Z-2.4000
G01 Z0
G00 Z2.0000
G00 X-1.0000 Y25.0000
G01 Z-0.4000
G01 Z0
G00 Z2.0000
G01 Z-0.8000
G01 Z0
G00 Z2.0000
G01 Z-1.2000
G01 Z0
G00 Z2.0000
G01 Z-1.6000
G01 Z0
G00 Z2.0000
G01 Z-2.0000
G01 Z0
G00 Z2.0000
G01 Z-2.4000
G01 Z0
G00 Z2.0000
G00 X0.0000 Y27.0000
G01 Z-0.4000
G01 Z0
G00 Z2.0000
G01 Z-0.8000
G01 Z0
G00 Z2.0000
G01 Z-1.2000
G01 Z0
G00 Z2.0000
G01 Z-1.6000
G01 Z0
G00 Z2.0000
G01 Z-2.0000
G01 Z0
G00 Z2.0000
G01 Z-2.4000
G01 Z0
G00 Z2.0000
G00 X19.0000 Y24.0000
G01 Z-0.4000
G01 Z0
G00 Z2.0000
G01 Z-0.8000
G01 Z0
G00 Z2.0000
G01 Z-1.2000
G01 Z0
G00 Z2.0000
G01 Z-1.6000
G01 Z0
G00 Z2.0000
G01 Z-2.0000
G01 Z0
G00 Z2.0000
G01 Z-2.4000
G01 Z0
G00 Z2.0000
G00 X31.0000 Y24.0000
G01 Z-0.4000
G01 Z0
G00 Z2.0000
G01 Z-0.8000
G01 Z0
G00 Z2.0000
G01 Z-1.2000
G01 Z0
G00 Z2.0000
G01 Z-1.6000
G01 Z0
G00 Z2.0000
G01 Z-2.0000
G01 Z0
G00 Z2.0000
G01 Z-2.4000
G01 Z0
G00 Z2.0000
G00 X11.0000 Y7.0000
G01 Z-0.4000
G01 Z0
G00 Z2.0000
G01 Z-0.8000
G01 Z0
G00 Z2.0000
G01 Z-1.2000
G01 Z0
G00 Z2.0000
G01 Z-1.6000
G01 Z0
G00 Z2.0000
G01 Z-2.0000
G01 Z0
G00 Z2.0000
G01 Z-2.4000
G01 Z0
G00 Z2.0000
G00 X11.0000 Y2.0000
G01 Z-0.4000
G01 Z0
G00 Z2.0000
G01 Z-0.8000
G01 Z0
G00 Z2.0000
G01 Z-1.2000
G01 Z0
G00 Z2.0000
G01 Z-1.6000
G01 Z0
G00 Z2.0000
G01 Z-2.0000
G01 Z0
G00 Z2.0000
G01 Z-2.4000
G01 Z0
G00 Z2.0000
G00 X22.0000 Y6.0000
G01 Z-0.4000
G01 Z0
G00 Z2.0000
G01 Z-0.8000
G01 Z0
G00 Z2.0000
G01 Z-1.2000
G01 Z0
G00 Z2.0000
G01 Z-1.6000
G01 Z0
G00 Z2.0000
G01 Z-2.0000
G01 Z0
G00 Z2.0000
G01 Z-2.4000
G01 Z0
G00 Z2.0000
G00 X28.0000 Y-5.0000
G01 Z-0.4000
G01 Z0
G00 Z2.0000
G01 Z-0.8000
G01 Z0
G00 Z2.0000
G01 Z-1.2000
G01 Z0
G00 Z2.0000
G01 Z-1.6000
G01 Z0
G00 Z2.0000
G01 Z-2.0000
G01 Z0
G00 Z2.0000
G01 Z-2.4000
G01 Z0
G00 Z2.0000
G00 X42.0000 Y6.0000
G01 Z-0.4000
G01 Z0
G00 Z2.0000
G01 Z-0.8000
G01 Z0
G00 Z2.0000
G01 Z-1.2000
G01 Z0
G00 Z2.0000
G01 Z-1.6000
G01 Z0
G00 Z2.0000
G01 Z-2.0000
G01 Z0
G00 Z2.0000
G01 Z-2.4000
G01 Z0
G00 Z2.0000
G00 X46.0000 Y-5.0000
G01 Z-0.4000
G01 Z0
G00 Z2.0000
G01 Z-0.8000
G01 Z0
G00 Z2.0000
G01 Z-1.2000
G01 Z0
G00 Z2.0000
G01 Z-1.6000
G01 Z0
G00 Z2.0000
G01 Z-2.0000
G01 Z0
G00 Z2.0000
G01 Z-2.4000
G01 Z0
G00 Z2.0000
M05
G00 Z5.50


