(G-CODE GENERATED BY FLATCAM v8.994 - www.flatcam.org - Version Date: 2020/11/7)

(Name: deck_bundle-PTH.drl_cnc)
(Type: G-code from Geometry)
(Units: MM)

(Created on Monday, 02 September 2024 at 19:51)

(This preprocessor is used with a motion controller loaded with GRBL firmware.)
(It is configured to be compatible with almost any version of GRBL firmware.)


(TOOLS DIAMETER: )
(Tool: 1 -> Dia: 0.4)
(Tool: 2 -> Dia: 0.9)
(Tool: 3 -> Dia: 1.1)
(Tool: 4 -> Dia: 1.19)

(FEEDRATE Z: )
(Tool: 1 -> Feedrate: 20.0)
(Tool: 2 -> Feedrate: 20.0)
(Tool: 3 -> Feedrate: 20.0)
(Tool: 4 -> Feedrate: 20.0)

(FEEDRATE RAPIDS: )
(Tool: 1 -> Feedrate Rapids: 1500)
(Tool: 2 -> Feedrate Rapids: 1500)
(Tool: 3 -> Feedrate Rapids: 1500)
(Tool: 4 -> Feedrate Rapids: 1500)

(Z_CUT: )
(Tool: 1 -> Z_Cut: -2.4)
(Tool: 2 -> Z_Cut: -2.4)
(Tool: 3 -> Z_Cut: -2.4)
(Tool: 4 -> Z_Cut: -2.4)

(Tools Offset: )
(Tool: 4 -> Offset Z: 0.0)

(DEPTH_PER_CUT: )
(Tool: 1 -> DeptPerCut: 0.4)
(Tool: 2 -> DeptPerCut: 0.4)
(Tool: 3 -> DeptPerCut: 0.4)
(Tool: 4 -> DeptPerCut: 0.4)

(Z_MOVE: )
(Tool: 1 -> Z_Move: 2)
(Tool: 2 -> Z_Move: 2)
(Tool: 3 -> Z_Move: 2)
(Tool: 4 -> Z_Move: 2)

(Z Toolchange: 7.0 mm)
(X,Y Toolchange: 0.0000, 0.0000 mm)
(Z Start: None mm)
(Z End: 5.5 mm)
(X,Y End: None mm)
(Steps per circle: 64)
(Steps per circle: 64)
(Preprocessor Excellon: GRBL_11_no_M6)

(X range:  -64.8000 ...   63.8000  mm)
(Y range:  -39.8000 ...   42.4500  mm)

(Spindle Speed: 1000 RPM)
G21
G90
G17
G94


G01 F20.00

M5             
G00 Z7.0000
G00 X0.0000 Y0.0000                
T4
(MSG, Change to Tool Dia = 1.1900 ||| Total drills for tool T4 = 4)
M0
G00 Z7.0000
        
G01 F20.00
M03 S1000
G00 X4.8100 Y31.0200
G01 Z-0.4000
G01 Z0
G00 Z2.0000
G01 Z-0.8000
G01 Z0
G00 Z2.0000
G01 Z-1.2000
G01 Z0
G00 Z2.0000
G01 Z-1.6000
G01 Z0
G00 Z2.0000
G01 Z-2.0000
G01 Z0
G00 Z2.0000
G01 Z-2.4000
G01 Z0
G00 Z2.0000
G00 X2.2700 Y31.0200
G01 Z-0.4000
G01 Z0
G00 Z2.0000
G01 Z-0.8000
G01 Z0
G00 Z2.0000
G01 Z-1.2000
G01 Z0
G00 Z2.0000
G01 Z-1.6000
G01 Z0
G00 Z2.0000
G01 Z-2.0000
G01 Z0
G00 Z2.0000
G01 Z-2.4000
G01 Z0
G00 Z2.0000
G00 X-0.2700 Y31.0200
G01 Z-0.4000
G01 Z0
G00 Z2.0000
G01 Z-0.8000
G01 Z0
G00 Z2.0000
G01 Z-1.2000
G01 Z0
G00 Z2.0000
G01 Z-1.6000
G01 Z0
G00 Z2.0000
G01 Z-2.0000
G01 Z0
G00 Z2.0000
G01 Z-2.4000
G01 Z0
G00 Z2.0000
G00 X-2.8100 Y31.0200
G01 Z-0.4000
G01 Z0
G00 Z2.0000
G01 Z-0.8000
G01 Z0
G00 Z2.0000
G01 Z-1.2000
G01 Z0
G00 Z2.0000
G01 Z-1.6000
G01 Z0
G00 Z2.0000
G01 Z-2.0000
G01 Z0
G00 Z2.0000
G01 Z-2.4000
G01 Z0
G00 Z2.0000
M05
G00 Z5.50


