(G-code generated by FlatCAM Evo vUnstable - Version Date: 2023/6/31)

(Name: deck_bundle-B_Cu.gbr_iso_combined_cnc)
(Type: G-code from Geometry)
(Units: MM)

(Created on lunes, 02 septiembre 2024 at 19:52)

(This preprocessor is used with a motion controller loaded with GRBL firmware.)
(It is configured to be compatible with almost any version of GRBL firmware. No M6 command.)

(TOOL DIAMETER: 0.1536 mm)
(Feedrate_XY: 100.0 mm/min)
(Feedrate_Z: 40.0 mm/min)
(Feedrate rapids 1500.0 mm/min)

(Z_Cut: 0.1 mm)
(Z_Move: 2.0 mm)
(Z Start: None mm)
(Z End: 7.0 mm)
(X,Y End: None mm)
(Steps per circle: 16)
(Steps per circle: 16)
(Preprocessor Geometry: GRBL_11_no_M6)

(X range:  -69.7145 ...   69.7145  mm)
(Y range:  -46.7145 ...   46.7145  mm)

(Spindle Speed: 900.0 RPM)
G21
G90
G17
G94


G01 F100.00
G00 Z2.0000

M03 S900.0
G01 F100.00
G00 X-3.2102 Y-0.2956
G01 F40.00
G01 Z0.1000
G01 F100.00
G01 X-3.2180 Y-0.3609 F100.00
G01 X-3.2399 Y-0.4297 F100.00
G01 X-3.2679 Y-0.4823 F100.00
G01 X-3.3096 Y-0.5355 F100.00
G01 X-3.3636 Y-0.5824 F100.00
G01 X-3.4123 Y-0.6117 F100.00
G01 X-3.4697 Y-0.6345 F100.00
G01 X-3.5287 Y-0.6470 F100.00
G01 X-5.5963 Y-0.6470 F100.00
G01 X-5.6947 Y-0.6201 F100.00
G01 X-5.7733 Y-0.5737 F100.00
G01 X-5.8387 Y-0.5083 F100.00
G01 X-5.8851 Y-0.4297 F100.00
G01 X-5.9057 Y-0.3665 F100.00
G01 X-5.9141 Y-0.3103 F100.00
G01 X-5.9120 Y0.0613 F100.00
G01 X-5.8995 Y0.1203 F100.00
G01 X-5.8767 Y0.1777 F100.00
G01 X-5.8081 Y0.2731 F100.00
G01 X-5.7127 Y0.3417 F100.00
G01 X-5.6553 Y0.3645 F100.00
G01 X-5.5963 Y0.3770 F100.00
G01 X-3.5287 Y0.3770 F100.00
G01 X-3.4452 Y0.3561 F100.00
G01 X-3.3636 Y0.3124 F100.00
G01 X-3.2958 Y0.2501 F100.00
G01 X-3.2483 Y0.1777 F100.00
G01 X-3.2255 Y0.1203 F100.00
G01 X-3.2117 Y0.0511 F100.00
G01 X-3.2102 Y-0.2956 F100.00
G00 Z2.0000
G00 X-3.3483 Y-0.2888
G01 F40.00
G01 Z0.1000
G01 F100.00
G01 X-3.3662 Y-0.3736 F100.00
G01 X-3.4120 Y-0.4426 F100.00
G01 X-3.4715 Y-0.4867 F100.00
G01 X-3.5527 Y-0.5107 F100.00
G01 X-5.5760 Y-0.5102 F100.00
G01 X-5.6386 Y-0.4938 F100.00
G01 X-5.6909 Y-0.4626 F100.00
G01 X-5.7364 Y-0.4141 F100.00
G01 X-5.7609 Y-0.3683 F100.00
G01 X-5.7767 Y-0.2888 F100.00
G01 X-5.7752 Y0.0410 F100.00
G01 X-5.7517 Y0.1185 F100.00
G01 X-5.7104 Y0.1754 F100.00
G01 X-5.6535 Y0.2167 F100.00
G01 X-5.5723 Y0.2407 F100.00
G01 X-3.5490 Y0.2402 F100.00
G01 X-3.4864 Y0.2238 F100.00
G01 X-3.4341 Y0.1926 F100.00
G01 X-3.3886 Y0.1441 F100.00
G01 X-3.3641 Y0.0983 F100.00
G01 X-3.3483 Y0.0188 F100.00
G01 X-3.3483 Y-0.2888 F100.00
G00 Z2.0000
G00 X-3.3483 Y-1.5588
G01 F40.00
G01 Z0.1000
G01 F100.00
G01 X-3.3662 Y-1.6436 F100.00
G01 X-3.4120 Y-1.7126 F100.00
G01 X-3.4715 Y-1.7567 F100.00
G01 X-3.5527 Y-1.7807 F100.00
G01 X-5.5760 Y-1.7802 F100.00
G01 X-5.6386 Y-1.7638 F100.00
G01 X-5.6909 Y-1.7326 F100.00
G01 X-5.7364 Y-1.6841 F100.00
G01 X-5.7609 Y-1.6383 F100.00
G01 X-5.7767 Y-1.5588 F100.00
G01 X-5.7752 Y-1.2290 F100.00
G01 X-5.7517 Y-1.1515 F100.00
G01 X-5.7104 Y-1.0946 F100.00
G01 X-5.6535 Y-1.0533 F100.00
G01 X-5.5723 Y-1.0293 F100.00
G01 X-3.5490 Y-1.0298 F100.00
G01 X-3.4864 Y-1.0462 F100.00
G01 X-3.4341 Y-1.0774 F100.00
G01 X-3.3886 Y-1.1259 F100.00
G01 X-3.3641 Y-1.1717 F100.00
G01 X-3.3483 Y-1.2512 F100.00
G01 X-3.3483 Y-1.5588 F100.00
G00 Z2.0000
G00 X-3.2102 Y-1.5656
G01 F40.00
G01 Z0.1000
G01 F100.00
G01 X-3.2180 Y-1.6309 F100.00
G01 X-3.2399 Y-1.6997 F100.00
G01 X-3.2679 Y-1.7523 F100.00
G01 X-3.3096 Y-1.8055 F100.00
G01 X-3.3636 Y-1.8524 F100.00
G01 X-3.4123 Y-1.8817 F100.00
G01 X-3.4697 Y-1.9045 F100.00
G01 X-3.5287 Y-1.9170 F100.00
G01 X-5.5963 Y-1.9170 F100.00
G01 X-5.6947 Y-1.8901 F100.00
G01 X-5.7733 Y-1.8437 F100.00
G01 X-5.8387 Y-1.7783 F100.00
G01 X-5.8851 Y-1.6997 F100.00
G01 X-5.9057 Y-1.6365 F100.00
G01 X-5.9141 Y-1.5803 F100.00
G01 X-5.9120 Y-1.2087 F100.00
G01 X-5.8995 Y-1.1497 F100.00
G01 X-5.8767 Y-1.0923 F100.00
G01 X-5.8081 Y-0.9969 F100.00
G01 X-5.7127 Y-0.9283 F100.00
G01 X-5.6553 Y-0.9055 F100.00
G01 X-5.5963 Y-0.8930 F100.00
G01 X-3.5287 Y-0.8930 F100.00
G01 X-3.4452 Y-0.9139 F100.00
G01 X-3.3636 Y-0.9576 F100.00
G01 X-3.2958 Y-1.0199 F100.00
G01 X-3.2483 Y-1.0923 F100.00
G01 X-3.2255 Y-1.1497 F100.00
G01 X-3.2117 Y-1.2189 F100.00
G01 X-3.2102 Y-1.5656 F100.00
G00 Z2.0000
G00 X-3.2102 Y-2.8356
G01 F40.00
G01 Z0.1000
G01 F100.00
G01 X-3.2180 Y-2.9009 F100.00
G01 X-3.2399 Y-2.9697 F100.00
G01 X-3.2679 Y-3.0223 F100.00
G01 X-3.3096 Y-3.0755 F100.00
G01 X-3.3636 Y-3.1224 F100.00
G01 X-3.4123 Y-3.1517 F100.00
G01 X-3.4697 Y-3.1745 F100.00
G01 X-3.5287 Y-3.1870 F100.00
G01 X-5.5963 Y-3.1870 F100.00
G01 X-5.6947 Y-3.1601 F100.00
G01 X-5.7733 Y-3.1137 F100.00
G01 X-5.8387 Y-3.0483 F100.00
G01 X-5.8851 Y-2.9697 F100.00
G01 X-5.9057 Y-2.9065 F100.00
G01 X-5.9141 Y-2.8503 F100.00
G01 X-5.9120 Y-2.4787 F100.00
G01 X-5.8995 Y-2.4197 F100.00
G01 X-5.8767 Y-2.3623 F100.00
G01 X-5.8081 Y-2.2669 F100.00
G01 X-5.7127 Y-2.1983 F100.00
G01 X-5.6553 Y-2.1755 F100.00
G01 X-5.5963 Y-2.1630 F100.00
G01 X-3.5287 Y-2.1630 F100.00
G01 X-3.4452 Y-2.1839 F100.00
G01 X-3.3636 Y-2.2276 F100.00
G01 X-3.2958 Y-2.2899 F100.00
G01 X-3.2483 Y-2.3623 F100.00
G01 X-3.2255 Y-2.4197 F100.00
G01 X-3.2117 Y-2.4889 F100.00
G01 X-3.2102 Y-2.8356 F100.00
G00 Z2.0000
G00 X-3.3483 Y-2.8288
G01 F40.00
G01 Z0.1000
G01 F100.00
G01 X-3.3662 Y-2.9136 F100.00
G01 X-3.4120 Y-2.9826 F100.00
G01 X-3.4715 Y-3.0267 F100.00
G01 X-3.5527 Y-3.0507 F100.00
G01 X-5.5760 Y-3.0502 F100.00
G01 X-5.6386 Y-3.0338 F100.00
G01 X-5.6909 Y-3.0026 F100.00
G01 X-5.7364 Y-2.9541 F100.00
G01 X-5.7609 Y-2.9083 F100.00
G01 X-5.7767 Y-2.8288 F100.00
G01 X-5.7752 Y-2.4990 F100.00
G01 X-5.7517 Y-2.4215 F100.00
G01 X-5.7104 Y-2.3646 F100.00
G01 X-5.6535 Y-2.3233 F100.00
G01 X-5.5723 Y-2.2993 F100.00
G01 X-3.5490 Y-2.2998 F100.00
G01 X-3.4864 Y-2.3162 F100.00
G01 X-3.4341 Y-2.3474 F100.00
G01 X-3.3886 Y-2.3959 F100.00
G01 X-3.3641 Y-2.4417 F100.00
G01 X-3.3483 Y-2.5212 F100.00
G01 X-3.3483 Y-2.8288 F100.00
G00 Z2.0000
G00 X-3.3483 Y-4.0988
G01 F40.00
G01 Z0.1000
G01 F100.00
G01 X-3.3662 Y-4.1836 F100.00
G01 X-3.4120 Y-4.2526 F100.00
G01 X-3.4715 Y-4.2967 F100.00
G01 X-3.5527 Y-4.3207 F100.00
G01 X-5.5760 Y-4.3202 F100.00
G01 X-5.6386 Y-4.3038 F100.00
G01 X-5.6909 Y-4.2726 F100.00
G01 X-5.7364 Y-4.2241 F100.00
G01 X-5.7609 Y-4.1783 F100.00
G01 X-5.7767 Y-4.0988 F100.00
G01 X-5.7752 Y-3.7690 F100.00
G01 X-5.7517 Y-3.6915 F100.00
G01 X-5.7104 Y-3.6346 F100.00
G01 X-5.6535 Y-3.5933 F100.00
G01 X-5.5723 Y-3.5693 F100.00
G01 X-3.5490 Y-3.5698 F100.00
G01 X-3.4864 Y-3.5862 F100.00
G01 X-3.4341 Y-3.6174 F100.00
G01 X-3.3886 Y-3.6659 F100.00
G01 X-3.3641 Y-3.7117 F100.00
G01 X-3.3483 Y-3.7912 F100.00
G01 X-3.3483 Y-4.0988 F100.00
G00 Z2.0000
G00 X-3.2102 Y-4.1056
G01 F40.00
G01 Z0.1000
G01 F100.00
G01 X-3.2180 Y-4.1709 F100.00
G01 X-3.2399 Y-4.2397 F100.00
G01 X-3.2679 Y-4.2923 F100.00
G01 X-3.3096 Y-4.3455 F100.00
G01 X-3.3636 Y-4.3924 F100.00
G01 X-3.4123 Y-4.4217 F100.00
G01 X-3.4697 Y-4.4445 F100.00
G01 X-3.5287 Y-4.4570 F100.00
G01 X-5.5963 Y-4.4570 F100.00
G01 X-5.6947 Y-4.4301 F100.00
G01 X-5.7733 Y-4.3837 F100.00
G01 X-5.8387 Y-4.3183 F100.00
G01 X-5.8851 Y-4.2397 F100.00
G01 X-5.9057 Y-4.1765 F100.00
G01 X-5.9141 Y-4.1203 F100.00
G01 X-5.9120 Y-3.7487 F100.00
G01 X-5.8995 Y-3.6897 F100.00
G01 X-5.8767 Y-3.6323 F100.00
G01 X-5.8081 Y-3.5369 F100.00
G01 X-5.7127 Y-3.4683 F100.00
G01 X-5.6553 Y-3.4455 F100.00
G01 X-5.5963 Y-3.4330 F100.00
G01 X-3.5287 Y-3.4330 F100.00
G01 X-3.4452 Y-3.4539 F100.00
G01 X-3.3636 Y-3.4976 F100.00
G01 X-3.2958 Y-3.5599 F100.00
G01 X-3.2483 Y-3.6323 F100.00
G01 X-3.2255 Y-3.6897 F100.00
G01 X-3.2117 Y-3.7589 F100.00
G01 X-3.2102 Y-4.1056 F100.00
G00 Z2.0000
G00 X-3.2102 Y-5.3756
G01 F40.00
G01 Z0.1000
G01 F100.00
G01 X-3.2180 Y-5.4409 F100.00
G01 X-3.2399 Y-5.5097 F100.00
G01 X-3.2679 Y-5.5623 F100.00
G01 X-3.3096 Y-5.6155 F100.00
G01 X-3.3636 Y-5.6624 F100.00
G01 X-3.4123 Y-5.6917 F100.00
G01 X-3.4697 Y-5.7145 F100.00
G01 X-3.5287 Y-5.7270 F100.00
G01 X-5.5963 Y-5.7270 F100.00
G01 X-5.6947 Y-5.7001 F100.00
G01 X-5.7733 Y-5.6537 F100.00
G01 X-5.8387 Y-5.5883 F100.00
G01 X-5.8851 Y-5.5097 F100.00
G01 X-5.9057 Y-5.4465 F100.00
G01 X-5.9141 Y-5.3903 F100.00
G01 X-5.9120 Y-5.0187 F100.00
G01 X-5.8995 Y-4.9597 F100.00
G01 X-5.8767 Y-4.9023 F100.00
G01 X-5.8081 Y-4.8069 F100.00
G01 X-5.7127 Y-4.7383 F100.00
G01 X-5.6553 Y-4.7155 F100.00
G01 X-5.5963 Y-4.7030 F100.00
G01 X-3.5287 Y-4.7030 F100.00
G01 X-3.4452 Y-4.7239 F100.00
G01 X-3.3636 Y-4.7676 F100.00
G01 X-3.2958 Y-4.8299 F100.00
G01 X-3.2483 Y-4.9023 F100.00
G01 X-3.2255 Y-4.9597 F100.00
G01 X-3.2117 Y-5.0289 F100.00
G01 X-3.2102 Y-5.3756 F100.00
G00 Z2.0000
G00 X-3.3483 Y-5.3688
G01 F40.00
G01 Z0.1000
G01 F100.00
G01 X-3.3662 Y-5.4536 F100.00
G01 X-3.4120 Y-5.5226 F100.00
G01 X-3.4715 Y-5.5667 F100.00
G01 X-3.5527 Y-5.5907 F100.00
G01 X-5.5760 Y-5.5902 F100.00
G01 X-5.6386 Y-5.5738 F100.00
G01 X-5.6909 Y-5.5426 F100.00
G01 X-5.7364 Y-5.4941 F100.00
G01 X-5.7609 Y-5.4483 F100.00
G01 X-5.7767 Y-5.3688 F100.00
G01 X-5.7752 Y-5.0390 F100.00
G01 X-5.7517 Y-4.9615 F100.00
G01 X-5.7104 Y-4.9046 F100.00
G01 X-5.6535 Y-4.8633 F100.00
G01 X-5.5723 Y-4.8393 F100.00
G01 X-3.5490 Y-4.8398 F100.00
G01 X-3.4864 Y-4.8562 F100.00
G01 X-3.4341 Y-4.8874 F100.00
G01 X-3.3886 Y-4.9359 F100.00
G01 X-3.3641 Y-4.9817 F100.00
G01 X-3.3483 Y-5.0612 F100.00
G01 X-3.3483 Y-5.3688 F100.00
G00 Z2.0000
G00 X-3.4283 Y-8.0779
G01 F40.00
G01 Z0.1000
G01 F100.00
G01 X-3.4917 Y-8.1159 F100.00
G01 X-3.5750 Y-8.1318 F100.00
G01 X-5.5959 Y-8.1271 F100.00
G01 X-5.6580 Y-8.1044 F100.00
G01 X-5.7076 Y-8.0680 F100.00
G01 X-5.7406 Y-8.0278 F100.00
G01 X-5.7671 Y-7.9706 F100.00
G01 X-5.7768 Y-7.9050 F100.00
G01 X-5.7721 Y-7.5591 F100.00
G01 X-5.7406 Y-7.4822 F100.00
G01 X-5.6951 Y-7.4307 F100.00
G01 X-5.6333 Y-7.3941 F100.00
G01 X-5.5500 Y-7.3782 F100.00
G01 X-3.5712 Y-7.3783 F100.00
G01 X-3.5128 Y-7.3870 F100.00
G01 X-3.4670 Y-7.4056 F100.00
G01 X-3.4283 Y-7.4321 F100.00
G01 X-3.3893 Y-7.4749 F100.00
G01 X-0.2450 Y-7.4749 F100.00
G01 X-0.1903 Y-7.4803 F100.00
G01 X-0.1097 Y-7.5098 F100.00
G01 X-0.0469 Y-7.5569 F100.00
G01 X1.2307 Y-8.8413 F100.00
G01 X1.2681 Y-8.9189 F100.00
G01 X1.2801 Y-9.0000 F100.00
G01 X1.2801 Y-14.8840 F100.00
G01 X2.4660 Y-16.0699 F100.00
G01 X28.3283 Y-16.0699 F100.00
G01 X28.3448 Y-16.0130 F100.00
G01 X28.3728 Y-15.9593 F100.00
G01 X28.4116 Y-15.9116 F100.00
G01 X28.4593 Y-15.8728 F100.00
G01 X28.5130 Y-15.8448 F100.00
G01 X28.5660 Y-15.8290 F100.00
G01 X28.7199 Y-15.8232 F100.00
G01 X28.7199 Y-10.0000 F100.00
G01 X28.7253 Y-9.9453 F100.00
G01 X28.7513 Y-9.8713 F100.00
G01 X28.7993 Y-9.8047 F100.00
G01 X29.8195 Y-8.7859 F100.00
G01 X29.8963 Y-8.7399 F100.00
G01 X29.9453 Y-8.7253 F100.00
G01 X30.0000 Y-8.7199 F100.00
G01 X34.5243 Y-8.7199 F100.00
G01 X34.5968 Y-8.5429 F100.00
G01 X34.6500 Y-8.4542 F100.00
G01 X34.7693 Y-8.3093 F100.00
G01 X34.9142 Y-8.1900 F100.00
G01 X35.0029 Y-8.1368 F100.00
G01 X35.1745 Y-8.0659 F100.00
G01 X35.3605 Y-8.0284 F100.00
G01 X35.4638 Y-8.0233 F100.00
G01 X35.6522 Y-8.0423 F100.00
G01 X35.8356 Y-8.0983 F100.00
G01 X36.0007 Y-8.1866 F100.00
G01 X36.1507 Y-8.3093 F100.00
G01 X36.2734 Y-8.4593 F100.00
G01 X36.3617 Y-8.6244 F100.00
G01 X36.4177 Y-8.8078 F100.00
G01 X36.4368 Y-9.0000 F100.00
G01 X36.4177 Y-9.1922 F100.00
G01 X36.3638 Y-9.3703 F100.00
G01 X36.3196 Y-9.4637 F100.00
G01 X36.2135 Y-9.6215 F100.00
G01 X36.0815 Y-9.7535 F100.00
G01 X35.9237 Y-9.8596 F100.00
G01 X35.7471 Y-9.9336 F100.00
G01 X35.6469 Y-9.9587 F100.00
G01 X35.4600 Y-9.9768 F100.00
G01 X35.2678 Y-9.9577 F100.00
G01 X35.0844 Y-9.9017 F100.00
G01 X34.9205 Y-9.8142 F100.00
G01 X34.7720 Y-9.6933 F100.00
G01 X34.7026 Y-9.6167 F100.00
G01 X34.5991 Y-9.4616 F100.00
G01 X34.5243 Y-9.2801 F100.00
G01 X30.1160 Y-9.2801 F100.00
G01 X29.2801 Y-10.1160 F100.00
G01 X29.2801 Y-15.8232 F100.00
G01 X29.4376 Y-15.8298 F100.00
G01 X29.5139 Y-15.8571 F100.00
G01 X29.5638 Y-15.8896 F100.00
G01 X29.6104 Y-15.9362 F100.00
G01 X29.6429 Y-15.9861 F100.00
G01 X29.6702 Y-16.0624 F100.00
G01 X29.6768 Y-16.1250 F100.00
G01 X29.6767 Y-16.5788 F100.00
G01 X29.6626 Y-16.6662 F100.00
G01 X29.6272 Y-16.7407 F100.00
G01 X29.5693 Y-16.8058 F100.00
G01 X29.5139 Y-16.8429 F100.00
G01 X29.4340 Y-16.8710 F100.00
G01 X29.3750 Y-16.8768 F100.00
G01 X28.6250 Y-16.8768 F100.00
G01 X28.5660 Y-16.8710 F100.00
G01 X28.4846 Y-16.8421 F100.00
G01 X28.4116 Y-16.7884 F100.00
G01 X28.3579 Y-16.7154 F100.00
G01 X28.3283 Y-16.6301 F100.00
G01 X2.3500 Y-16.6301 F100.00
G01 X2.2953 Y-16.6247 F100.00
G01 X2.2394 Y-16.6073 F100.00
G01 X2.1519 Y-16.5481 F100.00
G01 X0.8019 Y-15.1981 F100.00
G01 X0.7548 Y-15.1353 F100.00
G01 X0.7253 Y-15.0547 F100.00
G01 X0.7199 Y-15.0000 F100.00
G01 X0.7199 Y-9.1160 F100.00
G01 X-0.3610 Y-8.0351 F100.00
G01 X-3.3893 Y-8.0351 F100.00
G01 X-3.4283 Y-8.0779 F100.00
G00 Z2.0000
G00 X-7.3143 Y-7.2009
G01 F40.00
G01 Z0.1000
G01 F100.00
G01 X-7.2465 Y-7.1412 F100.00
G01 X-7.1462 Y-7.1120 F100.00
G01 X-6.2684 Y-7.1120 F100.00
G01 X-6.2256 Y-7.1187 F100.00
G01 X-6.1432 Y-7.1584 F100.00
G01 X-6.0864 Y-7.2387 F100.00
G01 X-6.0760 Y-7.2734 F100.00
G01 X-6.0765 Y-7.3584 F100.00
G01 X-6.1237 Y-7.5423 F100.00
G01 X-6.1237 Y-7.9677 F100.00
G01 X-6.0807 Y-8.1347 F100.00
G01 X-6.0069 Y-8.2594 F100.00
G01 X-5.9044 Y-8.3619 F100.00
G01 X-5.7797 Y-8.4357 F100.00
G01 X-5.6387 Y-8.4767 F100.00
G01 X-3.5123 Y-8.4787 F100.00
G01 X-3.3453 Y-8.4357 F100.00
G01 X-3.2868 Y-8.4031 F100.00
G01 X-3.1994 Y-8.3819 F100.00
G01 X-0.5533 Y-8.3852 F100.00
G01 X-0.4485 Y-8.4382 F100.00
G01 X0.3143 Y-9.2009 F100.00
G01 X0.3468 Y-9.2446 F100.00
G01 X0.3731 Y-9.3428 F100.00
G01 X0.3731 Y-15.0617 F100.00
G01 X0.3972 Y-15.1829 F100.00
G01 X0.4444 Y-15.2969 F100.00
G01 X0.5131 Y-15.3996 F100.00
G01 X1.9504 Y-16.8369 F100.00
G01 X2.0531 Y-16.9056 F100.00
G01 X2.1671 Y-16.9528 F100.00
G01 X2.2883 Y-16.9769 F100.00
G01 X28.0263 Y-16.9769 F100.00
G01 X28.0793 Y-16.9845 F100.00
G01 X28.1534 Y-17.0241 F100.00
G01 X28.2199 Y-17.0873 F100.00
G01 X28.3490 Y-17.1669 F100.00
G01 X28.4935 Y-17.2148 F100.00
G01 X28.5806 Y-17.2237 F100.00
G01 X29.4194 Y-17.2237 F100.00
G01 X29.5065 Y-17.2148 F100.00
G01 X29.6510 Y-17.1669 F100.00
G01 X29.7801 Y-17.0873 F100.00
G01 X29.8873 Y-16.9801 F100.00
G01 X29.9669 Y-16.8510 F100.00
G01 X30.0148 Y-16.7065 F100.00
G01 X30.0237 Y-16.6194 F100.00
G01 X30.0237 Y-16.0806 F100.00
G01 X30.0148 Y-15.9935 F100.00
G01 X29.9669 Y-15.8490 F100.00
G01 X29.8873 Y-15.7199 F100.00
G01 X29.7801 Y-15.6127 F100.00
G01 X29.7155 Y-15.5723 F100.00
G01 X29.6668 Y-15.5251 F100.00
G01 X29.6510 Y-15.4988 F100.00
G01 X29.6270 Y-15.4102 F100.00
G01 X29.6269 Y-10.3428 F100.00
G01 X29.6364 Y-10.2853 F100.00
G01 X29.6857 Y-10.2009 F100.00
G01 X30.2041 Y-9.6827 F100.00
G01 X30.2446 Y-9.6532 F100.00
G01 X30.3388 Y-9.6270 F100.00
G01 X34.1914 Y-9.6278 F100.00
G01 X34.2647 Y-9.6458 F100.00
G01 X34.3334 Y-9.7015 F100.00
G01 X34.4118 Y-9.8158 F100.00
G01 X34.5604 Y-9.9772 F100.00
G01 X34.7335 Y-10.1120 F100.00
G01 X34.9265 Y-10.2164 F100.00
G01 X35.1339 Y-10.2876 F100.00
G01 X35.3503 Y-10.3237 F100.00
G01 X35.5697 Y-10.3237 F100.00
G01 X35.7861 Y-10.2876 F100.00
G01 X35.9935 Y-10.2164 F100.00
G01 X36.1865 Y-10.1119 F100.00
G01 X36.4193 Y-9.9305 F100.00
G01 X36.5225 Y-9.9084 F100.00
G01 X36.6142 Y-9.9383 F100.00
G01 X36.6440 Y-9.9596 F100.00
G01 X36.6909 Y-10.0221 F100.00
G01 X36.7243 Y-10.1051 F100.00
G01 X36.7973 Y-10.2027 F100.00
G01 X36.8949 Y-10.2757 F100.00
G01 X37.0103 Y-10.3188 F100.00
G01 X37.1793 Y-10.3240 F100.00
G01 X37.2611 Y-10.3446 F100.00
G01 X37.3417 Y-10.4168 F100.00
G01 X37.3730 Y-10.5205 F100.00
G01 X37.3731 Y-25.4755 F100.00
G01 X37.3553 Y-25.5582 F100.00
G01 X37.2948 Y-25.6329 F100.00
G01 X37.2644 Y-25.6524 F100.00
G01 X37.1808 Y-25.6758 F100.00
G01 X37.0103 Y-25.6812 F100.00
G01 X36.8949 Y-25.7243 F100.00
G01 X36.7973 Y-25.7973 F100.00
G01 X36.7243 Y-25.8949 F100.00
G01 X36.6981 Y-25.9648 F100.00
G01 X36.6639 Y-26.0216 F100.00
G01 X36.5902 Y-26.0744 F100.00
G01 X36.5583 Y-26.0854 F100.00
G01 X36.4784 Y-26.0879 F100.00
G01 X36.4488 Y-26.0813 F100.00
G01 X36.3761 Y-26.0381 F100.00
G01 X36.1865 Y-25.8880 F100.00
G01 X35.9935 Y-25.7836 F100.00
G01 X35.7861 Y-25.7124 F100.00
G01 X35.5697 Y-25.6763 F100.00
G01 X35.3503 Y-25.6763 F100.00
G01 X35.1339 Y-25.7124 F100.00
G01 X34.9265 Y-25.7836 F100.00
G01 X34.7335 Y-25.8880 F100.00
G01 X34.5604 Y-26.0228 F100.00
G01 X34.4118 Y-26.1842 F100.00
G01 X34.3456 Y-26.2854 F100.00
G01 X34.2981 Y-26.3337 F100.00
G01 X34.2724 Y-26.3490 F100.00
G01 X34.1903 Y-26.3724 F100.00
G01 X29.9383 Y-26.3731 F100.00
G01 X29.8171 Y-26.3972 F100.00
G01 X29.7031 Y-26.4444 F100.00
G01 X29.6004 Y-26.5131 F100.00
G01 X28.5131 Y-27.6004 F100.00
G01 X28.4444 Y-27.7031 F100.00
G01 X28.3972 Y-27.8171 F100.00
G01 X28.3731 Y-27.9383 F100.00
G01 X28.3730 Y-33.4103 F100.00
G01 X28.3524 Y-33.4950 F100.00
G01 X28.2921 Y-33.5656 F100.00
G01 X28.2199 Y-33.6127 F100.00
G01 X28.1317 Y-33.6932 F100.00
G01 X28.0414 Y-33.7216 F100.00
G01 X-6.3072 Y-33.7231 F100.00
G01 X-6.3647 Y-33.7136 F100.00
G01 X-6.4491 Y-33.6643 F100.00
G01 X-7.3143 Y-32.7991 F100.00
G01 X-7.3468 Y-32.7554 F100.00
G01 X-7.3730 Y-32.6612 F100.00
G01 X-7.3731 Y-7.3428 F100.00
G01 X-7.3636 Y-7.2853 F100.00
G01 X-7.3143 Y-7.2009 F100.00
G00 Z2.0000
G00 X-3.3483 Y0.9812
G01 F40.00
G01 Z0.1000
G01 F100.00
G01 X-3.3662 Y0.8964 F100.00
G01 X-3.4120 Y0.8274 F100.00
G01 X-3.4715 Y0.7833 F100.00
G01 X-3.5527 Y0.7593 F100.00
G01 X-5.5760 Y0.7598 F100.00
G01 X-5.6386 Y0.7762 F100.00
G01 X-5.6909 Y0.8074 F100.00
G01 X-5.7364 Y0.8559 F100.00
G01 X-5.7609 Y0.9017 F100.00
G01 X-5.7767 Y0.9812 F100.00
G01 X-5.7752 Y1.3110 F100.00
G01 X-5.7517 Y1.3885 F100.00
G01 X-5.7104 Y1.4454 F100.00
G01 X-5.6535 Y1.4867 F100.00
G01 X-5.5723 Y1.5107 F100.00
G01 X-3.5490 Y1.5102 F100.00
G01 X-3.4864 Y1.4938 F100.00
G01 X-3.4341 Y1.4626 F100.00
G01 X-3.3886 Y1.4141 F100.00
G01 X-3.3641 Y1.3683 F100.00
G01 X-3.3483 Y1.2888 F100.00
G01 X-3.3483 Y0.9812 F100.00
G00 Z2.0000
G00 X-3.2102 Y0.9744
G01 F40.00
G01 Z0.1000
G01 F100.00
G01 X-3.2180 Y0.9091 F100.00
G01 X-3.2399 Y0.8403 F100.00
G01 X-3.2679 Y0.7877 F100.00
G01 X-3.3096 Y0.7345 F100.00
G01 X-3.3636 Y0.6876 F100.00
G01 X-3.4123 Y0.6583 F100.00
G01 X-3.4697 Y0.6355 F100.00
G01 X-3.5287 Y0.6230 F100.00
G01 X-5.5963 Y0.6230 F100.00
G01 X-5.6947 Y0.6499 F100.00
G01 X-5.7733 Y0.6963 F100.00
G01 X-5.8387 Y0.7617 F100.00
G01 X-5.8851 Y0.8403 F100.00
G01 X-5.9057 Y0.9035 F100.00
G01 X-5.9141 Y0.9597 F100.00
G01 X-5.9120 Y1.3313 F100.00
G01 X-5.8995 Y1.3903 F100.00
G01 X-5.8767 Y1.4477 F100.00
G01 X-5.8081 Y1.5431 F100.00
G01 X-5.7127 Y1.6117 F100.00
G01 X-5.6553 Y1.6345 F100.00
G01 X-5.5963 Y1.6470 F100.00
G01 X-3.5287 Y1.6470 F100.00
G01 X-3.4452 Y1.6261 F100.00
G01 X-3.3636 Y1.5824 F100.00
G01 X-3.2958 Y1.5201 F100.00
G01 X-3.2483 Y1.4477 F100.00
G01 X-3.2255 Y1.3903 F100.00
G01 X-3.2117 Y1.3211 F100.00
G01 X-3.2102 Y0.9744 F100.00
G00 Z2.0000
G00 X-3.2102 Y2.2444
G01 F40.00
G01 Z0.1000
G01 F100.00
G01 X-3.2180 Y2.1791 F100.00
G01 X-3.2399 Y2.1103 F100.00
G01 X-3.2679 Y2.0577 F100.00
G01 X-3.3096 Y2.0045 F100.00
G01 X-3.3636 Y1.9576 F100.00
G01 X-3.4123 Y1.9283 F100.00
G01 X-3.4697 Y1.9055 F100.00
G01 X-3.5287 Y1.8930 F100.00
G01 X-5.5963 Y1.8930 F100.00
G01 X-5.6947 Y1.9199 F100.00
G01 X-5.7733 Y1.9663 F100.00
G01 X-5.8387 Y2.0317 F100.00
G01 X-5.8851 Y2.1103 F100.00
G01 X-5.9057 Y2.1735 F100.00
G01 X-5.9141 Y2.2297 F100.00
G01 X-5.9120 Y2.6013 F100.00
G01 X-5.8995 Y2.6603 F100.00
G01 X-5.8767 Y2.7177 F100.00
G01 X-5.8081 Y2.8131 F100.00
G01 X-5.7127 Y2.8817 F100.00
G01 X-5.6553 Y2.9045 F100.00
G01 X-5.5963 Y2.9170 F100.00
G01 X-3.5287 Y2.9170 F100.00
G01 X-3.4452 Y2.8961 F100.00
G01 X-3.3636 Y2.8524 F100.00
G01 X-3.2958 Y2.7901 F100.00
G01 X-3.2483 Y2.7177 F100.00
G01 X-3.2255 Y2.6603 F100.00
G01 X-3.2117 Y2.5911 F100.00
G01 X-3.2102 Y2.2444 F100.00
G00 Z2.0000
G00 X-3.3483 Y2.2512
G01 F40.00
G01 Z0.1000
G01 F100.00
G01 X-3.3662 Y2.1664 F100.00
G01 X-3.4120 Y2.0974 F100.00
G01 X-3.4715 Y2.0533 F100.00
G01 X-3.5527 Y2.0293 F100.00
G01 X-5.5760 Y2.0298 F100.00
G01 X-5.6386 Y2.0462 F100.00
G01 X-5.6909 Y2.0774 F100.00
G01 X-5.7364 Y2.1259 F100.00
G01 X-5.7609 Y2.1717 F100.00
G01 X-5.7767 Y2.2512 F100.00
G01 X-5.7752 Y2.5810 F100.00
G01 X-5.7517 Y2.6585 F100.00
G01 X-5.7104 Y2.7154 F100.00
G01 X-5.6535 Y2.7567 F100.00
G01 X-5.5723 Y2.7807 F100.00
G01 X-3.5490 Y2.7802 F100.00
G01 X-3.4864 Y2.7638 F100.00
G01 X-3.4341 Y2.7326 F100.00
G01 X-3.3886 Y2.6841 F100.00
G01 X-3.3641 Y2.6383 F100.00
G01 X-3.3483 Y2.5588 F100.00
G01 X-3.3483 Y2.2512 F100.00
G00 Z2.0000
G00 X-9.8756 Y1.5992
G01 F40.00
G01 Z0.1000
G01 F100.00
G01 X-9.8752 Y2.4055 F100.00
G01 X-9.8648 Y2.4590 F100.00
G01 X-9.8429 Y2.5139 F100.00
G01 X-9.7857 Y2.5910 F100.00
G01 X-9.7407 Y2.6272 F100.00
G01 X-9.6939 Y2.6523 F100.00
G01 X-9.6055 Y2.6752 F100.00
G01 X-9.0992 Y2.6756 F100.00
G01 X-9.0338 Y2.6626 F100.00
G01 X-8.9593 Y2.6272 F100.00
G01 X-8.9116 Y2.5884 F100.00
G01 X-8.8663 Y2.5299 F100.00
G01 X-7.5231 Y3.8731 F100.00
G01 X-7.4774 Y3.9099 F100.00
G01 X-7.4099 Y3.9419 F100.00
G01 X-7.3250 Y3.9551 F100.00
G01 X-5.7357 Y3.9551 F100.00
G01 X-5.6967 Y3.9979 F100.00
G01 X-5.6580 Y4.0244 F100.00
G01 X-5.6122 Y4.0430 F100.00
G01 X-5.5538 Y4.0517 F100.00
G01 X-3.5750 Y4.0518 F100.00
G01 X-3.5094 Y4.0421 F100.00
G01 X-3.4459 Y4.0114 F100.00
G01 X-3.3886 Y3.9541 F100.00
G01 X-3.3591 Y3.8944 F100.00
G01 X-3.3482 Y3.8250 F100.00
G01 X-3.3483 Y3.5212 F100.00
G01 X-3.3579 Y3.4594 F100.00
G01 X-3.3852 Y3.4010 F100.00
G01 X-3.4299 Y3.3507 F100.00
G01 X-3.4864 Y3.3162 F100.00
G01 X-3.5490 Y3.2998 F100.00
G01 X-5.5538 Y3.2983 F100.00
G01 X-5.6122 Y3.3070 F100.00
G01 X-5.6580 Y3.3256 F100.00
G01 X-5.6967 Y3.3521 F100.00
G01 X-5.7357 Y3.3949 F100.00
G01 X-7.2090 Y3.3949 F100.00
G01 X-8.8232 Y1.7828 F100.00
G01 X-8.8244 Y1.5992 F100.00
G01 X-8.8374 Y1.5338 F100.00
G01 X-8.8579 Y1.4846 F100.00
G01 X-8.8896 Y1.4362 F100.00
G01 X-8.9593 Y1.3728 F100.00
G01 X-9.0338 Y1.3374 F100.00
G01 X-9.0992 Y1.3244 F100.00
G01 X-9.5750 Y1.3232 F100.00
G01 X-9.6376 Y1.3298 F100.00
G01 X-9.7205 Y1.3607 F100.00
G01 X-9.7638 Y1.3896 F100.00
G01 X-9.8058 Y1.4307 F100.00
G01 X-9.8523 Y1.5061 F100.00
G01 X-9.8756 Y1.5992 F100.00
G00 Z2.0000
G00 X-10.0137 Y1.5924
G01 F40.00
G01 Z0.1000
G01 F100.00
G01 X-10.0126 Y2.4208 F100.00
G01 X-9.9989 Y2.4926 F100.00
G01 X-9.9678 Y2.5730 F100.00
G01 X-9.9348 Y2.6281 F100.00
G01 X-9.8862 Y2.6862 F100.00
G01 X-9.8281 Y2.7348 F100.00
G01 X-9.7530 Y2.7773 F100.00
G01 X-9.6611 Y2.8065 F100.00
G01 X-9.5856 Y2.8148 F100.00
G01 X-9.0792 Y2.8126 F100.00
G01 X-8.9665 Y2.7853 F100.00
G01 X-8.8632 Y2.7284 F100.00
G01 X-7.6208 Y3.9708 F100.00
G01 X-7.5485 Y4.0285 F100.00
G01 X-7.4565 Y4.0720 F100.00
G01 X-7.3962 Y4.0871 F100.00
G01 X-7.3250 Y4.0933 F100.00
G01 X-5.7972 Y4.0933 F100.00
G01 X-5.7473 Y4.1321 F100.00
G01 X-5.6947 Y4.1601 F100.00
G01 X-5.6259 Y4.1820 F100.00
G01 X-5.5606 Y4.1898 F100.00
G01 X-3.5644 Y4.1898 F100.00
G01 X-3.4590 Y4.1710 F100.00
G01 X-3.3636 Y4.1224 F100.00
G01 X-3.3169 Y4.0831 F100.00
G01 X-3.2776 Y4.0364 F100.00
G01 X-3.2290 Y3.9410 F100.00
G01 X-3.2102 Y3.8356 F100.00
G01 X-3.2100 Y3.5250 F100.00
G01 X-3.2152 Y3.4642 F100.00
G01 X-3.2339 Y3.3952 F100.00
G01 X-3.2776 Y3.3136 F100.00
G01 X-3.3399 Y3.2458 F100.00
G01 X-3.4257 Y3.1920 F100.00
G01 X-3.5142 Y3.1652 F100.00
G01 X-3.5750 Y3.1600 F100.00
G01 X-5.5606 Y3.1602 F100.00
G01 X-5.6259 Y3.1680 F100.00
G01 X-5.6947 Y3.1899 F100.00
G01 X-5.7473 Y3.2179 F100.00
G01 X-5.7972 Y3.2567 F100.00
G01 X-7.1517 Y3.2567 F100.00
G01 X-8.6850 Y1.7234 F100.00
G01 X-8.6935 Y1.5389 F100.00
G01 X-8.7147 Y1.4665 F100.00
G01 X-8.7421 Y1.4084 F100.00
G01 X-8.7917 Y1.3378 F100.00
G01 X-8.8532 Y1.2790 F100.00
G01 X-8.9228 Y1.2342 F100.00
G01 X-8.9872 Y1.2072 F100.00
G01 X-9.1144 Y1.1852 F100.00
G01 X-9.5750 Y1.1850 F100.00
G01 X-9.6611 Y1.1935 F100.00
G01 X-9.7335 Y1.2147 F100.00
G01 X-9.8468 Y1.2790 F100.00
G01 X-9.9348 Y1.3719 F100.00
G01 X-9.9928 Y1.4872 F100.00
G01 X-10.0137 Y1.5924 F100.00
G00 Z2.0000
G00 X-10.0137 Y4.5924
G01 F40.00
G01 Z0.1000
G01 F100.00
G01 X-10.0150 Y5.3750 F100.00
G01 X-10.0084 Y5.4504 F100.00
G01 X-9.9928 Y5.5128 F100.00
G01 X-9.9348 Y5.6281 F100.00
G01 X-9.8468 Y5.7210 F100.00
G01 X-9.7335 Y5.7853 F100.00
G01 X-9.6076 Y5.8137 F100.00
G01 X-9.0924 Y5.8137 F100.00
G01 X-9.0289 Y5.8043 F100.00
G01 X-8.9470 Y5.7773 F100.00
G01 X-8.8532 Y5.7210 F100.00
G01 X-8.7652 Y5.6281 F100.00
G01 X-8.7147 Y5.5335 F100.00
G01 X-8.6872 Y5.4183 F100.00
G01 X-5.7192 Y5.4183 F100.00
G01 X-5.6315 Y5.4507 F100.00
G01 X-5.5500 Y5.4600 F100.00
G01 X-3.5497 Y5.4591 F100.00
G01 X-3.4935 Y5.4507 F100.00
G01 X-3.4303 Y5.4301 F100.00
G01 X-3.3777 Y5.4021 F100.00
G01 X-3.3169 Y5.3531 F100.00
G01 X-3.2483 Y5.2577 F100.00
G01 X-3.2255 Y5.2003 F100.00
G01 X-3.2117 Y5.1311 F100.00
G01 X-3.2109 Y4.7697 F100.00
G01 X-3.2193 Y4.7135 F100.00
G01 X-3.2420 Y4.6457 F100.00
G01 X-3.2958 Y4.5599 F100.00
G01 X-3.3636 Y4.4976 F100.00
G01 X-3.4452 Y4.4539 F100.00
G01 X-3.5389 Y4.4317 F100.00
G01 X-5.5753 Y4.4309 F100.00
G01 X-5.6553 Y4.4455 F100.00
G01 X-5.7251 Y4.4747 F100.00
G01 X-5.7896 Y4.5197 F100.00
G01 X-5.8460 Y4.5817 F100.00
G01 X-8.6872 Y4.5817 F100.00
G01 X-8.7147 Y4.4665 F100.00
G01 X-8.7652 Y4.3719 F100.00
G01 X-8.8532 Y4.2790 F100.00
G01 X-8.9470 Y4.2227 F100.00
G01 X-9.0289 Y4.1957 F100.00
G01 X-9.0924 Y4.1863 F100.00
G01 X-9.5856 Y4.1852 F100.00
G01 X-9.6611 Y4.1935 F100.00
G01 X-9.7335 Y4.2147 F100.00
G01 X-9.8140 Y4.2556 F100.00
G01 X-9.8785 Y4.3066 F100.00
G01 X-9.9348 Y4.3719 F100.00
G01 X-9.9773 Y4.4470 F100.00
G01 X-10.0043 Y4.5289 F100.00
G01 X-10.0137 Y4.5924 F100.00
G00 Z2.0000
G00 X-9.8756 Y4.5992
G01 F40.00
G01 Z0.1000
G01 F100.00
G01 X-9.8768 Y5.3750 F100.00
G01 X-9.8648 Y5.4590 F100.00
G01 X-9.8272 Y5.5407 F100.00
G01 X-9.7638 Y5.6104 F100.00
G01 X-9.6870 Y5.6552 F100.00
G01 X-9.6008 Y5.6756 F100.00
G01 X-9.0992 Y5.6756 F100.00
G01 X-9.0410 Y5.6648 F100.00
G01 X-8.9846 Y5.6421 F100.00
G01 X-8.9090 Y5.5857 F100.00
G01 X-8.8728 Y5.5407 F100.00
G01 X-8.8477 Y5.4939 F100.00
G01 X-8.8248 Y5.4055 F100.00
G01 X-8.8232 Y5.2801 F100.00
G01 X-5.6808 Y5.2801 F100.00
G01 X-5.6156 Y5.3121 F100.00
G01 X-5.5500 Y5.3218 F100.00
G01 X-3.5712 Y5.3217 F100.00
G01 X-3.4864 Y5.3038 F100.00
G01 X-3.4174 Y5.2580 F100.00
G01 X-3.3733 Y5.1985 F100.00
G01 X-3.3493 Y5.1173 F100.00
G01 X-3.3483 Y4.7912 F100.00
G01 X-3.3641 Y4.7117 F100.00
G01 X-3.3886 Y4.6659 F100.00
G01 X-3.4341 Y4.6174 F100.00
G01 X-3.4864 Y4.5862 F100.00
G01 X-3.5527 Y4.5693 F100.00
G01 X-5.5685 Y4.5690 F100.00
G01 X-5.6333 Y4.5841 F100.00
G01 X-5.6909 Y4.6174 F100.00
G01 X-5.7364 Y4.6659 F100.00
G01 X-5.7638 Y4.7199 F100.00
G01 X-8.8232 Y4.7199 F100.00
G01 X-8.8248 Y4.5945 F100.00
G01 X-8.8477 Y4.5061 F100.00
G01 X-8.8728 Y4.4593 F100.00
G01 X-8.9090 Y4.4143 F100.00
G01 X-8.9846 Y4.3579 F100.00
G01 X-9.0410 Y4.3352 F100.00
G01 X-9.0992 Y4.3244 F100.00
G01 X-9.5750 Y4.3232 F100.00
G01 X-9.6340 Y4.3290 F100.00
G01 X-9.6870 Y4.3448 F100.00
G01 X-9.7407 Y4.3728 F100.00
G01 X-9.7857 Y4.4090 F100.00
G01 X-9.8238 Y4.4542 F100.00
G01 X-9.8523 Y4.5061 F100.00
G01 X-9.8756 Y4.5992 F100.00
G00 Z2.0000
G00 X-7.4121 Y7.9288
G01 F40.00
G01 Z0.1000
G01 F100.00
G01 X-7.4183 Y8.0000 F100.00
G01 X-7.4163 Y41.0413 F100.00
G01 X-7.4005 Y41.1208 F100.00
G01 X-7.3737 Y41.1878 F100.00
G01 X-7.3418 Y41.2410 F100.00
G01 X-7.2958 Y41.2958 F100.00
G01 X-4.2958 Y44.2958 F100.00
G01 X-4.2064 Y44.3637 F100.00
G01 X-4.1113 Y44.4031 F100.00
G01 X-4.0000 Y44.4183 F100.00
G01 X36.0106 Y44.4181 F100.00
G01 X36.0818 Y44.4103 F100.00
G01 X36.1502 Y44.3903 F100.00
G01 X36.2235 Y44.3535 F100.00
G01 X36.2734 Y44.3165 F100.00
G01 X37.4766 Y43.1150 F100.00
G01 X38.9000 Y43.1150 F100.00
G01 X38.9522 Y43.1086 F100.00
G01 X39.0140 Y43.0824 F100.00
G01 X39.0521 Y43.0521 F100.00
G01 X39.0824 Y43.0140 F100.00
G01 X39.1128 Y42.9307 F100.00
G01 X39.1150 Y42.4183 F100.00
G01 X40.8267 Y42.4183 F100.00
G01 X43.7042 Y45.2958 F100.00
G01 X43.7590 Y45.3418 F100.00
G01 X43.8122 Y45.3737 F100.00
G01 X43.9288 Y45.4121 F100.00
G01 X44.0000 Y45.4183 F100.00
G01 X59.0000 Y45.4183 F100.00
G01 X59.0919 Y45.4080 F100.00
G01 X59.1878 Y45.3737 F100.00
G01 X59.2410 Y45.3418 F100.00
G01 X59.2958 Y45.2958 F100.00
G01 X61.2958 Y43.2958 F100.00
G01 X61.3637 Y43.2064 F100.00
G01 X61.4021 Y43.1150 F100.00
G01 X61.9000 Y43.1150 F100.00
G01 X61.9522 Y43.1086 F100.00
G01 X62.0140 Y43.0824 F100.00
G01 X62.0720 Y43.0290 F100.00
G01 X62.1024 Y42.9726 F100.00
G01 X62.1148 Y42.9110 F100.00
G01 X62.1150 Y41.1000 F100.00
G01 X62.1040 Y41.0320 F100.00
G01 X62.0824 Y40.9860 F100.00
G01 X62.0453 Y40.9415 F100.00
G01 X61.9916 Y40.9054 F100.00
G01 X61.9466 Y40.8901 F100.00
G01 X61.4183 Y40.8850 F100.00
G01 X61.4183 Y27.1150 F100.00
G01 X61.9000 Y27.1150 F100.00
G01 X61.9680 Y27.1040 F100.00
G01 X62.0287 Y27.0723 F100.00
G01 X62.0723 Y27.0287 F100.00
G01 X62.1040 Y26.9680 F100.00
G01 X62.1150 Y26.9000 F100.00
G01 X62.1150 Y25.1000 F100.00
G01 X62.1040 Y25.0320 F100.00
G01 X62.0824 Y24.9860 F100.00
G01 X62.0453 Y24.9415 F100.00
G01 X61.9916 Y24.9054 F100.00
G01 X61.9466 Y24.8901 F100.00
G01 X61.4183 Y24.8850 F100.00
G01 X61.4183 Y10.1150 F100.00
G01 X61.9000 Y10.1150 F100.00
G01 X61.9680 Y10.1040 F100.00
G01 X62.0287 Y10.0723 F100.00
G01 X62.0723 Y10.0287 F100.00
G01 X62.1040 Y9.9680 F100.00
G01 X62.1150 Y9.9000 F100.00
G01 X62.1150 Y8.1000 F100.00
G01 X62.1040 Y8.0320 F100.00
G01 X62.0824 Y7.9860 F100.00
G01 X62.0453 Y7.9415 F100.00
G01 X61.9916 Y7.9054 F100.00
G01 X61.9466 Y7.8901 F100.00
G01 X61.4183 Y7.8850 F100.00
G01 X61.4183 Y-7.8850 F100.00
G01 X61.9000 Y-7.8850 F100.00
G01 X61.9680 Y-7.8960 F100.00
G01 X62.0287 Y-7.9277 F100.00
G01 X62.0723 Y-7.9713 F100.00
G01 X62.1040 Y-8.0320 F100.00
G01 X62.1150 Y-8.1000 F100.00
G01 X62.1150 Y-9.9000 F100.00
G01 X62.1040 Y-9.9680 F100.00
G01 X62.0824 Y-10.0140 F100.00
G01 X62.0453 Y-10.0585 F100.00
G01 X61.9916 Y-10.0946 F100.00
G01 X61.9466 Y-10.1099 F100.00
G01 X61.4183 Y-10.1150 F100.00
G01 X61.4183 Y-25.8850 F100.00
G01 X61.9466 Y-25.8901 F100.00
G01 X61.9916 Y-25.9054 F100.00
G01 X62.0453 Y-25.9415 F100.00
G01 X62.0824 Y-25.9860 F100.00
G01 X62.1040 Y-26.0320 F100.00
G01 X62.1150 Y-26.1000 F100.00
G01 X62.1150 Y-27.9000 F100.00
G01 X62.1099 Y-27.9466 F100.00
G01 X62.0946 Y-27.9916 F100.00
G01 X62.0585 Y-28.0453 F100.00
G01 X62.0140 Y-28.0824 F100.00
G01 X61.9680 Y-28.1040 F100.00
G01 X61.9110 Y-28.1148 F100.00
G01 X60.0890 Y-28.1148 F100.00
G01 X60.0127 Y-28.0965 F100.00
G01 X59.9479 Y-28.0521 F100.00
G01 X59.9035 Y-27.9873 F100.00
G01 X59.8852 Y-27.9110 F100.00
G01 X59.8850 Y-26.1000 F100.00
G01 X59.8960 Y-26.0320 F100.00
G01 X59.9176 Y-25.9860 F100.00
G01 X59.9547 Y-25.9415 F100.00
G01 X60.0084 Y-25.9054 F100.00
G01 X60.0534 Y-25.8901 F100.00
G01 X60.5817 Y-25.8850 F100.00
G01 X60.5817 Y-10.1150 F100.00
G01 X60.1000 Y-10.1150 F100.00
G01 X60.0320 Y-10.1040 F100.00
G01 X59.9713 Y-10.0723 F100.00
G01 X59.9277 Y-10.0287 F100.00
G01 X59.8960 Y-9.9680 F100.00
G01 X59.8850 Y-9.9000 F100.00
G01 X59.8850 Y-8.1000 F100.00
G01 X59.8960 Y-8.0320 F100.00
G01 X59.9176 Y-7.9860 F100.00
G01 X59.9547 Y-7.9415 F100.00
G01 X60.0084 Y-7.9054 F100.00
G01 X60.0534 Y-7.8901 F100.00
G01 X60.5817 Y-7.8850 F100.00
G01 X60.5817 Y7.8850 F100.00
G01 X60.1000 Y7.8850 F100.00
G01 X60.0320 Y7.8960 F100.00
G01 X59.9713 Y7.9277 F100.00
G01 X59.9277 Y7.9713 F100.00
G01 X59.8960 Y8.0320 F100.00
G01 X59.8850 Y8.1000 F100.00
G01 X59.8850 Y9.9000 F100.00
G01 X59.8960 Y9.9680 F100.00
G01 X59.9176 Y10.0140 F100.00
G01 X59.9547 Y10.0585 F100.00
G01 X60.0084 Y10.0946 F100.00
G01 X60.0534 Y10.1099 F100.00
G01 X60.5817 Y10.1150 F100.00
G01 X60.5817 Y24.8850 F100.00
G01 X60.1000 Y24.8850 F100.00
G01 X60.0320 Y24.8960 F100.00
G01 X59.9713 Y24.9277 F100.00
G01 X59.9277 Y24.9713 F100.00
G01 X59.8960 Y25.0320 F100.00
G01 X59.8850 Y25.1000 F100.00
G01 X59.8850 Y26.9000 F100.00
G01 X59.8960 Y26.9680 F100.00
G01 X59.9176 Y27.0140 F100.00
G01 X59.9547 Y27.0585 F100.00
G01 X60.0084 Y27.0946 F100.00
G01 X60.0534 Y27.1099 F100.00
G01 X60.5817 Y27.1150 F100.00
G01 X60.5817 Y40.8850 F100.00
G01 X60.1000 Y40.8850 F100.00
G01 X60.0478 Y40.8914 F100.00
G01 X59.9884 Y40.9162 F100.00
G01 X59.9415 Y40.9547 F100.00
G01 X59.9054 Y41.0084 F100.00
G01 X59.8872 Y41.0693 F100.00
G01 X59.8850 Y42.9000 F100.00
G01 X59.8901 Y42.9466 F100.00
G01 X59.9280 Y43.0290 F100.00
G01 X59.9710 Y43.0720 F100.00
G01 X60.0127 Y43.0965 F100.00
G01 X60.0890 Y43.1148 F100.00
G01 X60.2933 Y43.1150 F100.00
G01 X58.8267 Y44.5817 F100.00
G01 X44.1733 Y44.5817 F100.00
G01 X41.2958 Y41.7042 F100.00
G01 X41.2235 Y41.6465 F100.00
G01 X41.1208 Y41.5995 F100.00
G01 X41.0106 Y41.5819 F100.00
G01 X39.1150 Y41.5817 F100.00
G01 X39.1140 Y41.0786 F100.00
G01 X39.0946 Y41.0084 F100.00
G01 X39.0521 Y40.9479 F100.00
G01 X38.9916 Y40.9054 F100.00
G01 X38.9214 Y40.8860 F100.00
G01 X38.4183 Y40.8850 F100.00
G01 X38.4183 Y27.1150 F100.00
G01 X38.9000 Y27.1150 F100.00
G01 X38.9680 Y27.1040 F100.00
G01 X39.0287 Y27.0723 F100.00
G01 X39.0723 Y27.0287 F100.00
G01 X39.1040 Y26.9680 F100.00
G01 X39.1150 Y26.9000 F100.00
G01 X39.1150 Y25.1000 F100.00
G01 X39.1040 Y25.0320 F100.00
G01 X39.0824 Y24.9860 F100.00
G01 X39.0453 Y24.9415 F100.00
G01 X38.9916 Y24.9054 F100.00
G01 X38.9466 Y24.8901 F100.00
G01 X38.4183 Y24.8850 F100.00
G01 X38.4183 Y10.1150 F100.00
G01 X38.9000 Y10.1150 F100.00
G01 X38.9680 Y10.1040 F100.00
G01 X39.0287 Y10.0723 F100.00
G01 X39.0723 Y10.0287 F100.00
G01 X39.1040 Y9.9680 F100.00
G01 X39.1150 Y9.9000 F100.00
G01 X39.1150 Y8.1000 F100.00
G01 X39.1040 Y8.0320 F100.00
G01 X39.0824 Y7.9860 F100.00
G01 X39.0453 Y7.9415 F100.00
G01 X38.9916 Y7.9054 F100.00
G01 X38.9466 Y7.8901 F100.00
G01 X38.4183 Y7.8850 F100.00
G01 X38.4183 Y-7.8850 F100.00
G01 X38.9000 Y-7.8850 F100.00
G01 X38.9680 Y-7.8960 F100.00
G01 X39.0287 Y-7.9277 F100.00
G01 X39.0723 Y-7.9713 F100.00
G01 X39.1040 Y-8.0320 F100.00
G01 X39.1150 Y-8.1000 F100.00
G01 X39.1150 Y-9.9000 F100.00
G01 X39.1040 Y-9.9680 F100.00
G01 X39.0824 Y-10.0140 F100.00
G01 X39.0453 Y-10.0585 F100.00
G01 X38.9916 Y-10.0946 F100.00
G01 X38.9466 Y-10.1099 F100.00
G01 X38.4183 Y-10.1150 F100.00
G01 X38.4183 Y-25.8850 F100.00
G01 X38.9466 Y-25.8901 F100.00
G01 X39.0116 Y-25.9162 F100.00
G01 X39.0521 Y-25.9479 F100.00
G01 X39.0838 Y-25.9884 F100.00
G01 X39.1086 Y-26.0478 F100.00
G01 X39.1150 Y-26.1000 F100.00
G01 X39.1148 Y-27.9110 F100.00
G01 X39.1040 Y-27.9680 F100.00
G01 X39.0838 Y-28.0116 F100.00
G01 X39.0521 Y-28.0521 F100.00
G01 X39.0116 Y-28.0838 F100.00
G01 X38.9522 Y-28.1086 F100.00
G01 X38.9000 Y-28.1150 F100.00
G01 X37.0786 Y-28.1140 F100.00
G01 X37.0084 Y-28.0946 F100.00
G01 X36.9415 Y-28.0453 F100.00
G01 X36.9035 Y-27.9873 F100.00
G01 X36.8852 Y-27.9110 F100.00
G01 X36.8850 Y-26.1000 F100.00
G01 X36.8960 Y-26.0320 F100.00
G01 X36.9176 Y-25.9860 F100.00
G01 X36.9547 Y-25.9415 F100.00
G01 X37.0084 Y-25.9054 F100.00
G01 X37.0534 Y-25.8901 F100.00
G01 X37.5817 Y-25.8850 F100.00
G01 X37.5817 Y-10.1150 F100.00
G01 X37.1000 Y-10.1150 F100.00
G01 X37.0320 Y-10.1040 F100.00
G01 X36.9713 Y-10.0723 F100.00
G01 X36.9277 Y-10.0287 F100.00
G01 X36.8960 Y-9.9680 F100.00
G01 X36.8850 Y-9.9000 F100.00
G01 X36.8850 Y-8.1000 F100.00
G01 X36.8960 Y-8.0320 F100.00
G01 X36.9176 Y-7.9860 F100.00
G01 X36.9547 Y-7.9415 F100.00
G01 X37.0084 Y-7.9054 F100.00
G01 X37.0534 Y-7.8901 F100.00
G01 X37.5817 Y-7.8850 F100.00
G01 X37.5817 Y7.8850 F100.00
G01 X37.1000 Y7.8850 F100.00
G01 X37.0320 Y7.8960 F100.00
G01 X36.9713 Y7.9277 F100.00
G01 X36.9277 Y7.9713 F100.00
G01 X36.8960 Y8.0320 F100.00
G01 X36.8850 Y8.1000 F100.00
G01 X36.8850 Y9.9000 F100.00
G01 X36.8960 Y9.9680 F100.00
G01 X36.9176 Y10.0140 F100.00
G01 X36.9547 Y10.0585 F100.00
G01 X37.0084 Y10.0946 F100.00
G01 X37.0534 Y10.1099 F100.00
G01 X37.5817 Y10.1150 F100.00
G01 X37.5817 Y23.9900 F100.00
G01 X37.2580 Y23.6708 F100.00
G01 X37.1502 Y23.6097 F100.00
G01 X37.0413 Y23.5837 F100.00
G01 X31.4503 Y23.5817 F100.00
G01 X31.3503 Y23.4947 F100.00
G01 X31.2404 Y23.4339 F100.00
G01 X31.1247 Y23.3978 F100.00
G01 X31.0000 Y23.3850 F100.00
G01 X30.8753 Y23.3978 F100.00
G01 X30.7596 Y23.4339 F100.00
G01 X30.6497 Y23.4947 F100.00
G01 X30.5651 Y23.5651 F100.00
G01 X30.4947 Y23.6497 F100.00
G01 X30.4339 Y23.7596 F100.00
G01 X30.3978 Y23.8753 F100.00
G01 X30.3852 Y23.9894 F100.00
G01 X30.3950 Y24.1096 F100.00
G01 X30.4148 Y24.1886 F100.00
G01 X30.4593 Y24.2930 F100.00
G01 X30.5315 Y24.3982 F100.00
G01 X30.6172 Y24.4812 F100.00
G01 X30.7070 Y24.5407 F100.00
G01 X30.8221 Y24.5887 F100.00
G01 X30.9292 Y24.6108 F100.00
G01 X31.0708 Y24.6108 F100.00
G01 X31.2255 Y24.5720 F100.00
G01 X31.3503 Y24.5053 F100.00
G01 X31.4503 Y24.4183 F100.00
G01 X36.8267 Y24.4183 F100.00
G01 X37.2933 Y24.8850 F100.00
G01 X37.0890 Y24.8852 F100.00
G01 X37.0127 Y24.9035 F100.00
G01 X36.9710 Y24.9280 F100.00
G01 X36.9280 Y24.9710 F100.00
G01 X36.8901 Y25.0534 F100.00
G01 X36.8850 Y26.9000 F100.00
G01 X36.8960 Y26.9680 F100.00
G01 X36.9277 Y27.0287 F100.00
G01 X36.9713 Y27.0723 F100.00
G01 X37.0320 Y27.1040 F100.00
G01 X37.1000 Y27.1150 F100.00
G01 X37.5817 Y27.1150 F100.00
G01 X37.5817 Y40.8850 F100.00
G01 X37.0693 Y40.8872 F100.00
G01 X36.9860 Y40.9176 F100.00
G01 X36.9479 Y40.9479 F100.00
G01 X36.9176 Y40.9860 F100.00
G01 X36.8914 Y41.0478 F100.00
G01 X36.8850 Y41.1000 F100.00
G01 X36.8850 Y42.5234 F100.00
G01 X35.8267 Y43.5817 F100.00
G01 X-3.8267 Y43.5817 F100.00
G01 X-6.5817 Y40.8267 F100.00
G01 X-6.5817 Y8.1733 F100.00
G01 X-6.3117 Y7.9033 F100.00
G01 X-5.7972 Y7.9033 F100.00
G01 X-5.7473 Y7.9421 F100.00
G01 X-5.6947 Y7.9701 F100.00
G01 X-5.6259 Y7.9920 F100.00
G01 X-5.5606 Y7.9998 F100.00
G01 X-3.5750 Y8.0000 F100.00
G01 X-3.4792 Y7.9871 F100.00
G01 X-3.3999 Y7.9553 F100.00
G01 X-3.3245 Y7.9004 F100.00
G01 X-3.2679 Y7.8323 F100.00
G01 X-3.2339 Y7.7648 F100.00
G01 X-3.2180 Y7.7109 F100.00
G01 X-3.2102 Y7.6456 F100.00
G01 X-3.2152 Y7.2742 F100.00
G01 X-3.2547 Y7.1599 F100.00
G01 X-3.3245 Y7.0696 F100.00
G01 X-3.3777 Y7.0279 F100.00
G01 X-3.4303 Y6.9999 F100.00
G01 X-3.4935 Y6.9793 F100.00
G01 X-3.5497 Y6.9709 F100.00
G01 X-5.5606 Y6.9702 F100.00
G01 X-5.6259 Y6.9780 F100.00
G01 X-5.6947 Y6.9999 F100.00
G01 X-5.7473 Y7.0279 F100.00
G01 X-5.7972 Y7.0667 F100.00
G01 X-6.4850 Y7.0667 F100.00
G01 X-6.5562 Y7.0729 F100.00
G01 X-6.6728 Y7.1113 F100.00
G01 X-6.7584 Y7.1685 F100.00
G01 X-7.2958 Y7.7042 F100.00
G01 X-7.3418 Y7.7590 F100.00
G01 X-7.3737 Y7.8122 F100.00
G01 X-7.4121 Y7.9288 F100.00
G00 Z2.0000
G00 X-7.2754 Y7.9491
G01 F40.00
G01 Z0.1000
G01 F100.00
G01 X-7.2787 Y41.0276 F100.00
G01 X-7.2681 Y41.0811 F100.00
G01 X-7.2487 Y41.1287 F100.00
G01 X-7.1981 Y41.1981 F100.00
G01 X-4.1981 Y44.1981 F100.00
G01 X-4.1353 Y44.2452 F100.00
G01 X-4.0777 Y44.2690 F100.00
G01 X-4.0000 Y44.2801 F100.00
G01 X36.0038 Y44.2800 F100.00
G01 X36.0547 Y44.2747 F100.00
G01 X36.1106 Y44.2573 F100.00
G01 X36.1953 Y44.2007 F100.00
G01 X37.4193 Y42.9768 F100.00
G01 X38.9000 Y42.9768 F100.00
G01 X38.9407 Y42.9651 F100.00
G01 X38.9656 Y42.9399 F100.00
G01 X38.9767 Y42.9039 F100.00
G01 X38.9768 Y42.2801 F100.00
G01 X40.8840 Y42.2801 F100.00
G01 X43.8019 Y45.1981 F100.00
G01 X43.8713 Y45.2487 F100.00
G01 X43.9491 Y45.2754 F100.00
G01 X59.0000 Y45.2801 F100.00
G01 X59.0583 Y45.2739 F100.00
G01 X59.1287 Y45.2487 F100.00
G01 X59.1981 Y45.1981 F100.00
G01 X61.2007 Y43.1953 F100.00
G01 X61.2349 Y43.1524 F100.00
G01 X61.2601 Y43.1037 F100.00
G01 X61.2754 Y43.0509 F100.00
G01 X61.2801 Y42.9768 F100.00
G01 X61.9076 Y42.9764 F100.00
G01 X61.9327 Y42.9695 F100.00
G01 X61.9566 Y42.9519 F100.00
G01 X61.9767 Y42.9039 F100.00
G01 X61.9723 Y41.0741 F100.00
G01 X61.9460 Y41.0385 F100.00
G01 X61.9039 Y41.0233 F100.00
G01 X61.2801 Y41.0232 F100.00
G01 X61.2801 Y26.9768 F100.00
G01 X61.9076 Y26.9764 F100.00
G01 X61.9327 Y26.9695 F100.00
G01 X61.9566 Y26.9519 F100.00
G01 X61.9723 Y26.9259 F100.00
G01 X61.9768 Y26.9000 F100.00
G01 X61.9723 Y25.0741 F100.00
G01 X61.9460 Y25.0385 F100.00
G01 X61.9039 Y25.0233 F100.00
G01 X61.2801 Y25.0232 F100.00
G01 X61.2801 Y9.9768 F100.00
G01 X61.9076 Y9.9764 F100.00
G01 X61.9327 Y9.9695 F100.00
G01 X61.9566 Y9.9519 F100.00
G01 X61.9723 Y9.9259 F100.00
G01 X61.9768 Y9.9000 F100.00
G01 X61.9723 Y8.0741 F100.00
G01 X61.9460 Y8.0385 F100.00
G01 X61.9039 Y8.0233 F100.00
G01 X61.2801 Y8.0232 F100.00
G01 X61.2801 Y-8.0232 F100.00
G01 X61.9076 Y-8.0236 F100.00
G01 X61.9327 Y-8.0305 F100.00
G01 X61.9566 Y-8.0481 F100.00
G01 X61.9723 Y-8.0741 F100.00
G01 X61.9768 Y-8.1000 F100.00
G01 X61.9723 Y-9.9259 F100.00
G01 X61.9460 Y-9.9615 F100.00
G01 X61.9039 Y-9.9767 F100.00
G01 X61.2801 Y-9.9768 F100.00
G01 X61.2801 Y-26.0232 F100.00
G01 X61.9039 Y-26.0233 F100.00
G01 X61.9460 Y-26.0385 F100.00
G01 X61.9723 Y-26.0741 F100.00
G01 X61.9768 Y-27.9000 F100.00
G01 X61.9695 Y-27.9327 F100.00
G01 X61.9407 Y-27.9651 F100.00
G01 X61.9000 Y-27.9768 F100.00
G01 X60.1000 Y-27.9768 F100.00
G01 X60.0741 Y-27.9723 F100.00
G01 X60.0481 Y-27.9566 F100.00
G01 X60.0305 Y-27.9327 F100.00
G01 X60.0233 Y-27.9039 F100.00
G01 X60.0277 Y-26.0741 F100.00
G01 X60.0540 Y-26.0385 F100.00
G01 X60.0961 Y-26.0233 F100.00
G01 X60.7199 Y-26.0232 F100.00
G01 X60.7199 Y-9.9768 F100.00
G01 X60.0924 Y-9.9764 F100.00
G01 X60.0673 Y-9.9695 F100.00
G01 X60.0434 Y-9.9519 F100.00
G01 X60.0277 Y-9.9259 F100.00
G01 X60.0232 Y-9.9000 F100.00
G01 X60.0277 Y-8.0741 F100.00
G01 X60.0540 Y-8.0385 F100.00
G01 X60.0961 Y-8.0233 F100.00
G01 X60.7199 Y-8.0232 F100.00
G01 X60.7199 Y8.0232 F100.00
G01 X60.0924 Y8.0236 F100.00
G01 X60.0673 Y8.0305 F100.00
G01 X60.0434 Y8.0481 F100.00
G01 X60.0277 Y8.0741 F100.00
G01 X60.0232 Y8.1000 F100.00
G01 X60.0277 Y9.9259 F100.00
G01 X60.0540 Y9.9615 F100.00
G01 X60.0961 Y9.9767 F100.00
G01 X60.7199 Y9.9768 F100.00
G01 X60.7199 Y25.0232 F100.00
G01 X60.0924 Y25.0236 F100.00
G01 X60.0673 Y25.0305 F100.00
G01 X60.0434 Y25.0481 F100.00
G01 X60.0277 Y25.0741 F100.00
G01 X60.0232 Y25.1000 F100.00
G01 X60.0277 Y26.9259 F100.00
G01 X60.0540 Y26.9615 F100.00
G01 X60.0961 Y26.9767 F100.00
G01 X60.7199 Y26.9768 F100.00
G01 X60.7199 Y41.0232 F100.00
G01 X60.0924 Y41.0236 F100.00
G01 X60.0673 Y41.0305 F100.00
G01 X60.0434 Y41.0481 F100.00
G01 X60.0233 Y41.0961 F100.00
G01 X60.0271 Y42.9243 F100.00
G01 X60.0539 Y42.9614 F100.00
G01 X60.0924 Y42.9764 F100.00
G01 X60.6271 Y42.9768 F100.00
G01 X58.8840 Y44.7199 F100.00
G01 X44.1160 Y44.7199 F100.00
G01 X41.1981 Y41.8019 F100.00
G01 X41.1524 Y41.7651 F100.00
G01 X41.0811 Y41.7319 F100.00
G01 X41.0000 Y41.7199 F100.00
G01 X38.9768 Y41.7199 F100.00
G01 X38.9767 Y41.0961 F100.00
G01 X38.9702 Y41.0688 F100.00
G01 X38.9543 Y41.0457 F100.00
G01 X38.9312 Y41.0298 F100.00
G01 X38.9039 Y41.0233 F100.00
G01 X38.2801 Y41.0232 F100.00
G01 X38.2801 Y26.9768 F100.00
G01 X38.9076 Y26.9764 F100.00
G01 X38.9327 Y26.9695 F100.00
G01 X38.9566 Y26.9519 F100.00
G01 X38.9723 Y26.9259 F100.00
G01 X38.9768 Y26.9000 F100.00
G01 X38.9723 Y25.0741 F100.00
G01 X38.9460 Y25.0385 F100.00
G01 X38.9039 Y25.0233 F100.00
G01 X38.2801 Y25.0232 F100.00
G01 X38.2801 Y9.9768 F100.00
G01 X38.9076 Y9.9764 F100.00
G01 X38.9327 Y9.9695 F100.00
G01 X38.9566 Y9.9519 F100.00
G01 X38.9723 Y9.9259 F100.00
G01 X38.9768 Y9.9000 F100.00
G01 X38.9723 Y8.0741 F100.00
G01 X38.9460 Y8.0385 F100.00
G01 X38.9039 Y8.0233 F100.00
G01 X38.2801 Y8.0232 F100.00
G01 X38.2801 Y-8.0232 F100.00
G01 X38.9076 Y-8.0236 F100.00
G01 X38.9327 Y-8.0305 F100.00
G01 X38.9566 Y-8.0481 F100.00
G01 X38.9723 Y-8.0741 F100.00
G01 X38.9768 Y-8.1000 F100.00
G01 X38.9723 Y-9.9259 F100.00
G01 X38.9460 Y-9.9615 F100.00
G01 X38.9039 Y-9.9767 F100.00
G01 X38.2801 Y-9.9768 F100.00
G01 X38.2801 Y-26.0232 F100.00
G01 X38.9076 Y-26.0236 F100.00
G01 X38.9461 Y-26.0386 F100.00
G01 X38.9729 Y-26.0757 F100.00
G01 X38.9768 Y-27.9000 F100.00
G01 X38.9656 Y-27.9399 F100.00
G01 X38.9399 Y-27.9656 F100.00
G01 X38.9000 Y-27.9768 F100.00
G01 X37.0961 Y-27.9767 F100.00
G01 X37.0673 Y-27.9695 F100.00
G01 X37.0434 Y-27.9519 F100.00
G01 X37.0277 Y-27.9259 F100.00
G01 X37.0232 Y-27.9000 F100.00
G01 X37.0277 Y-26.0741 F100.00
G01 X37.0540 Y-26.0385 F100.00
G01 X37.0961 Y-26.0233 F100.00
G01 X37.7199 Y-26.0232 F100.00
G01 X37.7199 Y-9.9768 F100.00
G01 X37.0924 Y-9.9764 F100.00
G01 X37.0673 Y-9.9695 F100.00
G01 X37.0434 Y-9.9519 F100.00
G01 X37.0277 Y-9.9259 F100.00
G01 X37.0232 Y-9.9000 F100.00
G01 X37.0277 Y-8.0741 F100.00
G01 X37.0540 Y-8.0385 F100.00
G01 X37.0961 Y-8.0233 F100.00
G01 X37.7199 Y-8.0232 F100.00
G01 X37.7199 Y8.0232 F100.00
G01 X37.0924 Y8.0236 F100.00
G01 X37.0673 Y8.0305 F100.00
G01 X37.0434 Y8.0481 F100.00
G01 X37.0277 Y8.0741 F100.00
G01 X37.0232 Y8.1000 F100.00
G01 X37.0277 Y9.9259 F100.00
G01 X37.0540 Y9.9615 F100.00
G01 X37.0961 Y9.9767 F100.00
G01 X37.7199 Y9.9768 F100.00
G01 X37.7199 Y24.3238 F100.00
G01 X37.1805 Y23.7859 F100.00
G01 X37.1037 Y23.7399 F100.00
G01 X37.0038 Y23.7200 F100.00
G01 X31.3853 Y23.7199 F100.00
G01 X31.3053 Y23.6339 F100.00
G01 X31.2214 Y23.5778 F100.00
G01 X31.0967 Y23.5332 F100.00
G01 X30.9962 Y23.5233 F100.00
G01 X30.9053 Y23.5327 F100.00
G01 X30.8157 Y23.5603 F100.00
G01 X30.7320 Y23.6057 F100.00
G01 X30.6629 Y23.6629 F100.00
G01 X30.6057 Y23.7320 F100.00
G01 X30.5603 Y23.8157 F100.00
G01 X30.5327 Y23.9053 F100.00
G01 X30.5233 Y23.9962 F100.00
G01 X30.5327 Y24.0947 F100.00
G01 X30.5603 Y24.1843 F100.00
G01 X30.6057 Y24.2680 F100.00
G01 X30.6629 Y24.3371 F100.00
G01 X30.7320 Y24.3943 F100.00
G01 X30.8157 Y24.4397 F100.00
G01 X30.9053 Y24.4673 F100.00
G01 X30.9962 Y24.4767 F100.00
G01 X31.0967 Y24.4668 F100.00
G01 X31.2214 Y24.4222 F100.00
G01 X31.3053 Y24.3661 F100.00
G01 X31.3853 Y24.2801 F100.00
G01 X36.8840 Y24.2801 F100.00
G01 X37.6271 Y25.0232 F100.00
G01 X37.0924 Y25.0236 F100.00
G01 X37.0539 Y25.0386 F100.00
G01 X37.0271 Y25.0757 F100.00
G01 X37.0232 Y26.9000 F100.00
G01 X37.0277 Y26.9259 F100.00
G01 X37.0434 Y26.9519 F100.00
G01 X37.0673 Y26.9695 F100.00
G01 X37.0924 Y26.9764 F100.00
G01 X37.7199 Y26.9768 F100.00
G01 X37.7199 Y41.0232 F100.00
G01 X37.0961 Y41.0233 F100.00
G01 X37.0601 Y41.0344 F100.00
G01 X37.0349 Y41.0593 F100.00
G01 X37.0232 Y41.1000 F100.00
G01 X37.0232 Y42.5807 F100.00
G01 X35.8840 Y43.7199 F100.00
G01 X-3.8840 Y43.7199 F100.00
G01 X-6.7199 Y40.8840 F100.00
G01 X-6.7199 Y8.1160 F100.00
G01 X-6.3690 Y7.7651 F100.00
G01 X-5.7357 Y7.7651 F100.00
G01 X-5.6967 Y7.8079 F100.00
G01 X-5.6580 Y7.8344 F100.00
G01 X-5.6122 Y7.8530 F100.00
G01 X-5.5538 Y7.8617 F100.00
G01 X-3.5750 Y7.8618 F100.00
G01 X-3.5271 Y7.8566 F100.00
G01 X-3.4670 Y7.8344 F100.00
G01 X-3.4174 Y7.7980 F100.00
G01 X-3.3844 Y7.7578 F100.00
G01 X-3.3579 Y7.7006 F100.00
G01 X-3.3482 Y7.6350 F100.00
G01 X-3.3519 Y7.2945 F100.00
G01 X-3.3768 Y7.2248 F100.00
G01 X-3.4299 Y7.1607 F100.00
G01 X-3.4917 Y7.1241 F100.00
G01 X-3.5712 Y7.1083 F100.00
G01 X-5.5538 Y7.1083 F100.00
G01 X-5.6122 Y7.1170 F100.00
G01 X-5.6580 Y7.1356 F100.00
G01 X-5.6967 Y7.1621 F100.00
G01 X-5.7357 Y7.2049 F100.00
G01 X-6.5359 Y7.2096 F100.00
G01 X-6.6137 Y7.2363 F100.00
G01 X-6.6655 Y7.2709 F100.00
G01 X-7.1981 Y7.8019 F100.00
G01 X-7.2487 Y7.8713 F100.00
G01 X-7.2754 Y7.9491 F100.00
G00 Z2.0000
G00 X-6.5110 Y9.3620
G01 F40.00
G01 Z0.1000
G01 F100.00
G01 X-6.5110 Y40.6688 F100.00
G01 X-6.4900 Y40.7708 F100.00
G01 X-6.4446 Y40.8551 F100.00
G01 X-6.4120 Y40.8969 F100.00
G01 X-3.8798 Y43.4274 F100.00
G01 X-3.7948 Y43.4797 F100.00
G01 X-3.7072 Y43.5054 F100.00
G01 X-3.6572 Y43.5113 F100.00
G01 X34.4841 Y43.5113 F100.00
G01 X34.5549 Y43.5039 F100.00
G01 X34.5980 Y43.4893 F100.00
G01 X34.6956 Y43.4363 F100.00
G01 X34.7401 Y43.3934 F100.00
G01 X34.7971 Y43.2971 F100.00
G01 X34.8188 Y43.2223 F100.00
G01 X34.8122 Y43.0902 F100.00
G01 X34.7835 Y43.0172 F100.00
G01 X34.7155 Y42.9256 F100.00
G01 X34.6544 Y42.8752 F100.00
G01 X34.5213 Y42.7306 F100.00
G01 X34.4572 Y42.6331 F100.00
G01 X34.3906 Y42.5635 F100.00
G01 X34.3377 Y42.5285 F100.00
G01 X34.2219 Y42.4928 F100.00
G01 X29.9519 Y42.4887 F100.00
G01 X29.8575 Y42.4699 F100.00
G01 X29.7685 Y42.4330 F100.00
G01 X29.6885 Y42.3796 F100.00
G01 X28.6204 Y41.3115 F100.00
G01 X28.5670 Y41.2315 F100.00
G01 X28.5301 Y41.1425 F100.00
G01 X28.5113 Y41.0481 F100.00
G01 X28.5113 Y35.5939 F100.00
G01 X28.4912 Y35.4824 F100.00
G01 X28.4665 Y35.4263 F100.00
G01 X28.3773 Y35.3251 F100.00
G01 X28.3062 Y35.2781 F100.00
G01 X28.2200 Y35.1996 F100.00
G01 X28.1640 Y35.1703 F100.00
G01 X28.0501 Y35.1400 F100.00
G01 X25.6019 Y35.1387 F100.00
G01 X25.5075 Y35.1199 F100.00
G01 X25.4185 Y35.0830 F100.00
G01 X25.3385 Y35.0296 F100.00
G01 X24.7065 Y34.3976 F100.00
G01 X24.6204 Y34.3115 F100.00
G01 X24.5670 Y34.2315 F100.00
G01 X24.5301 Y34.1425 F100.00
G01 X24.5113 Y34.0481 F100.00
G01 X24.5113 Y4.3428 F100.00
G01 X24.4952 Y4.2419 F100.00
G01 X24.4233 Y4.1152 F100.00
G01 X23.8798 Y3.5726 F100.00
G01 X23.7948 Y3.5203 F100.00
G01 X23.7072 Y3.4946 F100.00
G01 X23.6572 Y3.4887 F100.00
G01 X15.9982 Y3.4887 F100.00
G01 X15.9276 Y3.4980 F100.00
G01 X15.8379 Y3.5314 F100.00
G01 X15.8019 Y3.5513 F100.00
G01 X15.7589 Y3.5905 F100.00
G01 X15.6941 Y3.6799 F100.00
G01 X15.6718 Y3.7392 F100.00
G01 X15.6621 Y3.8474 F100.00
G01 X15.6672 Y3.9007 F100.00
G01 X15.6830 Y3.9468 F100.00
G01 X15.7381 Y4.0439 F100.00
G01 X17.1031 Y5.4120 F100.00
G01 X17.1492 Y5.4504 F100.00
G01 X17.2052 Y5.4797 F100.00
G01 X17.2928 Y5.5054 F100.00
G01 X17.3428 Y5.5113 F100.00
G01 X21.4095 Y5.5111 F100.00
G01 X21.4646 Y5.5022 F100.00
G01 X21.5565 Y5.4691 F100.00
G01 X21.6554 Y5.4031 F100.00
G01 X21.7870 Y5.3445 F100.00
G01 X21.9280 Y5.3145 F100.00
G01 X22.0720 Y5.3145 F100.00
G01 X22.2130 Y5.3445 F100.00
G01 X22.3446 Y5.4031 F100.00
G01 X22.4612 Y5.4878 F100.00
G01 X22.5576 Y5.5949 F100.00
G01 X22.6297 Y5.7197 F100.00
G01 X22.6742 Y5.8567 F100.00
G01 X22.6892 Y6.0000 F100.00
G01 X22.6742 Y6.1433 F100.00
G01 X22.6296 Y6.2803 F100.00
G01 X22.5576 Y6.4051 F100.00
G01 X22.4612 Y6.5122 F100.00
G01 X22.3446 Y6.5969 F100.00
G01 X22.2130 Y6.6555 F100.00
G01 X22.0720 Y6.6855 F100.00
G01 X21.9280 Y6.6855 F100.00
G01 X21.7870 Y6.6555 F100.00
G01 X21.6554 Y6.5969 F100.00
G01 X21.5506 Y6.5269 F100.00
G01 X21.4076 Y6.4890 F100.00
G01 X16.9519 Y6.4887 F100.00
G01 X16.8575 Y6.4699 F100.00
G01 X16.7685 Y6.4330 F100.00
G01 X16.6885 Y6.3796 F100.00
G01 X12.2508 Y1.9419 F100.00
G01 X12.2125 Y1.9114 F100.00
G01 X12.1394 Y1.8700 F100.00
G01 X12.0813 Y1.8501 F100.00
G01 X11.9534 Y1.8498 F100.00
G01 X11.8746 Y1.8722 F100.00
G01 X11.7669 Y1.9475 F100.00
G01 X11.7193 Y2.0134 F100.00
G01 X11.6837 Y2.1006 F100.00
G01 X11.6296 Y2.2803 F100.00
G01 X11.5576 Y2.4051 F100.00
G01 X11.4612 Y2.5122 F100.00
G01 X11.3673 Y2.5809 F100.00
G01 X11.3163 Y2.6303 F100.00
G01 X11.2875 Y2.6768 F100.00
G01 X11.2441 Y2.7830 F100.00
G01 X11.2399 Y2.8495 F100.00
G01 X11.2600 Y2.9668 F100.00
G01 X11.2919 Y3.0278 F100.00
G01 X11.3577 Y3.1037 F100.00
G01 X11.4218 Y3.1478 F100.00
G01 X11.5268 Y3.1804 F100.00
G01 X11.7231 Y3.1863 F100.00
G01 X11.8175 Y3.2051 F100.00
G01 X11.9065 Y3.2420 F100.00
G01 X11.9865 Y3.2954 F100.00
G01 X13.3796 Y4.6885 F100.00
G01 X13.4330 Y4.7685 F100.00
G01 X13.4699 Y4.8575 F100.00
G01 X13.4887 Y4.9519 F100.00
G01 X13.4887 Y18.6572 F100.00
G01 X13.5025 Y18.7515 F100.00
G01 X13.5554 Y18.8551 F100.00
G01 X13.5880 Y18.8969 F100.00
G01 X14.1121 Y19.4206 F100.00
G01 X14.1885 Y19.4731 F100.00
G01 X14.3191 Y19.5100 F100.00
G01 X21.0481 Y19.5113 F100.00
G01 X21.1425 Y19.5301 F100.00
G01 X21.2315 Y19.5670 F100.00
G01 X21.3115 Y19.6204 F100.00
G01 X22.3796 Y20.6885 F100.00
G01 X22.4330 Y20.7685 F100.00
G01 X22.4699 Y20.8575 F100.00
G01 X22.4887 Y20.9519 F100.00
G01 X22.4887 Y36.0481 F100.00
G01 X22.4699 Y36.1425 F100.00
G01 X22.4330 Y36.2315 F100.00
G01 X22.3796 Y36.3115 F100.00
G01 X21.6615 Y37.0296 F100.00
G01 X21.5815 Y37.0830 F100.00
G01 X21.4925 Y37.1199 F100.00
G01 X21.3981 Y37.1387 F100.00
G01 X21.0196 Y37.1387 F100.00
G01 X20.9498 Y37.1463 F100.00
G01 X20.8244 Y37.2016 F100.00
G01 X20.7249 Y37.2844 F100.00
G01 X20.6298 Y37.3456 F100.00
G01 X20.5270 Y37.3925 F100.00
G01 X20.4184 Y37.4244 F100.00
G01 X20.3066 Y37.4405 F100.00
G01 X19.6934 Y37.4405 F100.00
G01 X19.5816 Y37.4244 F100.00
G01 X19.4730 Y37.3925 F100.00
G01 X19.3702 Y37.3456 F100.00
G01 X19.2751 Y37.2844 F100.00
G01 X19.1897 Y37.2104 F100.00
G01 X19.1156 Y37.1249 F100.00
G01 X19.0545 Y37.0298 F100.00
G01 X19.0075 Y36.9269 F100.00
G01 X18.9756 Y36.8185 F100.00
G01 X18.9595 Y36.7065 F100.00
G01 X18.9595 Y36.1654 F100.00
G01 X18.9794 Y36.0118 F100.00
G01 X18.9595 Y35.8423 F100.00
G01 X18.9595 Y35.2935 F100.00
G01 X18.9756 Y35.1815 F100.00
G01 X19.0075 Y35.0731 F100.00
G01 X19.0545 Y34.9702 F100.00
G01 X19.1156 Y34.8751 F100.00
G01 X19.1897 Y34.7896 F100.00
G01 X19.2751 Y34.7156 F100.00
G01 X19.3809 Y34.6448 F100.00
G01 X19.4384 Y34.5873 F100.00
G01 X19.4731 Y34.5330 F100.00
G01 X19.5054 Y34.4286 F100.00
G01 X19.5113 Y34.3786 F100.00
G01 X19.5111 Y33.1352 F100.00
G01 X19.4809 Y33.0092 F100.00
G01 X19.4402 Y32.9380 F100.00
G01 X19.3658 Y32.8666 F100.00
G01 X19.2156 Y32.7729 F100.00
G01 X19.1271 Y32.6844 F100.00
G01 X19.0614 Y32.5778 F100.00
G01 X19.0215 Y32.4575 F100.00
G01 X19.0145 Y32.3891 F100.00
G01 X19.0145 Y31.6609 F100.00
G01 X19.0215 Y31.5925 F100.00
G01 X19.0614 Y31.4722 F100.00
G01 X19.1271 Y31.3656 F100.00
G01 X19.2875 Y31.2068 F100.00
G01 X19.3394 Y31.1011 F100.00
G01 X19.3571 Y31.0108 F100.00
G01 X19.3356 Y30.8805 F100.00
G01 X19.2914 Y30.8033 F100.00
G01 X19.0450 Y30.5400 F100.00
G01 X18.9870 Y30.5019 F100.00
G01 X18.8621 Y30.4657 F100.00
G01 X17.1674 Y30.4637 F100.00
G01 X17.0559 Y30.4838 F100.00
G01 X16.9998 Y30.5085 F100.00
G01 X16.9109 Y30.5844 F100.00
G01 X16.8729 Y30.6344 F100.00
G01 X16.7125 Y30.7932 F100.00
G01 X16.6562 Y30.9099 F100.00
G01 X16.6429 Y30.9892 F100.00
G01 X16.6589 Y31.0988 F100.00
G01 X16.6811 Y31.1580 F100.00
G01 X16.7566 Y31.2504 F100.00
G01 X16.8729 Y31.3656 F100.00
G01 X16.9386 Y31.4722 F100.00
G01 X16.9785 Y31.5925 F100.00
G01 X16.9855 Y31.6610 F100.00
G01 X16.9855 Y32.3891 F100.00
G01 X16.9785 Y32.4575 F100.00
G01 X16.9386 Y32.5778 F100.00
G01 X16.8729 Y32.6844 F100.00
G01 X16.7844 Y32.7729 F100.00
G01 X16.6204 Y32.8709 F100.00
G01 X16.5264 Y32.9583 F100.00
G01 X16.4951 Y33.0173 F100.00
G01 X16.4696 Y33.1044 F100.00
G01 X16.4637 Y33.1544 F100.00
G01 X16.4637 Y34.3786 F100.00
G01 X16.4823 Y34.4864 F100.00
G01 X16.5074 Y34.5439 F100.00
G01 X16.5803 Y34.6316 F100.00
G01 X16.6999 Y34.7156 F100.00
G01 X16.7853 Y34.7896 F100.00
G01 X16.8594 Y34.8751 F100.00
G01 X16.9205 Y34.9702 F100.00
G01 X16.9675 Y35.0731 F100.00
G01 X16.9994 Y35.1815 F100.00
G01 X17.0155 Y35.2935 F100.00
G01 X17.0155 Y35.8346 F100.00
G01 X16.9956 Y35.9882 F100.00
G01 X17.0155 Y36.1577 F100.00
G01 X17.0155 Y36.7065 F100.00
G01 X16.9994 Y36.8185 F100.00
G01 X16.9675 Y36.9269 F100.00
G01 X16.9205 Y37.0298 F100.00
G01 X16.8594 Y37.1249 F100.00
G01 X16.7853 Y37.2104 F100.00
G01 X16.6999 Y37.2844 F100.00
G01 X16.5941 Y37.3552 F100.00
G01 X16.5366 Y37.4127 F100.00
G01 X16.5019 Y37.4670 F100.00
G01 X16.4696 Y37.5714 F100.00
G01 X16.4637 Y37.6214 F100.00
G01 X16.4637 Y39.0231 F100.00
G01 X16.4449 Y39.1175 F100.00
G01 X16.4080 Y39.2065 F100.00
G01 X16.3546 Y39.2865 F100.00
G01 X15.2615 Y40.3796 F100.00
G01 X15.1815 Y40.4330 F100.00
G01 X15.0925 Y40.4699 F100.00
G01 X14.9981 Y40.4887 F100.00
G01 X9.9519 Y40.4887 F100.00
G01 X9.8575 Y40.4699 F100.00
G01 X9.7685 Y40.4330 F100.00
G01 X9.6885 Y40.3796 F100.00
G01 X8.6204 Y39.3115 F100.00
G01 X8.5670 Y39.2315 F100.00
G01 X8.5301 Y39.1425 F100.00
G01 X8.5113 Y39.0481 F100.00
G01 X8.5113 Y9.3742 F100.00
G01 X8.5005 Y9.2916 F100.00
G01 X8.4766 Y9.2282 F100.00
G01 X8.4076 Y9.1313 F100.00
G01 X8.3426 Y9.0835 F100.00
G01 X8.2581 Y9.0486 F100.00
G01 X8.2068 Y9.0370 F100.00
G01 X8.1559 Y9.0379 F100.00
G01 X8.0493 Y9.0592 F100.00
G01 X7.9767 Y9.1002 F100.00
G01 X7.8190 Y9.2518 F100.00
G01 X7.7243 Y9.3078 F100.00
G01 X7.6137 Y9.3400 F100.00
G01 X5.5181 Y9.3405 F100.00
G01 X5.4549 Y9.3337 F100.00
G01 X5.3451 Y9.3476 F100.00
G01 X5.3054 Y9.3593 F100.00
G01 X5.2568 Y9.3867 F100.00
G01 X5.1610 Y9.4755 F100.00
G01 X5.1297 Y9.5344 F100.00
G01 X5.0986 Y9.6602 F100.00
G01 X5.0995 Y23.2897 F100.00
G01 X5.1196 Y23.3805 F100.00
G01 X5.1905 Y23.4990 F100.00
G01 X7.3796 Y25.6885 F100.00
G01 X7.4330 Y25.7685 F100.00
G01 X7.4699 Y25.8575 F100.00
G01 X7.4887 Y25.9519 F100.00
G01 X7.4887 Y32.0481 F100.00
G01 X7.4699 Y32.1425 F100.00
G01 X7.4330 Y32.2315 F100.00
G01 X7.3796 Y32.3115 F100.00
G01 X6.3115 Y33.3796 F100.00
G01 X6.2315 Y33.4330 F100.00
G01 X6.1425 Y33.4699 F100.00
G01 X6.0481 Y33.4887 F100.00
G01 X-0.0481 Y33.4887 F100.00
G01 X-0.1425 Y33.4699 F100.00
G01 X-0.2315 Y33.4330 F100.00
G01 X-0.3115 Y33.3796 F100.00
G01 X-0.6496 Y33.0415 F100.00
G01 X-0.7030 Y32.9615 F100.00
G01 X-0.7399 Y32.8725 F100.00
G01 X-0.7587 Y32.7781 F100.00
G01 X-0.7597 Y32.4695 F100.00
G01 X-0.7731 Y32.3956 F100.00
G01 X-0.7942 Y32.3415 F100.00
G01 X-0.8750 Y32.2363 F100.00
G01 X-1.0227 Y32.1263 F100.00
G01 X-1.1608 Y31.9886 F100.00
G01 X-1.2342 Y31.9370 F100.00
G01 X-1.3397 Y31.9031 F100.00
G01 X-1.3919 Y31.8966 F100.00
G01 X-1.4412 Y31.9024 F100.00
G01 X-1.5470 Y31.9346 F100.00
G01 X-1.5994 Y31.9679 F100.00
G01 X-1.6665 Y32.0397 F100.00
G01 X-1.7675 Y32.1991 F100.00
G01 X-1.8559 Y32.2875 F100.00
G01 X-1.9624 Y32.3531 F100.00
G01 X-2.0826 Y32.3930 F100.00
G01 X-2.1510 Y32.4000 F100.00
G01 X-2.3450 Y32.4000 F100.00
G01 X-2.3450 Y32.3300 F100.00
G01 X-2.1794 Y32.3298 F100.00
G01 X-2.0890 Y32.3188 F100.00
G01 X-1.9760 Y32.2778 F100.00
G01 X-1.8870 Y32.2176 F100.00
G01 X-1.8240 Y32.1517 F100.00
G01 X-1.7646 Y32.0526 F100.00
G01 X-1.7349 Y31.9604 F100.00
G01 X-1.7250 Y31.8650 F100.00
G01 X-1.7250 Y30.1750 F100.00
G01 X-1.7448 Y30.0406 F100.00
G01 X-1.7772 Y29.9610 F100.00
G01 X-1.8247 Y29.8874 F100.00
G01 X-1.8870 Y29.8224 F100.00
G01 X-1.9406 Y29.7827 F100.00
G01 X-2.0219 Y29.7416 F100.00
G01 X-2.1097 Y29.7171 F100.00
G01 X-2.3450 Y29.7100 F100.00
G01 X-2.3450 Y29.6400 F100.00
G01 X-2.1510 Y29.6400 F100.00
G01 X-2.0826 Y29.6470 F100.00
G01 X-1.9624 Y29.6869 F100.00
G01 X-1.8559 Y29.7525 F100.00
G01 X-1.7676 Y29.8409 F100.00
G01 X-1.6710 Y29.9979 F100.00
G01 X-1.6212 Y30.0507 F100.00
G01 X-1.5577 Y30.0979 F100.00
G01 X-1.5042 Y30.1245 F100.00
G01 X-1.3731 Y30.1404 F100.00
G01 X-1.2925 Y30.1274 F100.00
G01 X-1.1949 Y30.0766 F100.00
G01 X-1.1606 Y30.0512 F100.00
G01 X-1.0227 Y29.9137 F100.00
G01 X-0.8756 Y29.8068 F100.00
G01 X-0.7135 Y29.7242 F100.00
G01 X-0.5406 Y29.6680 F100.00
G01 X-0.3609 Y29.6395 F100.00
G01 X-0.1791 Y29.6395 F100.00
G01 X0.0006 Y29.6680 F100.00
G01 X0.1735 Y29.7242 F100.00
G01 X0.3356 Y29.8068 F100.00
G01 X0.4827 Y29.9137 F100.00
G01 X0.6113 Y30.0423 F100.00
G01 X0.7316 Y30.2074 F100.00
G01 X0.7723 Y30.2515 F100.00
G01 X0.8880 Y30.3184 F100.00
G01 X0.9754 Y30.3370 F100.00
G01 X1.1124 Y30.3202 F100.00
G01 X1.1590 Y30.2983 F100.00
G01 X1.2403 Y30.2366 F100.00
G01 X1.3887 Y30.0423 F100.00
G01 X1.5173 Y29.9137 F100.00
G01 X1.6495 Y29.8173 F100.00
G01 X1.7106 Y29.7551 F100.00
G01 X1.7425 Y29.7049 F100.00
G01 X1.7726 Y29.6096 F100.00
G01 X1.7813 Y29.5491 F100.00
G01 X1.7813 Y6.6819 F100.00
G01 X1.8001 Y6.5875 F100.00
G01 X1.8370 Y6.4985 F100.00
G01 X1.8904 Y6.4185 F100.00
G01 X2.4735 Y5.8354 F100.00
G01 X2.5535 Y5.7820 F100.00
G01 X2.6425 Y5.7451 F100.00
G01 X2.7369 Y5.7263 F100.00
G01 X4.8623 Y5.7262 F100.00
G01 X4.9387 Y5.7141 F100.00
G01 X5.0489 Y5.6632 F100.00
G01 X5.1100 Y5.6053 F100.00
G01 X5.1646 Y5.5187 F100.00
G01 X5.1822 Y5.4692 F100.00
G01 X5.1853 Y5.3216 F100.00
G01 X5.1395 Y5.1522 F100.00
G01 X5.1401 Y4.7313 F100.00
G01 X5.1722 Y4.6207 F100.00
G01 X5.2773 Y4.4408 F100.00
G01 X5.2954 Y4.3685 F100.00
G01 X5.3004 Y4.2696 F100.00
G01 X5.2898 Y4.2156 F100.00
G01 X5.2495 Y4.1282 F100.00
G01 X5.1722 Y3.9993 F100.00
G01 X5.1395 Y3.8822 F100.00
G01 X5.1401 Y3.4613 F100.00
G01 X5.1722 Y3.3507 F100.00
G01 X5.2853 Y3.1500 F100.00
G01 X5.3008 Y3.0201 F100.00
G01 X5.2875 Y2.9388 F100.00
G01 X5.2495 Y2.8582 F100.00
G01 X5.1722 Y2.7293 F100.00
G01 X5.1401 Y2.6187 F100.00
G01 X5.1395 Y2.1978 F100.00
G01 X5.1863 Y2.0258 F100.00
G01 X5.1901 Y1.9591 F100.00
G01 X5.1761 Y1.8645 F100.00
G01 X5.1485 Y1.7972 F100.00
G01 X5.0725 Y1.7063 F100.00
G01 X5.0084 Y1.6622 F100.00
G01 X4.9034 Y1.6296 F100.00
G01 X4.8534 Y1.6237 F100.00
G01 X1.1585 Y1.6277 F100.00
G01 X1.0897 Y1.6471 F100.00
G01 X0.9756 Y1.7159 F100.00
G01 X0.5880 Y2.1031 F100.00
G01 X0.5281 Y2.1858 F100.00
G01 X0.4946 Y2.2928 F100.00
G01 X0.4887 Y2.3428 F100.00
G01 X0.4887 Y26.3882 F100.00
G01 X0.4954 Y26.4548 F100.00
G01 X0.5069 Y26.4911 F100.00
G01 X0.5386 Y26.5630 F100.00
G01 X0.6297 Y26.7197 F100.00
G01 X0.6742 Y26.8567 F100.00
G01 X0.6892 Y27.0000 F100.00
G01 X0.6742 Y27.1433 F100.00
G01 X0.6296 Y27.2803 F100.00
G01 X0.5576 Y27.4051 F100.00
G01 X0.4612 Y27.5122 F100.00
G01 X0.3446 Y27.5969 F100.00
G01 X0.2130 Y27.6555 F100.00
G01 X0.0720 Y27.6855 F100.00
G01 X-0.0720 Y27.6855 F100.00
G01 X-0.2130 Y27.6555 F100.00
G01 X-0.3446 Y27.5969 F100.00
G01 X-0.4612 Y27.5122 F100.00
G01 X-0.5576 Y27.4051 F100.00
G01 X-0.6296 Y27.2803 F100.00
G01 X-0.6742 Y27.1433 F100.00
G01 X-0.6892 Y27.0000 F100.00
G01 X-0.6742 Y26.8567 F100.00
G01 X-0.6296 Y26.7197 F100.00
G01 X-0.5275 Y26.5438 F100.00
G01 X-0.4900 Y26.4119 F100.00
G01 X-0.4897 Y25.9843 F100.00
G01 X-0.4984 Y25.9394 F100.00
G01 X-0.5395 Y25.8336 F100.00
G01 X-0.5915 Y25.7708 F100.00
G01 X-0.6698 Y25.7124 F100.00
G01 X-0.7165 Y25.6906 F100.00
G01 X-0.8535 Y25.6744 F100.00
G01 X-0.9280 Y25.6855 F100.00
G01 X-1.0720 Y25.6855 F100.00
G01 X-1.2130 Y25.6555 F100.00
G01 X-1.3446 Y25.5969 F100.00
G01 X-1.4612 Y25.5122 F100.00
G01 X-1.5576 Y25.4051 F100.00
G01 X-1.6296 Y25.2803 F100.00
G01 X-1.6742 Y25.1433 F100.00
G01 X-1.6892 Y25.0000 F100.00
G01 X-1.6742 Y24.8567 F100.00
G01 X-1.6296 Y24.7197 F100.00
G01 X-1.5275 Y24.5438 F100.00
G01 X-1.4946 Y24.4382 F100.00
G01 X-1.4887 Y24.3882 F100.00
G01 X-1.4887 Y0.9519 F100.00
G01 X-1.4699 Y0.8575 F100.00
G01 X-1.4427 Y0.7919 F100.00
G01 X-1.3796 Y0.6885 F100.00
G01 X-0.1765 Y-0.5146 F100.00
G01 X-0.0965 Y-0.5680 F100.00
G01 X-0.0075 Y-0.6049 F100.00
G01 X0.0869 Y-0.6237 F100.00
G01 X4.8684 Y-0.6242 F100.00
G01 X4.9510 Y-0.6404 F100.00
G01 X5.0331 Y-0.6777 F100.00
G01 X5.0818 Y-0.7122 F100.00
G01 X5.1646 Y-0.8313 F100.00
G01 X5.1870 Y-0.9161 F100.00
G01 X5.1853 Y-1.0284 F100.00
G01 X5.1395 Y-1.1978 F100.00
G01 X5.1395 Y-1.6123 F100.00
G01 X5.1863 Y-1.7842 F100.00
G01 X5.1901 Y-1.8509 F100.00
G01 X5.1656 Y-1.9792 F100.00
G01 X5.1382 Y-2.0278 F100.00
G01 X5.0830 Y-2.0924 F100.00
G01 X5.0495 Y-2.1236 F100.00
G01 X5.0084 Y-2.1478 F100.00
G01 X4.8829 Y-2.1843 F100.00
G01 X4.4148 Y-2.1863 F100.00
G01 X4.3204 Y-2.2051 F100.00
G01 X4.2314 Y-2.2420 F100.00
G01 X4.1514 Y-2.2954 F100.00
G01 X1.6204 Y-4.8264 F100.00
G01 X1.5670 Y-4.9064 F100.00
G01 X1.5301 Y-4.9954 F100.00
G01 X1.5113 Y-5.0898 F100.00
G01 X1.5101 Y-8.0308 F100.00
G01 X1.4975 Y-8.0858 F100.00
G01 X1.4487 Y-8.1980 F100.00
G01 X1.4095 Y-8.2411 F100.00
G01 X1.3030 Y-8.3144 F100.00
G01 X1.2424 Y-8.3313 F100.00
G01 X1.1099 Y-8.3349 F100.00
G01 X1.0532 Y-8.3170 F100.00
G01 X0.9561 Y-8.2619 F100.00
G01 X0.0665 Y-7.3754 F100.00
G01 X-0.0135 Y-7.3220 F100.00
G01 X-0.1025 Y-7.2851 F100.00
G01 X-0.1969 Y-7.2663 F100.00
G01 X-2.8857 Y-7.2646 F100.00
G01 X-2.9510 Y-7.2496 F100.00
G01 X-3.0673 Y-7.1902 F100.00
G01 X-3.1100 Y-7.1453 F100.00
G01 X-3.1688 Y-7.0499 F100.00
G01 X-3.1860 Y-6.9863 F100.00
G01 X-3.1873 Y-6.8837 F100.00
G01 X-3.1395 Y-6.6923 F100.00
G01 X-3.1401 Y-6.2713 F100.00
G01 X-3.1722 Y-6.1607 F100.00
G01 X-3.2805 Y-5.9732 F100.00
G01 X-3.2944 Y-5.9190 F100.00
G01 X-3.3008 Y-5.8303 F100.00
G01 X-3.2878 Y-5.7496 F100.00
G01 X-3.2495 Y-5.6682 F100.00
G01 X-3.1722 Y-5.5393 F100.00
G01 X-3.1395 Y-5.4223 F100.00
G01 X-3.1401 Y-5.0013 F100.00
G01 X-3.1722 Y-4.8907 F100.00
G01 X-3.2805 Y-4.7032 F100.00
G01 X-3.2944 Y-4.6490 F100.00
G01 X-3.3008 Y-4.5603 F100.00
G01 X-3.2878 Y-4.4796 F100.00
G01 X-3.2495 Y-4.3982 F100.00
G01 X-3.1722 Y-4.2693 F100.00
G01 X-3.1395 Y-4.1523 F100.00
G01 X-3.1401 Y-3.7313 F100.00
G01 X-3.1722 Y-3.6207 F100.00
G01 X-3.2805 Y-3.4332 F100.00
G01 X-3.2944 Y-3.3790 F100.00
G01 X-3.3008 Y-3.2903 F100.00
G01 X-3.2878 Y-3.2096 F100.00
G01 X-3.2495 Y-3.1282 F100.00
G01 X-3.1722 Y-2.9993 F100.00
G01 X-3.1395 Y-2.8823 F100.00
G01 X-3.1401 Y-2.4613 F100.00
G01 X-3.1722 Y-2.3507 F100.00
G01 X-3.2805 Y-2.1632 F100.00
G01 X-3.2944 Y-2.1090 F100.00
G01 X-3.3008 Y-2.0203 F100.00
G01 X-3.2878 Y-1.9396 F100.00
G01 X-3.2495 Y-1.8582 F100.00
G01 X-3.1722 Y-1.7293 F100.00
G01 X-3.1395 Y-1.6123 F100.00
G01 X-3.1401 Y-1.1913 F100.00
G01 X-3.1722 Y-1.0807 F100.00
G01 X-3.2805 Y-0.8932 F100.00
G01 X-3.2944 Y-0.8390 F100.00
G01 X-3.3008 Y-0.7503 F100.00
G01 X-3.2878 Y-0.6696 F100.00
G01 X-3.2495 Y-0.5882 F100.00
G01 X-3.1722 Y-0.4593 F100.00
G01 X-3.1395 Y-0.3423 F100.00
G01 X-3.1401 Y0.0787 F100.00
G01 X-3.1722 Y0.1893 F100.00
G01 X-3.2805 Y0.3768 F100.00
G01 X-3.2944 Y0.4310 F100.00
G01 X-3.3008 Y0.5197 F100.00
G01 X-3.2878 Y0.6004 F100.00
G01 X-3.2495 Y0.6818 F100.00
G01 X-3.1722 Y0.8107 F100.00
G01 X-3.1395 Y0.9277 F100.00
G01 X-3.1401 Y1.3487 F100.00
G01 X-3.1722 Y1.4593 F100.00
G01 X-3.2805 Y1.6468 F100.00
G01 X-3.2944 Y1.7010 F100.00
G01 X-3.3008 Y1.7897 F100.00
G01 X-3.2878 Y1.8704 F100.00
G01 X-3.2495 Y1.9518 F100.00
G01 X-3.1722 Y2.0807 F100.00
G01 X-3.1395 Y2.1978 F100.00
G01 X-3.1401 Y2.6187 F100.00
G01 X-3.1722 Y2.7293 F100.00
G01 X-3.2805 Y2.9168 F100.00
G01 X-3.2944 Y2.9710 F100.00
G01 X-3.3008 Y3.0597 F100.00
G01 X-3.2878 Y3.1404 F100.00
G01 X-3.2495 Y3.2218 F100.00
G01 X-3.1722 Y3.3507 F100.00
G01 X-3.1395 Y3.4677 F100.00
G01 X-3.1401 Y3.8887 F100.00
G01 X-3.1722 Y3.9993 F100.00
G01 X-3.2805 Y4.1868 F100.00
G01 X-3.2944 Y4.2410 F100.00
G01 X-3.3008 Y4.3297 F100.00
G01 X-3.2878 Y4.4104 F100.00
G01 X-3.2495 Y4.4918 F100.00
G01 X-3.1722 Y4.6207 F100.00
G01 X-3.1395 Y4.7377 F100.00
G01 X-3.1401 Y5.1587 F100.00
G01 X-3.1722 Y5.2693 F100.00
G01 X-3.2805 Y5.4568 F100.00
G01 X-3.2944 Y5.5110 F100.00
G01 X-3.3008 Y5.5997 F100.00
G01 X-3.2878 Y5.6804 F100.00
G01 X-3.2495 Y5.7618 F100.00
G01 X-3.1722 Y5.8907 F100.00
G01 X-3.1395 Y6.0077 F100.00
G01 X-3.1401 Y6.4287 F100.00
G01 X-3.1722 Y6.5393 F100.00
G01 X-3.2805 Y6.7268 F100.00
G01 X-3.2944 Y6.7810 F100.00
G01 X-3.3008 Y6.8697 F100.00
G01 X-3.2878 Y6.9504 F100.00
G01 X-3.2495 Y7.0318 F100.00
G01 X-3.1722 Y7.1607 F100.00
G01 X-3.1395 Y7.2777 F100.00
G01 X-3.1401 Y7.6987 F100.00
G01 X-3.1722 Y7.8093 F100.00
G01 X-3.2776 Y7.9895 F100.00
G01 X-3.2947 Y8.0514 F100.00
G01 X-3.2982 Y8.1828 F100.00
G01 X-3.2559 Y8.2900 F100.00
G01 X-3.3909 Y8.2900 F100.00
G01 X-3.4792 Y8.2529 F100.00
G01 X-3.5750 Y8.2400 F100.00
G01 X-5.5500 Y8.2400 F100.00
G01 X-5.6660 Y8.2590 F100.00
G01 X-5.7473 Y8.2979 F100.00
G01 X-5.8154 Y8.3545 F100.00
G01 X-5.8703 Y8.4299 F100.00
G01 X-5.9057 Y8.5235 F100.00
G01 X-5.9150 Y8.6050 F100.00
G01 X-5.9141 Y8.9303 F100.00
G01 X-5.8995 Y9.0103 F100.00
G01 X-5.8667 Y9.0863 F100.00
G01 X-5.8292 Y9.1401 F100.00
G01 X-5.7733 Y9.1937 F100.00
G01 X-5.7251 Y9.2253 F100.00
G01 X-5.6553 Y9.2545 F100.00
G01 X-5.5606 Y9.2698 F100.00
G01 X-5.0275 Y9.2700 F100.00
G01 X-5.0275 Y9.3400 F100.00
G01 X-5.6137 Y9.3395 F100.00
G01 X-5.7241 Y9.3074 F100.00
G01 X-5.8187 Y9.2514 F100.00
G01 X-5.9451 Y9.1216 F100.00
G01 X-5.9844 Y9.0928 F100.00
G01 X-6.0867 Y9.0465 F100.00
G01 X-6.1547 Y9.0355 F100.00
G01 X-6.3042 Y9.0610 F100.00
G01 X-6.3528 Y9.0884 F100.00
G01 X-6.4253 Y9.1508 F100.00
G01 X-6.4731 Y9.2189 F100.00
G01 X-6.5110 Y9.3620 F100.00
G00 Z2.0000
G00 X-3.5291 Y9.1271
G01 F40.00
G01 Z0.1000
G01 F100.00
G01 X-3.4848 Y9.1130 F100.00
G01 X-3.4330 Y9.0818 F100.00
G01 X-3.0295 Y9.0818 F100.00
G01 X-3.0448 Y9.1345 F100.00
G01 X-3.1185 Y9.2591 F100.00
G01 X-3.2209 Y9.3615 F100.00
G01 X-3.3455 Y9.4352 F100.00
G01 X-3.5124 Y9.4782 F100.00
G01 X-4.2357 Y9.4782 F100.00
G01 X-4.2357 Y9.1318 F100.00
G01 X-3.5291 Y9.1271 F100.00
G00 Z2.0000
G00 X-3.4991 Y9.2620
G01 F40.00
G01 Z0.1000
G01 F100.00
G01 X-3.3909 Y9.2200 F100.00
G01 X-3.2749 Y9.2200 F100.00
G01 X-3.3063 Y9.2514 F100.00
G01 X-3.4009 Y9.3074 F100.00
G01 X-3.5113 Y9.3395 F100.00
G01 X-4.0975 Y9.3400 F100.00
G01 X-4.0975 Y9.2700 F100.00
G01 X-3.5750 Y9.2700 F100.00
G01 X-3.4991 Y9.2620 F100.00
G00 Z2.0000
G00 X3.5879 Y7.9288
G01 F40.00
G01 Z0.1000
G01 F100.00
G01 X3.5817 Y8.0000 F100.00
G01 X3.5819 Y25.0106 F100.00
G01 X3.5897 Y25.0818 F100.00
G01 X3.6097 Y25.1502 F100.00
G01 X3.6465 Y25.2235 F100.00
G01 X3.6835 Y25.2734 F100.00
G01 X4.3917 Y25.9833 F100.00
G01 X4.3917 Y29.7939 F100.00
G01 X4.2893 Y29.8433 F100.00
G01 X4.1986 Y29.8989 F100.00
G01 X4.0428 Y30.0278 F100.00
G01 X3.9139 Y30.1836 F100.00
G01 X3.8583 Y30.2743 F100.00
G01 X3.8097 Y30.3747 F100.00
G01 X3.7689 Y30.4902 F100.00
G01 X3.7302 Y30.6883 F100.00
G01 X3.7250 Y31.2450 F100.00
G01 X3.7315 Y31.3618 F100.00
G01 X3.7715 Y31.5593 F100.00
G01 X3.8097 Y31.6653 F100.00
G01 X3.8583 Y31.7657 F100.00
G01 X3.9648 Y31.9250 F100.00
G01 X4.0428 Y32.0122 F100.00
G01 X4.1137 Y32.0769 F100.00
G01 X4.1986 Y32.1411 F100.00
G01 X4.2893 Y32.1967 F100.00
G01 X4.4046 Y32.2512 F100.00
G01 X4.4957 Y32.2835 F100.00
G01 X4.6087 Y32.3110 F100.00
G01 X4.8100 Y32.3300 F100.00
G01 X5.0113 Y32.3110 F100.00
G01 X5.1243 Y32.2835 F100.00
G01 X5.2154 Y32.2512 F100.00
G01 X5.3307 Y32.1967 F100.00
G01 X5.4214 Y32.1411 F100.00
G01 X5.5063 Y32.0769 F100.00
G01 X5.5772 Y32.0122 F100.00
G01 X5.6552 Y31.9250 F100.00
G01 X5.7178 Y31.8389 F100.00
G01 X5.7717 Y31.7471 F100.00
G01 X5.8485 Y31.5593 F100.00
G01 X5.8898 Y31.3517 F100.00
G01 X5.8950 Y30.7950 F100.00
G01 X5.8898 Y30.6883 F100.00
G01 X5.8511 Y30.4902 F100.00
G01 X5.8103 Y30.3747 F100.00
G01 X5.7617 Y30.2743 F100.00
G01 X5.7061 Y30.1836 F100.00
G01 X5.5772 Y30.0278 F100.00
G01 X5.4214 Y29.8989 F100.00
G01 X5.3307 Y29.8433 F100.00
G01 X5.2283 Y29.7939 F100.00
G01 X5.2283 Y25.8100 F100.00
G01 X5.2203 Y25.7282 F100.00
G01 X5.1837 Y25.6222 F100.00
G01 X5.1265 Y25.5366 F100.00
G01 X4.4183 Y24.8267 F100.00
G01 X4.4183 Y24.0100 F100.00
G01 X6.5817 Y26.1733 F100.00
G01 X6.5817 Y31.8267 F100.00
G01 X5.8267 Y32.5817 F100.00
G01 X0.1733 Y32.5817 F100.00
G01 X0.1483 Y32.5567 F100.00
G01 X0.1483 Y32.2461 F100.00
G01 X0.2507 Y32.1967 F100.00
G01 X0.3414 Y32.1411 F100.00
G01 X0.4896 Y32.0195 F100.00
G01 X0.5619 Y31.9413 F100.00
G01 X0.6261 Y31.8564 F100.00
G01 X0.6817 Y31.7657 F100.00
G01 X0.7303 Y31.6653 F100.00
G01 X0.7685 Y31.5593 F100.00
G01 X0.8085 Y31.3618 F100.00
G01 X0.8150 Y31.2450 F100.00
G01 X0.8148 Y30.7844 F100.00
G01 X0.8098 Y30.6883 F100.00
G01 X0.7919 Y30.5730 F100.00
G01 X0.7685 Y30.4807 F100.00
G01 X0.7303 Y30.3747 F100.00
G01 X0.6817 Y30.2743 F100.00
G01 X0.6261 Y30.1836 F100.00
G01 X0.4972 Y30.0278 F100.00
G01 X0.4100 Y29.9498 F100.00
G01 X0.3239 Y29.8872 F100.00
G01 X0.1503 Y29.7947 F100.00
G01 X0.0443 Y29.7565 F100.00
G01 X-0.0687 Y29.7290 F100.00
G01 X-0.2700 Y29.7100 F100.00
G01 X-0.3767 Y29.7152 F100.00
G01 X-0.4920 Y29.7331 F100.00
G01 X-0.6754 Y29.7888 F100.00
G01 X-0.7721 Y29.8333 F100.00
G01 X-0.8639 Y29.8872 F100.00
G01 X-0.9500 Y29.9498 F100.00
G01 X-1.0372 Y30.0278 F100.00
G01 X-1.1019 Y30.0987 F100.00
G01 X-1.1778 Y30.2011 F100.00
G01 X-1.2317 Y30.2929 F100.00
G01 X-1.3085 Y30.4807 F100.00
G01 X-1.3498 Y30.6883 F100.00
G01 X-1.3550 Y31.2450 F100.00
G01 X-1.3498 Y31.3517 F100.00
G01 X-1.3319 Y31.4670 F100.00
G01 X-1.2762 Y31.6504 F100.00
G01 X-1.2317 Y31.7471 F100.00
G01 X-1.1661 Y31.8564 F100.00
G01 X-1.0445 Y32.0046 F100.00
G01 X-0.9500 Y32.0902 F100.00
G01 X-0.7907 Y32.1967 F100.00
G01 X-0.6883 Y32.2461 F100.00
G01 X-0.6863 Y32.7713 F100.00
G01 X-0.6670 Y32.8615 F100.00
G01 X-0.6235 Y32.9535 F100.00
G01 X-0.5658 Y33.0258 F100.00
G01 X-0.2580 Y33.3292 F100.00
G01 X-0.1697 Y33.3822 F100.00
G01 X-0.0515 Y33.4150 F100.00
G01 X6.0000 Y33.4183 F100.00
G01 X6.0818 Y33.4103 F100.00
G01 X6.1878 Y33.3737 F100.00
G01 X6.2882 Y33.3031 F100.00
G01 X7.2958 Y32.2958 F100.00
G01 X7.3418 Y32.2410 F100.00
G01 X7.3737 Y32.1878 F100.00
G01 X7.4005 Y32.1208 F100.00
G01 X7.4150 Y32.0515 F100.00
G01 X7.4183 Y26.0000 F100.00
G01 X7.4005 Y25.8792 F100.00
G01 X7.3637 Y25.7936 F100.00
G01 X7.2958 Y25.7042 F100.00
G01 X5.0279 Y23.4363 F100.00
G01 X5.0279 Y9.1733 F100.00
G01 X5.3278 Y9.1733 F100.00
G01 X5.3777 Y9.2121 F100.00
G01 X5.4303 Y9.2401 F100.00
G01 X5.4991 Y9.2620 F100.00
G01 X5.5644 Y9.2698 F100.00
G01 X7.5500 Y9.2700 F100.00
G01 X7.6259 Y9.2620 F100.00
G01 X7.7127 Y9.2317 F100.00
G01 X7.7851 Y9.1842 F100.00
G01 X7.8387 Y9.1283 F100.00
G01 X7.8851 Y9.0497 F100.00
G01 X7.9057 Y8.9865 F100.00
G01 X7.9141 Y8.9303 F100.00
G01 X7.9120 Y8.5587 F100.00
G01 X7.8995 Y8.4997 F100.00
G01 X7.8767 Y8.4423 F100.00
G01 X7.8081 Y8.3469 F100.00
G01 X7.7127 Y8.2783 F100.00
G01 X7.6553 Y8.2555 F100.00
G01 X7.5963 Y8.2430 F100.00
G01 X5.5750 Y8.2400 F100.00
G01 X5.5142 Y8.2452 F100.00
G01 X5.4452 Y8.2639 F100.00
G01 X5.3777 Y8.2979 F100.00
G01 X5.3278 Y8.3367 F100.00
G01 X4.8440 Y8.3369 F100.00
G01 X4.7338 Y8.3545 F100.00
G01 X4.6668 Y8.3813 F100.00
G01 X4.5966 Y8.4258 F100.00
G01 X4.4183 Y8.5996 F100.00
G01 X4.4183 Y8.1733 F100.00
G01 X4.6883 Y7.9033 F100.00
G01 X5.3278 Y7.9033 F100.00
G01 X5.3777 Y7.9421 F100.00
G01 X5.4303 Y7.9701 F100.00
G01 X5.4991 Y7.9920 F100.00
G01 X5.5644 Y7.9998 F100.00
G01 X7.5500 Y8.0000 F100.00
G01 X7.6458 Y7.9871 F100.00
G01 X7.7251 Y7.9553 F100.00
G01 X7.8005 Y7.9004 F100.00
G01 X7.8571 Y7.8323 F100.00
G01 X7.8911 Y7.7648 F100.00
G01 X7.9070 Y7.7109 F100.00
G01 X7.9148 Y7.6456 F100.00
G01 X7.9098 Y7.2742 F100.00
G01 X7.8703 Y7.1599 F100.00
G01 X7.8005 Y7.0696 F100.00
G01 X7.7473 Y7.0279 F100.00
G01 X7.6947 Y6.9999 F100.00
G01 X7.6315 Y6.9793 F100.00
G01 X7.5753 Y6.9709 F100.00
G01 X5.5644 Y6.9702 F100.00
G01 X5.4991 Y6.9780 F100.00
G01 X5.4303 Y6.9999 F100.00
G01 X5.3777 Y7.0279 F100.00
G01 X5.3278 Y7.0667 F100.00
G01 X4.5150 Y7.0667 F100.00
G01 X4.4438 Y7.0729 F100.00
G01 X4.3272 Y7.1113 F100.00
G01 X4.2740 Y7.1432 F100.00
G01 X4.2192 Y7.1892 F100.00
G01 X3.6835 Y7.7266 F100.00
G01 X3.6263 Y7.8122 F100.00
G01 X3.5879 Y7.9288 F100.00
G00 Z2.0000
G00 X3.7246 Y7.9491
G01 F40.00
G01 Z0.1000
G01 F100.00
G01 X3.7200 Y25.0038 F100.00
G01 X3.7399 Y25.1037 F100.00
G01 X3.7859 Y25.1805 F100.00
G01 X4.5299 Y25.9260 F100.00
G01 X4.5299 Y29.8908 F100.00
G01 X4.3604 Y29.9619 F100.00
G01 X4.2065 Y30.0656 F100.00
G01 X4.0758 Y30.1973 F100.00
G01 X3.9733 Y30.3520 F100.00
G01 X3.9039 Y30.5204 F100.00
G01 X3.8678 Y30.7021 F100.00
G01 X3.8633 Y31.2488 F100.00
G01 X3.8822 Y31.4334 F100.00
G01 X3.9360 Y31.6091 F100.00
G01 X4.0249 Y31.7741 F100.00
G01 X4.1405 Y31.9145 F100.00
G01 X4.2809 Y32.0301 F100.00
G01 X4.4459 Y32.1190 F100.00
G01 X4.6290 Y32.1743 F100.00
G01 X4.8138 Y32.1917 F100.00
G01 X4.9065 Y32.1868 F100.00
G01 X5.0812 Y32.1520 F100.00
G01 X5.2596 Y32.0781 F100.00
G01 X5.4077 Y31.9792 F100.00
G01 X5.4768 Y31.9171 F100.00
G01 X5.5951 Y31.7741 F100.00
G01 X5.6840 Y31.6091 F100.00
G01 X5.7393 Y31.4260 F100.00
G01 X5.7567 Y31.2488 F100.00
G01 X5.7568 Y30.7950 F100.00
G01 X5.7518 Y30.6985 F100.00
G01 X5.7161 Y30.5204 F100.00
G01 X5.6467 Y30.3520 F100.00
G01 X5.5951 Y30.2659 F100.00
G01 X5.4821 Y30.1282 F100.00
G01 X5.4077 Y30.0608 F100.00
G01 X5.2596 Y29.9619 F100.00
G01 X5.0901 Y29.8908 F100.00
G01 X5.0901 Y25.8100 F100.00
G01 X5.0839 Y25.7517 F100.00
G01 X5.0587 Y25.6813 F100.00
G01 X5.0107 Y25.6147 F100.00
G01 X4.2801 Y24.8840 F100.00
G01 X4.2801 Y8.1160 F100.00
G01 X4.6310 Y7.7651 F100.00
G01 X5.3893 Y7.7651 F100.00
G01 X5.4283 Y7.8079 F100.00
G01 X5.4670 Y7.8344 F100.00
G01 X5.5128 Y7.8530 F100.00
G01 X5.5712 Y7.8617 F100.00
G01 X7.5959 Y7.8571 F100.00
G01 X7.6580 Y7.8344 F100.00
G01 X7.7076 Y7.7980 F100.00
G01 X7.7406 Y7.7578 F100.00
G01 X7.7671 Y7.7006 F100.00
G01 X7.7768 Y7.6350 F100.00
G01 X7.7731 Y7.2945 F100.00
G01 X7.7482 Y7.2248 F100.00
G01 X7.6951 Y7.1607 F100.00
G01 X7.6333 Y7.1241 F100.00
G01 X7.5538 Y7.1083 F100.00
G01 X5.5712 Y7.1083 F100.00
G01 X5.5128 Y7.1170 F100.00
G01 X5.4670 Y7.1356 F100.00
G01 X5.4283 Y7.1621 F100.00
G01 X5.3893 Y7.2049 F100.00
G01 X4.4641 Y7.2096 F100.00
G01 X4.3863 Y7.2363 F100.00
G01 X4.3169 Y7.2869 F100.00
G01 X3.7859 Y7.8195 F100.00
G01 X3.7513 Y7.8713 F100.00
G01 X3.7246 Y7.9491 F100.00
G00 Z2.0000
G00 X8.0972 Y4.5757
G01 F40.00
G01 Z0.1000
G01 F100.00
G01 X8.1183 Y4.6321 F100.00
G01 X8.1814 Y4.7350 F100.00
G01 X9.3796 Y5.9335 F100.00
G01 X9.4330 Y6.0135 F100.00
G01 X9.4699 Y6.1025 F100.00
G01 X9.4887 Y6.1969 F100.00
G01 X9.4887 Y17.0076 F100.00
G01 X9.5025 Y17.0858 F100.00
G01 X9.5319 Y17.1634 F100.00
G01 X9.5634 Y17.2140 F100.00
G01 X9.6628 Y17.2953 F100.00
G01 X9.7392 Y17.3282 F100.00
G01 X9.8474 Y17.3379 F100.00
G01 X9.9007 Y17.3328 F100.00
G01 X9.9571 Y17.3117 F100.00
G01 X10.0553 Y17.2527 F100.00
G01 X10.4441 Y16.8591 F100.00
G01 X10.4797 Y16.7948 F100.00
G01 X10.5110 Y16.6685 F100.00
G01 X10.5112 Y7.6039 F100.00
G01 X10.4932 Y7.5093 F100.00
G01 X10.4614 Y7.4370 F100.00
G01 X10.3704 Y7.2803 F100.00
G01 X10.3258 Y7.1433 F100.00
G01 X10.3108 Y7.0000 F100.00
G01 X10.3258 Y6.8567 F100.00
G01 X10.3704 Y6.7197 F100.00
G01 X10.4424 Y6.5949 F100.00
G01 X10.5388 Y6.4878 F100.00
G01 X10.6554 Y6.4031 F100.00
G01 X10.7870 Y6.3445 F100.00
G01 X10.9280 Y6.3145 F100.00
G01 X11.0720 Y6.3145 F100.00
G01 X11.2130 Y6.3445 F100.00
G01 X11.3446 Y6.4031 F100.00
G01 X11.4612 Y6.4878 F100.00
G01 X11.5576 Y6.5949 F100.00
G01 X11.6297 Y6.7197 F100.00
G01 X11.6742 Y6.8567 F100.00
G01 X11.6892 Y7.0000 F100.00
G01 X11.6742 Y7.1433 F100.00
G01 X11.6296 Y7.2803 F100.00
G01 X11.5275 Y7.4562 F100.00
G01 X11.4946 Y7.5618 F100.00
G01 X11.4887 Y7.6118 F100.00
G01 X11.4887 Y17.0481 F100.00
G01 X11.4699 Y17.1425 F100.00
G01 X11.4330 Y17.2315 F100.00
G01 X11.3796 Y17.3115 F100.00
G01 X10.5794 Y18.1121 F100.00
G01 X10.5269 Y18.1885 F100.00
G01 X10.4890 Y18.3315 F100.00
G01 X10.4887 Y29.1552 F100.00
G01 X10.4988 Y29.2357 F100.00
G01 X10.5171 Y29.2885 F100.00
G01 X10.5850 Y29.3904 F100.00
G01 X10.6343 Y29.4328 F100.00
G01 X10.7554 Y29.4856 F100.00
G01 X10.8361 Y29.4920 F100.00
G01 X10.9265 Y29.4773 F100.00
G01 X10.9857 Y29.4550 F100.00
G01 X11.0842 Y29.3735 F100.00
G01 X11.1271 Y29.3156 F100.00
G01 X11.2156 Y29.2271 F100.00
G01 X11.3222 Y29.1614 F100.00
G01 X11.4425 Y29.1215 F100.00
G01 X11.5109 Y29.1145 F100.00
G01 X12.4891 Y29.1145 F100.00
G01 X12.5575 Y29.1215 F100.00
G01 X12.6778 Y29.1614 F100.00
G01 X12.7844 Y29.2271 F100.00
G01 X12.9733 Y29.4251 F100.00
G01 X13.0286 Y29.4543 F100.00
G01 X13.1379 Y29.4843 F100.00
G01 X14.8326 Y29.4863 F100.00
G01 X14.9441 Y29.4662 F100.00
G01 X15.0002 Y29.4415 F100.00
G01 X15.0891 Y29.3656 F100.00
G01 X15.1271 Y29.3156 F100.00
G01 X15.2156 Y29.2271 F100.00
G01 X15.3444 Y29.1462 F100.00
G01 X15.4100 Y29.0834 F100.00
G01 X15.4543 Y29.0097 F100.00
G01 X15.4860 Y28.8822 F100.00
G01 X15.4835 Y27.5590 F100.00
G01 X15.4631 Y27.4723 F100.00
G01 X15.4380 Y27.4210 F100.00
G01 X15.3656 Y27.3374 F100.00
G01 X15.2812 Y27.2781 F100.00
G01 X15.1969 Y27.1938 F100.00
G01 X15.1342 Y27.0922 F100.00
G01 X15.0962 Y26.9774 F100.00
G01 X15.0895 Y26.9124 F100.00
G01 X15.0895 Y26.3876 F100.00
G01 X15.0962 Y26.3226 F100.00
G01 X15.1342 Y26.2078 F100.00
G01 X15.1969 Y26.1062 F100.00
G01 X15.2812 Y26.0219 F100.00
G01 X15.3828 Y25.9592 F100.00
G01 X15.4976 Y25.9212 F100.00
G01 X15.5626 Y25.9145 F100.00
G01 X16.3874 Y25.9145 F100.00
G01 X16.4524 Y25.9212 F100.00
G01 X16.5672 Y25.9592 F100.00
G01 X16.6688 Y26.0219 F100.00
G01 X16.7531 Y26.1062 F100.00
G01 X16.8158 Y26.2078 F100.00
G01 X16.8538 Y26.3226 F100.00
G01 X16.8605 Y26.3876 F100.00
G01 X16.8605 Y26.9124 F100.00
G01 X16.8538 Y26.9774 F100.00
G01 X16.8158 Y27.0922 F100.00
G01 X16.7531 Y27.1938 F100.00
G01 X16.6688 Y27.2781 F100.00
G01 X16.5965 Y27.3260 F100.00
G01 X16.5249 Y27.3997 F100.00
G01 X16.4957 Y27.4550 F100.00
G01 X16.4657 Y27.5644 F100.00
G01 X16.4679 Y28.8975 F100.00
G01 X16.5121 Y29.0161 F100.00
G01 X16.5453 Y29.0662 F100.00
G01 X16.6413 Y29.1401 F100.00
G01 X16.7844 Y29.2271 F100.00
G01 X16.9733 Y29.4251 F100.00
G01 X17.0286 Y29.4543 F100.00
G01 X17.1561 Y29.4860 F100.00
G01 X18.8442 Y29.4860 F100.00
G01 X18.9441 Y29.4662 F100.00
G01 X19.0002 Y29.4415 F100.00
G01 X19.0891 Y29.3656 F100.00
G01 X19.1271 Y29.3156 F100.00
G01 X19.2156 Y29.2271 F100.00
G01 X19.3222 Y29.1614 F100.00
G01 X19.4425 Y29.1215 F100.00
G01 X19.5109 Y29.1145 F100.00
G01 X20.4891 Y29.1145 F100.00
G01 X20.5575 Y29.1215 F100.00
G01 X20.6778 Y29.1614 F100.00
G01 X20.7844 Y29.2271 F100.00
G01 X20.8729 Y29.3156 F100.00
G01 X20.9513 Y29.4124 F100.00
G01 X20.9907 Y29.4391 F100.00
G01 X21.0748 Y29.4777 F100.00
G01 X21.1309 Y29.4917 F100.00
G01 X21.1745 Y29.4921 F100.00
G01 X21.2705 Y29.4780 F100.00
G01 X21.3227 Y29.4590 F100.00
G01 X21.4174 Y29.3848 F100.00
G01 X21.4590 Y29.3362 F100.00
G01 X21.5026 Y29.2158 F100.00
G01 X21.5113 Y29.1552 F100.00
G01 X21.5113 Y21.3428 F100.00
G01 X21.5043 Y21.2743 F100.00
G01 X21.4822 Y21.2134 F100.00
G01 X21.4191 Y21.1106 F100.00
G01 X20.8879 Y20.5794 F100.00
G01 X20.8115 Y20.5269 F100.00
G01 X20.6809 Y20.4900 F100.00
G01 X13.9519 Y20.4887 F100.00
G01 X13.8575 Y20.4699 F100.00
G01 X13.7685 Y20.4330 F100.00
G01 X13.6885 Y20.3796 F100.00
G01 X12.6204 Y19.3115 F100.00
G01 X12.5670 Y19.2315 F100.00
G01 X12.5301 Y19.1425 F100.00
G01 X12.5113 Y19.0481 F100.00
G01 X12.5113 Y5.3428 F100.00
G01 X12.4975 Y5.2485 F100.00
G01 X12.4487 Y5.1521 F100.00
G01 X12.4191 Y5.1106 F100.00
G01 X11.5719 Y4.2630 F100.00
G01 X11.4892 Y4.2031 F100.00
G01 X11.3616 Y4.1657 F100.00
G01 X8.3992 Y4.1649 F100.00
G01 X8.3442 Y4.1775 F100.00
G01 X8.2319 Y4.2263 F100.00
G01 X8.1907 Y4.2635 F100.00
G01 X8.1399 Y4.3305 F100.00
G01 X8.1018 Y4.4142 F100.00
G01 X8.0921 Y4.5224 F100.00
G01 X8.0972 Y4.5757 F100.00
G00 Z2.0000
G00 X8.2321 Y4.5457
G01 F40.00
G01 Z0.1000
G01 F100.00
G01 X8.2863 Y4.6447 F100.00
G01 X9.4869 Y5.8454 F100.00
G01 X9.5556 Y5.9481 F100.00
G01 X9.6028 Y6.0621 F100.00
G01 X9.6269 Y6.1833 F100.00
G01 X9.6269 Y17.0018 F100.00
G01 X9.6307 Y17.0334 F100.00
G01 X9.6652 Y17.1196 F100.00
G01 X9.7410 Y17.1813 F100.00
G01 X9.7682 Y17.1930 F100.00
G01 X9.8707 Y17.1979 F100.00
G01 X9.9654 Y17.1477 F100.00
G01 X10.3198 Y16.7930 F100.00
G01 X10.3468 Y16.7554 F100.00
G01 X10.3730 Y16.6612 F100.00
G01 X10.3730 Y7.6090 F100.00
G01 X10.3679 Y7.5686 F100.00
G01 X10.3415 Y7.5063 F100.00
G01 X10.2434 Y7.3369 F100.00
G01 X10.1899 Y7.1722 F100.00
G01 X10.1718 Y7.0000 F100.00
G01 X10.1899 Y6.8278 F100.00
G01 X10.2434 Y6.6631 F100.00
G01 X10.3299 Y6.5132 F100.00
G01 X10.4458 Y6.3845 F100.00
G01 X10.5859 Y6.2827 F100.00
G01 X10.7441 Y6.2123 F100.00
G01 X10.9134 Y6.1763 F100.00
G01 X11.0866 Y6.1763 F100.00
G01 X11.2559 Y6.2123 F100.00
G01 X11.4141 Y6.2827 F100.00
G01 X11.5542 Y6.3845 F100.00
G01 X11.6701 Y6.5132 F100.00
G01 X11.7566 Y6.6631 F100.00
G01 X11.8101 Y6.8278 F100.00
G01 X11.8282 Y7.0000 F100.00
G01 X11.8101 Y7.1722 F100.00
G01 X11.7566 Y7.3369 F100.00
G01 X11.6534 Y7.5131 F100.00
G01 X11.6269 Y7.6118 F100.00
G01 X11.6269 Y17.0617 F100.00
G01 X11.6028 Y17.1829 F100.00
G01 X11.5556 Y17.2969 F100.00
G01 X11.4869 Y17.3996 F100.00
G01 X10.6827 Y18.2041 F100.00
G01 X10.6532 Y18.2446 F100.00
G01 X10.6270 Y18.3388 F100.00
G01 X10.6269 Y29.1552 F100.00
G01 X10.6407 Y29.2267 F100.00
G01 X10.7017 Y29.3115 F100.00
G01 X10.7856 Y29.3503 F100.00
G01 X10.8209 Y29.3546 F100.00
G01 X10.8974 Y29.3421 F100.00
G01 X10.9297 Y29.3267 F100.00
G01 X10.9871 Y29.2750 F100.00
G01 X11.0179 Y29.2293 F100.00
G01 X11.1293 Y29.1179 F100.00
G01 X11.2633 Y29.0353 F100.00
G01 X11.4134 Y28.9855 F100.00
G01 X11.5039 Y28.9763 F100.00
G01 X12.4961 Y28.9763 F100.00
G01 X12.5866 Y28.9855 F100.00
G01 X12.7367 Y29.0353 F100.00
G01 X12.8707 Y29.1179 F100.00
G01 X13.0550 Y29.3136 F100.00
G01 X13.1569 Y29.3474 F100.00
G01 X14.8326 Y29.3481 F100.00
G01 X14.9269 Y29.3242 F100.00
G01 X14.9920 Y29.2671 F100.00
G01 X15.0179 Y29.2293 F100.00
G01 X15.1293 Y29.1179 F100.00
G01 X15.2563 Y29.0395 F100.00
G01 X15.3082 Y28.9899 F100.00
G01 X15.3240 Y28.9636 F100.00
G01 X15.3481 Y28.8709 F100.00
G01 X15.3471 Y27.5814 F100.00
G01 X15.3320 Y27.5160 F100.00
G01 X15.3162 Y27.4889 F100.00
G01 X15.2624 Y27.4300 F100.00
G01 X15.1949 Y27.3873 F100.00
G01 X15.0877 Y27.2801 F100.00
G01 X15.0081 Y27.1510 F100.00
G01 X14.9602 Y27.0065 F100.00
G01 X14.9513 Y26.9194 F100.00
G01 X14.9513 Y26.3806 F100.00
G01 X14.9602 Y26.2935 F100.00
G01 X15.0081 Y26.1490 F100.00
G01 X15.0877 Y26.0199 F100.00
G01 X15.1949 Y25.9127 F100.00
G01 X15.3240 Y25.8331 F100.00
G01 X15.4685 Y25.7852 F100.00
G01 X15.5556 Y25.7763 F100.00
G01 X16.3944 Y25.7763 F100.00
G01 X16.4815 Y25.7852 F100.00
G01 X16.6260 Y25.8331 F100.00
G01 X16.7551 Y25.9127 F100.00
G01 X16.8623 Y26.0199 F100.00
G01 X16.9419 Y26.1490 F100.00
G01 X16.9898 Y26.2935 F100.00
G01 X16.9987 Y26.3806 F100.00
G01 X16.9987 Y26.9194 F100.00
G01 X16.9898 Y27.0065 F100.00
G01 X16.9419 Y27.1510 F100.00
G01 X16.8623 Y27.2801 F100.00
G01 X16.7551 Y27.3873 F100.00
G01 X16.6905 Y27.4277 F100.00
G01 X16.6418 Y27.4749 F100.00
G01 X16.6260 Y27.5012 F100.00
G01 X16.6026 Y27.5834 F100.00
G01 X16.6019 Y28.8483 F100.00
G01 X16.6068 Y28.8841 F100.00
G01 X16.6488 Y28.9745 F100.00
G01 X16.7233 Y29.0287 F100.00
G01 X16.8707 Y29.1179 F100.00
G01 X17.0550 Y29.3136 F100.00
G01 X17.1674 Y29.3481 F100.00
G01 X18.8367 Y29.3480 F100.00
G01 X18.9069 Y29.3331 F100.00
G01 X18.9345 Y29.3188 F100.00
G01 X18.9920 Y29.2671 F100.00
G01 X19.0179 Y29.2293 F100.00
G01 X19.1293 Y29.1179 F100.00
G01 X19.2633 Y29.0353 F100.00
G01 X19.4134 Y28.9855 F100.00
G01 X19.5039 Y28.9763 F100.00
G01 X20.4961 Y28.9763 F100.00
G01 X20.5866 Y28.9855 F100.00
G01 X20.7367 Y29.0353 F100.00
G01 X20.8707 Y29.1179 F100.00
G01 X20.9821 Y29.2293 F100.00
G01 X21.0354 Y29.3019 F100.00
G01 X21.0592 Y29.3188 F100.00
G01 X21.1474 Y29.3544 F100.00
G01 X21.2591 Y29.3362 F100.00
G01 X21.3417 Y29.2630 F100.00
G01 X21.3731 Y29.1552 F100.00
G01 X21.3731 Y21.3428 F100.00
G01 X21.3609 Y21.2797 F100.00
G01 X21.3168 Y21.2035 F100.00
G01 X20.7959 Y20.6827 F100.00
G01 X20.7554 Y20.6532 F100.00
G01 X20.6656 Y20.6274 F100.00
G01 X13.9383 Y20.6269 F100.00
G01 X13.8171 Y20.6028 F100.00
G01 X13.7031 Y20.5556 F100.00
G01 X13.6004 Y20.4869 F100.00
G01 X12.5131 Y19.3996 F100.00
G01 X12.4440 Y19.2958 F100.00
G01 X12.3972 Y19.1829 F100.00
G01 X12.3731 Y19.0617 F100.00
G01 X12.3731 Y5.3428 F100.00
G01 X12.3677 Y5.2969 F100.00
G01 X12.3143 Y5.2009 F100.00
G01 X11.4741 Y4.3607 F100.00
G01 X11.4304 Y4.3282 F100.00
G01 X11.3472 Y4.3034 F100.00
G01 X8.4122 Y4.3026 F100.00
G01 X8.3104 Y4.3402 F100.00
G01 X8.2506 Y4.4133 F100.00
G01 X8.2359 Y4.4498 F100.00
G01 X8.2321 Y4.5457 F100.00
G00 Z2.0000
G00 X7.6967 Y3.3521
G01 F40.00
G01 Z0.1000
G01 F100.00
G01 X7.6333 Y3.3141 F100.00
G01 X7.5500 Y3.2982 F100.00
G01 X5.5291 Y3.3029 F100.00
G01 X5.4670 Y3.3256 F100.00
G01 X5.4174 Y3.3620 F100.00
G01 X5.3844 Y3.4022 F100.00
G01 X5.3579 Y3.4594 F100.00
G01 X5.3482 Y3.5250 F100.00
G01 X5.3529 Y3.8709 F100.00
G01 X5.3844 Y3.9478 F100.00
G01 X5.4299 Y3.9993 F100.00
G01 X5.4917 Y4.0359 F100.00
G01 X5.5750 Y4.0518 F100.00
G01 X7.5538 Y4.0517 F100.00
G01 X7.6122 Y4.0430 F100.00
G01 X7.6580 Y4.0244 F100.00
G01 X7.6967 Y3.9979 F100.00
G01 X7.7357 Y3.9551 F100.00
G01 X11.5590 Y3.9551 F100.00
G01 X12.7199 Y5.1160 F100.00
G01 X12.7199 Y19.0000 F100.00
G01 X12.7331 Y19.0849 F100.00
G01 X12.7814 Y19.1751 F100.00
G01 X13.8047 Y20.2007 F100.00
G01 X13.8713 Y20.2487 F100.00
G01 X13.9453 Y20.2747 F100.00
G01 X14.0000 Y20.2801 F100.00
G01 X20.8840 Y20.2801 F100.00
G01 X21.7199 Y21.1160 F100.00
G01 X21.7199 Y35.8840 F100.00
G01 X21.2340 Y36.3699 F100.00
G01 X20.8268 Y36.3699 F100.00
G01 X20.8251 Y36.1341 F100.00
G01 X20.8014 Y36.0929 F100.00
G01 X20.7580 Y36.0736 F100.00
G01 X19.2500 Y36.0732 F100.00
G01 X19.1986 Y36.0929 F100.00
G01 X19.1798 Y36.1188 F100.00
G01 X19.1732 Y36.1500 F100.00
G01 X19.1736 Y36.6580 F100.00
G01 X19.1801 Y36.7378 F100.00
G01 X19.2223 Y36.8820 F100.00
G01 X19.3218 Y37.0355 F100.00
G01 X19.4410 Y37.1370 F100.00
G01 X19.5855 Y37.2028 F100.00
G01 X19.7500 Y37.2268 F100.00
G01 X20.2500 Y37.2268 F100.00
G01 X20.4018 Y37.2058 F100.00
G01 X20.5706 Y37.1287 F100.00
G01 X20.6822 Y37.0317 F100.00
G01 X20.7496 Y36.9301 F100.00
G01 X21.3538 Y36.9300 F100.00
G01 X21.4537 Y36.9101 F100.00
G01 X21.5024 Y36.8849 F100.00
G01 X21.5481 Y36.8481 F100.00
G01 X22.2007 Y36.1953 F100.00
G01 X22.2573 Y36.1106 F100.00
G01 X22.2790 Y36.0237 F100.00
G01 X22.2801 Y21.0000 F100.00
G01 X22.2747 Y20.9453 F100.00
G01 X22.2601 Y20.8963 F100.00
G01 X22.2349 Y20.8476 F100.00
G01 X22.1981 Y20.8019 F100.00
G01 X21.1981 Y19.8019 F100.00
G01 X21.1353 Y19.7548 F100.00
G01 X21.0547 Y19.7253 F100.00
G01 X21.0000 Y19.7199 F100.00
G01 X14.1160 Y19.7199 F100.00
G01 X13.2801 Y18.8840 F100.00
G01 X13.2801 Y5.0000 F100.00
G01 X13.2747 Y4.9453 F100.00
G01 X13.2601 Y4.8963 F100.00
G01 X13.2349 Y4.8476 F100.00
G01 X13.1981 Y4.8019 F100.00
G01 X11.8731 Y3.4769 F100.00
G01 X11.8103 Y3.4298 F100.00
G01 X11.7561 Y3.4069 F100.00
G01 X11.6750 Y3.3949 F100.00
G01 X7.7357 Y3.3949 F100.00
G01 X7.6967 Y3.3521 F100.00
G00 Z2.0000
G00 X7.7313 Y3.2083
G01 F40.00
G01 Z0.1000
G01 F100.00
G01 X7.6458 Y3.1729 F100.00
G01 X7.5500 Y3.1600 F100.00
G01 X5.5750 Y3.1600 F100.00
G01 X5.4697 Y3.1755 F100.00
G01 X5.3937 Y3.2083 F100.00
G01 X5.3169 Y3.2669 F100.00
G01 X5.2583 Y3.3437 F100.00
G01 X5.2255 Y3.4197 F100.00
G01 X5.2102 Y3.5144 F100.00
G01 X5.2100 Y3.8250 F100.00
G01 X5.2255 Y3.9303 F100.00
G01 X5.2776 Y4.0364 F100.00
G01 X5.3517 Y4.1137 F100.00
G01 X5.3999 Y4.1453 F100.00
G01 X5.4590 Y4.1710 F100.00
G01 X5.5644 Y4.1898 F100.00
G01 X7.5606 Y4.1898 F100.00
G01 X7.6259 Y4.1820 F100.00
G01 X7.6947 Y4.1601 F100.00
G01 X7.7473 Y4.1321 F100.00
G01 X7.7972 Y4.0933 F100.00
G01 X11.5017 Y4.0933 F100.00
G01 X12.5817 Y5.1733 F100.00
G01 X12.5817 Y19.0000 F100.00
G01 X12.5879 Y19.0712 F100.00
G01 X12.6030 Y19.1315 F100.00
G01 X12.6363 Y19.2064 F100.00
G01 X12.6708 Y19.2580 F100.00
G01 X13.7118 Y20.3031 F100.00
G01 X13.8122 Y20.3737 F100.00
G01 X13.9182 Y20.4103 F100.00
G01 X14.0000 Y20.4183 F100.00
G01 X20.8267 Y20.4183 F100.00
G01 X21.5817 Y21.1733 F100.00
G01 X21.5817 Y35.8267 F100.00
G01 X21.1767 Y36.2317 F100.00
G01 X20.9650 Y36.2317 F100.00
G01 X20.9604 Y36.1054 F100.00
G01 X20.9363 Y36.0426 F100.00
G01 X20.9037 Y36.0000 F100.00
G01 X20.9465 Y35.9373 F100.00
G01 X20.9650 Y35.8500 F100.00
G01 X20.9650 Y35.3500 F100.00
G01 X20.9587 Y35.2554 F100.00
G01 X20.9088 Y35.0743 F100.00
G01 X20.8872 Y35.0283 F100.00
G01 X20.7953 Y34.8876 F100.00
G01 X20.6611 Y34.7669 F100.00
G01 X20.6097 Y34.7338 F100.00
G01 X20.4802 Y34.6746 F100.00
G01 X20.4183 Y34.6570 F100.00
G01 X20.4183 Y32.8150 F100.00
G01 X20.5303 Y32.8079 F100.00
G01 X20.6181 Y32.7834 F100.00
G01 X20.6994 Y32.7423 F100.00
G01 X20.7712 Y32.6861 F100.00
G01 X20.8306 Y32.6170 F100.00
G01 X20.8754 Y32.5376 F100.00
G01 X20.9051 Y32.4454 F100.00
G01 X20.9148 Y32.3606 F100.00
G01 X20.9148 Y31.6894 F100.00
G01 X20.9079 Y31.6197 F100.00
G01 X20.8917 Y31.5550 F100.00
G01 X20.8423 Y31.4506 F100.00
G01 X20.8026 Y31.3970 F100.00
G01 X20.7530 Y31.3474 F100.00
G01 X20.6640 Y31.2872 F100.00
G01 X20.5454 Y31.2449 F100.00
G01 X20.4500 Y31.2350 F100.00
G01 X19.5500 Y31.2350 F100.00
G01 X19.4546 Y31.2449 F100.00
G01 X19.3360 Y31.2872 F100.00
G01 X19.2470 Y31.3474 F100.00
G01 X19.1694 Y31.4330 F100.00
G01 X19.1166 Y31.5319 F100.00
G01 X19.0949 Y31.6046 F100.00
G01 X19.0852 Y31.6894 F100.00
G01 X19.0850 Y32.3500 F100.00
G01 X19.0949 Y32.4454 F100.00
G01 X19.1166 Y32.5181 F100.00
G01 X19.1451 Y32.5784 F100.00
G01 X19.1847 Y32.6376 F100.00
G01 X19.2470 Y32.7026 F100.00
G01 X19.3006 Y32.7423 F100.00
G01 X19.3624 Y32.7754 F100.00
G01 X19.4252 Y32.7978 F100.00
G01 X19.5017 Y32.8125 F100.00
G01 X19.5817 Y32.8150 F100.00
G01 X19.5817 Y34.6570 F100.00
G01 X19.5198 Y34.6746 F100.00
G01 X19.3714 Y34.7436 F100.00
G01 X19.2047 Y34.8876 F100.00
G01 X19.1128 Y35.0283 F100.00
G01 X19.0912 Y35.0743 F100.00
G01 X19.0452 Y35.2322 F100.00
G01 X19.0350 Y35.3500 F100.00
G01 X19.0361 Y35.8724 F100.00
G01 X19.0535 Y35.9373 F100.00
G01 X19.0963 Y36.0000 F100.00
G01 X19.0535 Y36.0627 F100.00
G01 X19.0361 Y36.1276 F100.00
G01 X19.0350 Y36.6500 F100.00
G01 X19.0452 Y36.7678 F100.00
G01 X19.1006 Y36.9493 F100.00
G01 X19.1912 Y37.0937 F100.00
G01 X19.2313 Y37.1399 F100.00
G01 X19.3536 Y37.2448 F100.00
G01 X19.5429 Y37.3343 F100.00
G01 X19.7194 Y37.3629 F100.00
G01 X20.2653 Y37.3645 F100.00
G01 X20.4571 Y37.3343 F100.00
G01 X20.6286 Y37.2564 F100.00
G01 X20.7799 Y37.1295 F100.00
G01 X20.8251 Y37.0683 F100.00
G01 X21.3606 Y37.0681 F100.00
G01 X21.4318 Y37.0603 F100.00
G01 X21.5002 Y37.0403 F100.00
G01 X21.5735 Y37.0035 F100.00
G01 X21.6382 Y36.9531 F100.00
G01 X22.3031 Y36.2882 F100.00
G01 X22.3418 Y36.2410 F100.00
G01 X22.3822 Y36.1697 F100.00
G01 X22.4080 Y36.0919 F100.00
G01 X22.4171 Y36.0305 F100.00
G01 X22.4183 Y21.0000 F100.00
G01 X22.4103 Y20.9182 F100.00
G01 X22.3903 Y20.8498 F100.00
G01 X22.3535 Y20.7765 F100.00
G01 X22.2958 Y20.7042 F100.00
G01 X21.2958 Y19.7042 F100.00
G01 X21.2064 Y19.6363 F100.00
G01 X21.0919 Y19.5920 F100.00
G01 X21.0000 Y19.5817 F100.00
G01 X14.1733 Y19.5817 F100.00
G01 X13.4183 Y18.8267 F100.00
G01 X13.4183 Y5.0000 F100.00
G01 X13.4103 Y4.9182 F100.00
G01 X13.3903 Y4.8498 F100.00
G01 X13.3535 Y4.7765 F100.00
G01 X13.2958 Y4.7042 F100.00
G01 X11.9708 Y3.3792 F100.00
G01 X11.8814 Y3.3113 F100.00
G01 X11.7958 Y3.2745 F100.00
G01 X11.6750 Y3.2567 F100.00
G01 X7.7972 Y3.2567 F100.00
G01 X7.7313 Y3.2083 F100.00
G00 Z2.0000
G00 X7.6967 Y2.0821
G01 F40.00
G01 Z0.1000
G01 F100.00
G01 X7.6333 Y2.0441 F100.00
G01 X7.5500 Y2.0282 F100.00
G01 X5.5291 Y2.0329 F100.00
G01 X5.4670 Y2.0556 F100.00
G01 X5.4174 Y2.0920 F100.00
G01 X5.3844 Y2.1322 F100.00
G01 X5.3579 Y2.1894 F100.00
G01 X5.3482 Y2.2550 F100.00
G01 X5.3529 Y2.6009 F100.00
G01 X5.3844 Y2.6778 F100.00
G01 X5.4299 Y2.7293 F100.00
G01 X5.4917 Y2.7659 F100.00
G01 X5.5750 Y2.7818 F100.00
G01 X7.5500 Y2.7818 F100.00
G01 X7.6122 Y2.7730 F100.00
G01 X7.6580 Y2.7544 F100.00
G01 X7.6967 Y2.7279 F100.00
G01 X7.7357 Y2.6851 F100.00
G01 X9.6226 Y2.6837 F100.00
G01 X9.6987 Y2.6651 F100.00
G01 X9.7701 Y2.6236 F100.00
G01 X10.1160 Y2.2801 F100.00
G01 X10.6147 Y2.2801 F100.00
G01 X10.6629 Y2.3371 F100.00
G01 X10.7320 Y2.3943 F100.00
G01 X10.7786 Y2.4222 F100.00
G01 X10.8618 Y2.4563 F100.00
G01 X10.9495 Y2.4740 F100.00
G01 X11.0038 Y2.4767 F100.00
G01 X11.0947 Y2.4673 F100.00
G01 X11.1789 Y2.4419 F100.00
G01 X11.2998 Y2.3706 F100.00
G01 X11.3943 Y2.2680 F100.00
G01 X11.4222 Y2.2214 F100.00
G01 X11.4563 Y2.1382 F100.00
G01 X11.4768 Y2.0000 F100.00
G01 X11.4673 Y1.9053 F100.00
G01 X11.4397 Y1.8157 F100.00
G01 X11.3943 Y1.7320 F100.00
G01 X11.3371 Y1.6629 F100.00
G01 X11.2680 Y1.6057 F100.00
G01 X11.1843 Y1.5603 F100.00
G01 X11.0947 Y1.5327 F100.00
G01 X11.0000 Y1.5232 F100.00
G01 X10.9033 Y1.5332 F100.00
G01 X10.7786 Y1.5778 F100.00
G01 X10.6947 Y1.6339 F100.00
G01 X10.6147 Y1.7199 F100.00
G01 X9.9962 Y1.7200 F100.00
G01 X9.8963 Y1.7399 F100.00
G01 X9.8476 Y1.7651 F100.00
G01 X9.8047 Y1.7993 F100.00
G01 X9.4790 Y2.1249 F100.00
G01 X7.7357 Y2.1249 F100.00
G01 X7.6967 Y2.0821 F100.00
G00 Z2.0000
G00 X7.7313 Y1.9383
G01 F40.00
G01 Z0.1000
G01 F100.00
G01 X7.6458 Y1.9029 F100.00
G01 X7.5500 Y1.8900 F100.00
G01 X5.5750 Y1.8900 F100.00
G01 X5.4697 Y1.9055 F100.00
G01 X5.3937 Y1.9383 F100.00
G01 X5.3169 Y1.9969 F100.00
G01 X5.2583 Y2.0737 F100.00
G01 X5.2255 Y2.1497 F100.00
G01 X5.2102 Y2.2444 F100.00
G01 X5.2100 Y2.5550 F100.00
G01 X5.2255 Y2.6603 F100.00
G01 X5.2776 Y2.7664 F100.00
G01 X5.3517 Y2.8437 F100.00
G01 X5.3999 Y2.8753 F100.00
G01 X5.4590 Y2.9010 F100.00
G01 X5.5644 Y2.9198 F100.00
G01 X7.5500 Y2.9200 F100.00
G01 X7.6108 Y2.9148 F100.00
G01 X7.6798 Y2.8961 F100.00
G01 X7.7473 Y2.8621 F100.00
G01 X7.7972 Y2.8233 F100.00
G01 X9.6363 Y2.8213 F100.00
G01 X9.7452 Y2.7953 F100.00
G01 X9.8530 Y2.7342 F100.00
G01 X10.1733 Y2.4183 F100.00
G01 X10.5497 Y2.4183 F100.00
G01 X10.6172 Y2.4812 F100.00
G01 X10.7195 Y2.5472 F100.00
G01 X10.8221 Y2.5887 F100.00
G01 X10.9292 Y2.6108 F100.00
G01 X11.0708 Y2.6108 F100.00
G01 X11.1684 Y2.5914 F100.00
G01 X11.2404 Y2.5661 F100.00
G01 X11.3328 Y2.5170 F100.00
G01 X11.3982 Y2.4685 F100.00
G01 X11.4685 Y2.3982 F100.00
G01 X11.5170 Y2.3328 F100.00
G01 X11.5639 Y2.2450 F100.00
G01 X11.5887 Y2.1779 F100.00
G01 X11.6108 Y2.0708 F100.00
G01 X11.6150 Y2.0000 F100.00
G01 X11.6022 Y1.8753 F100.00
G01 X11.5661 Y1.7596 F100.00
G01 X11.5053 Y1.6497 F100.00
G01 X11.4349 Y1.5651 F100.00
G01 X11.3503 Y1.4947 F100.00
G01 X11.2404 Y1.4339 F100.00
G01 X11.1247 Y1.3978 F100.00
G01 X11.0000 Y1.3850 F100.00
G01 X10.8753 Y1.3978 F100.00
G01 X10.7596 Y1.4339 F100.00
G01 X10.6497 Y1.4947 F100.00
G01 X10.5497 Y1.5817 F100.00
G01 X9.9894 Y1.5819 F100.00
G01 X9.9182 Y1.5897 F100.00
G01 X9.8498 Y1.6097 F100.00
G01 X9.7765 Y1.6465 F100.00
G01 X9.7266 Y1.6835 F100.00
G01 X9.4217 Y1.9867 F100.00
G01 X7.7972 Y1.9867 F100.00
G01 X7.7313 Y1.9383 F100.00
G00 Z2.0000
G00 X7.6967 Y-1.7279
G01 F40.00
G01 Z0.1000
G01 F100.00
G01 X7.6333 Y-1.7659 F100.00
G01 X7.5500 Y-1.7818 F100.00
G01 X5.5291 Y-1.7771 F100.00
G01 X5.4670 Y-1.7544 F100.00
G01 X5.4174 Y-1.7180 F100.00
G01 X5.3844 Y-1.6778 F100.00
G01 X5.3579 Y-1.6206 F100.00
G01 X5.3482 Y-1.5550 F100.00
G01 X5.3529 Y-1.2091 F100.00
G01 X5.3844 Y-1.1322 F100.00
G01 X5.4299 Y-1.0807 F100.00
G01 X5.4917 Y-1.0441 F100.00
G01 X5.5750 Y-1.0282 F100.00
G01 X7.5538 Y-1.0283 F100.00
G01 X7.6122 Y-1.0370 F100.00
G01 X7.6580 Y-1.0556 F100.00
G01 X7.6967 Y-1.0821 F100.00
G01 X7.7357 Y-1.1249 F100.00
G01 X10.4790 Y-1.1249 F100.00
G01 X10.7199 Y-0.8840 F100.00
G01 X10.7210 Y0.0237 F100.00
G01 X10.7399 Y0.1037 F100.00
G01 X10.7859 Y0.1805 F100.00
G01 X16.8019 Y6.1981 F100.00
G01 X16.8647 Y6.2452 F100.00
G01 X16.9223 Y6.2690 F100.00
G01 X17.0000 Y6.2801 F100.00
G01 X21.6147 Y6.2801 F100.00
G01 X21.6947 Y6.3661 F100.00
G01 X21.7786 Y6.4222 F100.00
G01 X21.9033 Y6.4668 F100.00
G01 X22.0000 Y6.4768 F100.00
G01 X22.1348 Y6.4573 F100.00
G01 X22.2280 Y6.4186 F100.00
G01 X22.3371 Y6.3371 F100.00
G01 X22.4199 Y6.2259 F100.00
G01 X22.4573 Y6.1348 F100.00
G01 X22.4768 Y6.0000 F100.00
G01 X22.4573 Y5.8652 F100.00
G01 X22.4199 Y5.7741 F100.00
G01 X22.3397 Y5.6656 F100.00
G01 X22.2617 Y5.6015 F100.00
G01 X22.1420 Y5.5449 F100.00
G01 X22.0468 Y5.5255 F100.00
G01 X21.9107 Y5.5317 F100.00
G01 X21.8157 Y5.5603 F100.00
G01 X21.7002 Y5.6294 F100.00
G01 X21.6147 Y5.7199 F100.00
G01 X17.1160 Y5.7199 F100.00
G01 X11.2801 Y-0.1160 F100.00
G01 X11.2801 Y-1.0000 F100.00
G01 X11.2669 Y-1.0849 F100.00
G01 X11.2349 Y-1.1524 F100.00
G01 X11.2007 Y-1.1953 F100.00
G01 X10.7701 Y-1.6236 F100.00
G01 X10.6987 Y-1.6651 F100.00
G01 X10.5988 Y-1.6850 F100.00
G01 X7.7357 Y-1.6851 F100.00
G01 X7.6967 Y-1.7279 F100.00
G00 Z2.0000
G00 X7.6967 Y-5.5379
G01 F40.00
G01 Z0.1000
G01 F100.00
G01 X7.6333 Y-5.5759 F100.00
G01 X7.5500 Y-5.5918 F100.00
G01 X5.5291 Y-5.5871 F100.00
G01 X5.4670 Y-5.5644 F100.00
G01 X5.4174 Y-5.5280 F100.00
G01 X5.3844 Y-5.4878 F100.00
G01 X5.3579 Y-5.4306 F100.00
G01 X5.3482 Y-5.3650 F100.00
G01 X5.3529 Y-5.0191 F100.00
G01 X5.3844 Y-4.9422 F100.00
G01 X5.4299 Y-4.8907 F100.00
G01 X5.4917 Y-4.8541 F100.00
G01 X5.5750 Y-4.8382 F100.00
G01 X7.5538 Y-4.8383 F100.00
G01 X7.6122 Y-4.8470 F100.00
G01 X7.6580 Y-4.8656 F100.00
G01 X7.6967 Y-4.8921 F100.00
G01 X7.7357 Y-4.9349 F100.00
G01 X11.6690 Y-4.9349 F100.00
G01 X11.7199 Y-4.8840 F100.00
G01 X11.7199 Y0.0000 F100.00
G01 X11.7253 Y0.0547 F100.00
G01 X11.7399 Y0.1037 F100.00
G01 X11.7651 Y0.1524 F100.00
G01 X11.8019 Y0.1981 F100.00
G01 X14.8019 Y3.1981 F100.00
G01 X14.8647 Y3.2452 F100.00
G01 X14.9223 Y3.2690 F100.00
G01 X15.0000 Y3.2801 F100.00
G01 X23.8840 Y3.2801 F100.00
G01 X24.7199 Y4.1160 F100.00
G01 X24.7199 Y34.0000 F100.00
G01 X24.7319 Y34.0811 F100.00
G01 X24.7548 Y34.1353 F100.00
G01 X24.7993 Y34.1953 F100.00
G01 X25.4519 Y34.8481 F100.00
G01 X25.5147 Y34.8952 F100.00
G01 X25.5723 Y34.9190 F100.00
G01 X25.6500 Y34.9301 F100.00
G01 X28.3283 Y34.9301 F100.00
G01 X28.3448 Y34.9870 F100.00
G01 X28.3728 Y35.0407 F100.00
G01 X28.4116 Y35.0884 F100.00
G01 X28.4593 Y35.1272 F100.00
G01 X28.5130 Y35.1552 F100.00
G01 X28.5660 Y35.1710 F100.00
G01 X28.7199 Y35.1768 F100.00
G01 X28.7246 Y41.0509 F100.00
G01 X28.7513 Y41.1287 F100.00
G01 X28.7993 Y41.1953 F100.00
G01 X29.8249 Y42.2186 F100.00
G01 X29.9151 Y42.2669 F100.00
G01 X30.0000 Y42.2801 F100.00
G01 X34.5243 Y42.2801 F100.00
G01 X34.5991 Y42.4616 F100.00
G01 X34.7074 Y42.6225 F100.00
G01 X34.7720 Y42.6933 F100.00
G01 X34.9142 Y42.8100 F100.00
G01 X35.0844 Y42.9017 F100.00
G01 X35.1745 Y42.9341 F100.00
G01 X35.2731 Y42.9587 F100.00
G01 X35.4562 Y42.9767 F100.00
G01 X35.5520 Y42.9724 F100.00
G01 X35.6522 Y42.9577 F100.00
G01 X35.7455 Y42.9341 F100.00
G01 X35.9237 Y42.8596 F100.00
G01 X36.0767 Y42.7574 F100.00
G01 X36.1507 Y42.6907 F100.00
G01 X36.2700 Y42.5458 F100.00
G01 X36.3232 Y42.4571 F100.00
G01 X36.3936 Y42.2871 F100.00
G01 X36.4187 Y42.1869 F100.00
G01 X36.4368 Y42.0000 F100.00
