(G-CODE GENERATED BY FLATCAM v8.994 - www.flatcam.org - Version Date: 2020/11/7)

(Name: deck_bundle-B_Cu.gbr_iso_combined_cnc)
(Type: G-code from Geometry)
(Units: MM)

(Created on Monday, 02 September 2024 at 19:48)

(This preprocessor is used with a motion controller loaded with GRBL firmware.)
(It is configured to be compatible with almost any version of GRBL firmware.)

(TOOL DIAMETER: 0.1536 mm)
(Feedrate_XY: 100.0 mm/min)
(Feedrate_Z: 40.0 mm/min)
(Feedrate rapids 1500.0 mm/min)

(Z_Cut: -0.1 mm)
(Z_Move: 2.0 mm)
(Z Start: None mm)
(Z End: 7.0 mm)
(X,Y End: None mm)
(Steps per circle: 64)
(Steps per circle: 64)
(Preprocessor Geometry: GRBL_11_no_M6)

(X range:  -69.7145 ...   69.7145  mm)
(Y range:  -46.7145 ...   46.7145  mm)

(Spindle Speed: 900.0 RPM)
G21
G90
G17
G94


G01 F100.00

M5             
G00 Z7.0000
G00 X0.0000 Y0.0000                
T1
(MSG, Change to Tool Dia = 0.1536)
M0
G00 Z7.0000
        
M03 S900.0
G01 F100.00
G00 X2.5817 Y-5.1479
G01 F40.00
G01 Z-0.1000
G01 F100.00
G01 X2.4183 Y-5.3112 F100.00
G01 X2.4183 Y-13.8014 F100.00
G01 X2.4318 Y-13.7646 F100.00
G01 X2.4528 Y-13.7195 F100.00
G01 X2.4601 Y-13.7054 F100.00
G01 X2.4857 Y-13.6627 F100.00
G01 X2.4947 Y-13.6497 F100.00
G01 X2.5181 Y-13.6181 F100.00
G01 X2.5280 Y-13.6058 F100.00
G01 X2.5614 Y-13.5689 F100.00
G01 X2.5689 Y-13.5614 F100.00
G01 X2.5817 Y-13.5497 F100.00
G01 X2.5817 Y-5.1479 F100.00
G00 Z2.0000
G00 X5.3893 Y-2.9551
G01 F40.00
G01 Z-0.1000
G01 F100.00
G01 X5.3997 Y-2.9689 F100.00
G01 X5.4120 Y-2.9826 F100.00
G01 X5.4160 Y-2.9867 F100.00
G01 X5.4283 Y-2.9979 F100.00
G01 X5.4341 Y-3.0026 F100.00
G01 X5.4490 Y-3.0136 F100.00
G01 X5.4681 Y-3.0250 F100.00
G01 X5.4882 Y-3.0345 F100.00
G01 X5.5056 Y-3.0409 F100.00
G01 X5.5128 Y-3.0430 F100.00
G01 X5.5308 Y-3.0474 F100.00
G01 X5.5490 Y-3.0502 F100.00
G01 X5.5546 Y-3.0509 F100.00
G01 X5.5712 Y-3.0517 F100.00
G01 X7.5500 Y-3.0518 F100.00
G01 X7.5722 Y-3.0507 F100.00
G01 X7.5942 Y-3.0474 F100.00
G01 X7.6158 Y-3.0420 F100.00
G01 X7.6333 Y-3.0359 F100.00
G01 X7.6402 Y-3.0330 F100.00
G01 X7.6569 Y-3.0250 F100.00
G01 X7.6728 Y-3.0156 F100.00
G01 X7.6791 Y-3.0114 F100.00
G01 X7.6939 Y-3.0003 F100.00
G01 X7.7076 Y-2.9880 F100.00
G01 X7.7130 Y-2.9826 F100.00
G01 X7.7253 Y-2.9689 F100.00
G01 X7.7364 Y-2.9541 F100.00
G01 X7.7406 Y-2.9478 F100.00
G01 X7.7500 Y-2.9319 F100.00
G01 X7.7580 Y-2.9152 F100.00
G01 X7.7609 Y-2.9083 F100.00
G01 X7.7670 Y-2.8908 F100.00
G01 X7.7716 Y-2.8729 F100.00
G01 X7.7731 Y-2.8655 F100.00
G01 X7.7757 Y-2.8472 F100.00
G01 X7.7768 Y-2.8269 F100.00
G01 X7.7768 Y-2.5231 F100.00
G01 X7.7757 Y-2.5028 F100.00
G01 X7.7724 Y-2.4808 F100.00
G01 X7.7670 Y-2.4592 F100.00
G01 X7.7609 Y-2.4417 F100.00
G01 X7.7580 Y-2.4348 F100.00
G01 X7.7509 Y-2.4198 F100.00
G01 X7.7482 Y-2.4148 F100.00
G01 X7.7386 Y-2.3990 F100.00
G01 X7.7253 Y-2.3811 F100.00
G01 X7.7104 Y-2.3646 F100.00
G01 X7.6939 Y-2.3497 F100.00
G01 X7.6760 Y-2.3364 F100.00
G01 X7.6602 Y-2.3268 F100.00
G01 X7.6535 Y-2.3233 F100.00
G01 X7.6385 Y-2.3162 F100.00
G01 X7.6333 Y-2.3141 F100.00
G01 X7.6158 Y-2.3080 F100.00
G01 X7.5942 Y-2.3026 F100.00
G01 X7.5722 Y-2.2993 F100.00
G01 X7.5519 Y-2.2982 F100.00
G01 X5.5712 Y-2.2983 F100.00
G01 X5.5528 Y-2.2993 F100.00
G01 X5.5345 Y-2.3019 F100.00
G01 X5.5289 Y-2.3029 F100.00
G01 X5.5128 Y-2.3070 F100.00
G01 X5.5056 Y-2.3091 F100.00
G01 X5.4882 Y-2.3155 F100.00
G01 X5.4681 Y-2.3250 F100.00
G01 X5.4490 Y-2.3364 F100.00
G01 X5.4341 Y-2.3474 F100.00
G01 X5.4283 Y-2.3521 F100.00
G01 X5.4160 Y-2.3633 F100.00
G01 X5.4120 Y-2.3674 F100.00
G01 X5.3997 Y-2.3811 F100.00
G01 X5.3893 Y-2.3949 F100.00
G01 X4.4610 Y-2.3949 F100.00
G01 X4.4354 Y-2.3962 F100.00
G01 X4.4082 Y-2.4003 F100.00
G01 X4.3816 Y-2.4070 F100.00
G01 X4.3540 Y-2.4170 F100.00
G01 X4.3309 Y-2.4280 F100.00
G01 X4.3073 Y-2.4421 F100.00
G01 X4.2852 Y-2.4585 F100.00
G01 X4.2648 Y-2.4769 F100.00
G01 X1.8019 Y-4.9398 F100.00
G01 X1.7859 Y-4.9573 F100.00
G01 X1.7812 Y-4.9632 F100.00
G01 X1.7671 Y-4.9823 F100.00
G01 X1.7530 Y-5.0059 F100.00
G01 X1.7412 Y-5.0307 F100.00
G01 X1.7331 Y-5.0530 F100.00
G01 X1.7310 Y-5.0602 F100.00
G01 X1.7253 Y-5.0832 F100.00
G01 X1.7212 Y-5.1104 F100.00
G01 X1.7199 Y-5.1379 F100.00
G01 X1.7199 Y-15.0000 F100.00
G01 X1.7212 Y-15.0275 F100.00
G01 X1.7253 Y-15.0546 F100.00
G01 X1.7320 Y-15.0813 F100.00
G01 X1.7412 Y-15.1072 F100.00
G01 X1.7513 Y-15.1287 F100.00
G01 X1.7539 Y-15.1337 F100.00
G01 X1.7651 Y-15.1524 F100.00
G01 X1.7693 Y-15.1587 F100.00
G01 X1.7835 Y-15.1777 F100.00
G01 X1.8019 Y-15.1981 F100.00
G01 X2.5451 Y-15.9411 F100.00
G01 X2.5627 Y-15.9569 F100.00
G01 X2.5817 Y-15.9711 F100.00
G01 X2.5880 Y-15.9753 F100.00
G01 X2.6084 Y-15.9874 F100.00
G01 X2.6332 Y-15.9992 F100.00
G01 X2.6555 Y-16.0073 F100.00
G01 X2.6627 Y-16.0094 F100.00
G01 X2.6858 Y-16.0151 F100.00
G01 X2.7129 Y-16.0192 F100.00
G01 X2.7404 Y-16.0205 F100.00
G01 X23.2596 Y-16.0205 F100.00
G01 X23.2871 Y-16.0192 F100.00
G01 X23.3142 Y-16.0151 F100.00
G01 X23.3409 Y-16.0084 F100.00
G01 X23.3668 Y-15.9992 F100.00
G01 X23.3916 Y-15.9874 F100.00
G01 X23.4152 Y-15.9733 F100.00
G01 X23.4373 Y-15.9569 F100.00
G01 X23.4563 Y-15.9398 F100.00
G01 X24.1994 Y-15.1967 F100.00
G01 X24.2165 Y-15.1777 F100.00
G01 X24.2329 Y-15.1556 F100.00
G01 X24.2470 Y-15.1320 F100.00
G01 X24.2573 Y-15.1106 F100.00
G01 X24.2595 Y-15.1054 F100.00
G01 X24.2669 Y-15.0849 F100.00
G01 X24.2690 Y-15.0777 F100.00
G01 X24.2747 Y-15.0546 F100.00
G01 X24.2788 Y-15.0275 F100.00
G01 X24.2801 Y-15.0000 F100.00
G01 X24.2801 Y-7.1160 F100.00
G01 X26.1160 Y-5.2801 F100.00
G01 X27.6147 Y-5.2801 F100.00
G01 X27.6314 Y-5.3025 F100.00
G01 X27.6615 Y-5.3358 F100.00
G01 X27.6990 Y-5.3697 F100.00
G01 X27.7320 Y-5.3943 F100.00
G01 X27.7383 Y-5.3985 F100.00
G01 X27.7752 Y-5.4205 F100.00
G01 X27.8158 Y-5.4398 F100.00
G01 X27.8616 Y-5.4563 F100.00
G01 X27.9033 Y-5.4668 F100.00
G01 X27.9107 Y-5.4683 F100.00
G01 X27.9533 Y-5.4745 F100.00
G01 X27.9962 Y-5.4767 F100.00
G01 X28.0038 Y-5.4767 F100.00
G01 X28.0467 Y-5.4745 F100.00
G01 X28.0930 Y-5.4676 F100.00
G01 X28.1348 Y-5.4573 F100.00
G01 X28.1420 Y-5.4551 F100.00
G01 X28.1789 Y-5.4419 F100.00
G01 X28.1859 Y-5.4390 F100.00
G01 X28.2248 Y-5.4205 F100.00
G01 X28.2649 Y-5.3964 F100.00
G01 X28.3025 Y-5.3686 F100.00
G01 X28.3371 Y-5.3371 F100.00
G01 X28.3686 Y-5.3025 F100.00
G01 X28.3964 Y-5.2649 F100.00
G01 X28.4205 Y-5.2248 F100.00
G01 X28.4390 Y-5.1859 F100.00
G01 X28.4419 Y-5.1789 F100.00
G01 X28.4551 Y-5.1420 F100.00
G01 X28.4573 Y-5.1348 F100.00
G01 X28.4676 Y-5.0930 F100.00
G01 X28.4745 Y-5.0467 F100.00
G01 X28.4768 Y-5.0000 F100.00
G01 X28.4745 Y-4.9533 F100.00
G01 X28.4676 Y-4.9070 F100.00
G01 X28.4563 Y-4.8616 F100.00
G01 X28.4405 Y-4.8175 F100.00
G01 X28.4205 Y-4.7752 F100.00
G01 X28.3964 Y-4.7351 F100.00
G01 X28.3686 Y-4.6975 F100.00
G01 X28.3371 Y-4.6629 F100.00
G01 X28.3025 Y-4.6314 F100.00
G01 X28.2649 Y-4.6036 F100.00
G01 X28.2248 Y-4.5795 F100.00
G01 X28.1825 Y-4.5595 F100.00
G01 X28.1384 Y-4.5437 F100.00
G01 X28.0930 Y-4.5324 F100.00
G01 X28.0486 Y-4.5257 F100.00
G01 X28.0038 Y-4.5233 F100.00
G01 X27.9962 Y-4.5233 F100.00
G01 X27.9533 Y-4.5255 F100.00
G01 X27.9107 Y-4.5317 F100.00
G01 X27.9033 Y-4.5332 F100.00
G01 X27.8616 Y-4.5437 F100.00
G01 X27.8158 Y-4.5602 F100.00
G01 X27.7752 Y-4.5795 F100.00
G01 X27.7383 Y-4.6015 F100.00
G01 X27.7320 Y-4.6057 F100.00
G01 X27.6990 Y-4.6303 F100.00
G01 X27.6615 Y-4.6642 F100.00
G01 X27.6314 Y-4.6975 F100.00
G01 X27.6147 Y-4.7199 F100.00
G01 X26.0000 Y-4.7199 F100.00
G01 X25.9725 Y-4.7212 F100.00
G01 X25.9454 Y-4.7253 F100.00
G01 X25.9187 Y-4.7320 F100.00
G01 X25.8946 Y-4.7405 F100.00
G01 X25.8680 Y-4.7530 F100.00
G01 X25.8444 Y-4.7671 F100.00
G01 X25.8223 Y-4.7835 F100.00
G01 X25.8019 Y-4.8019 F100.00
G01 X23.8019 Y-6.8019 F100.00
G01 X23.7835 Y-6.8223 F100.00
G01 X23.7693 Y-6.8413 F100.00
G01 X23.7651 Y-6.8476 F100.00
G01 X23.7521 Y-6.8696 F100.00
G01 X23.7427 Y-6.8894 F100.00
G01 X23.7399 Y-6.8963 F100.00
G01 X23.7320 Y-6.9187 F100.00
G01 X23.7261 Y-6.9417 F100.00
G01 X23.7246 Y-6.9491 F100.00
G01 X23.7212 Y-6.9725 F100.00
G01 X23.7199 Y-7.0000 F100.00
G01 X23.7199 Y-14.8840 F100.00
G01 X23.1436 Y-15.4603 F100.00
G01 X2.8564 Y-15.4603 F100.00
G01 X2.2801 Y-14.8840 F100.00
G01 X2.2801 Y-5.2539 F100.00
G01 X4.5789 Y-2.9551 F100.00
G01 X5.3893 Y-2.9551 F100.00
G00 Z2.0000
G00 X7.7357 Y-1.6851
G01 F40.00
G01 Z-0.1000
G01 F100.00
G01 X10.5969 Y-1.6851 F100.00
G01 X10.6225 Y-1.6838 F100.00
G01 X10.6459 Y-1.6804 F100.00
G01 X10.6515 Y-1.6793 F100.00
G01 X10.6727 Y-1.6740 F100.00
G01 X10.6799 Y-1.6719 F100.00
G01 X10.7022 Y-1.6638 F100.00
G01 X10.7270 Y-1.6520 F100.00
G01 X10.7506 Y-1.6379 F100.00
G01 X10.7712 Y-1.6227 F100.00
G01 X10.7931 Y-1.6031 F100.00
G01 X11.2007 Y-1.1953 F100.00
G01 X11.2153 Y-1.1791 F100.00
G01 X11.2188 Y-1.1747 F100.00
G01 X11.2329 Y-1.1556 F100.00
G01 X11.2452 Y-1.1353 F100.00
G01 X11.2487 Y-1.1287 F100.00
G01 X11.2588 Y-1.1072 F100.00
G01 X11.2675 Y-1.0831 F100.00
G01 X11.2739 Y-1.0583 F100.00
G01 X11.2754 Y-1.0509 F100.00
G01 X11.2788 Y-1.0275 F100.00
G01 X11.2801 Y-1.0019 F100.00
G01 X11.2801 Y-0.1160 F100.00
G01 X17.1160 Y5.7199 F100.00
G01 X21.6147 Y5.7199 F100.00
G01 X21.6314 Y5.6975 F100.00
G01 X21.6615 Y5.6642 F100.00
G01 X21.6990 Y5.6303 F100.00
G01 X21.7320 Y5.6057 F100.00
G01 X21.7383 Y5.6015 F100.00
G01 X21.7752 Y5.5795 F100.00
G01 X21.8158 Y5.5602 F100.00
G01 X21.8616 Y5.5437 F100.00
G01 X21.9033 Y5.5332 F100.00
G01 X21.9107 Y5.5317 F100.00
G01 X21.9533 Y5.5255 F100.00
G01 X21.9962 Y5.5233 F100.00
G01 X22.0038 Y5.5233 F100.00
G01 X22.0467 Y5.5255 F100.00
G01 X22.0930 Y5.5324 F100.00
G01 X22.1348 Y5.5427 F100.00
G01 X22.1420 Y5.5449 F100.00
G01 X22.1825 Y5.5595 F100.00
G01 X22.2214 Y5.5778 F100.00
G01 X22.2280 Y5.5814 F100.00
G01 X22.2649 Y5.6036 F100.00
G01 X22.3025 Y5.6314 F100.00
G01 X22.3344 Y5.6603 F100.00
G01 X22.3397 Y5.6656 F100.00
G01 X22.3686 Y5.6975 F100.00
G01 X22.3943 Y5.7320 F100.00
G01 X22.3985 Y5.7383 F100.00
G01 X22.4205 Y5.7752 F100.00
G01 X22.4390 Y5.8141 F100.00
G01 X22.4419 Y5.8211 F100.00
G01 X22.4563 Y5.8616 F100.00
G01 X22.4668 Y5.9033 F100.00
G01 X22.4683 Y5.9107 F100.00
G01 X22.4745 Y5.9533 F100.00
G01 X22.4768 Y6.0000 F100.00
G01 X22.4745 Y6.0467 F100.00
G01 X22.4683 Y6.0893 F100.00
G01 X22.4668 Y6.0967 F100.00
G01 X22.4563 Y6.1384 F100.00
G01 X22.4419 Y6.1789 F100.00
G01 X22.4390 Y6.1859 F100.00
G01 X22.4205 Y6.2248 F100.00
G01 X22.3985 Y6.2617 F100.00
G01 X22.3943 Y6.2680 F100.00
G01 X22.3686 Y6.3025 F100.00
G01 X22.3397 Y6.3344 F100.00
G01 X22.3344 Y6.3397 F100.00
G01 X22.3025 Y6.3686 F100.00
G01 X22.2680 Y6.3943 F100.00
G01 X22.2617 Y6.3985 F100.00
G01 X22.2248 Y6.4205 F100.00
G01 X22.1859 Y6.4390 F100.00
G01 X22.1789 Y6.4419 F100.00
G01 X22.1384 Y6.4563 F100.00
G01 X22.0967 Y6.4668 F100.00
G01 X22.0893 Y6.4683 F100.00
G01 X22.0467 Y6.4745 F100.00
G01 X22.0000 Y6.4768 F100.00
G01 X21.9533 Y6.4745 F100.00
G01 X21.9107 Y6.4683 F100.00
G01 X21.9033 Y6.4668 F100.00
G01 X21.8616 Y6.4563 F100.00
G01 X21.8211 Y6.4419 F100.00
G01 X21.8141 Y6.4390 F100.00
G01 X21.7769 Y6.4214 F100.00
G01 X21.7351 Y6.3964 F100.00
G01 X21.6961 Y6.3674 F100.00
G01 X21.6615 Y6.3358 F100.00
G01 X21.6314 Y6.3025 F100.00
G01 X21.6147 Y6.2801 F100.00
G01 X17.0000 Y6.2801 F100.00
G01 X16.9725 Y6.2788 F100.00
G01 X16.9491 Y6.2754 F100.00
G01 X16.9417 Y6.2739 F100.00
G01 X16.9187 Y6.2680 F100.00
G01 X16.8963 Y6.2601 F100.00
G01 X16.8894 Y6.2573 F100.00
G01 X16.8680 Y6.2470 F100.00
G01 X16.8444 Y6.2329 F100.00
G01 X16.8253 Y6.2188 F100.00
G01 X16.8195 Y6.2141 F100.00
G01 X16.8019 Y6.1981 F100.00
G01 X10.8019 Y0.1981 F100.00
G01 X10.7847 Y0.1791 F100.00
G01 X10.7693 Y0.1587 F100.00
G01 X10.7651 Y0.1524 F100.00
G01 X10.7530 Y0.1320 F100.00
G01 X10.7412 Y0.1072 F100.00
G01 X10.7320 Y0.0813 F100.00
G01 X10.7261 Y0.0583 F100.00
G01 X10.7249 Y0.0528 F100.00
G01 X10.7217 Y0.0312 F100.00
G01 X10.7210 Y0.0237 F100.00
G01 X10.7199 Y-0.0000 F100.00
G01 X10.7199 Y-0.8840 F100.00
G01 X10.4790 Y-1.1249 F100.00
G01 X7.7357 Y-1.1249 F100.00
G01 X7.7253 Y-1.1111 F100.00
G01 X7.7130 Y-1.0974 F100.00
G01 X7.7090 Y-1.0933 F100.00
G01 X7.6967 Y-1.0821 F100.00
G01 X7.6909 Y-1.0774 F100.00
G01 X7.6760 Y-1.0664 F100.00
G01 X7.6569 Y-1.0550 F100.00
G01 X7.6368 Y-1.0455 F100.00
G01 X7.6194 Y-1.0391 F100.00
G01 X7.6122 Y-1.0370 F100.00
G01 X7.5942 Y-1.0326 F100.00
G01 X7.5760 Y-1.0298 F100.00
G01 X7.5704 Y-1.0291 F100.00
G01 X7.5538 Y-1.0283 F100.00
G01 X5.5731 Y-1.0282 F100.00
G01 X5.5528 Y-1.0293 F100.00
G01 X5.5308 Y-1.0326 F100.00
G01 X5.5092 Y-1.0380 F100.00
G01 X5.4917 Y-1.0441 F100.00
G01 X5.4848 Y-1.0470 F100.00
G01 X5.4698 Y-1.0541 F100.00
G01 X5.4648 Y-1.0568 F100.00
G01 X5.4490 Y-1.0664 F100.00
G01 X5.4311 Y-1.0797 F100.00
G01 X5.4146 Y-1.0946 F100.00
G01 X5.3997 Y-1.1111 F100.00
G01 X5.3864 Y-1.1290 F100.00
G01 X5.3768 Y-1.1448 F100.00
G01 X5.3733 Y-1.1515 F100.00
G01 X5.3662 Y-1.1665 F100.00
G01 X5.3641 Y-1.1717 F100.00
G01 X5.3580 Y-1.1892 F100.00
G01 X5.3526 Y-1.2108 F100.00
G01 X5.3493 Y-1.2328 F100.00
G01 X5.3482 Y-1.2531 F100.00
G01 X5.3482 Y-1.5569 F100.00
G01 X5.3493 Y-1.5772 F100.00
G01 X5.3519 Y-1.5955 F100.00
G01 X5.3534 Y-1.6029 F100.00
G01 X5.3580 Y-1.6208 F100.00
G01 X5.3641 Y-1.6383 F100.00
G01 X5.3670 Y-1.6452 F100.00
G01 X5.3750 Y-1.6619 F100.00
G01 X5.3844 Y-1.6778 F100.00
G01 X5.3886 Y-1.6841 F100.00
G01 X5.3997 Y-1.6989 F100.00
G01 X5.4120 Y-1.7126 F100.00
G01 X5.4174 Y-1.7180 F100.00
G01 X5.4311 Y-1.7303 F100.00
G01 X5.4459 Y-1.7414 F100.00
G01 X5.4522 Y-1.7456 F100.00
G01 X5.4681 Y-1.7550 F100.00
G01 X5.4882 Y-1.7645 F100.00
G01 X5.5056 Y-1.7709 F100.00
G01 X5.5128 Y-1.7730 F100.00
G01 X5.5308 Y-1.7774 F100.00
G01 X5.5528 Y-1.7807 F100.00
G01 X5.5750 Y-1.7818 F100.00
G01 X7.5538 Y-1.7817 F100.00
G01 X7.5722 Y-1.7807 F100.00
G01 X7.5905 Y-1.7781 F100.00
G01 X7.5961 Y-1.7771 F100.00
G01 X7.6122 Y-1.7730 F100.00
G01 X7.6194 Y-1.7709 F100.00
G01 X7.6368 Y-1.7645 F100.00
G01 X7.6569 Y-1.7550 F100.00
G01 X7.6760 Y-1.7436 F100.00
G01 X7.6909 Y-1.7326 F100.00
G01 X7.6967 Y-1.7279 F100.00
G01 X7.7090 Y-1.7167 F100.00
G01 X7.7130 Y-1.7126 F100.00
G01 X7.7253 Y-1.6989 F100.00
G01 X7.7357 Y-1.6851 F100.00
G00 Z2.0000
G00 X7.7972 Y1.9867
G01 F40.00
G01 Z-0.1000
G01 F100.00
G01 X9.4217 Y1.9867 F100.00
G01 X9.7042 Y1.7042 F100.00
G01 X9.7266 Y1.6835 F100.00
G01 X9.7387 Y1.6733 F100.00
G01 X9.7590 Y1.6582 F100.00
G01 X9.7676 Y1.6522 F100.00
G01 X9.7765 Y1.6465 F100.00
G01 X9.7982 Y1.6336 F100.00
G01 X9.8075 Y1.6286 F100.00
G01 X9.8351 Y1.6156 F100.00
G01 X9.8448 Y1.6115 F100.00
G01 X9.8786 Y1.5997 F100.00
G01 X9.8887 Y1.5969 F100.00
G01 X9.9184 Y1.5897 F100.00
G01 X9.9485 Y1.5850 F100.00
G01 X9.9590 Y1.5837 F100.00
G01 X9.9894 Y1.5819 F100.00
G01 X10.0000 Y1.5817 F100.00
G01 X10.5497 Y1.5817 F100.00
G01 X10.5614 Y1.5689 F100.00
G01 X10.5689 Y1.5614 F100.00
G01 X10.6058 Y1.5280 F100.00
G01 X10.6181 Y1.5181 F100.00
G01 X10.6540 Y1.4916 F100.00
G01 X10.6672 Y1.4830 F100.00
G01 X10.7101 Y1.4576 F100.00
G01 X10.7598 Y1.4339 F100.00
G01 X10.7745 Y1.4280 F100.00
G01 X10.8215 Y1.4114 F100.00
G01 X10.8697 Y1.3991 F100.00
G01 X10.8800 Y1.3968 F100.00
G01 X10.8904 Y1.3950 F100.00
G01 X10.9397 Y1.3879 F100.00
G01 X10.9502 Y1.3871 F100.00
G01 X11.0000 Y1.3850 F100.00
G01 X11.0498 Y1.3871 F100.00
G01 X11.0603 Y1.3879 F100.00
G01 X11.1096 Y1.3950 F100.00
G01 X11.1200 Y1.3968 F100.00
G01 X11.1303 Y1.3991 F100.00
G01 X11.1785 Y1.4114 F100.00
G01 X11.2255 Y1.4280 F100.00
G01 X11.2354 Y1.4318 F100.00
G01 X11.2450 Y1.4361 F100.00
G01 X11.2899 Y1.4576 F100.00
G01 X11.3328 Y1.4830 F100.00
G01 X11.3417 Y1.4886 F100.00
G01 X11.3503 Y1.4947 F100.00
G01 X11.3902 Y1.5246 F100.00
G01 X11.4273 Y1.5578 F100.00
G01 X11.4349 Y1.5651 F100.00
G01 X11.4422 Y1.5727 F100.00
G01 X11.4754 Y1.6098 F100.00
G01 X11.5053 Y1.6497 F100.00
G01 X11.5114 Y1.6583 F100.00
G01 X11.5170 Y1.6672 F100.00
G01 X11.5424 Y1.7101 F100.00
G01 X11.5639 Y1.7550 F100.00
G01 X11.5682 Y1.7646 F100.00
G01 X11.5852 Y1.8114 F100.00
G01 X11.5886 Y1.8215 F100.00
G01 X11.6009 Y1.8697 F100.00
G01 X11.6032 Y1.8800 F100.00
G01 X11.6050 Y1.8904 F100.00
G01 X11.6121 Y1.9397 F100.00
G01 X11.6129 Y1.9502 F100.00
G01 X11.6150 Y2.0000 F100.00
G01 X11.6129 Y2.0498 F100.00
G01 X11.6121 Y2.0603 F100.00
G01 X11.6050 Y2.1096 F100.00
G01 X11.6032 Y2.1200 F100.00
G01 X11.6009 Y2.1303 F100.00
G01 X11.5886 Y2.1785 F100.00
G01 X11.5720 Y2.2255 F100.00
G01 X11.5682 Y2.2354 F100.00
G01 X11.5639 Y2.2450 F100.00
G01 X11.5424 Y2.2899 F100.00
G01 X11.5170 Y2.3328 F100.00
G01 X11.5114 Y2.3417 F100.00
G01 X11.5053 Y2.3503 F100.00
G01 X11.4754 Y2.3902 F100.00
G01 X11.4422 Y2.4273 F100.00
G01 X11.4349 Y2.4349 F100.00
G01 X11.4273 Y2.4422 F100.00
G01 X11.3902 Y2.4754 F100.00
G01 X11.3503 Y2.5053 F100.00
G01 X11.3417 Y2.5114 F100.00
G01 X11.3328 Y2.5170 F100.00
G01 X11.2899 Y2.5424 F100.00
G01 X11.2450 Y2.5639 F100.00
G01 X11.2354 Y2.5682 F100.00
G01 X11.1886 Y2.5852 F100.00
G01 X11.1785 Y2.5886 F100.00
G01 X11.1684 Y2.5914 F100.00
G01 X11.1200 Y2.6032 F100.00
G01 X11.0708 Y2.6108 F100.00
G01 X11.0603 Y2.6121 F100.00
G01 X11.0498 Y2.6129 F100.00
G01 X11.0000 Y2.6150 F100.00
G01 X10.9502 Y2.6129 F100.00
G01 X10.9397 Y2.6121 F100.00
G01 X10.9292 Y2.6108 F100.00
G01 X10.8800 Y2.6032 F100.00
G01 X10.8697 Y2.6009 F100.00
G01 X10.8215 Y2.5886 F100.00
G01 X10.7745 Y2.5720 F100.00
G01 X10.7646 Y2.5682 F100.00
G01 X10.7148 Y2.5448 F100.00
G01 X10.7009 Y2.5372 F100.00
G01 X10.6583 Y2.5114 F100.00
G01 X10.6139 Y2.4787 F100.00
G01 X10.6018 Y2.4685 F100.00
G01 X10.5689 Y2.4386 F100.00
G01 X10.5614 Y2.4311 F100.00
G01 X10.5497 Y2.4183 F100.00
G01 X10.1733 Y2.4183 F100.00
G01 X9.8908 Y2.7008 F100.00
G01 X9.8644 Y2.7250 F100.00
G01 X9.8521 Y2.7349 F100.00
G01 X9.8274 Y2.7528 F100.00
G01 X9.8014 Y2.7687 F100.00
G01 X9.7875 Y2.7764 F100.00
G01 X9.7551 Y2.7915 F100.00
G01 X9.7215 Y2.8037 F100.00
G01 X9.7063 Y2.8081 F100.00
G01 X9.6766 Y2.8153 F100.00
G01 X9.6465 Y2.8200 F100.00
G01 X9.6360 Y2.8213 F100.00
G01 X9.6056 Y2.8231 F100.00
G01 X9.5950 Y2.8233 F100.00
G01 X7.7972 Y2.8233 F100.00
G01 X7.7856 Y2.8338 F100.00
G01 X7.7775 Y2.8405 F100.00
G01 X7.7572 Y2.8555 F100.00
G01 X7.7484 Y2.8614 F100.00
G01 X7.7267 Y2.8744 F100.00
G01 X7.7174 Y2.8794 F100.00
G01 X7.6945 Y2.8902 F100.00
G01 X7.6848 Y2.8942 F100.00
G01 X7.6560 Y2.9043 F100.00
G01 X7.6315 Y2.9107 F100.00
G01 X7.6212 Y2.9130 F100.00
G01 X7.6108 Y2.9148 F100.00
G01 X7.5858 Y2.9183 F100.00
G01 X7.5553 Y2.9200 F100.00
G01 X5.5750 Y2.9200 F100.00
G01 X5.5644 Y2.9198 F100.00
G01 X5.5445 Y2.9187 F100.00
G01 X5.5340 Y2.9177 F100.00
G01 X5.5038 Y2.9130 F100.00
G01 X5.4741 Y2.9058 F100.00
G01 X5.4640 Y2.9027 F100.00
G01 X5.4452 Y2.8961 F100.00
G01 X5.4353 Y2.8923 F100.00
G01 X5.4257 Y2.8880 F100.00
G01 X5.4076 Y2.8794 F100.00
G01 X5.3983 Y2.8744 F100.00
G01 X5.3722 Y2.8585 F100.00
G01 X5.3475 Y2.8405 F100.00
G01 X5.3394 Y2.8338 F100.00
G01 X5.3245 Y2.8204 F100.00
G01 X5.3169 Y2.8131 F100.00
G01 X5.3096 Y2.8055 F100.00
G01 X5.2962 Y2.7906 F100.00
G01 X5.2895 Y2.7825 F100.00
G01 X5.2715 Y2.7578 F100.00
G01 X5.2583 Y2.7363 F100.00
G01 X5.2531 Y2.7271 F100.00
G01 X5.2398 Y2.6995 F100.00
G01 X5.2358 Y2.6898 F100.00
G01 X5.2290 Y2.6710 F100.00
G01 X5.2257 Y2.6610 F100.00
G01 X5.2229 Y2.6508 F100.00
G01 X5.2170 Y2.6262 F100.00
G01 X5.2130 Y2.6013 F100.00
G01 X5.2113 Y2.5855 F100.00
G01 X5.2100 Y2.5603 F100.00
G01 X5.2100 Y2.2550 F100.00
G01 X5.2113 Y2.2245 F100.00
G01 X5.2123 Y2.2140 F100.00
G01 X5.2152 Y2.1942 F100.00
G01 X5.2170 Y2.1838 F100.00
G01 X5.2193 Y2.1735 F100.00
G01 X5.2242 Y2.1541 F100.00
G01 X5.2273 Y2.1440 F100.00
G01 X5.2358 Y2.1202 F100.00
G01 X5.2420 Y2.1057 F100.00
G01 X5.2531 Y2.0829 F100.00
G01 X5.2686 Y2.0566 F100.00
G01 X5.2776 Y2.0436 F100.00
G01 X5.2928 Y2.0234 F100.00
G01 X5.3096 Y2.0045 F100.00
G01 X5.3207 Y1.9932 F100.00
G01 X5.3434 Y1.9728 F100.00
G01 X5.3636 Y1.9576 F100.00
G01 X5.3766 Y1.9486 F100.00
G01 X5.3983 Y1.9356 F100.00
G01 X5.4123 Y1.9283 F100.00
G01 X5.4353 Y1.9177 F100.00
G01 X5.4640 Y1.9073 F100.00
G01 X5.4792 Y1.9029 F100.00
G01 X5.5038 Y1.8970 F100.00
G01 X5.5340 Y1.8923 F100.00
G01 X5.5497 Y1.8909 F100.00
G01 X5.5750 Y1.8900 F100.00
G01 X7.5553 Y1.8900 F100.00
G01 X7.5858 Y1.8917 F100.00
G01 X7.6108 Y1.8952 F100.00
G01 X7.6212 Y1.8970 F100.00
G01 X7.6315 Y1.8993 F100.00
G01 X7.6560 Y1.9057 F100.00
G01 X7.6848 Y1.9158 F100.00
G01 X7.6945 Y1.9198 F100.00
G01 X7.7174 Y1.9306 F100.00
G01 X7.7267 Y1.9356 F100.00
G01 X7.7484 Y1.9486 F100.00
G01 X7.7572 Y1.9545 F100.00
G01 X7.7775 Y1.9695 F100.00
G01 X7.7856 Y1.9762 F100.00
G01 X7.7972 Y1.9867 F100.00
G00 Z2.0000
G00 X7.7357 Y2.1249
G01 F40.00
G01 Z-0.1000
G01 F100.00
G01 X9.4790 Y2.1249 F100.00
G01 X9.8047 Y1.7993 F100.00
G01 X9.8223 Y1.7835 F100.00
G01 X9.8444 Y1.7671 F100.00
G01 X9.8680 Y1.7530 F100.00
G01 X9.8946 Y1.7405 F100.00
G01 X9.9187 Y1.7320 F100.00
G01 X9.9454 Y1.7253 F100.00
G01 X9.9725 Y1.7212 F100.00
G01 X9.9981 Y1.7199 F100.00
G01 X10.6147 Y1.7199 F100.00
G01 X10.6314 Y1.6975 F100.00
G01 X10.6615 Y1.6642 F100.00
G01 X10.6961 Y1.6326 F100.00
G01 X10.7351 Y1.6036 F100.00
G01 X10.7769 Y1.5786 F100.00
G01 X10.8141 Y1.5610 F100.00
G01 X10.8211 Y1.5581 F100.00
G01 X10.8616 Y1.5437 F100.00
G01 X10.9033 Y1.5332 F100.00
G01 X10.9107 Y1.5317 F100.00
G01 X10.9533 Y1.5255 F100.00
G01 X10.9981 Y1.5232 F100.00
G01 X11.0467 Y1.5255 F100.00
G01 X11.0930 Y1.5324 F100.00
G01 X11.1384 Y1.5437 F100.00
G01 X11.1825 Y1.5595 F100.00
G01 X11.2248 Y1.5795 F100.00
G01 X11.2649 Y1.6036 F100.00
G01 X11.3025 Y1.6314 F100.00
G01 X11.3371 Y1.6629 F100.00
G01 X11.3686 Y1.6975 F100.00
G01 X11.3964 Y1.7351 F100.00
G01 X11.4205 Y1.7752 F100.00
G01 X11.4405 Y1.8175 F100.00
G01 X11.4563 Y1.8616 F100.00
G01 X11.4676 Y1.9070 F100.00
G01 X11.4745 Y1.9533 F100.00
G01 X11.4768 Y1.9981 F100.00
G01 X11.4748 Y2.0430 F100.00
G01 X11.4740 Y2.0505 F100.00
G01 X11.4676 Y2.0930 F100.00
G01 X11.4563 Y2.1384 F100.00
G01 X11.4419 Y2.1789 F100.00
G01 X11.4390 Y2.1859 F100.00
G01 X11.4205 Y2.2248 F100.00
G01 X11.3964 Y2.2649 F100.00
G01 X11.3686 Y2.3025 F100.00
G01 X11.3397 Y2.3344 F100.00
G01 X11.3344 Y2.3397 F100.00
G01 X11.3025 Y2.3686 F100.00
G01 X11.2649 Y2.3964 F100.00
G01 X11.2280 Y2.4186 F100.00
G01 X11.2214 Y2.4222 F100.00
G01 X11.1859 Y2.4390 F100.00
G01 X11.1789 Y2.4419 F100.00
G01 X11.1384 Y2.4563 F100.00
G01 X11.0930 Y2.4676 F100.00
G01 X11.0467 Y2.4745 F100.00
G01 X11.0038 Y2.4767 F100.00
G01 X10.9962 Y2.4767 F100.00
G01 X10.9570 Y2.4748 F100.00
G01 X10.9495 Y2.4740 F100.00
G01 X10.9070 Y2.4676 F100.00
G01 X10.8634 Y2.4568 F100.00
G01 X10.8211 Y2.4419 F100.00
G01 X10.8141 Y2.4390 F100.00
G01 X10.7752 Y2.4205 F100.00
G01 X10.7335 Y2.3954 F100.00
G01 X10.6975 Y2.3686 F100.00
G01 X10.6642 Y2.3385 F100.00
G01 X10.6326 Y2.3039 F100.00
G01 X10.6147 Y2.2801 F100.00
G01 X10.1160 Y2.2801 F100.00
G01 X9.7931 Y2.6031 F100.00
G01 X9.7727 Y2.6215 F100.00
G01 X9.7537 Y2.6357 F100.00
G01 X9.7474 Y2.6399 F100.00
G01 X9.7270 Y2.6520 F100.00
G01 X9.7022 Y2.6638 F100.00
G01 X9.6799 Y2.6719 F100.00
G01 X9.6727 Y2.6740 F100.00
G01 X9.6496 Y2.6797 F100.00
G01 X9.6225 Y2.6838 F100.00
G01 X9.5950 Y2.6851 F100.00
G01 X7.7357 Y2.6851 F100.00
G01 X7.7253 Y2.6989 F100.00
G01 X7.7130 Y2.7126 F100.00
G01 X7.7090 Y2.7167 F100.00
G01 X7.6967 Y2.7279 F100.00
G01 X7.6909 Y2.7326 F100.00
G01 X7.6760 Y2.7436 F100.00
G01 X7.6569 Y2.7550 F100.00
G01 X7.6368 Y2.7645 F100.00
G01 X7.6194 Y2.7709 F100.00
G01 X7.6122 Y2.7730 F100.00
G01 X7.5942 Y2.7774 F100.00
G01 X7.5760 Y2.7802 F100.00
G01 X7.5704 Y2.7809 F100.00
G01 X7.5519 Y2.7818 F100.00
G01 X5.5731 Y2.7818 F100.00
G01 X5.5528 Y2.7807 F100.00
G01 X5.5308 Y2.7774 F100.00
G01 X5.5092 Y2.7720 F100.00
G01 X5.4917 Y2.7659 F100.00
G01 X5.4848 Y2.7630 F100.00
G01 X5.4698 Y2.7559 F100.00
G01 X5.4648 Y2.7532 F100.00
G01 X5.4490 Y2.7436 F100.00
G01 X5.4311 Y2.7303 F100.00
G01 X5.4146 Y2.7154 F100.00
G01 X5.3997 Y2.6989 F100.00
G01 X5.3864 Y2.6810 F100.00
G01 X5.3768 Y2.6652 F100.00
G01 X5.3733 Y2.6585 F100.00
G01 X5.3662 Y2.6435 F100.00
G01 X5.3641 Y2.6383 F100.00
G01 X5.3580 Y2.6208 F100.00
G01 X5.3526 Y2.5992 F100.00
G01 X5.3493 Y2.5772 F100.00
G01 X5.3482 Y2.5569 F100.00
G01 X5.3482 Y2.2531 F100.00
G01 X5.3493 Y2.2328 F100.00
G01 X5.3519 Y2.2145 F100.00
G01 X5.3534 Y2.2071 F100.00
G01 X5.3580 Y2.1892 F100.00
G01 X5.3641 Y2.1717 F100.00
G01 X5.3670 Y2.1648 F100.00
G01 X5.3750 Y2.1481 F100.00
G01 X5.3844 Y2.1322 F100.00
G01 X5.3886 Y2.1259 F100.00
G01 X5.3997 Y2.1111 F100.00
G01 X5.4120 Y2.0974 F100.00
G01 X5.4174 Y2.0920 F100.00
G01 X5.4311 Y2.0797 F100.00
G01 X5.4459 Y2.0686 F100.00
G01 X5.4522 Y2.0644 F100.00
G01 X5.4681 Y2.0550 F100.00
G01 X5.4882 Y2.0455 F100.00
G01 X5.5056 Y2.0391 F100.00
G01 X5.5128 Y2.0370 F100.00
G01 X5.5308 Y2.0326 F100.00
G01 X5.5528 Y2.0293 F100.00
G01 X5.5750 Y2.0282 F100.00
G01 X7.5538 Y2.0283 F100.00
G01 X7.5722 Y2.0293 F100.00
G01 X7.5905 Y2.0319 F100.00
G01 X7.5961 Y2.0329 F100.00
G01 X7.6122 Y2.0370 F100.00
G01 X7.6194 Y2.0391 F100.00
G01 X7.6368 Y2.0455 F100.00
G01 X7.6569 Y2.0550 F100.00
G01 X7.6760 Y2.0664 F100.00
G01 X7.6909 Y2.0774 F100.00
G01 X7.6967 Y2.0821 F100.00
G01 X7.7090 Y2.0933 F100.00
G01 X7.7130 Y2.0974 F100.00
G01 X7.7253 Y2.1111 F100.00
G01 X7.7357 Y2.1249 F100.00
G00 Z2.0000
G00 X7.7972 Y3.2567
G01 F40.00
G01 Z-0.1000
G01 F100.00
G01 X11.6750 Y3.2567 F100.00
G01 X11.7107 Y3.2582 F100.00
G01 X11.7265 Y3.2600 F100.00
G01 X11.7566 Y3.2647 F100.00
G01 X11.7914 Y3.2732 F100.00
G01 X11.8065 Y3.2780 F100.00
G01 X11.8351 Y3.2885 F100.00
G01 X11.8675 Y3.3036 F100.00
G01 X11.8814 Y3.3113 F100.00
G01 X11.9074 Y3.3272 F100.00
G01 X11.9321 Y3.3451 F100.00
G01 X11.9444 Y3.3550 F100.00
G01 X11.9708 Y3.3792 F100.00
G01 X13.2995 Y4.7080 F100.00
G01 X13.3200 Y4.7306 F100.00
G01 X13.3267 Y4.7387 F100.00
G01 X13.3449 Y4.7632 F100.00
G01 X13.3507 Y4.7720 F100.00
G01 X13.3664 Y4.7982 F100.00
G01 X13.3714 Y4.8075 F100.00
G01 X13.3844 Y4.8351 F100.00
G01 X13.3903 Y4.8498 F100.00
G01 X13.4003 Y4.8786 F100.00
G01 X13.4031 Y4.8887 F100.00
G01 X13.4103 Y4.9184 F100.00
G01 X13.4150 Y4.9485 F100.00
G01 X13.4163 Y4.9590 F100.00
G01 X13.4181 Y4.9894 F100.00
G01 X13.4183 Y5.0000 F100.00
G01 X13.4183 Y18.8267 F100.00
G01 X14.1733 Y19.5817 F100.00
G01 X21.0000 Y19.5817 F100.00
G01 X21.0305 Y19.5829 F100.00
G01 X21.0410 Y19.5837 F100.00
G01 X21.0712 Y19.5879 F100.00
G01 X21.0868 Y19.5908 F100.00
G01 X21.1214 Y19.5997 F100.00
G01 X21.1502 Y19.6097 F100.00
G01 X21.1649 Y19.6156 F100.00
G01 X21.1972 Y19.6311 F100.00
G01 X21.2280 Y19.6493 F100.00
G01 X21.2410 Y19.6582 F100.00
G01 X21.2654 Y19.6766 F100.00
G01 X21.2920 Y19.7005 F100.00
G01 X22.2995 Y20.7080 F100.00
G01 X22.3234 Y20.7346 F100.00
G01 X22.3418 Y20.7590 F100.00
G01 X22.3478 Y20.7676 F100.00
G01 X22.3535 Y20.7765 F100.00
G01 X22.3689 Y20.8028 F100.00
G01 X22.3737 Y20.8122 F100.00
G01 X22.3865 Y20.8399 F100.00
G01 X22.3970 Y20.8685 F100.00
G01 X22.4003 Y20.8786 F100.00
G01 X22.4031 Y20.8887 F100.00
G01 X22.4103 Y20.9184 F100.00
G01 X22.4150 Y20.9485 F100.00
G01 X22.4163 Y20.9590 F100.00
G01 X22.4181 Y20.9894 F100.00
G01 X22.4183 Y21.0000 F100.00
G01 X22.4183 Y36.0000 F100.00
G01 X22.4171 Y36.0305 F100.00
G01 X22.4163 Y36.0410 F100.00
G01 X22.4150 Y36.0515 F100.00
G01 X22.4113 Y36.0764 F100.00
G01 X22.4092 Y36.0868 F100.00
G01 X22.4003 Y36.1214 F100.00
G01 X22.3970 Y36.1315 F100.00
G01 X22.3865 Y36.1601 F100.00
G01 X22.3822 Y36.1697 F100.00
G01 X22.3689 Y36.1972 F100.00
G01 X22.3507 Y36.2280 F100.00
G01 X22.3449 Y36.2368 F100.00
G01 X22.3299 Y36.2571 F100.00
G01 X22.3234 Y36.2654 F100.00
G01 X22.3165 Y36.2734 F100.00
G01 X22.2958 Y36.2958 F100.00
G01 X21.6420 Y36.9495 F100.00
G01 X21.6154 Y36.9734 F100.00
G01 X21.5910 Y36.9918 F100.00
G01 X21.5824 Y36.9978 F100.00
G01 X21.5735 Y37.0035 F100.00
G01 X21.5472 Y37.0189 F100.00
G01 X21.5378 Y37.0237 F100.00
G01 X21.5101 Y37.0365 F100.00
G01 X21.4815 Y37.0470 F100.00
G01 X21.4714 Y37.0503 F100.00
G01 X21.4613 Y37.0531 F100.00
G01 X21.4316 Y37.0603 F100.00
G01 X21.4015 Y37.0650 F100.00
G01 X21.3910 Y37.0663 F100.00
G01 X21.3606 Y37.0681 F100.00
G01 X21.3500 Y37.0683 F100.00
G01 X20.8251 Y37.0683 F100.00
G01 X20.8060 Y37.0980 F100.00
G01 X20.8000 Y37.1063 F100.00
G01 X20.7904 Y37.1183 F100.00
G01 X20.7763 Y37.1331 F100.00
G01 X20.6572 Y37.2364 F100.00
G01 X20.6409 Y37.2487 F100.00
G01 X20.6234 Y37.2594 F100.00
G01 X20.6096 Y37.2662 F100.00
G01 X20.4802 Y37.3254 F100.00
G01 X20.4660 Y37.3312 F100.00
G01 X20.4514 Y37.3361 F100.00
G01 X20.4366 Y37.3399 F100.00
G01 X20.4215 Y37.3426 F100.00
G01 X20.2704 Y37.3641 F100.00
G01 X20.2500 Y37.3650 F100.00
G01 X19.7500 Y37.3650 F100.00
G01 X19.7347 Y37.3645 F100.00
G01 X19.7245 Y37.3635 F100.00
G01 X19.5735 Y37.3418 F100.00
G01 X19.5584 Y37.3387 F100.00
G01 X19.5437 Y37.3346 F100.00
G01 X19.5340 Y37.3312 F100.00
G01 X19.5198 Y37.3254 F100.00
G01 X19.3904 Y37.2662 F100.00
G01 X19.3766 Y37.2594 F100.00
G01 X19.3591 Y37.2487 F100.00
G01 X19.3468 Y37.2397 F100.00
G01 X19.3389 Y37.2331 F100.00
G01 X19.2313 Y37.1399 F100.00
G01 X19.2201 Y37.1295 F100.00
G01 X19.2130 Y37.1221 F100.00
G01 X19.2031 Y37.1104 F100.00
G01 X19.1940 Y37.0980 F100.00
G01 X19.1143 Y36.9740 F100.00
G01 X19.1090 Y36.9652 F100.00
G01 X19.1018 Y36.9517 F100.00
G01 X19.0955 Y36.9376 F100.00
G01 X19.0904 Y36.9232 F100.00
G01 X19.0488 Y36.7817 F100.00
G01 X19.0461 Y36.7719 F100.00
G01 X19.0430 Y36.7568 F100.00
G01 X19.0410 Y36.7416 F100.00
G01 X19.0403 Y36.7314 F100.00
G01 X19.0400 Y36.6965 F100.00
G01 X19.0373 Y36.6816 F100.00
G01 X19.0360 Y36.6711 F100.00
G01 X19.0352 Y36.6606 F100.00
G01 X19.0350 Y36.6500 F100.00
G01 X19.0350 Y36.1500 F100.00
G01 X19.0355 Y36.1342 F100.00
G01 X19.0373 Y36.1184 F100.00
G01 X19.0391 Y36.1080 F100.00
G01 X19.0414 Y36.0977 F100.00
G01 X19.0458 Y36.0825 F100.00
G01 X19.0494 Y36.0726 F100.00
G01 X19.0534 Y36.0629 F100.00
G01 X19.0604 Y36.0486 F100.00
G01 X19.0656 Y36.0394 F100.00
G01 X19.0712 Y36.0305 F100.00
G01 X19.0773 Y36.0219 F100.00
G01 X19.0838 Y36.0136 F100.00
G01 X19.0959 Y36.0000 F100.00
G01 X19.0838 Y35.9864 F100.00
G01 X19.0742 Y35.9738 F100.00
G01 X19.0656 Y35.9606 F100.00
G01 X19.0604 Y35.9514 F100.00
G01 X19.0556 Y35.9419 F100.00
G01 X19.0513 Y35.9323 F100.00
G01 X19.0475 Y35.9224 F100.00
G01 X19.0427 Y35.9074 F100.00
G01 X19.0391 Y35.8920 F100.00
G01 X19.0373 Y35.8816 F100.00
G01 X19.0360 Y35.8711 F100.00
G01 X19.0352 Y35.8606 F100.00
G01 X19.0350 Y35.8500 F100.00
G01 X19.0350 Y35.3500 F100.00
G01 X19.0352 Y35.3394 F100.00
G01 X19.0360 Y35.3289 F100.00
G01 X19.0373 Y35.3184 F100.00
G01 X19.0400 Y35.3035 F100.00
G01 X19.0401 Y35.2737 F100.00
G01 X19.0410 Y35.2584 F100.00
G01 X19.0430 Y35.2432 F100.00
G01 X19.0450 Y35.2331 F100.00
G01 X19.0488 Y35.2183 F100.00
G01 X19.0889 Y35.0817 F100.00
G01 X19.0937 Y35.0671 F100.00
G01 X19.1018 Y35.0483 F100.00
G01 X19.1116 Y35.0304 F100.00
G01 X19.1912 Y34.9063 F100.00
G01 X19.2031 Y34.8896 F100.00
G01 X19.2165 Y34.8742 F100.00
G01 X19.2313 Y34.8601 F100.00
G01 X19.3428 Y34.7636 F100.00
G01 X19.3549 Y34.7542 F100.00
G01 X19.3678 Y34.7458 F100.00
G01 X19.3766 Y34.7406 F100.00
G01 X19.3904 Y34.7338 F100.00
G01 X19.5245 Y34.6726 F100.00
G01 X19.5388 Y34.6670 F100.00
G01 X19.5535 Y34.6625 F100.00
G01 X19.5684 Y34.6591 F100.00
G01 X19.5817 Y34.6570 F100.00
G01 X19.5817 Y32.8150 F100.00
G01 X19.5447 Y32.8150 F100.00
G01 X19.5149 Y32.8136 F100.00
G01 X19.4992 Y32.8122 F100.00
G01 X19.4593 Y32.8061 F100.00
G01 X19.4201 Y32.7965 F100.00
G01 X19.4100 Y32.7934 F100.00
G01 X19.3819 Y32.7834 F100.00
G01 X19.3720 Y32.7796 F100.00
G01 X19.3624 Y32.7754 F100.00
G01 X19.3308 Y32.7601 F100.00
G01 X19.2961 Y32.7395 F100.00
G01 X19.2873 Y32.7337 F100.00
G01 X19.2633 Y32.7160 F100.00
G01 X19.2550 Y32.7095 F100.00
G01 X19.2470 Y32.7026 F100.00
G01 X19.2212 Y32.6788 F100.00
G01 X19.2139 Y32.6712 F100.00
G01 X19.1905 Y32.6450 F100.00
G01 X19.1694 Y32.6170 F100.00
G01 X19.1633 Y32.6084 F100.00
G01 X19.1424 Y32.5738 F100.00
G01 X19.1374 Y32.5645 F100.00
G01 X19.1246 Y32.5376 F100.00
G01 X19.1204 Y32.5280 F100.00
G01 X19.1166 Y32.5181 F100.00
G01 X19.1050 Y32.4850 F100.00
G01 X19.0962 Y32.4510 F100.00
G01 X19.0939 Y32.4407 F100.00
G01 X19.0885 Y32.4061 F100.00
G01 X19.0872 Y32.3956 F100.00
G01 X19.0864 Y32.3851 F100.00
G01 X19.0850 Y32.3500 F100.00
G01 X19.0850 Y31.7000 F100.00
G01 X19.0852 Y31.6894 F100.00
G01 X19.0872 Y31.6544 F100.00
G01 X19.0885 Y31.6439 F100.00
G01 X19.0939 Y31.6093 F100.00
G01 X19.0962 Y31.5990 F100.00
G01 X19.1050 Y31.5650 F100.00
G01 X19.1166 Y31.5319 F100.00
G01 X19.1224 Y31.5172 F100.00
G01 X19.1399 Y31.4808 F100.00
G01 X19.1605 Y31.4461 F100.00
G01 X19.1694 Y31.4330 F100.00
G01 X19.1905 Y31.4050 F100.00
G01 X19.2139 Y31.3788 F100.00
G01 X19.2249 Y31.3675 F100.00
G01 X19.2550 Y31.3405 F100.00
G01 X19.2830 Y31.3194 F100.00
G01 X19.2961 Y31.3105 F100.00
G01 X19.3262 Y31.2924 F100.00
G01 X19.3402 Y31.2851 F100.00
G01 X19.3720 Y31.2704 F100.00
G01 X19.4050 Y31.2583 F100.00
G01 X19.4201 Y31.2535 F100.00
G01 X19.4593 Y31.2439 F100.00
G01 X19.4939 Y31.2385 F100.00
G01 X19.5044 Y31.2372 F100.00
G01 X19.5149 Y31.2364 F100.00
G01 X19.5500 Y31.2350 F100.00
G01 X20.4500 Y31.2350 F100.00
G01 X20.4851 Y31.2364 F100.00
G01 X20.4956 Y31.2372 F100.00
G01 X20.5061 Y31.2385 F100.00
G01 X20.5407 Y31.2439 F100.00
G01 X20.5799 Y31.2535 F100.00
G01 X20.5950 Y31.2583 F100.00
G01 X20.6280 Y31.2704 F100.00
G01 X20.6598 Y31.2851 F100.00
G01 X20.6738 Y31.2924 F100.00
G01 X20.7084 Y31.3133 F100.00
G01 X20.7409 Y31.3372 F100.00
G01 X20.7530 Y31.3474 F100.00
G01 X20.7788 Y31.3712 F100.00
G01 X20.8026 Y31.3970 F100.00
G01 X20.8128 Y31.4091 F100.00
G01 X20.8367 Y31.4416 F100.00
G01 X20.8576 Y31.4762 F100.00
G01 X20.8649 Y31.4902 F100.00
G01 X20.8796 Y31.5220 F100.00
G01 X20.8934 Y31.5600 F100.00
G01 X20.8965 Y31.5701 F100.00
G01 X20.9038 Y31.5990 F100.00
G01 X20.9061 Y31.6093 F100.00
G01 X20.9079 Y31.6197 F100.00
G01 X20.9128 Y31.6544 F100.00
G01 X20.9150 Y31.6947 F100.00
G01 X20.9150 Y32.3553 F100.00
G01 X20.9128 Y32.3956 F100.00
G01 X20.9115 Y32.4061 F100.00
G01 X20.9061 Y32.4407 F100.00
G01 X20.9038 Y32.4510 F100.00
G01 X20.8950 Y32.4850 F100.00
G01 X20.8834 Y32.5181 F100.00
G01 X20.8776 Y32.5328 F100.00
G01 X20.8601 Y32.5692 F100.00
G01 X20.8423 Y32.5994 F100.00
G01 X20.8337 Y32.6127 F100.00
G01 X20.8160 Y32.6367 F100.00
G01 X20.8061 Y32.6491 F100.00
G01 X20.7825 Y32.6751 F100.00
G01 X20.7712 Y32.6861 F100.00
G01 X20.7491 Y32.7061 F100.00
G01 X20.7409 Y32.7128 F100.00
G01 X20.7170 Y32.7306 F100.00
G01 X20.7039 Y32.7395 F100.00
G01 X20.6784 Y32.7549 F100.00
G01 X20.6645 Y32.7626 F100.00
G01 X20.6328 Y32.7776 F100.00
G01 X20.6181 Y32.7834 F100.00
G01 X20.5900 Y32.7934 F100.00
G01 X20.5799 Y32.7965 F100.00
G01 X20.5459 Y32.8050 F100.00
G01 X20.5303 Y32.8079 F100.00
G01 X20.5008 Y32.8122 F100.00
G01 X20.4903 Y32.8133 F100.00
G01 X20.4553 Y32.8150 F100.00
G01 X20.4183 Y32.8150 F100.00
G01 X20.4183 Y34.6570 F100.00
G01 X20.4366 Y34.6601 F100.00
G01 X20.4514 Y34.6639 F100.00
G01 X20.4660 Y34.6688 F100.00
G01 X20.4802 Y34.6746 F100.00
G01 X20.6189 Y34.7382 F100.00
G01 X20.6322 Y34.7458 F100.00
G01 X20.6409 Y34.7513 F100.00
G01 X20.6532 Y34.7603 F100.00
G01 X20.6611 Y34.7669 F100.00
G01 X20.7725 Y34.8635 F100.00
G01 X20.7835 Y34.8742 F100.00
G01 X20.7937 Y34.8857 F100.00
G01 X20.8030 Y34.8978 F100.00
G01 X20.8088 Y34.9063 F100.00
G01 X20.8884 Y35.0304 F100.00
G01 X20.8982 Y35.0483 F100.00
G01 X20.9045 Y35.0624 F100.00
G01 X20.9080 Y35.0720 F100.00
G01 X20.9526 Y35.2232 F100.00
G01 X20.9570 Y35.2432 F100.00
G01 X20.9594 Y35.2635 F100.00
G01 X20.9599 Y35.2737 F100.00
G01 X20.9600 Y35.3035 F100.00
G01 X20.9627 Y35.3184 F100.00
G01 X20.9640 Y35.3289 F100.00
G01 X20.9648 Y35.3394 F100.00
G01 X20.9650 Y35.3500 F100.00
G01 X20.9650 Y35.8500 F100.00
G01 X20.9648 Y35.8606 F100.00
G01 X20.9640 Y35.8711 F100.00
G01 X20.9627 Y35.8816 F100.00
G01 X20.9609 Y35.8920 F100.00
G01 X20.9586 Y35.9023 F100.00
G01 X20.9558 Y35.9124 F100.00
G01 X20.9525 Y35.9224 F100.00
G01 X20.9487 Y35.9323 F100.00
G01 X20.9444 Y35.9419 F100.00
G01 X20.9396 Y35.9514 F100.00
G01 X20.9344 Y35.9606 F100.00
G01 X20.9288 Y35.9695 F100.00
G01 X20.9227 Y35.9781 F100.00
G01 X20.9162 Y35.9864 F100.00
G01 X20.9041 Y36.0000 F100.00
G01 X20.9128 Y36.0095 F100.00
G01 X20.9227 Y36.0219 F100.00
G01 X20.9317 Y36.0350 F100.00
G01 X20.9371 Y36.0440 F100.00
G01 X20.9444 Y36.0581 F100.00
G01 X20.9487 Y36.0677 F100.00
G01 X20.9542 Y36.0825 F100.00
G01 X20.9586 Y36.0977 F100.00
G01 X20.9609 Y36.1080 F100.00
G01 X20.9627 Y36.1184 F100.00
G01 X20.9640 Y36.1289 F100.00
G01 X20.9648 Y36.1394 F100.00
G01 X20.9650 Y36.2317 F100.00
G01 X21.1767 Y36.2317 F100.00
G01 X21.5817 Y35.8267 F100.00
G01 X21.5817 Y21.1733 F100.00
G01 X20.8267 Y20.4183 F100.00
G01 X14.0000 Y20.4183 F100.00
G01 X13.9695 Y20.4171 F100.00
G01 X13.9590 Y20.4163 F100.00
G01 X13.9288 Y20.4121 F100.00
G01 X13.9132 Y20.4092 F100.00
G01 X13.8786 Y20.4003 F100.00
G01 X13.8498 Y20.3903 F100.00
G01 X13.8351 Y20.3844 F100.00
G01 X13.8028 Y20.3689 F100.00
G01 X13.7720 Y20.3507 F100.00
G01 X13.7590 Y20.3418 F100.00
G01 X13.7346 Y20.3234 F100.00
G01 X13.7118 Y20.3031 F100.00
G01 X13.7042 Y20.2958 F100.00
G01 X12.7042 Y19.2958 F100.00
G01 X12.6835 Y19.2734 F100.00
G01 X12.6733 Y19.2613 F100.00
G01 X12.6522 Y19.2324 F100.00
G01 X12.6465 Y19.2235 F100.00
G01 X12.6311 Y19.1972 F100.00
G01 X12.6263 Y19.1878 F100.00
G01 X12.6135 Y19.1601 F100.00
G01 X12.6030 Y19.1315 F100.00
G01 X12.5997 Y19.1214 F100.00
G01 X12.5969 Y19.1113 F100.00
G01 X12.5908 Y19.0868 F100.00
G01 X12.5887 Y19.0764 F100.00
G01 X12.5837 Y19.0410 F100.00
G01 X12.5819 Y19.0106 F100.00
G01 X12.5817 Y19.0000 F100.00
G01 X12.5817 Y5.1733 F100.00
G01 X11.5017 Y4.0933 F100.00
G01 X7.7972 Y4.0933 F100.00
G01 X7.7856 Y4.1038 F100.00
G01 X7.7775 Y4.1105 F100.00
G01 X7.7572 Y4.1255 F100.00
G01 X7.7484 Y4.1314 F100.00
G01 X7.7221 Y4.1469 F100.00
G01 X7.7127 Y4.1517 F100.00
G01 X7.6897 Y4.1623 F100.00
G01 X7.6660 Y4.1710 F100.00
G01 X7.6560 Y4.1743 F100.00
G01 X7.6264 Y4.1819 F100.00
G01 X7.6160 Y4.1840 F100.00
G01 X7.5910 Y4.1877 F100.00
G01 X7.5805 Y4.1887 F100.00
G01 X7.5606 Y4.1898 F100.00
G01 X7.5500 Y4.1900 F100.00
G01 X5.5697 Y4.1900 F100.00
G01 X5.5392 Y4.1883 F100.00
G01 X5.5090 Y4.1840 F100.00
G01 X5.4986 Y4.1819 F100.00
G01 X5.4792 Y4.1771 F100.00
G01 X5.4690 Y4.1743 F100.00
G01 X5.4590 Y4.1710 F100.00
G01 X5.4402 Y4.1642 F100.00
G01 X5.4305 Y4.1602 F100.00
G01 X5.4029 Y4.1469 F100.00
G01 X5.3937 Y4.1417 F100.00
G01 X5.3722 Y4.1285 F100.00
G01 X5.3475 Y4.1105 F100.00
G01 X5.3394 Y4.1038 F100.00
G01 X5.3245 Y4.0904 F100.00
G01 X5.3169 Y4.0831 F100.00
G01 X5.3096 Y4.0755 F100.00
G01 X5.2962 Y4.0606 F100.00
G01 X5.2895 Y4.0525 F100.00
G01 X5.2715 Y4.0278 F100.00
G01 X5.2583 Y4.0063 F100.00
G01 X5.2531 Y3.9971 F100.00
G01 X5.2398 Y3.9695 F100.00
G01 X5.2358 Y3.9598 F100.00
G01 X5.2290 Y3.9410 F100.00
G01 X5.2257 Y3.9310 F100.00
G01 X5.2229 Y3.9208 F100.00
G01 X5.2170 Y3.8962 F100.00
G01 X5.2130 Y3.8713 F100.00
G01 X5.2113 Y3.8555 F100.00
G01 X5.2100 Y3.8303 F100.00
G01 X5.2100 Y3.5250 F100.00
G01 X5.2113 Y3.4945 F100.00
G01 X5.2123 Y3.4840 F100.00
G01 X5.2152 Y3.4642 F100.00
G01 X5.2170 Y3.4538 F100.00
G01 X5.2193 Y3.4435 F100.00
G01 X5.2242 Y3.4241 F100.00
G01 X5.2273 Y3.4140 F100.00
G01 X5.2358 Y3.3902 F100.00
G01 X5.2420 Y3.3757 F100.00
G01 X5.2531 Y3.3529 F100.00
G01 X5.2686 Y3.3266 F100.00
G01 X5.2776 Y3.3136 F100.00
G01 X5.2928 Y3.2934 F100.00
G01 X5.3096 Y3.2745 F100.00
G01 X5.3207 Y3.2632 F100.00
G01 X5.3434 Y3.2428 F100.00
G01 X5.3636 Y3.2276 F100.00
G01 X5.3766 Y3.2186 F100.00
G01 X5.3983 Y3.2056 F100.00
G01 X5.4123 Y3.1983 F100.00
G01 X5.4353 Y3.1877 F100.00
G01 X5.4640 Y3.1773 F100.00
G01 X5.4792 Y3.1729 F100.00
G01 X5.5038 Y3.1670 F100.00
G01 X5.5340 Y3.1623 F100.00
G01 X5.5497 Y3.1609 F100.00
G01 X5.5750 Y3.1600 F100.00
G01 X7.5553 Y3.1600 F100.00
G01 X7.5858 Y3.1617 F100.00
G01 X7.6108 Y3.1652 F100.00
G01 X7.6212 Y3.1670 F100.00
G01 X7.6315 Y3.1693 F100.00
G01 X7.6560 Y3.1757 F100.00
G01 X7.6848 Y3.1858 F100.00
G01 X7.6945 Y3.1898 F100.00
G01 X7.7174 Y3.2006 F100.00
G01 X7.7267 Y3.2056 F100.00
G01 X7.7484 Y3.2186 F100.00
G01 X7.7572 Y3.2245 F100.00
G01 X7.7775 Y3.2395 F100.00
G01 X7.7856 Y3.2462 F100.00
G01 X7.7972 Y3.2567 F100.00
G00 Z2.0000
G00 X7.7357 Y3.3949
G01 F40.00
G01 Z-0.1000
G01 F100.00
G01 X11.6750 Y3.3949 F100.00
G01 X11.6987 Y3.3960 F100.00
G01 X11.7062 Y3.3967 F100.00
G01 X11.7296 Y3.4003 F100.00
G01 X11.7545 Y3.4064 F100.00
G01 X11.7822 Y3.4162 F100.00
G01 X11.8037 Y3.4263 F100.00
G01 X11.8103 Y3.4298 F100.00
G01 X11.8306 Y3.4421 F100.00
G01 X11.8497 Y3.4562 F100.00
G01 X11.8555 Y3.4609 F100.00
G01 X11.8731 Y3.4769 F100.00
G01 X13.1981 Y4.8019 F100.00
G01 X13.2165 Y4.8223 F100.00
G01 X13.2329 Y4.8444 F100.00
G01 X13.2470 Y4.8680 F100.00
G01 X13.2573 Y4.8894 F100.00
G01 X13.2601 Y4.8963 F100.00
G01 X13.2680 Y4.9187 F100.00
G01 X13.2747 Y4.9454 F100.00
G01 X13.2788 Y4.9725 F100.00
G01 X13.2801 Y5.0000 F100.00
G01 X13.2801 Y18.8840 F100.00
G01 X14.1160 Y19.7199 F100.00
G01 X21.0000 Y19.7199 F100.00
G01 X21.0275 Y19.7212 F100.00
G01 X21.0565 Y19.7257 F100.00
G01 X21.0813 Y19.7320 F100.00
G01 X21.1037 Y19.7399 F100.00
G01 X21.1106 Y19.7427 F100.00
G01 X21.1320 Y19.7530 F100.00
G01 X21.1524 Y19.7651 F100.00
G01 X21.1587 Y19.7693 F100.00
G01 X21.1777 Y19.7835 F100.00
G01 X21.1967 Y19.8006 F100.00
G01 X22.1994 Y20.8033 F100.00
G01 X22.2165 Y20.8223 F100.00
G01 X22.2329 Y20.8444 F100.00
G01 X22.2470 Y20.8680 F100.00
G01 X22.2588 Y20.8928 F100.00
G01 X22.2680 Y20.9187 F100.00
G01 X22.2747 Y20.9454 F100.00
G01 X22.2788 Y20.9725 F100.00
G01 X22.2801 Y21.0000 F100.00
G01 X22.2801 Y36.0000 F100.00
G01 X22.2790 Y36.0237 F100.00
G01 X22.2783 Y36.0312 F100.00
G01 X22.2751 Y36.0528 F100.00
G01 X22.2739 Y36.0583 F100.00
G01 X22.2680 Y36.0813 F100.00
G01 X22.2580 Y36.1089 F100.00
G01 X22.2470 Y36.1320 F100.00
G01 X22.2329 Y36.1556 F100.00
G01 X22.2165 Y36.1777 F100.00
G01 X22.2007 Y36.1953 F100.00
G01 X21.5467 Y36.8494 F100.00
G01 X21.5277 Y36.8665 F100.00
G01 X21.5056 Y36.8829 F100.00
G01 X21.4820 Y36.8970 F100.00
G01 X21.4572 Y36.9088 F100.00
G01 X21.4313 Y36.9180 F100.00
G01 X21.4046 Y36.9247 F100.00
G01 X21.3775 Y36.9288 F100.00
G01 X21.3519 Y36.9301 F100.00
G01 X20.7496 Y36.9301 F100.00
G01 X20.6925 Y37.0190 F100.00
G01 X20.6882 Y37.0249 F100.00
G01 X20.6847 Y37.0291 F100.00
G01 X20.6782 Y37.0355 F100.00
G01 X20.5678 Y37.1310 F100.00
G01 X20.5603 Y37.1362 F100.00
G01 X20.5539 Y37.1397 F100.00
G01 X20.4228 Y37.1996 F100.00
G01 X20.4143 Y37.2029 F100.00
G01 X20.4036 Y37.2055 F100.00
G01 X20.2609 Y37.2260 F100.00
G01 X20.2518 Y37.2268 F100.00
G01 X19.7500 Y37.2268 F100.00
G01 X19.7391 Y37.2260 F100.00
G01 X19.5982 Y37.2058 F100.00
G01 X19.5910 Y37.2044 F100.00
G01 X19.5840 Y37.2023 F100.00
G01 X19.5772 Y37.1996 F100.00
G01 X19.4478 Y37.1405 F100.00
G01 X19.4382 Y37.1352 F100.00
G01 X19.4294 Y37.1287 F100.00
G01 X19.3218 Y37.0355 F100.00
G01 X19.3141 Y37.0277 F100.00
G01 X19.3075 Y37.0190 F100.00
G01 X19.2306 Y36.8992 F100.00
G01 X19.2269 Y36.8929 F100.00
G01 X19.2239 Y36.8863 F100.00
G01 X19.2215 Y36.8793 F100.00
G01 X19.1800 Y36.7375 F100.00
G01 X19.1788 Y36.7303 F100.00
G01 X19.1783 Y36.7230 F100.00
G01 X19.1783 Y36.6775 F100.00
G01 X19.1751 Y36.6668 F100.00
G01 X19.1734 Y36.6556 F100.00
G01 X19.1732 Y36.1481 F100.00
G01 X19.1738 Y36.1406 F100.00
G01 X19.1751 Y36.1332 F100.00
G01 X19.1771 Y36.1259 F100.00
G01 X19.1790 Y36.1206 F100.00
G01 X19.1823 Y36.1138 F100.00
G01 X19.1851 Y36.1089 F100.00
G01 X19.1895 Y36.1028 F100.00
G01 X19.1944 Y36.0970 F100.00
G01 X19.1998 Y36.0918 F100.00
G01 X19.2058 Y36.0872 F100.00
G01 X19.2121 Y36.0832 F100.00
G01 X19.2189 Y36.0798 F100.00
G01 X19.2241 Y36.0777 F100.00
G01 X19.2313 Y36.0755 F100.00
G01 X19.2387 Y36.0740 F100.00
G01 X19.2462 Y36.0733 F100.00
G01 X20.7500 Y36.0732 F100.00
G01 X20.7575 Y36.0736 F100.00
G01 X20.7687 Y36.0755 F100.00
G01 X20.7759 Y36.0777 F100.00
G01 X20.7811 Y36.0798 F100.00
G01 X20.7911 Y36.0851 F100.00
G01 X20.7972 Y36.0895 F100.00
G01 X20.8016 Y36.0931 F100.00
G01 X20.8094 Y36.1013 F100.00
G01 X20.8139 Y36.1073 F100.00
G01 X20.8168 Y36.1121 F100.00
G01 X20.8217 Y36.1224 F100.00
G01 X20.8249 Y36.1332 F100.00
G01 X20.8264 Y36.1425 F100.00
G01 X20.8268 Y36.1500 F100.00
G01 X20.8268 Y36.3699 F100.00
G01 X21.2340 Y36.3699 F100.00
G01 X21.7199 Y35.8840 F100.00
G01 X21.7199 Y21.1160 F100.00
G01 X20.8840 Y20.2801 F100.00
G01 X14.0000 Y20.2801 F100.00
G01 X13.9725 Y20.2788 F100.00
G01 X13.9435 Y20.2743 F100.00
G01 X13.9187 Y20.2680 F100.00
G01 X13.8963 Y20.2601 F100.00
G01 X13.8894 Y20.2573 F100.00
G01 X13.8680 Y20.2470 F100.00
G01 X13.8476 Y20.2349 F100.00
G01 X13.8413 Y20.2307 F100.00
G01 X13.8223 Y20.2165 F100.00
G01 X13.8033 Y20.1994 F100.00
G01 X12.8019 Y19.1981 F100.00
G01 X12.7823 Y19.1762 F100.00
G01 X12.7671 Y19.1556 F100.00
G01 X12.7530 Y19.1320 F100.00
G01 X12.7412 Y19.1072 F100.00
G01 X12.7331 Y19.0849 F100.00
G01 X12.7310 Y19.0777 F100.00
G01 X12.7257 Y19.0565 F100.00
G01 X12.7246 Y19.0509 F100.00
G01 X12.7212 Y19.0275 F100.00
G01 X12.7199 Y19.0000 F100.00
G01 X12.7199 Y5.1160 F100.00
G01 X11.5590 Y3.9551 F100.00
G01 X7.7357 Y3.9551 F100.00
G01 X7.7253 Y3.9689 F100.00
G01 X7.7130 Y3.9826 F100.00
G01 X7.7090 Y3.9867 F100.00
G01 X7.6967 Y3.9979 F100.00
G01 X7.6909 Y4.0026 F100.00
G01 X7.6760 Y4.0136 F100.00
G01 X7.6569 Y4.0250 F100.00
G01 X7.6368 Y4.0345 F100.00
G01 X7.6194 Y4.0409 F100.00
G01 X7.6122 Y4.0430 F100.00
G01 X7.5942 Y4.0474 F100.00
G01 X7.5760 Y4.0502 F100.00
G01 X7.5704 Y4.0509 F100.00
G01 X7.5538 Y4.0517 F100.00
G01 X5.5731 Y4.0518 F100.00
G01 X5.5528 Y4.0507 F100.00
G01 X5.5308 Y4.0474 F100.00
G01 X5.5092 Y4.0420 F100.00
G01 X5.4917 Y4.0359 F100.00
G01 X5.4848 Y4.0330 F100.00
G01 X5.4698 Y4.0259 F100.00
G01 X5.4648 Y4.0232 F100.00
G01 X5.4490 Y4.0136 F100.00
G01 X5.4311 Y4.0003 F100.00
G01 X5.4146 Y3.9854 F100.00
G01 X5.3997 Y3.9689 F100.00
G01 X5.3864 Y3.9510 F100.00
G01 X5.3768 Y3.9352 F100.00
G01 X5.3733 Y3.9285 F100.00
G01 X5.3662 Y3.9135 F100.00
G01 X5.3641 Y3.9083 F100.00
G01 X5.3580 Y3.8908 F100.00
G01 X5.3526 Y3.8692 F100.00
G01 X5.3493 Y3.8472 F100.00
G01 X5.3482 Y3.8269 F100.00
G01 X5.3482 Y3.5231 F100.00
G01 X5.3493 Y3.5028 F100.00
G01 X5.3519 Y3.4845 F100.00
G01 X5.3534 Y3.4771 F100.00
G01 X5.3580 Y3.4592 F100.00
G01 X5.3641 Y3.4417 F100.00
G01 X5.3670 Y3.4348 F100.00
G01 X5.3750 Y3.4181 F100.00
G01 X5.3844 Y3.4022 F100.00
G01 X5.3886 Y3.3959 F100.00
G01 X5.3997 Y3.3811 F100.00
G01 X5.4120 Y3.3674 F100.00
G01 X5.4174 Y3.3620 F100.00
G01 X5.4311 Y3.3497 F100.00
G01 X5.4459 Y3.3386 F100.00
G01 X5.4522 Y3.3344 F100.00
G01 X5.4681 Y3.3250 F100.00
G01 X5.4882 Y3.3155 F100.00
G01 X5.5056 Y3.3091 F100.00
G01 X5.5128 Y3.3070 F100.00
G01 X5.5308 Y3.3026 F100.00
G01 X5.5528 Y3.2993 F100.00
G01 X5.5750 Y3.2982 F100.00
G01 X7.5538 Y3.2983 F100.00
G01 X7.5722 Y3.2993 F100.00
G01 X7.5905 Y3.3019 F100.00
G01 X7.5961 Y3.3029 F100.00
G01 X7.6122 Y3.3070 F100.00
G01 X7.6194 Y3.3091 F100.00
G01 X7.6368 Y3.3155 F100.00
G01 X7.6569 Y3.3250 F100.00
G01 X7.6760 Y3.3364 F100.00
G01 X7.6909 Y3.3474 F100.00
G01 X7.6967 Y3.3521 F100.00
G01 X7.7090 Y3.3633 F100.00
G01 X7.7130 Y3.3674 F100.00
G01 X7.7253 Y3.3811 F100.00
G01 X7.7357 Y3.3949 F100.00
G00 Z2.0000
G00 X7.6549 Y5.2960
G01 F40.00
G01 Z-0.1000
G01 F100.00
G01 X7.6385 Y5.3038 F100.00
G01 X7.6333 Y5.3059 F100.00
G01 X7.6158 Y5.3120 F100.00
G01 X7.5979 Y5.3166 F100.00
G01 X7.5905 Y5.3181 F100.00
G01 X7.5722 Y5.3207 F100.00
G01 X7.5500 Y5.3218 F100.00
G01 X5.5750 Y5.3218 F100.00
G01 X5.5528 Y5.3207 F100.00
G01 X5.5345 Y5.3181 F100.00
G01 X5.5271 Y5.3166 F100.00
G01 X5.5092 Y5.3120 F100.00
G01 X5.4917 Y5.3059 F100.00
G01 X5.4848 Y5.3030 F100.00
G01 X5.4681 Y5.2950 F100.00
G01 X5.4522 Y5.2856 F100.00
G01 X5.4459 Y5.2814 F100.00
G01 X5.4311 Y5.2703 F100.00
G01 X5.4174 Y5.2580 F100.00
G01 X5.4120 Y5.2526 F100.00
G01 X5.3997 Y5.2389 F100.00
G01 X5.3886 Y5.2241 F100.00
G01 X5.3844 Y5.2178 F100.00
G01 X5.3750 Y5.2019 F100.00
G01 X5.3670 Y5.1852 F100.00
G01 X5.3641 Y5.1783 F100.00
G01 X5.3580 Y5.1608 F100.00
G01 X5.3526 Y5.1392 F100.00
G01 X5.3498 Y5.1210 F100.00
G01 X5.3490 Y5.1135 F100.00
G01 X5.3482 Y5.0950 F100.00
G01 X5.3482 Y4.7931 F100.00
G01 X5.3495 Y4.7709 F100.00
G01 X5.3522 Y4.7526 F100.00
G01 X5.3534 Y4.7471 F100.00
G01 X5.3580 Y4.7292 F100.00
G01 X5.3655 Y4.7082 F100.00
G01 X5.3750 Y4.6881 F100.00
G01 X5.3844 Y4.6722 F100.00
G01 X5.3886 Y4.6659 F100.00
G01 X5.4009 Y4.6497 F100.00
G01 X5.4146 Y4.6346 F100.00
G01 X5.4297 Y4.6209 F100.00
G01 X5.4459 Y4.6086 F100.00
G01 X5.4522 Y4.6044 F100.00
G01 X5.4681 Y4.5950 F100.00
G01 X5.4882 Y4.5855 F100.00
G01 X5.5092 Y4.5780 F100.00
G01 X5.5271 Y4.5734 F100.00
G01 X5.5345 Y4.5719 F100.00
G01 X5.5546 Y4.5691 F100.00
G01 X5.5750 Y4.5682 F100.00
G01 X7.5500 Y4.5682 F100.00
G01 X7.5722 Y4.5693 F100.00
G01 X7.5942 Y4.5726 F100.00
G01 X7.6158 Y4.5780 F100.00
G01 X7.6350 Y4.5848 F100.00
G01 X7.6535 Y4.5933 F100.00
G01 X7.6602 Y4.5968 F100.00
G01 X7.6760 Y4.6064 F100.00
G01 X7.6939 Y4.6197 F100.00
G01 X7.7076 Y4.6320 F100.00
G01 X7.7130 Y4.6374 F100.00
G01 X7.7253 Y4.6511 F100.00
G01 X7.7377 Y4.6677 F100.00
G01 X7.7565 Y4.6707 F100.00
G01 X7.7831 Y4.6775 F100.00
G01 X7.8072 Y4.6862 F100.00
G01 X7.8304 Y4.6971 F100.00
G01 X7.8524 Y4.7101 F100.00
G01 X7.8587 Y4.7143 F100.00
G01 X7.8777 Y4.7285 F100.00
G01 X7.8981 Y4.7469 F100.00
G01 X9.1994 Y6.0483 F100.00
G01 X9.2165 Y6.0673 F100.00
G01 X9.2307 Y6.0863 F100.00
G01 X9.2349 Y6.0926 F100.00
G01 X9.2461 Y6.1113 F100.00
G01 X9.2487 Y6.1163 F100.00
G01 X9.2588 Y6.1378 F100.00
G01 X9.2680 Y6.1637 F100.00
G01 X9.2747 Y6.1904 F100.00
G01 X9.2785 Y6.2157 F100.00
G01 X9.2801 Y6.2450 F100.00
G01 X9.2801 Y38.8840 F100.00
G01 X10.1160 Y39.7199 F100.00
G01 X14.8340 Y39.7199 F100.00
G01 X15.6949 Y38.8590 F100.00
G01 X15.6949 Y37.2233 F100.00
G01 X15.5732 Y37.2058 F100.00
G01 X15.5678 Y37.2048 F100.00
G01 X15.5607 Y37.2029 F100.00
G01 X15.5522 Y37.1996 F100.00
G01 X15.4228 Y37.1405 F100.00
G01 X15.4179 Y37.1380 F100.00
G01 X15.4116 Y37.1342 F100.00
G01 X15.4044 Y37.1287 F100.00
G01 X15.2968 Y37.0355 F100.00
G01 X15.2891 Y37.0277 F100.00
G01 X15.2825 Y37.0190 F100.00
G01 X15.2056 Y36.8992 F100.00
G01 X15.2011 Y36.8913 F100.00
G01 X15.1989 Y36.8863 F100.00
G01 X15.1965 Y36.8793 F100.00
G01 X15.1550 Y36.7375 F100.00
G01 X15.1538 Y36.7303 F100.00
G01 X15.1533 Y36.7230 F100.00
G01 X15.1533 Y36.6775 F100.00
G01 X15.1510 Y36.6705 F100.00
G01 X15.1497 Y36.6650 F100.00
G01 X15.1483 Y36.6538 F100.00
G01 X15.1482 Y36.1481 F100.00
G01 X15.1490 Y36.1387 F100.00
G01 X15.1510 Y36.1295 F100.00
G01 X15.1540 Y36.1206 F100.00
G01 X15.1573 Y36.1138 F100.00
G01 X15.1622 Y36.1058 F100.00
G01 X15.1694 Y36.0970 F100.00
G01 X15.1763 Y36.0906 F100.00
G01 X15.1839 Y36.0851 F100.00
G01 X15.1922 Y36.0806 F100.00
G01 X15.2027 Y36.0765 F100.00
G01 X15.2137 Y36.0740 F100.00
G01 X15.2231 Y36.0732 F100.00
G01 X16.7250 Y36.0732 F100.00
G01 X16.7325 Y36.0736 F100.00
G01 X16.7400 Y36.0747 F100.00
G01 X16.7473 Y36.0765 F100.00
G01 X16.7544 Y36.0790 F100.00
G01 X16.7645 Y36.0841 F100.00
G01 X16.7722 Y36.0895 F100.00
G01 X16.7806 Y36.0970 F100.00
G01 X16.7867 Y36.1043 F100.00
G01 X16.7927 Y36.1138 F100.00
G01 X16.7973 Y36.1241 F100.00
G01 X16.8003 Y36.1350 F100.00
G01 X16.8016 Y36.1444 F100.00
G01 X16.8018 Y36.6500 F100.00
G01 X16.8016 Y36.6556 F100.00
G01 X16.8007 Y36.6631 F100.00
G01 X16.7990 Y36.6705 F100.00
G01 X16.7967 Y36.6775 F100.00
G01 X16.7967 Y36.7230 F100.00
G01 X16.7962 Y36.7303 F100.00
G01 X16.7950 Y36.7375 F100.00
G01 X16.7535 Y36.8793 F100.00
G01 X16.7504 Y36.8879 F100.00
G01 X16.7481 Y36.8929 F100.00
G01 X16.7444 Y36.8992 F100.00
G01 X16.6675 Y37.0190 F100.00
G01 X16.6609 Y37.0277 F100.00
G01 X16.6532 Y37.0355 F100.00
G01 X16.5456 Y37.1287 F100.00
G01 X16.5384 Y37.1342 F100.00
G01 X16.5337 Y37.1371 F100.00
G01 X16.5272 Y37.1405 F100.00
G01 X16.3978 Y37.1996 F100.00
G01 X16.3893 Y37.2029 F100.00
G01 X16.3822 Y37.2048 F100.00
G01 X16.3768 Y37.2058 F100.00
G01 X16.2551 Y37.2233 F100.00
G01 X16.2551 Y38.9750 F100.00
G01 X16.2538 Y39.0025 F100.00
G01 X16.2497 Y39.0296 F100.00
G01 X16.2430 Y39.0563 F100.00
G01 X16.2338 Y39.0822 F100.00
G01 X16.2220 Y39.1070 F100.00
G01 X16.2079 Y39.1306 F100.00
G01 X16.1915 Y39.1527 F100.00
G01 X16.1744 Y39.1717 F100.00
G01 X15.1467 Y40.1994 F100.00
G01 X15.1277 Y40.2165 F100.00
G01 X15.1087 Y40.2307 F100.00
G01 X15.1024 Y40.2349 F100.00
G01 X15.0820 Y40.2470 F100.00
G01 X15.0572 Y40.2588 F100.00
G01 X15.0349 Y40.2669 F100.00
G01 X15.0277 Y40.2690 F100.00
G01 X15.0046 Y40.2747 F100.00
G01 X14.9775 Y40.2788 F100.00
G01 X14.9500 Y40.2801 F100.00
G01 X10.0000 Y40.2801 F100.00
G01 X9.9725 Y40.2788 F100.00
G01 X9.9454 Y40.2747 F100.00
G01 X9.9223 Y40.2690 F100.00
G01 X9.9151 Y40.2669 F100.00
G01 X9.8928 Y40.2588 F100.00
G01 X9.8680 Y40.2470 F100.00
G01 X9.8444 Y40.2329 F100.00
G01 X9.8253 Y40.2188 F100.00
G01 X9.8195 Y40.2141 F100.00
G01 X9.8019 Y40.1981 F100.00
G01 X8.8006 Y39.1967 F100.00
G01 X8.7835 Y39.1777 F100.00
G01 X8.7693 Y39.1587 F100.00
G01 X8.7651 Y39.1524 F100.00
G01 X8.7530 Y39.1320 F100.00
G01 X8.7412 Y39.1072 F100.00
G01 X8.7331 Y39.0849 F100.00
G01 X8.7310 Y39.0777 F100.00
G01 X8.7253 Y39.0546 F100.00
G01 X8.7212 Y39.0275 F100.00
G01 X8.7199 Y39.0000 F100.00
G01 X8.7199 Y6.3610 F100.00
G01 X7.6549 Y5.2960 F100.00
G00 Z2.0000
G00 X7.6172 Y5.4538
G01 F40.00
G01 Z-0.1000
G01 F100.00
G01 X7.5858 Y5.4583 F100.00
G01 X7.5606 Y5.4598 F100.00
G01 X7.5500 Y5.4600 F100.00
G01 X5.5750 Y5.4600 F100.00
G01 X5.5445 Y5.4587 F100.00
G01 X5.5340 Y5.4577 F100.00
G01 X5.5142 Y5.4548 F100.00
G01 X5.5038 Y5.4530 F100.00
G01 X5.4935 Y5.4507 F100.00
G01 X5.4741 Y5.4458 F100.00
G01 X5.4640 Y5.4427 F100.00
G01 X5.4402 Y5.4342 F100.00
G01 X5.4257 Y5.4280 F100.00
G01 X5.4029 Y5.4169 F100.00
G01 X5.3811 Y5.4042 F100.00
G01 X5.3678 Y5.3955 F100.00
G01 X5.3475 Y5.3805 F100.00
G01 X5.3354 Y5.3703 F100.00
G01 X5.3169 Y5.3531 F100.00
G01 X5.2997 Y5.3346 F100.00
G01 X5.2895 Y5.3225 F100.00
G01 X5.2715 Y5.2978 F100.00
G01 X5.2583 Y5.2763 F100.00
G01 X5.2506 Y5.2624 F100.00
G01 X5.2398 Y5.2395 F100.00
G01 X5.2339 Y5.2248 F100.00
G01 X5.2257 Y5.2010 F100.00
G01 X5.2193 Y5.1765 F100.00
G01 X5.2160 Y5.1610 F100.00
G01 X5.2117 Y5.1308 F100.00
G01 X5.2102 Y5.1056 F100.00
G01 X5.2100 Y5.0950 F100.00
G01 X5.2100 Y4.7950 F100.00
G01 X5.2113 Y4.7645 F100.00
G01 X5.2123 Y4.7540 F100.00
G01 X5.2152 Y4.7342 F100.00
G01 X5.2170 Y4.7238 F100.00
G01 X5.2193 Y4.7135 F100.00
G01 X5.2242 Y4.6941 F100.00
G01 X5.2273 Y4.6840 F100.00
G01 X5.2377 Y4.6553 F100.00
G01 X5.2483 Y4.6323 F100.00
G01 X5.2556 Y4.6183 F100.00
G01 X5.2715 Y4.5922 F100.00
G01 X5.2895 Y4.5675 F100.00
G01 X5.2962 Y4.5594 F100.00
G01 X5.3096 Y4.5445 F100.00
G01 X5.3207 Y4.5332 F100.00
G01 X5.3434 Y4.5128 F100.00
G01 X5.3678 Y4.4945 F100.00
G01 X5.3766 Y4.4886 F100.00
G01 X5.3937 Y4.4783 F100.00
G01 X5.4076 Y4.4706 F100.00
G01 X5.4353 Y4.4577 F100.00
G01 X5.4640 Y4.4473 F100.00
G01 X5.4741 Y4.4442 F100.00
G01 X5.4935 Y4.4393 F100.00
G01 X5.5090 Y4.4360 F100.00
G01 X5.5392 Y4.4317 F100.00
G01 X5.5644 Y4.4302 F100.00
G01 X5.5750 Y4.4300 F100.00
G01 X7.5500 Y4.4300 F100.00
G01 X7.5606 Y4.4302 F100.00
G01 X7.5858 Y4.4317 F100.00
G01 X7.6160 Y4.4360 F100.00
G01 X7.6264 Y4.4381 F100.00
G01 X7.6509 Y4.4442 F100.00
G01 X7.6610 Y4.4473 F100.00
G01 X7.6798 Y4.4539 F100.00
G01 X7.6945 Y4.4598 F100.00
G01 X7.7174 Y4.4706 F100.00
G01 X7.7313 Y4.4783 F100.00
G01 X7.7528 Y4.4915 F100.00
G01 X7.7614 Y4.4976 F100.00
G01 X7.7816 Y4.5128 F100.00
G01 X7.8005 Y4.5296 F100.00
G01 X7.8135 Y4.5424 F100.00
G01 X7.8315 Y4.5480 F100.00
G01 X7.8552 Y4.5565 F100.00
G01 X7.8649 Y4.5606 F100.00
G01 X7.8972 Y4.5761 F100.00
G01 X7.9235 Y4.5915 F100.00
G01 X7.9368 Y4.6001 F100.00
G01 X7.9613 Y4.6183 F100.00
G01 X7.9694 Y4.6250 F100.00
G01 X7.9882 Y4.6419 F100.00
G01 X7.9958 Y4.6492 F100.00
G01 X9.2958 Y5.9492 F100.00
G01 X9.3165 Y5.9716 F100.00
G01 X9.3234 Y5.9796 F100.00
G01 X9.3449 Y6.0082 F100.00
G01 X9.3507 Y6.0170 F100.00
G01 X9.3637 Y6.0386 F100.00
G01 X9.3689 Y6.0478 F100.00
G01 X9.3737 Y6.0572 F100.00
G01 X9.3865 Y6.0849 F100.00
G01 X9.3970 Y6.1135 F100.00
G01 X9.4003 Y6.1236 F100.00
G01 X9.4031 Y6.1337 F100.00
G01 X9.4103 Y6.1634 F100.00
G01 X9.4157 Y6.1988 F100.00
G01 X9.4171 Y6.2145 F100.00
G01 X9.4183 Y6.2450 F100.00
G01 X9.4183 Y38.8267 F100.00
G01 X10.1733 Y39.5817 F100.00
G01 X14.7767 Y39.5817 F100.00
G01 X15.5567 Y38.8017 F100.00
G01 X15.5567 Y37.3430 F100.00
G01 X15.5434 Y37.3409 F100.00
G01 X15.5285 Y37.3375 F100.00
G01 X15.5138 Y37.3330 F100.00
G01 X15.4995 Y37.3274 F100.00
G01 X15.3654 Y37.2662 F100.00
G01 X15.3561 Y37.2618 F100.00
G01 X15.3428 Y37.2542 F100.00
G01 X15.3299 Y37.2458 F100.00
G01 X15.3139 Y37.2331 F100.00
G01 X15.2025 Y37.1365 F100.00
G01 X15.1915 Y37.1258 F100.00
G01 X15.1813 Y37.1143 F100.00
G01 X15.1720 Y37.1022 F100.00
G01 X15.1662 Y37.0937 F100.00
G01 X15.0866 Y36.9696 F100.00
G01 X15.0768 Y36.9517 F100.00
G01 X15.0687 Y36.9329 F100.00
G01 X15.0639 Y36.9183 F100.00
G01 X15.0238 Y36.7817 F100.00
G01 X15.0200 Y36.7669 F100.00
G01 X15.0172 Y36.7518 F100.00
G01 X15.0156 Y36.7365 F100.00
G01 X15.0151 Y36.7263 F100.00
G01 X15.0150 Y36.6965 F100.00
G01 X15.0123 Y36.6816 F100.00
G01 X15.0105 Y36.6658 F100.00
G01 X15.0100 Y36.6500 F100.00
G01 X15.0100 Y36.1500 F100.00
G01 X15.0102 Y36.1394 F100.00
G01 X15.0110 Y36.1289 F100.00
G01 X15.0131 Y36.1132 F100.00
G01 X15.0152 Y36.1029 F100.00
G01 X15.0177 Y36.0926 F100.00
G01 X15.0225 Y36.0776 F100.00
G01 X15.0263 Y36.0677 F100.00
G01 X15.0306 Y36.0581 F100.00
G01 X15.0379 Y36.0440 F100.00
G01 X15.0433 Y36.0350 F100.00
G01 X15.0492 Y36.0262 F100.00
G01 X15.0588 Y36.0136 F100.00
G01 X15.0709 Y36.0000 F100.00
G01 X15.0588 Y35.9864 F100.00
G01 X15.0523 Y35.9781 F100.00
G01 X15.0462 Y35.9695 F100.00
G01 X15.0379 Y35.9560 F100.00
G01 X15.0329 Y35.9467 F100.00
G01 X15.0284 Y35.9371 F100.00
G01 X15.0244 Y35.9274 F100.00
G01 X15.0208 Y35.9175 F100.00
G01 X15.0164 Y35.9023 F100.00
G01 X15.0141 Y35.8920 F100.00
G01 X15.0123 Y35.8816 F100.00
G01 X15.0105 Y35.8658 F100.00
G01 X15.0100 Y35.8500 F100.00
G01 X15.0100 Y35.3447 F100.00
G01 X15.0105 Y35.3342 F100.00
G01 X15.0116 Y35.3237 F100.00
G01 X15.0150 Y35.3035 F100.00
G01 X15.0151 Y35.2737 F100.00
G01 X15.0160 Y35.2584 F100.00
G01 X15.0189 Y35.2381 F100.00
G01 X15.0224 Y35.2232 F100.00
G01 X15.0654 Y35.0768 F100.00
G01 X15.0705 Y35.0624 F100.00
G01 X15.0768 Y35.0483 F100.00
G01 X15.0840 Y35.0348 F100.00
G01 X15.0893 Y35.0260 F100.00
G01 X15.1662 Y34.9063 F100.00
G01 X15.1781 Y34.8896 F100.00
G01 X15.1915 Y34.8742 F100.00
G01 X15.2063 Y34.8601 F100.00
G01 X15.3139 Y34.7669 F100.00
G01 X15.3299 Y34.7542 F100.00
G01 X15.3428 Y34.7458 F100.00
G01 X15.3561 Y34.7382 F100.00
G01 X15.3654 Y34.7338 F100.00
G01 X15.4995 Y34.6726 F100.00
G01 X15.5138 Y34.6670 F100.00
G01 X15.5285 Y34.6625 F100.00
G01 X15.5434 Y34.6591 F100.00
G01 X15.5567 Y34.6570 F100.00
G01 X15.5567 Y32.8150 F100.00
G01 X15.5447 Y32.8150 F100.00
G01 X15.5149 Y32.8136 F100.00
G01 X15.5044 Y32.8128 F100.00
G01 X15.4939 Y32.8115 F100.00
G01 X15.4593 Y32.8061 F100.00
G01 X15.4490 Y32.8038 F100.00
G01 X15.4150 Y32.7950 F100.00
G01 X15.3819 Y32.7834 F100.00
G01 X15.3720 Y32.7796 F100.00
G01 X15.3402 Y32.7649 F100.00
G01 X15.3262 Y32.7576 F100.00
G01 X15.2916 Y32.7367 F100.00
G01 X15.2830 Y32.7306 F100.00
G01 X15.2550 Y32.7095 F100.00
G01 X15.2288 Y32.6861 F100.00
G01 X15.2175 Y32.6751 F100.00
G01 X15.1905 Y32.6450 F100.00
G01 X15.1663 Y32.6127 F100.00
G01 X15.1577 Y32.5994 F100.00
G01 X15.1399 Y32.5692 F100.00
G01 X15.1351 Y32.5598 F100.00
G01 X15.1204 Y32.5280 F100.00
G01 X15.1083 Y32.4950 F100.00
G01 X15.1050 Y32.4850 F100.00
G01 X15.0962 Y32.4510 F100.00
G01 X15.0939 Y32.4407 F100.00
G01 X15.0885 Y32.4061 F100.00
G01 X15.0872 Y32.3956 F100.00
G01 X15.0852 Y32.3606 F100.00
G01 X15.0850 Y32.3500 F100.00
G01 X15.0850 Y31.7000 F100.00
G01 X15.0864 Y31.6649 F100.00
G01 X15.0878 Y31.6492 F100.00
G01 X15.0939 Y31.6093 F100.00
G01 X15.1022 Y31.5752 F100.00
G01 X15.1066 Y31.5600 F100.00
G01 X15.1204 Y31.5220 F100.00
G01 X15.1246 Y31.5124 F100.00
G01 X15.1399 Y31.4808 F100.00
G01 X15.1577 Y31.4506 F100.00
G01 X15.1663 Y31.4373 F100.00
G01 X15.1905 Y31.4050 F100.00
G01 X15.2175 Y31.3749 F100.00
G01 X15.2288 Y31.3639 F100.00
G01 X15.2550 Y31.3405 F100.00
G01 X15.2830 Y31.3194 F100.00
G01 X15.2916 Y31.3133 F100.00
G01 X15.3006 Y31.3077 F100.00
G01 X15.3308 Y31.2899 F100.00
G01 X15.3624 Y31.2746 F100.00
G01 X15.3720 Y31.2704 F100.00
G01 X15.3819 Y31.2666 F100.00
G01 X15.4100 Y31.2566 F100.00
G01 X15.4201 Y31.2535 F100.00
G01 X15.4593 Y31.2439 F100.00
G01 X15.4939 Y31.2385 F100.00
G01 X15.5097 Y31.2367 F100.00
G01 X15.5500 Y31.2350 F100.00
G01 X16.4553 Y31.2350 F100.00
G01 X16.4903 Y31.2367 F100.00
G01 X16.5061 Y31.2385 F100.00
G01 X16.5407 Y31.2439 F100.00
G01 X16.5799 Y31.2535 F100.00
G01 X16.5950 Y31.2583 F100.00
G01 X16.6280 Y31.2704 F100.00
G01 X16.6645 Y31.2874 F100.00
G01 X16.6784 Y31.2951 F100.00
G01 X16.7084 Y31.3133 F100.00
G01 X16.7367 Y31.3340 F100.00
G01 X16.7491 Y31.3439 F100.00
G01 X16.7788 Y31.3712 F100.00
G01 X16.8026 Y31.3970 F100.00
G01 X16.8128 Y31.4091 F100.00
G01 X16.8337 Y31.4373 F100.00
G01 X16.8423 Y31.4506 F100.00
G01 X16.8601 Y31.4808 F100.00
G01 X16.8754 Y31.5124 F100.00
G01 X16.8816 Y31.5269 F100.00
G01 X16.8950 Y31.5650 F100.00
G01 X16.9050 Y31.6041 F100.00
G01 X16.9079 Y31.6197 F100.00
G01 X16.9128 Y31.6544 F100.00
G01 X16.9150 Y31.6947 F100.00
G01 X16.9150 Y32.3500 F100.00
G01 X16.9136 Y32.3851 F100.00
G01 X16.9122 Y32.4008 F100.00
G01 X16.9071 Y32.4355 F100.00
G01 X16.9038 Y32.4510 F100.00
G01 X16.8950 Y32.4850 F100.00
G01 X16.8834 Y32.5181 F100.00
G01 X16.8796 Y32.5280 F100.00
G01 X16.8754 Y32.5376 F100.00
G01 X16.8601 Y32.5692 F100.00
G01 X16.8423 Y32.5994 F100.00
G01 X16.8367 Y32.6084 F100.00
G01 X16.8306 Y32.6170 F100.00
G01 X16.8095 Y32.6450 F100.00
G01 X16.7861 Y32.6712 F100.00
G01 X16.7788 Y32.6788 F100.00
G01 X16.7712 Y32.6861 F100.00
G01 X16.7450 Y32.7095 F100.00
G01 X16.7170 Y32.7306 F100.00
G01 X16.7084 Y32.7367 F100.00
G01 X16.6994 Y32.7423 F100.00
G01 X16.6692 Y32.7601 F100.00
G01 X16.6598 Y32.7649 F100.00
G01 X16.6280 Y32.7796 F100.00
G01 X16.5950 Y32.7917 F100.00
G01 X16.5850 Y32.7950 F100.00
G01 X16.5510 Y32.8038 F100.00
G01 X16.5407 Y32.8061 F100.00
G01 X16.5061 Y32.8115 F100.00
G01 X16.4956 Y32.8128 F100.00
G01 X16.4553 Y32.8150 F100.00
G01 X16.3933 Y32.8150 F100.00
G01 X16.3933 Y34.6570 F100.00
G01 X16.4066 Y34.6591 F100.00
G01 X16.4215 Y34.6625 F100.00
G01 X16.4362 Y34.6670 F100.00
G01 X16.4505 Y34.6726 F100.00
G01 X16.5846 Y34.7338 F100.00
G01 X16.5939 Y34.7382 F100.00
G01 X16.6072 Y34.7458 F100.00
G01 X16.6242 Y34.7572 F100.00
G01 X16.6361 Y34.7669 F100.00
G01 X16.7437 Y34.8601 F100.00
G01 X16.7585 Y34.8742 F100.00
G01 X16.7719 Y34.8896 F100.00
G01 X16.7838 Y34.9063 F100.00
G01 X16.8607 Y35.0260 F100.00
G01 X16.8660 Y35.0348 F100.00
G01 X16.8732 Y35.0483 F100.00
G01 X16.8795 Y35.0624 F100.00
G01 X16.8846 Y35.0768 F100.00
G01 X16.9276 Y35.2232 F100.00
G01 X16.9320 Y35.2432 F100.00
G01 X16.9340 Y35.2584 F100.00
G01 X16.9349 Y35.2737 F100.00
G01 X16.9350 Y35.3035 F100.00
G01 X16.9384 Y35.3237 F100.00
G01 X16.9395 Y35.3342 F100.00
G01 X16.9400 Y35.3447 F100.00
G01 X16.9400 Y35.8500 F100.00
G01 X16.9395 Y35.8658 F100.00
G01 X16.9377 Y35.8816 F100.00
G01 X16.9359 Y35.8920 F100.00
G01 X16.9336 Y35.9023 F100.00
G01 X16.9292 Y35.9175 F100.00
G01 X16.9256 Y35.9274 F100.00
G01 X16.9216 Y35.9371 F100.00
G01 X16.9146 Y35.9514 F100.00
G01 X16.9094 Y35.9606 F100.00
G01 X16.9038 Y35.9695 F100.00
G01 X16.8977 Y35.9781 F100.00
G01 X16.8912 Y35.9864 F100.00
G01 X16.8791 Y36.0000 F100.00
G01 X16.8912 Y36.0136 F100.00
G01 X16.8977 Y36.0219 F100.00
G01 X16.9038 Y36.0305 F100.00
G01 X16.9094 Y36.0394 F100.00
G01 X16.9146 Y36.0486 F100.00
G01 X16.9216 Y36.0629 F100.00
G01 X16.9256 Y36.0726 F100.00
G01 X16.9292 Y36.0825 F100.00
G01 X16.9336 Y36.0977 F100.00
G01 X16.9369 Y36.1132 F100.00
G01 X16.9384 Y36.1237 F100.00
G01 X16.9395 Y36.1342 F100.00
G01 X16.9400 Y36.1500 F100.00
G01 X16.9400 Y36.6500 F100.00
G01 X16.9398 Y36.6606 F100.00
G01 X16.9390 Y36.6711 F100.00
G01 X16.9377 Y36.6816 F100.00
G01 X16.9350 Y36.6965 F100.00
G01 X16.9347 Y36.7314 F100.00
G01 X16.9340 Y36.7416 F100.00
G01 X16.9320 Y36.7568 F100.00
G01 X16.9289 Y36.7719 F100.00
G01 X16.9262 Y36.7817 F100.00
G01 X16.8861 Y36.9183 F100.00
G01 X16.8813 Y36.9329 F100.00
G01 X16.8754 Y36.9470 F100.00
G01 X16.8686 Y36.9608 F100.00
G01 X16.8634 Y36.9696 F100.00
G01 X16.7838 Y37.0937 F100.00
G01 X16.7750 Y37.1063 F100.00
G01 X16.7620 Y37.1221 F100.00
G01 X16.7513 Y37.1331 F100.00
G01 X16.7437 Y37.1399 F100.00
G01 X16.6361 Y37.2331 F100.00
G01 X16.6242 Y37.2428 F100.00
G01 X16.6072 Y37.2542 F100.00
G01 X16.5939 Y37.2618 F100.00
G01 X16.5846 Y37.2662 F100.00
G01 X16.4505 Y37.3274 F100.00
G01 X16.4362 Y37.3330 F100.00
G01 X16.4215 Y37.3375 F100.00
G01 X16.4066 Y37.3409 F100.00
G01 X16.3933 Y37.3430 F100.00
G01 X16.3933 Y38.9803 F100.00
G01 X16.3918 Y39.0107 F100.00
G01 X16.3900 Y39.0265 F100.00
G01 X16.3853 Y39.0566 F100.00
G01 X16.3781 Y39.0863 F100.00
G01 X16.3737 Y39.1015 F100.00
G01 X16.3635 Y39.1302 F100.00
G01 X16.3572 Y39.1447 F100.00
G01 X16.3439 Y39.1722 F100.00
G01 X16.3285 Y39.1985 F100.00
G01 X16.3228 Y39.2074 F100.00
G01 X16.3049 Y39.2321 F100.00
G01 X16.2950 Y39.2444 F100.00
G01 X16.2708 Y39.2708 F100.00
G01 X15.2420 Y40.2995 F100.00
G01 X15.2154 Y40.3234 F100.00
G01 X15.1910 Y40.3418 F100.00
G01 X15.1780 Y40.3507 F100.00
G01 X15.1472 Y40.3689 F100.00
G01 X15.1149 Y40.3844 F100.00
G01 X15.1002 Y40.3903 F100.00
G01 X15.0714 Y40.4003 F100.00
G01 X15.0368 Y40.4092 F100.00
G01 X15.0212 Y40.4121 F100.00
G01 X14.9910 Y40.4163 F100.00
G01 X14.9606 Y40.4181 F100.00
G01 X14.9500 Y40.4183 F100.00
G01 X10.0000 Y40.4183 F100.00
G01 X9.9695 Y40.4171 F100.00
G01 X9.9590 Y40.4163 F100.00
G01 X9.9485 Y40.4150 F100.00
G01 X9.9184 Y40.4103 F100.00
G01 X9.8836 Y40.4018 F100.00
G01 X9.8685 Y40.3970 F100.00
G01 X9.8399 Y40.3865 F100.00
G01 X9.8303 Y40.3822 F100.00
G01 X9.8028 Y40.3689 F100.00
G01 X9.7765 Y40.3535 F100.00
G01 X9.7676 Y40.3478 F100.00
G01 X9.7429 Y40.3299 F100.00
G01 X9.7306 Y40.3200 F100.00
G01 X9.7042 Y40.2958 F100.00
G01 X8.7042 Y39.2958 F100.00
G01 X8.6969 Y39.2882 F100.00
G01 X8.6766 Y39.2654 F100.00
G01 X8.6582 Y39.2410 F100.00
G01 X8.6493 Y39.2280 F100.00
G01 X8.6311 Y39.1972 F100.00
G01 X8.6156 Y39.1649 F100.00
G01 X8.6097 Y39.1502 F100.00
G01 X8.5997 Y39.1214 F100.00
G01 X8.5908 Y39.0868 F100.00
G01 X8.5879 Y39.0712 F100.00
G01 X8.5837 Y39.0410 F100.00
G01 X8.5819 Y39.0106 F100.00
G01 X8.5817 Y39.0000 F100.00
G01 X8.5817 Y6.4183 F100.00
G01 X7.6172 Y5.4538 F100.00
G00 Z2.0000
G00 X9.2923 Y5.8462
G01 F40.00
G01 Z-0.1000
G01 F100.00
G01 X8.1885 Y4.7424 F100.00
G01 X8.1747 Y4.7273 F100.00
G01 X8.1684 Y4.7192 F100.00
G01 X8.1597 Y4.7066 F100.00
G01 X8.1518 Y4.6934 F100.00
G01 X8.1135 Y4.6226 F100.00
G01 X8.1091 Y4.6129 F100.00
G01 X8.1034 Y4.5979 F100.00
G01 X8.0988 Y4.5826 F100.00
G01 X8.0964 Y4.5722 F100.00
G01 X8.0945 Y4.5616 F100.00
G01 X8.0927 Y4.5457 F100.00
G01 X8.0921 Y4.5351 F100.00
G01 X8.0921 Y4.5244 F100.00
G01 X8.0976 Y4.4440 F100.00
G01 X8.0993 Y4.4281 F100.00
G01 X8.1022 Y4.4124 F100.00
G01 X8.1048 Y4.4020 F100.00
G01 X8.1079 Y4.3918 F100.00
G01 X8.1115 Y4.3817 F100.00
G01 X8.1156 Y4.3719 F100.00
G01 X8.1202 Y4.3622 F100.00
G01 X8.1280 Y4.3482 F100.00
G01 X8.1337 Y4.3392 F100.00
G01 X8.1818 Y4.2746 F100.00
G01 X8.1919 Y4.2621 F100.00
G01 X8.2028 Y4.2504 F100.00
G01 X8.2146 Y4.2396 F100.00
G01 X8.2272 Y4.2297 F100.00
G01 X8.2360 Y4.2236 F100.00
G01 X8.2497 Y4.2153 F100.00
G01 X8.2592 Y4.2104 F100.00
G01 X8.2689 Y4.2059 F100.00
G01 X8.2788 Y4.2020 F100.00
G01 X8.3543 Y4.1741 F100.00
G01 X8.3645 Y4.1711 F100.00
G01 X8.3748 Y4.1686 F100.00
G01 X8.3905 Y4.1659 F100.00
G01 X8.4064 Y4.1644 F100.00
G01 X8.4282 Y4.1637 F100.00
G01 X11.3322 Y4.1637 F100.00
G01 X11.3424 Y4.1639 F100.00
G01 X11.3577 Y4.1652 F100.00
G01 X11.3729 Y4.1675 F100.00
G01 X11.3829 Y4.1697 F100.00
G01 X11.4648 Y4.1936 F100.00
G01 X11.4797 Y4.1990 F100.00
G01 X11.4942 Y4.2055 F100.00
G01 X11.5081 Y4.2130 F100.00
G01 X11.5171 Y4.2185 F100.00
G01 X11.5257 Y4.2245 F100.00
G01 X11.5592 Y4.2513 F100.00
G01 X11.5719 Y4.2630 F100.00
G01 X12.4191 Y5.1105 F100.00
G01 X12.4321 Y5.1263 F100.00
G01 X12.4436 Y5.1432 F100.00
G01 X12.4822 Y5.2134 F100.00
G01 X12.4893 Y5.2276 F100.00
G01 X12.4934 Y5.2373 F100.00
G01 X12.4970 Y5.2472 F100.00
G01 X12.5016 Y5.2624 F100.00
G01 X12.5050 Y5.2778 F100.00
G01 X12.5066 Y5.2883 F100.00
G01 X12.5106 Y5.3256 F100.00
G01 X12.5113 Y5.3428 F100.00
G01 X12.5113 Y19.0481 F100.00
G01 X12.5301 Y19.1425 F100.00
G01 X12.5670 Y19.2315 F100.00
G01 X12.6204 Y19.3115 F100.00
G01 X13.6885 Y20.3796 F100.00
G01 X13.7685 Y20.4330 F100.00
G01 X13.8575 Y20.4699 F100.00
G01 X13.9519 Y20.4887 F100.00
G01 X20.6572 Y20.4887 F100.00
G01 X20.6776 Y20.4896 F100.00
G01 X20.6928 Y20.4916 F100.00
G01 X20.7128 Y20.4960 F100.00
G01 X20.7898 Y20.5186 F100.00
G01 X20.7998 Y20.5221 F100.00
G01 X20.8096 Y20.5260 F100.00
G01 X20.8192 Y20.5305 F100.00
G01 X20.8285 Y20.5353 F100.00
G01 X20.8376 Y20.5407 F100.00
G01 X20.8464 Y20.5465 F100.00
G01 X20.8591 Y20.5559 F100.00
G01 X20.8885 Y20.5800 F100.00
G01 X20.8969 Y20.5880 F100.00
G01 X21.4156 Y21.1068 F100.00
G01 X21.4258 Y21.1183 F100.00
G01 X21.4321 Y21.1263 F100.00
G01 X21.4436 Y21.1432 F100.00
G01 X21.4847 Y21.2181 F100.00
G01 X21.4914 Y21.2324 F100.00
G01 X21.4953 Y21.2422 F100.00
G01 X21.5002 Y21.2573 F100.00
G01 X21.5040 Y21.2727 F100.00
G01 X21.5066 Y21.2883 F100.00
G01 X21.5101 Y21.3199 F100.00
G01 X21.5110 Y21.3313 F100.00
G01 X21.5113 Y21.3428 F100.00
G01 X21.5113 Y29.1604 F100.00
G01 X21.5098 Y29.1808 F100.00
G01 X21.5075 Y29.1959 F100.00
G01 X21.5053 Y29.2059 F100.00
G01 X21.4829 Y29.2829 F100.00
G01 X21.4779 Y29.2981 F100.00
G01 X21.4717 Y29.3128 F100.00
G01 X21.4669 Y29.3224 F100.00
G01 X21.4589 Y29.3363 F100.00
G01 X21.4500 Y29.3495 F100.00
G01 X21.4400 Y29.3621 F100.00
G01 X21.4329 Y29.3700 F100.00
G01 X21.4214 Y29.3812 F100.00
G01 X21.3564 Y29.4373 F100.00
G01 X21.3478 Y29.4437 F100.00
G01 X21.3389 Y29.4497 F100.00
G01 X21.3298 Y29.4551 F100.00
G01 X21.3204 Y29.4602 F100.00
G01 X21.3107 Y29.4647 F100.00
G01 X21.2958 Y29.4707 F100.00
G01 X21.2857 Y29.4740 F100.00
G01 X21.2702 Y29.4780 F100.00
G01 X21.2544 Y29.4809 F100.00
G01 X21.1853 Y29.4908 F100.00
G01 X21.1693 Y29.4925 F100.00
G01 X21.1587 Y29.4930 F100.00
G01 X21.1426 Y29.4927 F100.00
G01 X21.1267 Y29.4912 F100.00
G01 X21.1161 Y29.4895 F100.00
G01 X21.1057 Y29.4874 F100.00
G01 X21.0902 Y29.4831 F100.00
G01 X21.0801 Y29.4797 F100.00
G01 X21.0702 Y29.4757 F100.00
G01 X21.0018 Y29.4446 F100.00
G01 X20.9877 Y29.4375 F100.00
G01 X20.9787 Y29.4323 F100.00
G01 X20.9699 Y29.4266 F100.00
G01 X20.9614 Y29.4205 F100.00
G01 X20.9493 Y29.4106 F100.00
G01 X20.9379 Y29.3998 F100.00
G01 X20.9307 Y29.3922 F100.00
G01 X20.8995 Y29.3554 F100.00
G01 X20.8928 Y29.3468 F100.00
G01 X20.8867 Y29.3378 F100.00
G01 X20.8729 Y29.3156 F100.00
G01 X20.7844 Y29.2271 F100.00
G01 X20.6778 Y29.1614 F100.00
G01 X20.5575 Y29.1215 F100.00
G01 X20.4891 Y29.1145 F100.00
G01 X19.5109 Y29.1145 F100.00
G01 X19.4425 Y29.1215 F100.00
G01 X19.3222 Y29.1614 F100.00
G01 X19.2156 Y29.2271 F100.00
G01 X19.1271 Y29.3156 F100.00
G01 X19.1184 Y29.3296 F100.00
G01 X19.1096 Y29.3422 F100.00
G01 X19.0999 Y29.3541 F100.00
G01 X19.0894 Y29.3653 F100.00
G01 X19.0261 Y29.4224 F100.00
G01 X19.0138 Y29.4322 F100.00
G01 X19.0009 Y29.4410 F100.00
G01 X18.9874 Y29.4488 F100.00
G01 X18.9734 Y29.4557 F100.00
G01 X18.9588 Y29.4615 F100.00
G01 X18.9490 Y29.4648 F100.00
G01 X18.9338 Y29.4688 F100.00
G01 X18.8803 Y29.4810 F100.00
G01 X18.8698 Y29.4831 F100.00
G01 X18.8539 Y29.4853 F100.00
G01 X18.8433 Y29.4861 F100.00
G01 X18.8326 Y29.4863 F100.00
G01 X17.1623 Y29.4863 F100.00
G01 X17.1521 Y29.4858 F100.00
G01 X17.1368 Y29.4842 F100.00
G01 X17.1167 Y29.4803 F100.00
G01 X17.0348 Y29.4564 F100.00
G01 X17.0201 Y29.4511 F100.00
G01 X17.0105 Y29.4470 F100.00
G01 X17.0012 Y29.4424 F100.00
G01 X16.9876 Y29.4347 F100.00
G01 X16.9746 Y29.4260 F100.00
G01 X16.9622 Y29.4164 F100.00
G01 X16.9506 Y29.4059 F100.00
G01 X16.9047 Y29.3592 F100.00
G01 X16.8976 Y29.3512 F100.00
G01 X16.8877 Y29.3386 F100.00
G01 X16.8817 Y29.3298 F100.00
G01 X16.8729 Y29.3156 F100.00
G01 X16.7844 Y29.2271 F100.00
G01 X16.6721 Y29.1579 F100.00
G01 X16.6587 Y29.1510 F100.00
G01 X16.6455 Y29.1430 F100.00
G01 X16.5795 Y29.0973 F100.00
G01 X16.5669 Y29.0873 F100.00
G01 X16.5590 Y29.0802 F100.00
G01 X16.5514 Y29.0727 F100.00
G01 X16.5407 Y29.0608 F100.00
G01 X16.5341 Y29.0524 F100.00
G01 X16.5279 Y29.0437 F100.00
G01 X16.5195 Y29.0301 F100.00
G01 X16.5120 Y29.0159 F100.00
G01 X16.5077 Y29.0061 F100.00
G01 X16.4771 Y28.9319 F100.00
G01 X16.4738 Y28.9220 F100.00
G01 X16.4710 Y28.9119 F100.00
G01 X16.4677 Y28.8966 F100.00
G01 X16.4661 Y28.8863 F100.00
G01 X16.4651 Y28.8759 F100.00
G01 X16.4637 Y28.8456 F100.00
G01 X16.4637 Y27.5939 F100.00
G01 X16.4646 Y27.5734 F100.00
G01 X16.4666 Y27.5582 F100.00
G01 X16.4686 Y27.5482 F100.00
G01 X16.4724 Y27.5333 F100.00
G01 X16.4921 Y27.4662 F100.00
G01 X16.4970 Y27.4514 F100.00
G01 X16.5030 Y27.4370 F100.00
G01 X16.5101 Y27.4230 F100.00
G01 X16.5181 Y27.4096 F100.00
G01 X16.5271 Y27.3968 F100.00
G01 X16.5336 Y27.3887 F100.00
G01 X16.5441 Y27.3771 F100.00
G01 X16.5870 Y27.3349 F100.00
G01 X16.5988 Y27.3241 F100.00
G01 X16.6114 Y27.3142 F100.00
G01 X16.6202 Y27.3082 F100.00
G01 X16.6688 Y27.2781 F100.00
G01 X16.7531 Y27.1938 F100.00
G01 X16.8158 Y27.0922 F100.00
G01 X16.8538 Y26.9774 F100.00
G01 X16.8605 Y26.9124 F100.00
G01 X16.8605 Y26.3876 F100.00
G01 X16.8538 Y26.3226 F100.00
G01 X16.8158 Y26.2078 F100.00
G01 X16.7531 Y26.1062 F100.00
G01 X16.6688 Y26.0219 F100.00
G01 X16.5672 Y25.9592 F100.00
G01 X16.4524 Y25.9212 F100.00
G01 X16.3874 Y25.9145 F100.00
G01 X15.5626 Y25.9145 F100.00
G01 X15.4976 Y25.9212 F100.00
G01 X15.3828 Y25.9592 F100.00
G01 X15.2812 Y26.0219 F100.00
G01 X15.1969 Y26.1062 F100.00
G01 X15.1342 Y26.2078 F100.00
G01 X15.0962 Y26.3226 F100.00
G01 X15.0895 Y26.3876 F100.00
G01 X15.0895 Y26.9124 F100.00
G01 X15.0962 Y26.9774 F100.00
G01 X15.1342 Y27.0922 F100.00
G01 X15.1969 Y27.1938 F100.00
G01 X15.2812 Y27.2781 F100.00
G01 X15.3339 Y27.3109 F100.00
G01 X15.3502 Y27.3232 F100.00
G01 X15.3616 Y27.3335 F100.00
G01 X15.3723 Y27.3445 F100.00
G01 X15.4224 Y27.4004 F100.00
G01 X15.4290 Y27.4085 F100.00
G01 X15.4382 Y27.4212 F100.00
G01 X15.4463 Y27.4345 F100.00
G01 X15.4512 Y27.4437 F100.00
G01 X15.4578 Y27.4579 F100.00
G01 X15.4632 Y27.4726 F100.00
G01 X15.4676 Y27.4876 F100.00
G01 X15.4810 Y27.5462 F100.00
G01 X15.4831 Y27.5567 F100.00
G01 X15.4847 Y27.5672 F100.00
G01 X15.4857 Y27.5779 F100.00
G01 X15.4863 Y27.5939 F100.00
G01 X15.4861 Y28.8811 F100.00
G01 X15.4842 Y28.9015 F100.00
G01 X15.4803 Y28.9216 F100.00
G01 X15.4579 Y28.9985 F100.00
G01 X15.4530 Y29.0134 F100.00
G01 X15.4491 Y29.0230 F100.00
G01 X15.4448 Y29.0325 F100.00
G01 X15.4399 Y29.0418 F100.00
G01 X15.4347 Y29.0508 F100.00
G01 X15.4260 Y29.0638 F100.00
G01 X15.4197 Y29.0721 F100.00
G01 X15.4130 Y29.0801 F100.00
G01 X15.4023 Y29.0914 F100.00
G01 X15.3630 Y29.1299 F100.00
G01 X15.3512 Y29.1407 F100.00
G01 X15.3429 Y29.1474 F100.00
G01 X15.3342 Y29.1536 F100.00
G01 X15.3253 Y29.1595 F100.00
G01 X15.2156 Y29.2271 F100.00
G01 X15.1271 Y29.3156 F100.00
G01 X15.1184 Y29.3296 F100.00
G01 X15.1096 Y29.3422 F100.00
G01 X15.0999 Y29.3541 F100.00
G01 X15.0894 Y29.3653 F100.00
G01 X15.0300 Y29.4190 F100.00
G01 X15.0221 Y29.4258 F100.00
G01 X15.0138 Y29.4322 F100.00
G01 X15.0053 Y29.4382 F100.00
G01 X14.9920 Y29.4463 F100.00
G01 X14.9781 Y29.4535 F100.00
G01 X14.9637 Y29.4597 F100.00
G01 X14.9539 Y29.4632 F100.00
G01 X14.9389 Y29.4676 F100.00
G01 X14.8698 Y29.4831 F100.00
G01 X14.8539 Y29.4853 F100.00
G01 X14.8379 Y29.4863 F100.00
G01 X13.1674 Y29.4863 F100.00
G01 X13.1521 Y29.4858 F100.00
G01 X13.1368 Y29.4842 F100.00
G01 X13.1267 Y29.4825 F100.00
G01 X13.1117 Y29.4790 F100.00
G01 X13.0299 Y29.4548 F100.00
G01 X13.0153 Y29.4491 F100.00
G01 X13.0012 Y29.4424 F100.00
G01 X12.9876 Y29.4347 F100.00
G01 X12.9746 Y29.4260 F100.00
G01 X12.9622 Y29.4164 F100.00
G01 X12.9506 Y29.4059 F100.00
G01 X12.9047 Y29.3592 F100.00
G01 X12.8976 Y29.3512 F100.00
G01 X12.8877 Y29.3386 F100.00
G01 X12.8817 Y29.3298 F100.00
G01 X12.8729 Y29.3156 F100.00
G01 X12.7844 Y29.2271 F100.00
G01 X12.6778 Y29.1614 F100.00
G01 X12.5575 Y29.1215 F100.00
G01 X12.4891 Y29.1145 F100.00
G01 X11.5109 Y29.1145 F100.00
G01 X11.4425 Y29.1215 F100.00
G01 X11.3222 Y29.1614 F100.00
G01 X11.2156 Y29.2271 F100.00
G01 X11.1271 Y29.3156 F100.00
G01 X11.1135 Y29.3375 F100.00
G01 X11.1047 Y29.3501 F100.00
G01 X11.0950 Y29.3620 F100.00
G01 X11.0845 Y29.3732 F100.00
G01 X11.0211 Y29.4305 F100.00
G01 X11.0128 Y29.4372 F100.00
G01 X11.0042 Y29.4435 F100.00
G01 X10.9907 Y29.4522 F100.00
G01 X10.9766 Y29.4598 F100.00
G01 X10.9620 Y29.4664 F100.00
G01 X10.9470 Y29.4718 F100.00
G01 X10.9315 Y29.4761 F100.00
G01 X10.9158 Y29.4793 F100.00
G01 X10.8469 Y29.4905 F100.00
G01 X10.8310 Y29.4925 F100.00
G01 X10.8203 Y29.4932 F100.00
G01 X10.8096 Y29.4933 F100.00
G01 X10.7990 Y29.4929 F100.00
G01 X10.7883 Y29.4920 F100.00
G01 X10.7777 Y29.4905 F100.00
G01 X10.7672 Y29.4885 F100.00
G01 X10.7569 Y29.4860 F100.00
G01 X10.7466 Y29.4830 F100.00
G01 X10.7365 Y29.4795 F100.00
G01 X10.7266 Y29.4755 F100.00
G01 X10.6577 Y29.4455 F100.00
G01 X10.6434 Y29.4382 F100.00
G01 X10.6297 Y29.4299 F100.00
G01 X10.6167 Y29.4206 F100.00
G01 X10.6044 Y29.4103 F100.00
G01 X10.5966 Y29.4030 F100.00
G01 X10.5893 Y29.3952 F100.00
G01 X10.5789 Y29.3830 F100.00
G01 X10.5695 Y29.3700 F100.00
G01 X10.5307 Y29.3120 F100.00
G01 X10.5251 Y29.3031 F100.00
G01 X10.5175 Y29.2894 F100.00
G01 X10.5109 Y29.2752 F100.00
G01 X10.5054 Y29.2605 F100.00
G01 X10.5024 Y29.2505 F100.00
G01 X10.4987 Y29.2352 F100.00
G01 X10.4904 Y29.1824 F100.00
G01 X10.4889 Y29.1661 F100.00
G01 X10.4887 Y29.1552 F100.00
G01 X10.4889 Y18.3326 F100.00
G01 X10.4902 Y18.3173 F100.00
G01 X10.4916 Y18.3072 F100.00
G01 X10.4960 Y18.2872 F100.00
G01 X10.5171 Y18.2152 F100.00
G01 X10.5203 Y18.2052 F100.00
G01 X10.5240 Y18.1953 F100.00
G01 X10.5282 Y18.1856 F100.00
G01 X10.5328 Y18.1761 F100.00
G01 X10.5380 Y18.1669 F100.00
G01 X10.5435 Y18.1579 F100.00
G01 X10.5527 Y18.1450 F100.00
G01 X10.5763 Y18.1158 F100.00
G01 X10.5880 Y18.1031 F100.00
G01 X11.3796 Y17.3115 F100.00
G01 X11.4330 Y17.2315 F100.00
G01 X11.4699 Y17.1425 F100.00
G01 X11.4887 Y17.0481 F100.00
G01 X11.4887 Y7.6067 F100.00
G01 X11.4892 Y7.5965 F100.00
G01 X11.4908 Y7.5812 F100.00
G01 X11.4947 Y7.5611 F100.00
G01 X11.5186 Y7.4792 F100.00
G01 X11.5220 Y7.4693 F100.00
G01 X11.5260 Y7.4595 F100.00
G01 X11.5327 Y7.4453 F100.00
G01 X11.5378 Y7.4361 F100.00
G01 X11.5434 Y7.4272 F100.00
G01 X11.5517 Y7.4153 F100.00
G01 X11.6296 Y7.2803 F100.00
G01 X11.6742 Y7.1433 F100.00
G01 X11.6892 Y7.0000 F100.00
G01 X11.6742 Y6.8567 F100.00
G01 X11.6297 Y6.7197 F100.00
G01 X11.5576 Y6.5949 F100.00
G01 X11.4612 Y6.4878 F100.00
G01 X11.3446 Y6.4031 F100.00
G01 X11.2130 Y6.3445 F100.00
G01 X11.0720 Y6.3145 F100.00
G01 X10.9280 Y6.3145 F100.00
G01 X10.7870 Y6.3445 F100.00
G01 X10.6554 Y6.4031 F100.00
G01 X10.5388 Y6.4878 F100.00
G01 X10.4424 Y6.5949 F100.00
G01 X10.3704 Y6.7197 F100.00
G01 X10.3258 Y6.8567 F100.00
G01 X10.3108 Y7.0000 F100.00
G01 X10.3258 Y7.1433 F100.00
G01 X10.3704 Y7.2803 F100.00
G01 X10.4484 Y7.4155 F100.00
G01 X10.4568 Y7.4287 F100.00
G01 X10.4619 Y7.4380 F100.00
G01 X10.4666 Y7.4474 F100.00
G01 X10.4708 Y7.4571 F100.00
G01 X10.4769 Y7.4745 F100.00
G01 X10.4908 Y7.5037 F100.00
G01 X10.4949 Y7.5133 F100.00
G01 X10.4985 Y7.5232 F100.00
G01 X10.5016 Y7.5332 F100.00
G01 X10.5042 Y7.5434 F100.00
G01 X10.5063 Y7.5537 F100.00
G01 X10.5085 Y7.5693 F100.00
G01 X10.5113 Y7.6060 F100.00
G01 X10.5111 Y16.6674 F100.00
G01 X10.5092 Y16.6878 F100.00
G01 X10.5053 Y16.7079 F100.00
G01 X10.4829 Y16.7848 F100.00
G01 X10.4797 Y16.7948 F100.00
G01 X10.4740 Y16.8096 F100.00
G01 X10.4695 Y16.8192 F100.00
G01 X10.4647 Y16.8285 F100.00
G01 X10.4565 Y16.8421 F100.00
G01 X10.4473 Y16.8550 F100.00
G01 X10.4237 Y16.8842 F100.00
G01 X10.4120 Y16.8969 F100.00
G01 X10.0674 Y17.2415 F100.00
G01 X10.0562 Y17.2520 F100.00
G01 X10.0401 Y17.2646 F100.00
G01 X10.0273 Y17.2731 F100.00
G01 X9.9571 Y17.3117 F100.00
G01 X9.9476 Y17.3165 F100.00
G01 X9.9329 Y17.3230 F100.00
G01 X9.9229 Y17.3266 F100.00
G01 X9.9076 Y17.3312 F100.00
G01 X9.8919 Y17.3346 F100.00
G01 X9.8760 Y17.3368 F100.00
G01 X9.8601 Y17.3379 F100.00
G01 X9.8494 Y17.3379 F100.00
G01 X9.7637 Y17.3320 F100.00
G01 X9.7531 Y17.3307 F100.00
G01 X9.7426 Y17.3289 F100.00
G01 X9.7322 Y17.3265 F100.00
G01 X9.7219 Y17.3237 F100.00
G01 X9.7067 Y17.3185 F100.00
G01 X9.6969 Y17.3144 F100.00
G01 X9.6872 Y17.3098 F100.00
G01 X9.6778 Y17.3047 F100.00
G01 X9.6687 Y17.2992 F100.00
G01 X9.6555 Y17.2901 F100.00
G01 X9.5912 Y17.2416 F100.00
G01 X9.5831 Y17.2346 F100.00
G01 X9.5754 Y17.2272 F100.00
G01 X9.5681 Y17.2194 F100.00
G01 X9.5612 Y17.2113 F100.00
G01 X9.5516 Y17.1984 F100.00
G01 X9.5430 Y17.1849 F100.00
G01 X9.5378 Y17.1756 F100.00
G01 X9.5331 Y17.1660 F100.00
G01 X9.5270 Y17.1512 F100.00
G01 X9.5025 Y17.0858 F100.00
G01 X9.4975 Y17.0706 F100.00
G01 X9.4936 Y17.0552 F100.00
G01 X9.4917 Y17.0447 F100.00
G01 X9.4898 Y17.0289 F100.00
G01 X9.4891 Y17.0183 F100.00
G01 X9.4887 Y17.0018 F100.00
G01 X9.4887 Y6.1969 F100.00
G01 X9.4699 Y6.1025 F100.00
G01 X9.4330 Y6.0135 F100.00
G01 X9.3796 Y5.9335 F100.00
G01 X9.2923 Y5.8462 F100.00
G00 Z2.0000
G00 X9.3900 Y5.7484
G01 F40.00
G01 Z-0.1000
G01 F100.00
G01 X8.2863 Y4.6447 F100.00
G01 X8.2802 Y4.6379 F100.00
G01 X8.2741 Y4.6288 F100.00
G01 X8.2388 Y4.5642 F100.00
G01 X8.2350 Y4.5554 F100.00
G01 X8.2322 Y4.5463 F100.00
G01 X8.2305 Y4.5350 F100.00
G01 X8.2304 Y4.5255 F100.00
G01 X8.2356 Y4.4520 F100.00
G01 X8.2371 Y4.4426 F100.00
G01 X8.2398 Y4.4334 F100.00
G01 X8.2435 Y4.4247 F100.00
G01 X8.2473 Y4.4180 F100.00
G01 X8.2936 Y4.3559 F100.00
G01 X8.3000 Y4.3488 F100.00
G01 X8.3071 Y4.3425 F100.00
G01 X8.3167 Y4.3363 F100.00
G01 X8.3253 Y4.3322 F100.00
G01 X8.3943 Y4.3064 F100.00
G01 X8.4016 Y4.3043 F100.00
G01 X8.4091 Y4.3029 F100.00
G01 X8.4148 Y4.3024 F100.00
G01 X8.4282 Y4.3019 F100.00
G01 X11.3322 Y4.3019 F100.00
G01 X11.3413 Y4.3024 F100.00
G01 X11.3503 Y4.3041 F100.00
G01 X11.4208 Y4.3247 F100.00
G01 X11.4314 Y4.3287 F100.00
G01 X11.4397 Y4.3331 F100.00
G01 X11.4459 Y4.3374 F100.00
G01 X11.4680 Y4.3552 F100.00
G01 X11.4741 Y4.3607 F100.00
G01 X12.3156 Y5.2022 F100.00
G01 X12.3215 Y5.2091 F100.00
G01 X12.3265 Y5.2168 F100.00
G01 X12.3609 Y5.2797 F100.00
G01 X12.3655 Y5.2900 F100.00
G01 X12.3682 Y5.2990 F100.00
G01 X12.3698 Y5.3083 F100.00
G01 X12.3727 Y5.3346 F100.00
G01 X12.3731 Y5.3428 F100.00
G01 X12.3731 Y19.0617 F100.00
G01 X12.3972 Y19.1829 F100.00
G01 X12.4440 Y19.2958 F100.00
G01 X12.5131 Y19.3996 F100.00
G01 X13.6004 Y20.4869 F100.00
G01 X13.7031 Y20.5556 F100.00
G01 X13.8171 Y20.6028 F100.00
G01 X13.9383 Y20.6269 F100.00
G01 X20.6572 Y20.6269 F100.00
G01 X20.6645 Y20.6272 F100.00
G01 X20.6717 Y20.6283 F100.00
G01 X20.6788 Y20.6300 F100.00
G01 X20.7458 Y20.6497 F100.00
G01 X20.7547 Y20.6529 F100.00
G01 X20.7631 Y20.6572 F100.00
G01 X20.7694 Y20.6613 F100.00
G01 X20.7977 Y20.6843 F100.00
G01 X21.3156 Y21.2022 F100.00
G01 X21.3215 Y21.2091 F100.00
G01 X21.3265 Y21.2168 F100.00
G01 X21.3618 Y21.2813 F100.00
G01 X21.3662 Y21.2917 F100.00
G01 X21.3690 Y21.3027 F100.00
G01 X21.3727 Y21.3346 F100.00
G01 X21.3731 Y21.3428 F100.00
G01 X21.3731 Y29.1571 F100.00
G01 X21.3723 Y29.1662 F100.00
G01 X21.3705 Y29.1751 F100.00
G01 X21.3503 Y29.2439 F100.00
G01 X21.3471 Y29.2529 F100.00
G01 X21.3417 Y29.2630 F100.00
G01 X21.3350 Y29.2722 F100.00
G01 X21.3269 Y29.2803 F100.00
G01 X21.2726 Y29.3273 F100.00
G01 X21.2649 Y29.3329 F100.00
G01 X21.2583 Y29.3367 F100.00
G01 X21.2477 Y29.3410 F100.00
G01 X21.2366 Y29.3438 F100.00
G01 X21.1637 Y29.3542 F100.00
G01 X21.1561 Y29.3548 F100.00
G01 X21.1485 Y29.3545 F100.00
G01 X21.1372 Y29.3528 F100.00
G01 X21.1263 Y29.3493 F100.00
G01 X21.0575 Y29.3180 F100.00
G01 X21.0510 Y29.3144 F100.00
G01 X21.0433 Y29.3091 F100.00
G01 X21.0377 Y29.3042 F100.00
G01 X21.0326 Y29.2987 F100.00
G01 X21.0046 Y29.2655 F100.00
G01 X20.9821 Y29.2293 F100.00
G01 X20.8707 Y29.1179 F100.00
G01 X20.7367 Y29.0353 F100.00
G01 X20.5866 Y28.9855 F100.00
G01 X20.4961 Y28.9763 F100.00
G01 X19.5039 Y28.9763 F100.00
G01 X19.4134 Y28.9855 F100.00
G01 X19.2633 Y29.0353 F100.00
G01 X19.1293 Y29.1179 F100.00
G01 X19.0179 Y29.2293 F100.00
G01 X19.0015 Y29.2558 F100.00
G01 X18.9983 Y29.2602 F100.00
G01 X18.9934 Y29.2657 F100.00
G01 X18.9333 Y29.3198 F100.00
G01 X18.9287 Y29.3231 F100.00
G01 X18.9223 Y29.3269 F100.00
G01 X18.9156 Y29.3301 F100.00
G01 X18.9086 Y29.3326 F100.00
G01 X18.8496 Y29.3462 F100.00
G01 X18.8402 Y29.3477 F100.00
G01 X18.8326 Y29.3481 F100.00
G01 X17.1656 Y29.3481 F100.00
G01 X17.1565 Y29.3473 F100.00
G01 X17.1475 Y29.3455 F100.00
G01 X17.0769 Y29.3248 F100.00
G01 X17.0717 Y29.3229 F100.00
G01 X17.0649 Y29.3198 F100.00
G01 X17.0554 Y29.3139 F100.00
G01 X17.0469 Y29.3067 F100.00
G01 X17.0045 Y29.2634 F100.00
G01 X16.9975 Y29.2543 F100.00
G01 X16.9821 Y29.2293 F100.00
G01 X16.8707 Y29.1179 F100.00
G01 X16.7364 Y29.0351 F100.00
G01 X16.7294 Y29.0320 F100.00
G01 X16.7215 Y29.0275 F100.00
G01 X16.6610 Y28.9856 F100.00
G01 X16.6551 Y28.9808 F100.00
G01 X16.6509 Y28.9768 F100.00
G01 X16.6436 Y28.9680 F100.00
G01 X16.6405 Y28.9632 F100.00
G01 X16.6369 Y28.9565 F100.00
G01 X16.6078 Y28.8868 F100.00
G01 X16.6055 Y28.8797 F100.00
G01 X16.6035 Y28.8706 F100.00
G01 X16.6029 Y28.8651 F100.00
G01 X16.6019 Y28.8477 F100.00
G01 X16.6019 Y27.5939 F100.00
G01 X16.6027 Y27.5829 F100.00
G01 X16.6050 Y27.5722 F100.00
G01 X16.6258 Y27.5016 F100.00
G01 X16.6286 Y27.4947 F100.00
G01 X16.6311 Y27.4898 F100.00
G01 X16.6350 Y27.4834 F100.00
G01 X16.6395 Y27.4775 F100.00
G01 X16.6446 Y27.4720 F100.00
G01 X16.6838 Y27.4335 F100.00
G01 X16.6910 Y27.4273 F100.00
G01 X16.6973 Y27.4230 F100.00
G01 X16.7551 Y27.3873 F100.00
G01 X16.8623 Y27.2801 F100.00
G01 X16.9419 Y27.1510 F100.00
G01 X16.9898 Y27.0065 F100.00
G01 X16.9987 Y26.9194 F100.00
G01 X16.9987 Y26.3806 F100.00
G01 X16.9898 Y26.2935 F100.00
G01 X16.9419 Y26.1490 F100.00
G01 X16.8623 Y26.0199 F100.00
G01 X16.7551 Y25.9127 F100.00
G01 X16.6260 Y25.8331 F100.00
G01 X16.4815 Y25.7852 F100.00
G01 X16.3944 Y25.7763 F100.00
G01 X15.5556 Y25.7763 F100.00
G01 X15.4685 Y25.7852 F100.00
G01 X15.3240 Y25.8331 F100.00
G01 X15.1949 Y25.9127 F100.00
G01 X15.0877 Y26.0199 F100.00
G01 X15.0081 Y26.1490 F100.00
G01 X14.9602 Y26.2935 F100.00
G01 X14.9513 Y26.3806 F100.00
G01 X14.9513 Y26.9194 F100.00
G01 X14.9602 Y27.0065 F100.00
G01 X15.0081 Y27.1510 F100.00
G01 X15.0877 Y27.2801 F100.00
G01 X15.1949 Y27.3873 F100.00
G01 X15.2543 Y27.4239 F100.00
G01 X15.2587 Y27.4271 F100.00
G01 X15.2644 Y27.4318 F100.00
G01 X15.2695 Y27.4370 F100.00
G01 X15.3175 Y27.4903 F100.00
G01 X15.3220 Y27.4962 F100.00
G01 X15.3260 Y27.5025 F100.00
G01 X15.3293 Y27.5092 F100.00
G01 X15.3320 Y27.5161 F100.00
G01 X15.3340 Y27.5233 F100.00
G01 X15.3462 Y27.5769 F100.00
G01 X15.3475 Y27.5844 F100.00
G01 X15.3481 Y27.5939 F100.00
G01 X15.3481 Y28.8727 F100.00
G01 X15.3473 Y28.8818 F100.00
G01 X15.3455 Y28.8908 F100.00
G01 X15.3242 Y28.9631 F100.00
G01 X15.3214 Y28.9700 F100.00
G01 X15.3180 Y28.9766 F100.00
G01 X15.3128 Y28.9844 F100.00
G01 X15.3080 Y28.9901 F100.00
G01 X15.2662 Y29.0313 F100.00
G01 X15.2575 Y29.0386 F100.00
G01 X15.1293 Y29.1179 F100.00
G01 X15.0179 Y29.2293 F100.00
G01 X15.0015 Y29.2558 F100.00
G01 X14.9983 Y29.2602 F100.00
G01 X14.9934 Y29.2657 F100.00
G01 X14.9361 Y29.3174 F100.00
G01 X14.9318 Y29.3209 F100.00
G01 X14.9256 Y29.3250 F100.00
G01 X14.9156 Y29.3301 F100.00
G01 X14.9050 Y29.3336 F100.00
G01 X14.8478 Y29.3466 F100.00
G01 X14.8421 Y29.3475 F100.00
G01 X14.8345 Y29.3481 F100.00
G01 X13.1674 Y29.3481 F100.00
G01 X13.1565 Y29.3473 F100.00
G01 X13.1458 Y29.3450 F100.00
G01 X13.0752 Y29.3242 F100.00
G01 X13.0649 Y29.3198 F100.00
G01 X13.0601 Y29.3170 F100.00
G01 X13.0539 Y29.3128 F100.00
G01 X13.0456 Y29.3054 F100.00
G01 X13.0032 Y29.2620 F100.00
G01 X12.9975 Y29.2543 F100.00
G01 X12.9821 Y29.2293 F100.00
G01 X12.8707 Y29.1179 F100.00
G01 X12.7367 Y29.0353 F100.00
G01 X12.5866 Y28.9855 F100.00
G01 X12.4961 Y28.9763 F100.00
G01 X11.5039 Y28.9763 F100.00
G01 X11.4134 Y28.9855 F100.00
G01 X11.2633 Y29.0353 F100.00
G01 X11.1293 Y29.1179 F100.00
G01 X11.0179 Y29.2293 F100.00
G01 X10.9976 Y29.2622 F100.00
G01 X10.9934 Y29.2681 F100.00
G01 X10.9885 Y29.2736 F100.00
G01 X10.9283 Y29.3278 F100.00
G01 X10.9220 Y29.3322 F100.00
G01 X10.9153 Y29.3359 F100.00
G01 X10.9066 Y29.3396 F100.00
G01 X10.8992 Y29.3417 F100.00
G01 X10.8228 Y29.3544 F100.00
G01 X10.8133 Y29.3551 F100.00
G01 X10.8038 Y29.3546 F100.00
G01 X10.7944 Y29.3530 F100.00
G01 X10.7871 Y29.3508 F100.00
G01 X10.7159 Y29.3201 F100.00
G01 X10.7092 Y29.3165 F100.00
G01 X10.7043 Y29.3135 F100.00
G01 X10.6955 Y29.3062 F100.00
G01 X10.6915 Y29.3022 F100.00
G01 X10.6866 Y29.2963 F100.00
G01 X10.6456 Y29.2351 F100.00
G01 X10.6409 Y29.2270 F100.00
G01 X10.6365 Y29.2167 F100.00
G01 X10.6341 Y29.2077 F100.00
G01 X10.6275 Y29.1649 F100.00
G01 X10.6269 Y29.1552 F100.00
G01 X10.6270 Y18.3392 F100.00
G01 X10.6277 Y18.3319 F100.00
G01 X10.6295 Y18.3230 F100.00
G01 X10.6497 Y18.2542 F100.00
G01 X10.6522 Y18.2471 F100.00
G01 X10.6562 Y18.2385 F100.00
G01 X10.6613 Y18.2306 F100.00
G01 X10.6829 Y18.2038 F100.00
G01 X11.4869 Y17.3996 F100.00
G01 X11.5556 Y17.2969 F100.00
G01 X11.6028 Y17.1829 F100.00
G01 X11.6269 Y17.0617 F100.00
G01 X11.6269 Y7.6100 F100.00
G01 X11.6277 Y7.6009 F100.00
G01 X11.6295 Y7.5920 F100.00
G01 X11.6497 Y7.5232 F100.00
G01 X11.6536 Y7.5126 F100.00
G01 X11.6591 Y7.5028 F100.00
G01 X11.6680 Y7.4903 F100.00
G01 X11.7566 Y7.3369 F100.00
G01 X11.8101 Y7.1722 F100.00
G01 X11.8282 Y7.0000 F100.00
G01 X11.8101 Y6.8278 F100.00
G01 X11.7566 Y6.6631 F100.00
G01 X11.6701 Y6.5132 F100.00
G01 X11.5542 Y6.3845 F100.00
G01 X11.4141 Y6.2827 F100.00
G01 X11.2559 Y6.2123 F100.00
G01 X11.0866 Y6.1763 F100.00
G01 X10.9134 Y6.1763 F100.00
G01 X10.7441 Y6.2123 F100.00
G01 X10.5859 Y6.2827 F100.00
G01 X10.4458 Y6.3845 F100.00
G01 X10.3299 Y6.5132 F100.00
G01 X10.2434 Y6.6631 F100.00
G01 X10.1899 Y6.8278 F100.00
G01 X10.1718 Y7.0000 F100.00
G01 X10.1899 Y7.1722 F100.00
G01 X10.2434 Y7.3369 F100.00
G01 X10.3320 Y7.4903 F100.00
G01 X10.3375 Y7.4986 F100.00
G01 X10.3410 Y7.5053 F100.00
G01 X10.3444 Y7.5141 F100.00
G01 X10.3466 Y7.5226 F100.00
G01 X10.3647 Y7.5604 F100.00
G01 X10.3680 Y7.5691 F100.00
G01 X10.3695 Y7.5746 F100.00
G01 X10.3708 Y7.5820 F100.00
G01 X10.3731 Y7.6098 F100.00
G01 X10.3730 Y16.6608 F100.00
G01 X10.3723 Y16.6681 F100.00
G01 X10.3705 Y16.6770 F100.00
G01 X10.3503 Y16.7458 F100.00
G01 X10.3478 Y16.7530 F100.00
G01 X10.3438 Y16.7615 F100.00
G01 X10.3398 Y16.7679 F100.00
G01 X10.3185 Y16.7946 F100.00
G01 X9.9657 Y17.1475 F100.00
G01 X9.9599 Y17.1520 F100.00
G01 X9.9538 Y17.1559 F100.00
G01 X9.8909 Y17.1903 F100.00
G01 X9.8804 Y17.1950 F100.00
G01 X9.8713 Y17.1978 F100.00
G01 X9.8619 Y17.1993 F100.00
G01 X9.8505 Y17.1996 F100.00
G01 X9.7789 Y17.1945 F100.00
G01 X9.7694 Y17.1933 F100.00
G01 X9.7620 Y17.1914 F100.00
G01 X9.7549 Y17.1888 F100.00
G01 X9.7480 Y17.1856 F100.00
G01 X9.7399 Y17.1805 F100.00
G01 X9.6809 Y17.1364 F100.00
G01 X9.6738 Y17.1300 F100.00
G01 X9.6664 Y17.1213 F100.00
G01 X9.6613 Y17.1133 F100.00
G01 X9.6572 Y17.1047 F100.00
G01 X9.6308 Y17.0339 F100.00
G01 X9.6289 Y17.0265 F100.00
G01 X9.6277 Y17.0190 F100.00
G01 X9.6269 Y17.0018 F100.00
G01 X9.6269 Y6.1833 F100.00
G01 X9.6028 Y6.0621 F100.00
G01 X9.5556 Y5.9481 F100.00
G01 X9.4869 Y5.8454 F100.00
G01 X9.3900 Y5.7484 F100.00
G00 Z2.0000
G00 X10.5817 Y7.4503
G01 F40.00
G01 Z-0.1000
G01 F100.00
G01 X10.5689 Y7.4386 F100.00
G01 X10.5614 Y7.4311 F100.00
G01 X10.5280 Y7.3942 F100.00
G01 X10.5181 Y7.3819 F100.00
G01 X10.4916 Y7.3460 F100.00
G01 X10.4830 Y7.3328 F100.00
G01 X10.4576 Y7.2899 F100.00
G01 X10.4339 Y7.2402 F100.00
G01 X10.4280 Y7.2255 F100.00
G01 X10.4114 Y7.1785 F100.00
G01 X10.3991 Y7.1303 F100.00
G01 X10.3968 Y7.1200 F100.00
G01 X10.3950 Y7.1096 F100.00
G01 X10.3879 Y7.0603 F100.00
G01 X10.3850 Y7.0053 F100.00
G01 X10.3852 Y6.9894 F100.00
G01 X10.3879 Y6.9397 F100.00
G01 X10.3950 Y6.8904 F100.00
G01 X10.3968 Y6.8800 F100.00
G01 X10.3991 Y6.8697 F100.00
G01 X10.4114 Y6.8215 F100.00
G01 X10.4280 Y6.7745 F100.00
G01 X10.4318 Y6.7646 F100.00
G01 X10.4361 Y6.7550 F100.00
G01 X10.4576 Y6.7101 F100.00
G01 X10.4830 Y6.6672 F100.00
G01 X10.4886 Y6.6583 F100.00
G01 X10.4947 Y6.6497 F100.00
G01 X10.5246 Y6.6098 F100.00
G01 X10.5614 Y6.5689 F100.00
G01 X10.5727 Y6.5578 F100.00
G01 X10.6098 Y6.5246 F100.00
G01 X10.6497 Y6.4947 F100.00
G01 X10.6583 Y6.4886 F100.00
G01 X10.6672 Y6.4830 F100.00
G01 X10.7101 Y6.4576 F100.00
G01 X10.7550 Y6.4361 F100.00
G01 X10.7646 Y6.4318 F100.00
G01 X10.8114 Y6.4148 F100.00
G01 X10.8215 Y6.4114 F100.00
G01 X10.8697 Y6.3991 F100.00
G01 X10.8800 Y6.3968 F100.00
G01 X10.8904 Y6.3950 F100.00
G01 X10.9397 Y6.3879 F100.00
G01 X10.9502 Y6.3871 F100.00
G01 X11.0000 Y6.3850 F100.00
G01 X11.0498 Y6.3871 F100.00
G01 X11.0603 Y6.3879 F100.00
G01 X11.1096 Y6.3950 F100.00
G01 X11.1200 Y6.3968 F100.00
G01 X11.1303 Y6.3991 F100.00
G01 X11.1785 Y6.4114 F100.00
G01 X11.2255 Y6.4280 F100.00
G01 X11.2354 Y6.4318 F100.00
G01 X11.2450 Y6.4361 F100.00
G01 X11.2899 Y6.4576 F100.00
G01 X11.3328 Y6.4830 F100.00
G01 X11.3417 Y6.4886 F100.00
G01 X11.3503 Y6.4947 F100.00
G01 X11.3902 Y6.5246 F100.00
G01 X11.4311 Y6.5614 F100.00
G01 X11.4422 Y6.5727 F100.00
G01 X11.4754 Y6.6098 F100.00
G01 X11.5053 Y6.6497 F100.00
G01 X11.5114 Y6.6583 F100.00
G01 X11.5170 Y6.6672 F100.00
G01 X11.5424 Y6.7101 F100.00
G01 X11.5639 Y6.7550 F100.00
G01 X11.5682 Y6.7646 F100.00
G01 X11.5852 Y6.8114 F100.00
G01 X11.5886 Y6.8215 F100.00
G01 X11.6009 Y6.8697 F100.00
G01 X11.6032 Y6.8800 F100.00
G01 X11.6050 Y6.8904 F100.00
G01 X11.6121 Y6.9397 F100.00
G01 X11.6129 Y6.9502 F100.00
G01 X11.6150 Y7.0000 F100.00
G01 X11.6129 Y7.0498 F100.00
G01 X11.6121 Y7.0603 F100.00
G01 X11.6050 Y7.1096 F100.00
G01 X11.6032 Y7.1200 F100.00
G01 X11.6009 Y7.1303 F100.00
G01 X11.5886 Y7.1785 F100.00
G01 X11.5720 Y7.2255 F100.00
G01 X11.5661 Y7.2402 F100.00
G01 X11.5424 Y7.2899 F100.00
G01 X11.5170 Y7.3328 F100.00
G01 X11.5084 Y7.3460 F100.00
G01 X11.4819 Y7.3819 F100.00
G01 X11.4720 Y7.3942 F100.00
G01 X11.4386 Y7.4311 F100.00
G01 X11.4311 Y7.4386 F100.00
G01 X11.4183 Y7.4503 F100.00
G01 X11.4183 Y17.0000 F100.00
G01 X11.4171 Y17.0305 F100.00
G01 X11.4163 Y17.0410 F100.00
G01 X11.4150 Y17.0515 F100.00
G01 X11.4103 Y17.0816 F100.00
G01 X11.4031 Y17.1113 F100.00
G01 X11.3987 Y17.1265 F100.00
G01 X11.3865 Y17.1601 F100.00
G01 X11.3822 Y17.1697 F100.00
G01 X11.3689 Y17.1972 F100.00
G01 X11.3535 Y17.2235 F100.00
G01 X11.3478 Y17.2324 F100.00
G01 X11.3418 Y17.2410 F100.00
G01 X11.3267 Y17.2613 F100.00
G01 X11.3200 Y17.2694 F100.00
G01 X11.2958 Y17.2958 F100.00
G01 X10.4183 Y18.1733 F100.00
G01 X10.4183 Y35.8267 F100.00
G01 X10.8233 Y36.2317 F100.00
G01 X11.0350 Y36.2317 F100.00
G01 X11.0352 Y36.1394 F100.00
G01 X11.0360 Y36.1289 F100.00
G01 X11.0373 Y36.1184 F100.00
G01 X11.0391 Y36.1080 F100.00
G01 X11.0414 Y36.0977 F100.00
G01 X11.0458 Y36.0825 F100.00
G01 X11.0494 Y36.0726 F100.00
G01 X11.0556 Y36.0581 F100.00
G01 X11.0629 Y36.0440 F100.00
G01 X11.0683 Y36.0350 F100.00
G01 X11.0773 Y36.0219 F100.00
G01 X11.0872 Y36.0095 F100.00
G01 X11.0959 Y36.0000 F100.00
G01 X11.0838 Y35.9864 F100.00
G01 X11.0773 Y35.9781 F100.00
G01 X11.0712 Y35.9695 F100.00
G01 X11.0656 Y35.9606 F100.00
G01 X11.0604 Y35.9514 F100.00
G01 X11.0556 Y35.9419 F100.00
G01 X11.0513 Y35.9323 F100.00
G01 X11.0475 Y35.9224 F100.00
G01 X11.0442 Y35.9124 F100.00
G01 X11.0414 Y35.9023 F100.00
G01 X11.0391 Y35.8920 F100.00
G01 X11.0373 Y35.8816 F100.00
G01 X11.0360 Y35.8711 F100.00
G01 X11.0352 Y35.8606 F100.00
G01 X11.0350 Y35.8500 F100.00
G01 X11.0350 Y35.3500 F100.00
G01 X11.0352 Y35.3394 F100.00
G01 X11.0360 Y35.3289 F100.00
G01 X11.0373 Y35.3184 F100.00
G01 X11.0400 Y35.3035 F100.00
G01 X11.0401 Y35.2737 F100.00
G01 X11.0406 Y35.2635 F100.00
G01 X11.0430 Y35.2432 F100.00
G01 X11.0474 Y35.2232 F100.00
G01 X11.0920 Y35.0720 F100.00
G01 X11.0955 Y35.0624 F100.00
G01 X11.1018 Y35.0483 F100.00
G01 X11.1116 Y35.0304 F100.00
G01 X11.1912 Y34.9063 F100.00
G01 X11.1970 Y34.8978 F100.00
G01 X11.2063 Y34.8857 F100.00
G01 X11.2165 Y34.8742 F100.00
G01 X11.2275 Y34.8635 F100.00
G01 X11.3389 Y34.7669 F100.00
G01 X11.3508 Y34.7572 F100.00
G01 X11.3591 Y34.7513 F100.00
G01 X11.3678 Y34.7458 F100.00
G01 X11.3811 Y34.7382 F100.00
G01 X11.5198 Y34.6746 F100.00
G01 X11.5340 Y34.6688 F100.00
G01 X11.5486 Y34.6639 F100.00
G01 X11.5634 Y34.6601 F100.00
G01 X11.5817 Y34.6570 F100.00
G01 X11.5817 Y32.8150 F100.00
G01 X11.5447 Y32.8150 F100.00
G01 X11.5149 Y32.8136 F100.00
G01 X11.4992 Y32.8122 F100.00
G01 X11.4593 Y32.8061 F100.00
G01 X11.4201 Y32.7965 F100.00
G01 X11.4100 Y32.7934 F100.00
G01 X11.3819 Y32.7834 F100.00
G01 X11.3720 Y32.7796 F100.00
G01 X11.3624 Y32.7754 F100.00
G01 X11.3308 Y32.7601 F100.00
G01 X11.3006 Y32.7423 F100.00
G01 X11.2916 Y32.7367 F100.00
G01 X11.2830 Y32.7306 F100.00
G01 X11.2550 Y32.7095 F100.00
G01 X11.2249 Y32.6825 F100.00
G01 X11.2175 Y32.6751 F100.00
G01 X11.1974 Y32.6530 F100.00
G01 X11.1905 Y32.6450 F100.00
G01 X11.1840 Y32.6367 F100.00
G01 X11.1633 Y32.6084 F100.00
G01 X11.1577 Y32.5994 F100.00
G01 X11.1399 Y32.5692 F100.00
G01 X11.1351 Y32.5598 F100.00
G01 X11.1204 Y32.5280 F100.00
G01 X11.1066 Y32.4900 F100.00
G01 X11.1035 Y32.4799 F100.00
G01 X11.0962 Y32.4510 F100.00
G01 X11.0939 Y32.4407 F100.00
G01 X11.0921 Y32.4303 F100.00
G01 X11.0872 Y32.3956 F100.00
G01 X11.0850 Y32.3553 F100.00
G01 X11.0850 Y31.6947 F100.00
G01 X11.0864 Y31.6649 F100.00
G01 X11.0878 Y31.6492 F100.00
G01 X11.0929 Y31.6145 F100.00
G01 X11.0962 Y31.5990 F100.00
G01 X11.1050 Y31.5650 F100.00
G01 X11.1166 Y31.5319 F100.00
G01 X11.1224 Y31.5172 F100.00
G01 X11.1374 Y31.4855 F100.00
G01 X11.1451 Y31.4716 F100.00
G01 X11.1633 Y31.4416 F100.00
G01 X11.1872 Y31.4091 F100.00
G01 X11.1974 Y31.3970 F100.00
G01 X11.2212 Y31.3712 F100.00
G01 X11.2470 Y31.3474 F100.00
G01 X11.2591 Y31.3372 F100.00
G01 X11.2916 Y31.3133 F100.00
G01 X11.3216 Y31.2951 F100.00
G01 X11.3355 Y31.2874 F100.00
G01 X11.3672 Y31.2724 F100.00
G01 X11.3819 Y31.2666 F100.00
G01 X11.4150 Y31.2550 F100.00
G01 X11.4490 Y31.2462 F100.00
G01 X11.4645 Y31.2429 F100.00
G01 X11.4992 Y31.2378 F100.00
G01 X11.5149 Y31.2364 F100.00
G01 X11.5500 Y31.2350 F100.00
G01 X12.4500 Y31.2350 F100.00
G01 X12.4606 Y31.2352 F100.00
G01 X12.4903 Y31.2367 F100.00
G01 X12.5061 Y31.2385 F100.00
G01 X12.5407 Y31.2439 F100.00
G01 X12.5748 Y31.2522 F100.00
G01 X12.5900 Y31.2566 F100.00
G01 X12.6231 Y31.2684 F100.00
G01 X12.6376 Y31.2746 F100.00
G01 X12.6645 Y31.2874 F100.00
G01 X12.6784 Y31.2951 F100.00
G01 X12.7084 Y31.3133 F100.00
G01 X12.7170 Y31.3194 F100.00
G01 X12.7450 Y31.3405 F100.00
G01 X12.7712 Y31.3639 F100.00
G01 X12.7825 Y31.3749 F100.00
G01 X12.8061 Y31.4009 F100.00
G01 X12.8160 Y31.4133 F100.00
G01 X12.8337 Y31.4373 F100.00
G01 X12.8423 Y31.4506 F100.00
G01 X12.8601 Y31.4808 F100.00
G01 X12.8754 Y31.5124 F100.00
G01 X12.8816 Y31.5269 F100.00
G01 X12.8934 Y31.5600 F100.00
G01 X12.8978 Y31.5752 F100.00
G01 X12.9050 Y31.6041 F100.00
G01 X12.9079 Y31.6197 F100.00
G01 X12.9128 Y31.6544 F100.00
G01 X12.9136 Y31.6649 F100.00
G01 X12.9150 Y31.7000 F100.00
G01 X12.9150 Y32.3500 F100.00
G01 X12.9133 Y32.3903 F100.00
G01 X12.9115 Y32.4061 F100.00
G01 X12.9061 Y32.4407 F100.00
G01 X12.9038 Y32.4510 F100.00
G01 X12.8950 Y32.4850 F100.00
G01 X12.8834 Y32.5181 F100.00
G01 X12.8796 Y32.5280 F100.00
G01 X12.8754 Y32.5376 F100.00
G01 X12.8601 Y32.5692 F100.00
G01 X12.8423 Y32.5994 F100.00
G01 X12.8367 Y32.6084 F100.00
G01 X12.8306 Y32.6170 F100.00
G01 X12.8095 Y32.6450 F100.00
G01 X12.7861 Y32.6712 F100.00
G01 X12.7788 Y32.6788 F100.00
G01 X12.7491 Y32.7061 F100.00
G01 X12.7367 Y32.7160 F100.00
G01 X12.7084 Y32.7367 F100.00
G01 X12.6994 Y32.7423 F100.00
G01 X12.6692 Y32.7601 F100.00
G01 X12.6598 Y32.7649 F100.00
G01 X12.6280 Y32.7796 F100.00
G01 X12.5900 Y32.7934 F100.00
G01 X12.5748 Y32.7978 F100.00
G01 X12.5407 Y32.8061 F100.00
G01 X12.5008 Y32.8122 F100.00
G01 X12.4851 Y32.8136 F100.00
G01 X12.4553 Y32.8150 F100.00
G01 X12.4183 Y32.8150 F100.00
G01 X12.4183 Y34.6570 F100.00
G01 X12.4316 Y34.6591 F100.00
G01 X12.4465 Y34.6625 F100.00
G01 X12.4612 Y34.6670 F100.00
G01 X12.4755 Y34.6726 F100.00
G01 X12.6096 Y34.7338 F100.00
G01 X12.6189 Y34.7382 F100.00
G01 X12.6322 Y34.7458 F100.00
G01 X12.6451 Y34.7542 F100.00
G01 X12.6611 Y34.7669 F100.00
G01 X12.7687 Y34.8601 F100.00
G01 X12.7835 Y34.8742 F100.00
G01 X12.7969 Y34.8896 F100.00
G01 X12.8088 Y34.9063 F100.00
G01 X12.8857 Y35.0260 F100.00
G01 X12.8910 Y35.0348 F100.00
G01 X12.8982 Y35.0483 F100.00
G01 X12.9045 Y35.0624 F100.00
