(G-CODE GENERATED BY FLATCAM v8.994 - www.flatcam.org - Version Date: 2020/11/7)

(Name: FX-Pots-PTH.drl_cnc)
(Type: G-code from Geometry)
(Units: MM)

(Created on Monday, 19 August 2024 at 00:07)

(This preprocessor is used with a motion controller loaded with GRBL firmware.)
(It is configured to be compatible with almost any version of GRBL firmware.)


(TOOLS DIAMETER: )
(Tool: 1 -> Dia: 0.3)
(Tool: 2 -> Dia: 1.0)
(Tool: 3 -> Dia: 1.1)

(FEEDRATE Z: )
(Tool: 1 -> Feedrate: 30.0)
(Tool: 2 -> Feedrate: 30.0)
(Tool: 3 -> Feedrate: 30.0)

(FEEDRATE RAPIDS: )
(Tool: 1 -> Feedrate Rapids: 1500)
(Tool: 2 -> Feedrate Rapids: 1500)
(Tool: 3 -> Feedrate Rapids: 1500)

(Z_CUT: )
(Tool: 1 -> Z_Cut: -1.9)
(Tool: 2 -> Z_Cut: -2.0)
(Tool: 3 -> Z_Cut: -1.9)

(Tools Offset: )
(Tool: 2 -> Offset Z: 0.0)

(DEPTH_PER_CUT: )
(Tool: 1 -> DeptPerCut: 0.7)
(Tool: 2 -> DeptPerCut: 0.7)
(Tool: 3 -> DeptPerCut: 0.7)

(Z_MOVE: )
(Tool: 1 -> Z_Move: 2)
(Tool: 2 -> Z_Move: 2)
(Tool: 3 -> Z_Move: 2)

(Z Toolchange: 7.0 mm)
(X,Y Toolchange: 0.0000, 0.0000 mm)
(Z Start: None mm)
(Z End: 5.5 mm)
(X,Y End: None mm)
(Steps per circle: 64)
(Steps per circle: 64)
(Preprocessor Excellon: GRBL_11_no_M6)

(X range:  -52.0500 ...   46.1000  mm)
(Y range:  -22.0250 ...   20.0250  mm)

(Spindle Speed: 1000 RPM)
G21
G90
G17
G94


G01 F30.00

M5             
G00 Z7.0000
G00 X0.0000 Y0.0000                
T2
(MSG, Change to Tool Dia = 1.0000 ||| Total drills for tool T2 = 30)
M0
G00 Z7.0000
        
G01 F30.00
M03 S1000
G00 X2.3350 Y-21.5250
G01 Z-0.7000
G01 Z0
G00 Z2.0000
G01 Z-1.4000
G01 Z0
G00 Z2.0000
G01 Z-2.0000
G01 Z0
G00 Z2.0000
G00 X-0.2050 Y-21.5250
G01 Z-0.7000
G01 Z0
G00 Z2.0000
G01 Z-1.4000
G01 Z0
G00 Z2.0000
G01 Z-2.0000
G01 Z0
G00 Z2.0000
G00 X-2.7450 Y-21.5250
G01 Z-0.7000
G01 Z0
G00 Z2.0000
G01 Z-1.4000
G01 Z0
G00 Z2.0000
G01 Z-2.0000
G01 Z0
G00 Z2.0000
G00 X-5.2850 Y-21.5250
G01 Z-0.7000
G01 Z0
G00 Z2.0000
G01 Z-1.4000
G01 Z0
G00 Z2.0000
G01 Z-2.0000
G01 Z0
G00 Z2.0000
G00 X-7.8250 Y-21.5250
G01 Z-0.7000
G01 Z0
G00 Z2.0000
G01 Z-1.4000
G01 Z0
G00 Z2.0000
G01 Z-2.0000
G01 Z0
G00 Z2.0000
G00 X-12.4000 Y-12.0000
G01 Z-0.7000
G01 Z0
G00 Z2.0000
G01 Z-1.4000
G01 Z0
G00 Z2.0000
G01 Z-2.0000
G01 Z0
G00 Z2.0000
G00 X-18.6000 Y-12.0000
G01 Z-0.7000
G01 Z0
G00 Z2.0000
G01 Z-1.4000
G01 Z0
G00 Z2.0000
G01 Z-2.0000
G01 Z0
G00 Z2.0000
G00 X-41.4000 Y-12.0000
G01 Z-0.7000
G01 Z0
G00 Z2.0000
G01 Z-1.4000
G01 Z0
G00 Z2.0000
G01 Z-2.0000
G01 Z0
G00 Z2.0000
G00 X-47.6000 Y-12.0000
G01 Z-0.7000
G01 Z0
G00 Z2.0000
G01 Z-1.4000
G01 Z0
G00 Z2.0000
G01 Z-2.0000
G01 Z0
G00 Z2.0000
G00 X-51.5500 Y10.5000
G01 Z-0.7000
G01 Z0
G00 Z2.0000
G01 Z-1.4000
G01 Z0
G00 Z2.0000
G01 Z-2.0000
G01 Z0
G00 Z2.0000
G00 X-51.5500 Y13.0000
G01 Z-0.7000
G01 Z0
G00 Z2.0000
G01 Z-1.4000
G01 Z0
G00 Z2.0000
G01 Z-2.0000
G01 Z0
G00 Z2.0000
G00 X-51.5500 Y15.5000
G01 Z-0.7000
G01 Z0
G00 Z2.0000
G01 Z-1.4000
G01 Z0
G00 Z2.0000
G01 Z-2.0000
G01 Z0
G00 Z2.0000
G00 X-22.5500 Y10.5000
G01 Z-0.7000
G01 Z0
G00 Z2.0000
G01 Z-1.4000
G01 Z0
G00 Z2.0000
G01 Z-2.0000
G01 Z0
G00 Z2.0000
G00 X-22.5500 Y13.0000
G01 Z-0.7000
G01 Z0
G00 Z2.0000
G01 Z-1.4000
G01 Z0
G00 Z2.0000
G01 Z-2.0000
G01 Z0
G00 Z2.0000
G00 X-22.5500 Y15.5000
G01 Z-0.7000
G01 Z0
G00 Z2.0000
G01 Z-1.4000
G01 Z0
G00 Z2.0000
G01 Z-2.0000
G01 Z0
G00 Z2.0000
G00 X-7.1100 Y19.5250
G01 Z-0.7000
G01 Z0
G00 Z2.0000
G01 Z-1.4000
G01 Z0
G00 Z2.0000
G01 Z-2.0000
G01 Z0
G00 Z2.0000
G00 X-4.5700 Y19.5250
G01 Z-0.7000
G01 Z0
G00 Z2.0000
G01 Z-1.4000
G01 Z0
G00 Z2.0000
G01 Z-2.0000
G01 Z0
G00 Z2.0000
G00 X-2.0300 Y19.5250
G01 Z-0.7000
G01 Z0
G00 Z2.0000
G01 Z-1.4000
G01 Z0
G00 Z2.0000
G01 Z-2.0000
G01 Z0
G00 Z2.0000
G00 X0.5100 Y19.5250
G01 Z-0.7000
G01 Z0
G00 Z2.0000
G01 Z-1.4000
G01 Z0
G00 Z2.0000
G01 Z-2.0000
G01 Z0
G00 Z2.0000
G00 X3.0500 Y19.5250
G01 Z-0.7000
G01 Z0
G00 Z2.0000
G01 Z-1.4000
G01 Z0
G00 Z2.0000
G01 Z-2.0000
G01 Z0
G00 Z2.0000
G00 X6.4500 Y15.5000
G01 Z-0.7000
G01 Z0
G00 Z2.0000
G01 Z-1.4000
G01 Z0
G00 Z2.0000
G01 Z-2.0000
G01 Z0
G00 Z2.0000
G00 X6.4500 Y13.0000
G01 Z-0.7000
G01 Z0
G00 Z2.0000
G01 Z-1.4000
G01 Z0
G00 Z2.0000
G01 Z-2.0000
G01 Z0
G00 Z2.0000
G00 X6.4500 Y10.5000
G01 Z-0.7000
G01 Z0
G00 Z2.0000
G01 Z-1.4000
G01 Z0
G00 Z2.0000
G01 Z-2.0000
G01 Z0
G00 Z2.0000
G00 X35.5000 Y15.5000
G01 Z-0.7000
G01 Z0
G00 Z2.0000
G01 Z-1.4000
G01 Z0
G00 Z2.0000
G01 Z-2.0000
G01 Z0
G00 Z2.0000
G00 X35.5000 Y13.0000
G01 Z-0.7000
G01 Z0
G00 Z2.0000
G01 Z-1.4000
G01 Z0
G00 Z2.0000
G01 Z-2.0000
G01 Z0
G00 Z2.0000
G00 X35.5000 Y10.5000
G01 Z-0.7000
G01 Z0
G00 Z2.0000
G01 Z-1.4000
G01 Z0
G00 Z2.0000
G01 Z-2.0000
G01 Z0
G00 Z2.0000
G00 X45.6000 Y-12.0000
G01 Z-0.7000
G01 Z0
G00 Z2.0000
G01 Z-1.4000
G01 Z0
G00 Z2.0000
G01 Z-2.0000
G01 Z0
G00 Z2.0000
G00 X39.4000 Y-12.0000
G01 Z-0.7000
G01 Z0
G00 Z2.0000
G01 Z-1.4000
G01 Z0
G00 Z2.0000
G01 Z-2.0000
G01 Z0
G00 Z2.0000
G00 X16.6000 Y-12.0000
G01 Z-0.7000
G01 Z0
G00 Z2.0000
G01 Z-1.4000
G01 Z0
G00 Z2.0000
G01 Z-2.0000
G01 Z0
G00 Z2.0000
G00 X10.4000 Y-12.0000
G01 Z-0.7000
G01 Z0
G00 Z2.0000
G01 Z-1.4000
G01 Z0
G00 Z2.0000
G01 Z-2.0000
G01 Z0
G00 Z2.0000
M05
G00 Z5.50


