(G-CODE GENERATED BY FLATCAM v8.994 - www.flatcam.org - Version Date: 2020/11/7)

(Name: FX-Pots-NPTH.drl_conv_cnc)
(Type: G-code from Geometry)
(Units: MM)

(Created on Monday, 19 August 2024 at 07:39)

(This preprocessor is used with a motion controller loaded with GRBL firmware.)
(It is configured to be compatible with almost any version of GRBL firmware.)

(TOOL DIAMETER: 2.0 mm)
(Feedrate_XY: 120.0 mm/min)
(Feedrate_Z: 60.0 mm/min)
(Feedrate rapids 1500.0 mm/min)

(Z_Cut: -2.4 mm)
(DepthPerCut: 0.40000000000000013 mm <=>6 passes)
(Z_Move: 2.0 mm)
(Z Start: None mm)
(Z End: 7.0 mm)
(X,Y End: None mm)
(Steps per circle: 64)
(Steps per circle: 64)
(Preprocessor Geometry: GRBL_11_no_M6)

(X range:    0.0000 ...    0.0000  mm)
(Y range:    0.0000 ...    0.0000  mm)

(Spindle Speed: 1000.0 RPM)
G21
G90
G17
G94


G01 F120.00

M5             
G00 Z7.0000
G00 X0.0000 Y0.0000                
T1
(MSG, Change to Tool Dia = 2.0000)
M0
G00 Z7.0000
        
M03 S1000.0
G01 F120.00
G00 X13.5488 Y8.6000
G01 F60.00
G01 Z-0.4000
G01 F120.00
G01 X13.5483 Y8.5903 F120.00
G01 X13.5469 Y8.5807 F120.00
G01 X13.5445 Y8.5713 F120.00
G01 X13.5413 Y8.5622 F120.00
G01 X13.5371 Y8.5534 F120.00
G01 X13.5321 Y8.5451 F120.00
G01 X13.5264 Y8.5373 F120.00
G01 X13.5199 Y8.5301 F120.00
G01 X13.5127 Y8.5236 F120.00
G01 X13.5049 Y8.5179 F120.00
G01 X13.4966 Y8.5129 F120.00
G01 X13.4878 Y8.5087 F120.00
G01 X13.4787 Y8.5055 F120.00
G01 X13.4693 Y8.5031 F120.00
G01 X13.4597 Y8.5017 F120.00
G01 X13.4500 Y8.5012 F120.00
G01 X13.4403 Y8.5017 F120.00
G01 X13.4307 Y8.5031 F120.00
G01 X13.4213 Y8.5055 F120.00
G01 X13.4122 Y8.5087 F120.00
G01 X13.4034 Y8.5129 F120.00
G01 X13.3951 Y8.5179 F120.00
G01 X13.3873 Y8.5236 F120.00
G01 X13.3801 Y8.5301 F120.00
G01 X13.3736 Y8.5373 F120.00
G01 X13.3679 Y8.5451 F120.00
G01 X13.3629 Y8.5534 F120.00
G01 X13.3587 Y8.5622 F120.00
G01 X13.3555 Y8.5713 F120.00
G01 X13.3531 Y8.5807 F120.00
G01 X13.3517 Y8.5903 F120.00
G01 X13.3512 Y8.6000 F120.00
G01 X13.3517 Y8.6097 F120.00
G01 X13.3531 Y8.6193 F120.00
G01 X13.3555 Y8.6287 F120.00
G01 X13.3587 Y8.6378 F120.00
G01 X13.3629 Y8.6466 F120.00
G01 X13.3679 Y8.6549 F120.00
G01 X13.3736 Y8.6627 F120.00
G01 X13.3801 Y8.6699 F120.00
G01 X13.3873 Y8.6764 F120.00
G01 X13.3951 Y8.6821 F120.00
G01 X13.4034 Y8.6871 F120.00
G01 X13.4122 Y8.6913 F120.00
G01 X13.4213 Y8.6945 F120.00
G01 X13.4307 Y8.6969 F120.00
G01 X13.4403 Y8.6983 F120.00
G01 X13.4500 Y8.6988 F120.00
G01 X13.4597 Y8.6983 F120.00
G01 X13.4693 Y8.6969 F120.00
G01 X13.4787 Y8.6945 F120.00
G01 X13.4878 Y8.6913 F120.00
G01 X13.4966 Y8.6871 F120.00
G01 X13.5049 Y8.6821 F120.00
G01 X13.5127 Y8.6764 F120.00
G01 X13.5199 Y8.6699 F120.00
G01 X13.5264 Y8.6627 F120.00
G01 X13.5321 Y8.6549 F120.00
G01 X13.5371 Y8.6466 F120.00
G01 X13.5413 Y8.6378 F120.00
G01 X13.5445 Y8.6287 F120.00
G01 X13.5469 Y8.6193 F120.00
G01 X13.5483 Y8.6097 F120.00
G01 X13.5488 Y8.6000 F120.00
G00 X13.5488 Y8.6000
G01 F60.00
G01 Z-0.8000
G01 F120.00
G01 X13.5483 Y8.5903 F120.00
G01 X13.5469 Y8.5807 F120.00
G01 X13.5445 Y8.5713 F120.00
G01 X13.5413 Y8.5622 F120.00
G01 X13.5371 Y8.5534 F120.00
G01 X13.5321 Y8.5451 F120.00
G01 X13.5264 Y8.5373 F120.00
G01 X13.5199 Y8.5301 F120.00
G01 X13.5127 Y8.5236 F120.00
G01 X13.5049 Y8.5179 F120.00
G01 X13.4966 Y8.5129 F120.00
G01 X13.4878 Y8.5087 F120.00
G01 X13.4787 Y8.5055 F120.00
G01 X13.4693 Y8.5031 F120.00
G01 X13.4597 Y8.5017 F120.00
G01 X13.4500 Y8.5012 F120.00
G01 X13.4403 Y8.5017 F120.00
G01 X13.4307 Y8.5031 F120.00
G01 X13.4213 Y8.5055 F120.00
G01 X13.4122 Y8.5087 F120.00
G01 X13.4034 Y8.5129 F120.00
G01 X13.3951 Y8.5179 F120.00
G01 X13.3873 Y8.5236 F120.00
G01 X13.3801 Y8.5301 F120.00
G01 X13.3736 Y8.5373 F120.00
G01 X13.3679 Y8.5451 F120.00
G01 X13.3629 Y8.5534 F120.00
G01 X13.3587 Y8.5622 F120.00
G01 X13.3555 Y8.5713 F120.00
G01 X13.3531 Y8.5807 F120.00
G01 X13.3517 Y8.5903 F120.00
G01 X13.3512 Y8.6000 F120.00
G01 X13.3517 Y8.6097 F120.00
G01 X13.3531 Y8.6193 F120.00
G01 X13.3555 Y8.6287 F120.00
G01 X13.3587 Y8.6378 F120.00
G01 X13.3629 Y8.6466 F120.00
G01 X13.3679 Y8.6549 F120.00
G01 X13.3736 Y8.6627 F120.00
G01 X13.3801 Y8.6699 F120.00
G01 X13.3873 Y8.6764 F120.00
G01 X13.3951 Y8.6821 F120.00
G01 X13.4034 Y8.6871 F120.00
G01 X13.4122 Y8.6913 F120.00
G01 X13.4213 Y8.6945 F120.00
G01 X13.4307 Y8.6969 F120.00
G01 X13.4403 Y8.6983 F120.00
G01 X13.4500 Y8.6988 F120.00
G01 X13.4597 Y8.6983 F120.00
G01 X13.4693 Y8.6969 F120.00
G01 X13.4787 Y8.6945 F120.00
G01 X13.4878 Y8.6913 F120.00
G01 X13.4966 Y8.6871 F120.00
G01 X13.5049 Y8.6821 F120.00
G01 X13.5127 Y8.6764 F120.00
G01 X13.5199 Y8.6699 F120.00
G01 X13.5264 Y8.6627 F120.00
G01 X13.5321 Y8.6549 F120.00
G01 X13.5371 Y8.6466 F120.00
G01 X13.5413 Y8.6378 F120.00
G01 X13.5445 Y8.6287 F120.00
G01 X13.5469 Y8.6193 F120.00
G01 X13.5483 Y8.6097 F120.00
G01 X13.5488 Y8.6000 F120.00
G00 X13.5488 Y8.6000
G01 F60.00
G01 Z-1.2000
G01 F120.00
G01 X13.5483 Y8.5903 F120.00
G01 X13.5469 Y8.5807 F120.00
G01 X13.5445 Y8.5713 F120.00
G01 X13.5413 Y8.5622 F120.00
G01 X13.5371 Y8.5534 F120.00
G01 X13.5321 Y8.5451 F120.00
G01 X13.5264 Y8.5373 F120.00
G01 X13.5199 Y8.5301 F120.00
G01 X13.5127 Y8.5236 F120.00
G01 X13.5049 Y8.5179 F120.00
G01 X13.4966 Y8.5129 F120.00
G01 X13.4878 Y8.5087 F120.00
G01 X13.4787 Y8.5055 F120.00
G01 X13.4693 Y8.5031 F120.00
G01 X13.4597 Y8.5017 F120.00
G01 X13.4500 Y8.5012 F120.00
G01 X13.4403 Y8.5017 F120.00
G01 X13.4307 Y8.5031 F120.00
G01 X13.4213 Y8.5055 F120.00
G01 X13.4122 Y8.5087 F120.00
G01 X13.4034 Y8.5129 F120.00
G01 X13.3951 Y8.5179 F120.00
G01 X13.3873 Y8.5236 F120.00
G01 X13.3801 Y8.5301 F120.00
G01 X13.3736 Y8.5373 F120.00
G01 X13.3679 Y8.5451 F120.00
G01 X13.3629 Y8.5534 F120.00
G01 X13.3587 Y8.5622 F120.00
G01 X13.3555 Y8.5713 F120.00
G01 X13.3531 Y8.5807 F120.00
G01 X13.3517 Y8.5903 F120.00
G01 X13.3512 Y8.6000 F120.00
G01 X13.3517 Y8.6097 F120.00
G01 X13.3531 Y8.6193 F120.00
G01 X13.3555 Y8.6287 F120.00
G01 X13.3587 Y8.6378 F120.00
G01 X13.3629 Y8.6466 F120.00
G01 X13.3679 Y8.6549 F120.00
G01 X13.3736 Y8.6627 F120.00
G01 X13.3801 Y8.6699 F120.00
G01 X13.3873 Y8.6764 F120.00
G01 X13.3951 Y8.6821 F120.00
G01 X13.4034 Y8.6871 F120.00
G01 X13.4122 Y8.6913 F120.00
G01 X13.4213 Y8.6945 F120.00
G01 X13.4307 Y8.6969 F120.00
G01 X13.4403 Y8.6983 F120.00
G01 X13.4500 Y8.6988 F120.00
G01 X13.4597 Y8.6983 F120.00
G01 X13.4693 Y8.6969 F120.00
G01 X13.4787 Y8.6945 F120.00
G01 X13.4878 Y8.6913 F120.00
G01 X13.4966 Y8.6871 F120.00
G01 X13.5049 Y8.6821 F120.00
G01 X13.5127 Y8.6764 F120.00
G01 X13.5199 Y8.6699 F120.00
G01 X13.5264 Y8.6627 F120.00
G01 X13.5321 Y8.6549 F120.00
G01 X13.5371 Y8.6466 F120.00
G01 X13.5413 Y8.6378 F120.00
G01 X13.5445 Y8.6287 F120.00
G01 X13.5469 Y8.6193 F120.00
G01 X13.5483 Y8.6097 F120.00
G01 X13.5488 Y8.6000 F120.00
G00 X13.5488 Y8.6000
G01 F60.00
G01 Z-1.6000
G01 F120.00
G01 X13.5483 Y8.5903 F120.00
G01 X13.5469 Y8.5807 F120.00
G01 X13.5445 Y8.5713 F120.00
G01 X13.5413 Y8.5622 F120.00
G01 X13.5371 Y8.5534 F120.00
G01 X13.5321 Y8.5451 F120.00
G01 X13.5264 Y8.5373 F120.00
G01 X13.5199 Y8.5301 F120.00
G01 X13.5127 Y8.5236 F120.00
G01 X13.5049 Y8.5179 F120.00
G01 X13.4966 Y8.5129 F120.00
G01 X13.4878 Y8.5087 F120.00
G01 X13.4787 Y8.5055 F120.00
G01 X13.4693 Y8.5031 F120.00
G01 X13.4597 Y8.5017 F120.00
G01 X13.4500 Y8.5012 F120.00
G01 X13.4403 Y8.5017 F120.00
G01 X13.4307 Y8.5031 F120.00
G01 X13.4213 Y8.5055 F120.00
G01 X13.4122 Y8.5087 F120.00
G01 X13.4034 Y8.5129 F120.00
G01 X13.3951 Y8.5179 F120.00
G01 X13.3873 Y8.5236 F120.00
G01 X13.3801 Y8.5301 F120.00
G01 X13.3736 Y8.5373 F120.00
G01 X13.3679 Y8.5451 F120.00
G01 X13.3629 Y8.5534 F120.00
G01 X13.3587 Y8.5622 F120.00
G01 X13.3555 Y8.5713 F120.00
G01 X13.3531 Y8.5807 F120.00
G01 X13.3517 Y8.5903 F120.00
G01 X13.3512 Y8.6000 F120.00
G01 X13.3517 Y8.6097 F120.00
G01 X13.3531 Y8.6193 F120.00
G01 X13.3555 Y8.6287 F120.00
G01 X13.3587 Y8.6378 F120.00
G01 X13.3629 Y8.6466 F120.00
G01 X13.3679 Y8.6549 F120.00
G01 X13.3736 Y8.6627 F120.00
G01 X13.3801 Y8.6699 F120.00
G01 X13.3873 Y8.6764 F120.00
G01 X13.3951 Y8.6821 F120.00
G01 X13.4034 Y8.6871 F120.00
G01 X13.4122 Y8.6913 F120.00
G01 X13.4213 Y8.6945 F120.00
G01 X13.4307 Y8.6969 F120.00
G01 X13.4403 Y8.6983 F120.00
G01 X13.4500 Y8.6988 F120.00
G01 X13.4597 Y8.6983 F120.00
G01 X13.4693 Y8.6969 F120.00
G01 X13.4787 Y8.6945 F120.00
G01 X13.4878 Y8.6913 F120.00
G01 X13.4966 Y8.6871 F120.00
G01 X13.5049 Y8.6821 F120.00
G01 X13.5127 Y8.6764 F120.00
G01 X13.5199 Y8.6699 F120.00
G01 X13.5264 Y8.6627 F120.00
G01 X13.5321 Y8.6549 F120.00
G01 X13.5371 Y8.6466 F120.00
G01 X13.5413 Y8.6378 F120.00
G01 X13.5445 Y8.6287 F120.00
G01 X13.5469 Y8.6193 F120.00
G01 X13.5483 Y8.6097 F120.00
G01 X13.5488 Y8.6000 F120.00
G00 X13.5488 Y8.6000
G01 F60.00
G01 Z-2.0000
G01 F120.00
G01 X13.5483 Y8.5903 F120.00
G01 X13.5469 Y8.5807 F120.00
G01 X13.5445 Y8.5713 F120.00
G01 X13.5413 Y8.5622 F120.00
G01 X13.5371 Y8.5534 F120.00
G01 X13.5321 Y8.5451 F120.00
G01 X13.5264 Y8.5373 F120.00
G01 X13.5199 Y8.5301 F120.00
G01 X13.5127 Y8.5236 F120.00
G01 X13.5049 Y8.5179 F120.00
G01 X13.4966 Y8.5129 F120.00
G01 X13.4878 Y8.5087 F120.00
G01 X13.4787 Y8.5055 F120.00
G01 X13.4693 Y8.5031 F120.00
G01 X13.4597 Y8.5017 F120.00
G01 X13.4500 Y8.5012 F120.00
G01 X13.4403 Y8.5017 F120.00
G01 X13.4307 Y8.5031 F120.00
G01 X13.4213 Y8.5055 F120.00
G01 X13.4122 Y8.5087 F120.00
G01 X13.4034 Y8.5129 F120.00
G01 X13.3951 Y8.5179 F120.00
G01 X13.3873 Y8.5236 F120.00
G01 X13.3801 Y8.5301 F120.00
G01 X13.3736 Y8.5373 F120.00
G01 X13.3679 Y8.5451 F120.00
G01 X13.3629 Y8.5534 F120.00
G01 X13.3587 Y8.5622 F120.00
G01 X13.3555 Y8.5713 F120.00
G01 X13.3531 Y8.5807 F120.00
G01 X13.3517 Y8.5903 F120.00
G01 X13.3512 Y8.6000 F120.00
G01 X13.3517 Y8.6097 F120.00
G01 X13.3531 Y8.6193 F120.00
G01 X13.3555 Y8.6287 F120.00
G01 X13.3587 Y8.6378 F120.00
G01 X13.3629 Y8.6466 F120.00
G01 X13.3679 Y8.6549 F120.00
G01 X13.3736 Y8.6627 F120.00
G01 X13.3801 Y8.6699 F120.00
G01 X13.3873 Y8.6764 F120.00
G01 X13.3951 Y8.6821 F120.00
G01 X13.4034 Y8.6871 F120.00
G01 X13.4122 Y8.6913 F120.00
G01 X13.4213 Y8.6945 F120.00
G01 X13.4307 Y8.6969 F120.00
G01 X13.4403 Y8.6983 F120.00
G01 X13.4500 Y8.6988 F120.00
G01 X13.4597 Y8.6983 F120.00
G01 X13.4693 Y8.6969 F120.00
G01 X13.4787 Y8.6945 F120.00
G01 X13.4878 Y8.6913 F120.00
G01 X13.4966 Y8.6871 F120.00
G01 X13.5049 Y8.6821 F120.00
G01 X13.5127 Y8.6764 F120.00
G01 X13.5199 Y8.6699 F120.00
G01 X13.5264 Y8.6627 F120.00
G01 X13.5321 Y8.6549 F120.00
G01 X13.5371 Y8.6466 F120.00
G01 X13.5413 Y8.6378 F120.00
G01 X13.5445 Y8.6287 F120.00
G01 X13.5469 Y8.6193 F120.00
G01 X13.5483 Y8.6097 F120.00
G01 X13.5488 Y8.6000 F120.00
G00 X13.5488 Y8.6000
G01 F60.00
G01 Z-2.4000
G01 F120.00
G01 X13.5483 Y8.5903 F120.00
G01 X13.5469 Y8.5807 F120.00
G01 X13.5445 Y8.5713 F120.00
G01 X13.5413 Y8.5622 F120.00
G01 X13.5371 Y8.5534 F120.00
G01 X13.5321 Y8.5451 F120.00
G01 X13.5264 Y8.5373 F120.00
G01 X13.5199 Y8.5301 F120.00
G01 X13.5127 Y8.5236 F120.00
G01 X13.5049 Y8.5179 F120.00
G01 X13.4966 Y8.5129 F120.00
G01 X13.4878 Y8.5087 F120.00
G01 X13.4787 Y8.5055 F120.00
G01 X13.4693 Y8.5031 F120.00
G01 X13.4597 Y8.5017 F120.00
G01 X13.4500 Y8.5012 F120.00
G01 X13.4403 Y8.5017 F120.00
G01 X13.4307 Y8.5031 F120.00
G01 X13.4213 Y8.5055 F120.00
G01 X13.4122 Y8.5087 F120.00
G01 X13.4034 Y8.5129 F120.00
G01 X13.3951 Y8.5179 F120.00
G01 X13.3873 Y8.5236 F120.00
G01 X13.3801 Y8.5301 F120.00
G01 X13.3736 Y8.5373 F120.00
G01 X13.3679 Y8.5451 F120.00
G01 X13.3629 Y8.5534 F120.00
G01 X13.3587 Y8.5622 F120.00
G01 X13.3555 Y8.5713 F120.00
G01 X13.3531 Y8.5807 F120.00
G01 X13.3517 Y8.5903 F120.00
G01 X13.3512 Y8.6000 F120.00
G01 X13.3517 Y8.6097 F120.00
G01 X13.3531 Y8.6193 F120.00
G01 X13.3555 Y8.6287 F120.00
G01 X13.3587 Y8.6378 F120.00
G01 X13.3629 Y8.6466 F120.00
G01 X13.3679 Y8.6549 F120.00
G01 X13.3736 Y8.6627 F120.00
G01 X13.3801 Y8.6699 F120.00
G01 X13.3873 Y8.6764 F120.00
G01 X13.3951 Y8.6821 F120.00
G01 X13.4034 Y8.6871 F120.00
G01 X13.4122 Y8.6913 F120.00
G01 X13.4213 Y8.6945 F120.00
G01 X13.4307 Y8.6969 F120.00
G01 X13.4403 Y8.6983 F120.00
G01 X13.4500 Y8.6988 F120.00
G01 X13.4597 Y8.6983 F120.00
G01 X13.4693 Y8.6969 F120.00
G01 X13.4787 Y8.6945 F120.00
G01 X13.4878 Y8.6913 F120.00
G01 X13.4966 Y8.6871 F120.00
G01 X13.5049 Y8.6821 F120.00
G01 X13.5127 Y8.6764 F120.00
G01 X13.5199 Y8.6699 F120.00
G01 X13.5264 Y8.6627 F120.00
G01 X13.5321 Y8.6549 F120.00
G01 X13.5371 Y8.6466 F120.00
G01 X13.5413 Y8.6378 F120.00
G01 X13.5445 Y8.6287 F120.00
G01 X13.5469 Y8.6193 F120.00
G01 X13.5483 Y8.6097 F120.00
G01 X13.5488 Y8.6000 F120.00
G00 Z2.0000
G00 X13.5488 Y17.4000
G01 F60.00
G01 Z-0.4000
G01 F120.00
G01 X13.5483 Y17.3903 F120.00
G01 X13.5469 Y17.3807 F120.00
G01 X13.5445 Y17.3713 F120.00
G01 X13.5413 Y17.3622 F120.00
G01 X13.5371 Y17.3534 F120.00
G01 X13.5321 Y17.3451 F120.00
G01 X13.5264 Y17.3373 F120.00
G01 X13.5199 Y17.3301 F120.00
G01 X13.5127 Y17.3236 F120.00
G01 X13.5049 Y17.3179 F120.00
G01 X13.4966 Y17.3129 F120.00
G01 X13.4878 Y17.3087 F120.00
G01 X13.4787 Y17.3055 F120.00
G01 X13.4693 Y17.3031 F120.00
G01 X13.4597 Y17.3017 F120.00
G01 X13.4500 Y17.3012 F120.00
G01 X13.4403 Y17.3017 F120.00
G01 X13.4307 Y17.3031 F120.00
G01 X13.4213 Y17.3055 F120.00
G01 X13.4122 Y17.3087 F120.00
G01 X13.4034 Y17.3129 F120.00
G01 X13.3951 Y17.3179 F120.00
G01 X13.3873 Y17.3236 F120.00
G01 X13.3801 Y17.3301 F120.00
G01 X13.3736 Y17.3373 F120.00
G01 X13.3679 Y17.3451 F120.00
G01 X13.3629 Y17.3534 F120.00
G01 X13.3587 Y17.3622 F120.00
G01 X13.3555 Y17.3713 F120.00
G01 X13.3531 Y17.3807 F120.00
G01 X13.3517 Y17.3903 F120.00
G01 X13.3512 Y17.4000 F120.00
G01 X13.3517 Y17.4097 F120.00
G01 X13.3531 Y17.4193 F120.00
G01 X13.3555 Y17.4287 F120.00
G01 X13.3587 Y17.4378 F120.00
G01 X13.3629 Y17.4466 F120.00
G01 X13.3679 Y17.4549 F120.00
G01 X13.3736 Y17.4627 F120.00
G01 X13.3801 Y17.4699 F120.00
G01 X13.3873 Y17.4764 F120.00
G01 X13.3951 Y17.4821 F120.00
G01 X13.4034 Y17.4871 F120.00
G01 X13.4122 Y17.4913 F120.00
G01 X13.4213 Y17.4945 F120.00
G01 X13.4307 Y17.4969 F120.00
G01 X13.4403 Y17.4983 F120.00
G01 X13.4500 Y17.4988 F120.00
G01 X13.4597 Y17.4983 F120.00
G01 X13.4693 Y17.4969 F120.00
G01 X13.4787 Y17.4945 F120.00
G01 X13.4878 Y17.4913 F120.00
G01 X13.4966 Y17.4871 F120.00
G01 X13.5049 Y17.4821 F120.00
G01 X13.5127 Y17.4764 F120.00
G01 X13.5199 Y17.4699 F120.00
G01 X13.5264 Y17.4627 F120.00
G01 X13.5321 Y17.4549 F120.00
G01 X13.5371 Y17.4466 F120.00
G01 X13.5413 Y17.4378 F120.00
G01 X13.5445 Y17.4287 F120.00
G01 X13.5469 Y17.4193 F120.00
G01 X13.5483 Y17.4097 F120.00
G01 X13.5488 Y17.4000 F120.00
G00 X13.5488 Y17.4000
G01 F60.00
G01 Z-0.8000
G01 F120.00
G01 X13.5483 Y17.3903 F120.00
G01 X13.5469 Y17.3807 F120.00
G01 X13.5445 Y17.3713 F120.00
G01 X13.5413 Y17.3622 F120.00
G01 X13.5371 Y17.3534 F120.00
G01 X13.5321 Y17.3451 F120.00
G01 X13.5264 Y17.3373 F120.00
G01 X13.5199 Y17.3301 F120.00
G01 X13.5127 Y17.3236 F120.00
G01 X13.5049 Y17.3179 F120.00
G01 X13.4966 Y17.3129 F120.00
G01 X13.4878 Y17.3087 F120.00
G01 X13.4787 Y17.3055 F120.00
G01 X13.4693 Y17.3031 F120.00
G01 X13.4597 Y17.3017 F120.00
G01 X13.4500 Y17.3012 F120.00
G01 X13.4403 Y17.3017 F120.00
G01 X13.4307 Y17.3031 F120.00
G01 X13.4213 Y17.3055 F120.00
G01 X13.4122 Y17.3087 F120.00
G01 X13.4034 Y17.3129 F120.00
G01 X13.3951 Y17.3179 F120.00
G01 X13.3873 Y17.3236 F120.00
G01 X13.3801 Y17.3301 F120.00
G01 X13.3736 Y17.3373 F120.00
G01 X13.3679 Y17.3451 F120.00
G01 X13.3629 Y17.3534 F120.00
G01 X13.3587 Y17.3622 F120.00
G01 X13.3555 Y17.3713 F120.00
G01 X13.3531 Y17.3807 F120.00
G01 X13.3517 Y17.3903 F120.00
G01 X13.3512 Y17.4000 F120.00
G01 X13.3517 Y17.4097 F120.00
G01 X13.3531 Y17.4193 F120.00
G01 X13.3555 Y17.4287 F120.00
G01 X13.3587 Y17.4378 F120.00
G01 X13.3629 Y17.4466 F120.00
G01 X13.3679 Y17.4549 F120.00
G01 X13.3736 Y17.4627 F120.00
G01 X13.3801 Y17.4699 F120.00
G01 X13.3873 Y17.4764 F120.00
G01 X13.3951 Y17.4821 F120.00
G01 X13.4034 Y17.4871 F120.00
G01 X13.4122 Y17.4913 F120.00
G01 X13.4213 Y17.4945 F120.00
G01 X13.4307 Y17.4969 F120.00
G01 X13.4403 Y17.4983 F120.00
G01 X13.4500 Y17.4988 F120.00
G01 X13.4597 Y17.4983 F120.00
G01 X13.4693 Y17.4969 F120.00
G01 X13.4787 Y17.4945 F120.00
G01 X13.4878 Y17.4913 F120.00
G01 X13.4966 Y17.4871 F120.00
G01 X13.5049 Y17.4821 F120.00
G01 X13.5127 Y17.4764 F120.00
G01 X13.5199 Y17.4699 F120.00
G01 X13.5264 Y17.4627 F120.00
G01 X13.5321 Y17.4549 F120.00
G01 X13.5371 Y17.4466 F120.00
G01 X13.5413 Y17.4378 F120.00
G01 X13.5445 Y17.4287 F120.00
G01 X13.5469 Y17.4193 F120.00
G01 X13.5483 Y17.4097 F120.00
G01 X13.5488 Y17.4000 F120.00
G00 X13.5488 Y17.4000
G01 F60.00
G01 Z-1.2000
G01 F120.00
G01 X13.5483 Y17.3903 F120.00
G01 X13.5469 Y17.3807 F120.00
G01 X13.5445 Y17.3713 F120.00
G01 X13.5413 Y17.3622 F120.00
G01 X13.5371 Y17.3534 F120.00
G01 X13.5321 Y17.3451 F120.00
G01 X13.5264 Y17.3373 F120.00
G01 X13.5199 Y17.3301 F120.00
G01 X13.5127 Y17.3236 F120.00
G01 X13.5049 Y17.3179 F120.00
G01 X13.4966 Y17.3129 F120.00
G01 X13.4878 Y17.3087 F120.00
G01 X13.4787 Y17.3055 F120.00
G01 X13.4693 Y17.3031 F120.00
G01 X13.4597 Y17.3017 F120.00
G01 X13.4500 Y17.3012 F120.00
G01 X13.4403 Y17.3017 F120.00
G01 X13.4307 Y17.3031 F120.00
G01 X13.4213 Y17.3055 F120.00
G01 X13.4122 Y17.3087 F120.00
G01 X13.4034 Y17.3129 F120.00
G01 X13.3951 Y17.3179 F120.00
G01 X13.3873 Y17.3236 F120.00
G01 X13.3801 Y17.3301 F120.00
G01 X13.3736 Y17.3373 F120.00
G01 X13.3679 Y17.3451 F120.00
G01 X13.3629 Y17.3534 F120.00
G01 X13.3587 Y17.3622 F120.00
G01 X13.3555 Y17.3713 F120.00
G01 X13.3531 Y17.3807 F120.00
G01 X13.3517 Y17.3903 F120.00
G01 X13.3512 Y17.4000 F120.00
G01 X13.3517 Y17.4097 F120.00
G01 X13.3531 Y17.4193 F120.00
G01 X13.3555 Y17.4287 F120.00
G01 X13.3587 Y17.4378 F120.00
G01 X13.3629 Y17.4466 F120.00
G01 X13.3679 Y17.4549 F120.00
G01 X13.3736 Y17.4627 F120.00
G01 X13.3801 Y17.4699 F120.00
G01 X13.3873 Y17.4764 F120.00
G01 X13.3951 Y17.4821 F120.00
G01 X13.4034 Y17.4871 F120.00
G01 X13.4122 Y17.4913 F120.00
G01 X13.4213 Y17.4945 F120.00
G01 X13.4307 Y17.4969 F120.00
G01 X13.4403 Y17.4983 F120.00
G01 X13.4500 Y17.4988 F120.00
G01 X13.4597 Y17.4983 F120.00
G01 X13.4693 Y17.4969 F120.00
G01 X13.4787 Y17.4945 F120.00
G01 X13.4878 Y17.4913 F120.00
G01 X13.4966 Y17.4871 F120.00
G01 X13.5049 Y17.4821 F120.00
G01 X13.5127 Y17.4764 F120.00
G01 X13.5199 Y17.4699 F120.00
G01 X13.5264 Y17.4627 F120.00
G01 X13.5321 Y17.4549 F120.00
G01 X13.5371 Y17.4466 F120.00
G01 X13.5413 Y17.4378 F120.00
G01 X13.5445 Y17.4287 F120.00
G01 X13.5469 Y17.4193 F120.00
G01 X13.5483 Y17.4097 F120.00
G01 X13.5488 Y17.4000 F120.00
G00 X13.5488 Y17.4000
G01 F60.00
G01 Z-1.6000
G01 F120.00
G01 X13.5483 Y17.3903 F120.00
G01 X13.5469 Y17.3807 F120.00
G01 X13.5445 Y17.3713 F120.00
G01 X13.5413 Y17.3622 F120.00
G01 X13.5371 Y17.3534 F120.00
G01 X13.5321 Y17.3451 F120.00
G01 X13.5264 Y17.3373 F120.00
G01 X13.5199 Y17.3301 F120.00
G01 X13.5127 Y17.3236 F120.00
G01 X13.5049 Y17.3179 F120.00
G01 X13.4966 Y17.3129 F120.00
G01 X13.4878 Y17.3087 F120.00
G01 X13.4787 Y17.3055 F120.00
G01 X13.4693 Y17.3031 F120.00
G01 X13.4597 Y17.3017 F120.00
G01 X13.4500 Y17.3012 F120.00
G01 X13.4403 Y17.3017 F120.00
G01 X13.4307 Y17.3031 F120.00
G01 X13.4213 Y17.3055 F120.00
G01 X13.4122 Y17.3087 F120.00
G01 X13.4034 Y17.3129 F120.00
G01 X13.3951 Y17.3179 F120.00
G01 X13.3873 Y17.3236 F120.00
G01 X13.3801 Y17.3301 F120.00
G01 X13.3736 Y17.3373 F120.00
G01 X13.3679 Y17.3451 F120.00
G01 X13.3629 Y17.3534 F120.00
G01 X13.3587 Y17.3622 F120.00
G01 X13.3555 Y17.3713 F120.00
G01 X13.3531 Y17.3807 F120.00
G01 X13.3517 Y17.3903 F120.00
G01 X13.3512 Y17.4000 F120.00
G01 X13.3517 Y17.4097 F120.00
G01 X13.3531 Y17.4193 F120.00
G01 X13.3555 Y17.4287 F120.00
G01 X13.3587 Y17.4378 F120.00
G01 X13.3629 Y17.4466 F120.00
G01 X13.3679 Y17.4549 F120.00
G01 X13.3736 Y17.4627 F120.00
G01 X13.3801 Y17.4699 F120.00
G01 X13.3873 Y17.4764 F120.00
G01 X13.3951 Y17.4821 F120.00
G01 X13.4034 Y17.4871 F120.00
G01 X13.4122 Y17.4913 F120.00
G01 X13.4213 Y17.4945 F120.00
G01 X13.4307 Y17.4969 F120.00
G01 X13.4403 Y17.4983 F120.00
G01 X13.4500 Y17.4988 F120.00
G01 X13.4597 Y17.4983 F120.00
G01 X13.4693 Y17.4969 F120.00
G01 X13.4787 Y17.4945 F120.00
G01 X13.4878 Y17.4913 F120.00
G01 X13.4966 Y17.4871 F120.00
G01 X13.5049 Y17.4821 F120.00
G01 X13.5127 Y17.4764 F120.00
G01 X13.5199 Y17.4699 F120.00
G01 X13.5264 Y17.4627 F120.00
G01 X13.5321 Y17.4549 F120.00
G01 X13.5371 Y17.4466 F120.00
G01 X13.5413 Y17.4378 F120.00
G01 X13.5445 Y17.4287 F120.00
G01 X13.5469 Y17.4193 F120.00
G01 X13.5483 Y17.4097 F120.00
G01 X13.5488 Y17.4000 F120.00
G00 X13.5488 Y17.4000
G01 F60.00
G01 Z-2.0000
G01 F120.00
G01 X13.5483 Y17.3903 F120.00
G01 X13.5469 Y17.3807 F120.00
G01 X13.5445 Y17.3713 F120.00
G01 X13.5413 Y17.3622 F120.00
G01 X13.5371 Y17.3534 F120.00
G01 X13.5321 Y17.3451 F120.00
G01 X13.5264 Y17.3373 F120.00
G01 X13.5199 Y17.3301 F120.00
G01 X13.5127 Y17.3236 F120.00
G01 X13.5049 Y17.3179 F120.00
G01 X13.4966 Y17.3129 F120.00
G01 X13.4878 Y17.3087 F120.00
G01 X13.4787 Y17.3055 F120.00
G01 X13.4693 Y17.3031 F120.00
G01 X13.4597 Y17.3017 F120.00
G01 X13.4500 Y17.3012 F120.00
G01 X13.4403 Y17.3017 F120.00
G01 X13.4307 Y17.3031 F120.00
G01 X13.4213 Y17.3055 F120.00
G01 X13.4122 Y17.3087 F120.00
G01 X13.4034 Y17.3129 F120.00
G01 X13.3951 Y17.3179 F120.00
G01 X13.3873 Y17.3236 F120.00
G01 X13.3801 Y17.3301 F120.00
G01 X13.3736 Y17.3373 F120.00
G01 X13.3679 Y17.3451 F120.00
G01 X13.3629 Y17.3534 F120.00
G01 X13.3587 Y17.3622 F120.00
G01 X13.3555 Y17.3713 F120.00
G01 X13.3531 Y17.3807 F120.00
G01 X13.3517 Y17.3903 F120.00
G01 X13.3512 Y17.4000 F120.00
G01 X13.3517 Y17.4097 F120.00
G01 X13.3531 Y17.4193 F120.00
G01 X13.3555 Y17.4287 F120.00
G01 X13.3587 Y17.4378 F120.00
G01 X13.3629 Y17.4466 F120.00
G01 X13.3679 Y17.4549 F120.00
G01 X13.3736 Y17.4627 F120.00
G01 X13.3801 Y17.4699 F120.00
G01 X13.3873 Y17.4764 F120.00
G01 X13.3951 Y17.4821 F120.00
G01 X13.4034 Y17.4871 F120.00
G01 X13.4122 Y17.4913 F120.00
G01 X13.4213 Y17.4945 F120.00
G01 X13.4307 Y17.4969 F120.00
G01 X13.4403 Y17.4983 F120.00
G01 X13.4500 Y17.4988 F120.00
G01 X13.4597 Y17.4983 F120.00
G01 X13.4693 Y17.4969 F120.00
G01 X13.4787 Y17.4945 F120.00
G01 X13.4878 Y17.4913 F120.00
G01 X13.4966 Y17.4871 F120.00
G01 X13.5049 Y17.4821 F120.00
G01 X13.5127 Y17.4764 F120.00
G01 X13.5199 Y17.4699 F120.00
G01 X13.5264 Y17.4627 F120.00
G01 X13.5321 Y17.4549 F120.00
G01 X13.5371 Y17.4466 F120.00
G01 X13.5413 Y17.4378 F120.00
G01 X13.5445 Y17.4287 F120.00
G01 X13.5469 Y17.4193 F120.00
G01 X13.5483 Y17.4097 F120.00
G01 X13.5488 Y17.4000 F120.00
G00 X13.5488 Y17.4000
G01 F60.00
G01 Z-2.4000
G01 F120.00
G01 X13.5483 Y17.3903 F120.00
G01 X13.5469 Y17.3807 F120.00
G01 X13.5445 Y17.3713 F120.00
G01 X13.5413 Y17.3622 F120.00
G01 X13.5371 Y17.3534 F120.00
G01 X13.5321 Y17.3451 F120.00
G01 X13.5264 Y17.3373 F120.00
G01 X13.5199 Y17.3301 F120.00
G01 X13.5127 Y17.3236 F120.00
G01 X13.5049 Y17.3179 F120.00
G01 X13.4966 Y17.3129 F120.00
G01 X13.4878 Y17.3087 F120.00
G01 X13.4787 Y17.3055 F120.00
G01 X13.4693 Y17.3031 F120.00
G01 X13.4597 Y17.3017 F120.00
G01 X13.4500 Y17.3012 F120.00
G01 X13.4403 Y17.3017 F120.00
G01 X13.4307 Y17.3031 F120.00
G01 X13.4213 Y17.3055 F120.00
G01 X13.4122 Y17.3087 F120.00
G01 X13.4034 Y17.3129 F120.00
G01 X13.3951 Y17.3179 F120.00
G01 X13.3873 Y17.3236 F120.00
G01 X13.3801 Y17.3301 F120.00
G01 X13.3736 Y17.3373 F120.00
G01 X13.3679 Y17.3451 F120.00
G01 X13.3629 Y17.3534 F120.00
G01 X13.3587 Y17.3622 F120.00
G01 X13.3555 Y17.3713 F120.00
G01 X13.3531 Y17.3807 F120.00
G01 X13.3517 Y17.3903 F120.00
G01 X13.3512 Y17.4000 F120.00
G01 X13.3517 Y17.4097 F120.00
G01 X13.3531 Y17.4193 F120.00
G01 X13.3555 Y17.4287 F120.00
G01 X13.3587 Y17.4378 F120.00
G01 X13.3629 Y17.4466 F120.00
G01 X13.3679 Y17.4549 F120.00
G01 X13.3736 Y17.4627 F120.00
G01 X13.3801 Y17.4699 F120.00
G01 X13.3873 Y17.4764 F120.00
G01 X13.3951 Y17.4821 F120.00
G01 X13.4034 Y17.4871 F120.00
G01 X13.4122 Y17.4913 F120.00
G01 X13.4213 Y17.4945 F120.00
G01 X13.4307 Y17.4969 F120.00
G01 X13.4403 Y17.4983 F120.00
G01 X13.4500 Y17.4988 F120.00
G01 X13.4597 Y17.4983 F120.00
G01 X13.4693 Y17.4969 F120.00
G01 X13.4787 Y17.4945 F120.00
G01 X13.4878 Y17.4913 F120.00
G01 X13.4966 Y17.4871 F120.00
G01 X13.5049 Y17.4821 F120.00
G01 X13.5127 Y17.4764 F120.00
G01 X13.5199 Y17.4699 F120.00
G01 X13.5264 Y17.4627 F120.00
G01 X13.5321 Y17.4549 F120.00
G01 X13.5371 Y17.4466 F120.00
G01 X13.5413 Y17.4378 F120.00
G01 X13.5445 Y17.4287 F120.00
G01 X13.5469 Y17.4193 F120.00
G01 X13.5483 Y17.4097 F120.00
G01 X13.5488 Y17.4000 F120.00
G00 Z2.0000
G00 X27.8488 Y13.0000
G01 F60.00
G01 Z-0.4000
G01 F120.00
G01 X27.8459 Y12.9413 F120.00
G01 X27.8373 Y12.8832 F120.00
G01 X27.8230 Y12.8262 F120.00
G01 X27.8032 Y12.7709 F120.00
G01 X27.7781 Y12.7177 F120.00
G01 X27.7479 Y12.6673 F120.00
G01 X27.7129 Y12.6201 F120.00
G01 X27.6734 Y12.5766 F120.00
G01 X27.6299 Y12.5371 F120.00
G01 X27.5827 Y12.5021 F120.00
G01 X27.5323 Y12.4719 F120.00
G01 X27.4791 Y12.4468 F120.00
G01 X27.4238 Y12.4270 F120.00
G01 X27.3668 Y12.4127 F120.00
G01 X27.3087 Y12.4041 F120.00
G01 X27.2500 Y12.4012 F120.00
G01 X27.1913 Y12.4041 F120.00
G01 X27.1332 Y12.4127 F120.00
G01 X27.0762 Y12.4270 F120.00
G01 X27.0209 Y12.4468 F120.00
G01 X26.9677 Y12.4719 F120.00
G01 X26.9173 Y12.5021 F120.00
G01 X26.8701 Y12.5371 F120.00
G01 X26.8266 Y12.5766 F120.00
G01 X26.7871 Y12.6201 F120.00
G01 X26.7521 Y12.6673 F120.00
G01 X26.7219 Y12.7177 F120.00
G01 X26.6968 Y12.7709 F120.00
G01 X26.6770 Y12.8262 F120.00
G01 X26.6627 Y12.8832 F120.00
G01 X26.6541 Y12.9413 F120.00
G01 X26.6512 Y13.0000 F120.00
G01 X26.6541 Y13.0587 F120.00
G01 X26.6627 Y13.1168 F120.00
G01 X26.6770 Y13.1738 F120.00
G01 X26.6968 Y13.2291 F120.00
G01 X26.7219 Y13.2823 F120.00
G01 X26.7521 Y13.3327 F120.00
G01 X26.7871 Y13.3799 F120.00
G01 X26.8266 Y13.4234 F120.00
G01 X26.8701 Y13.4629 F120.00
G01 X26.9173 Y13.4979 F120.00
G01 X26.9677 Y13.5281 F120.00
G01 X27.0209 Y13.5532 F120.00
G01 X27.0762 Y13.5730 F120.00
G01 X27.1332 Y13.5873 F120.00
G01 X27.1913 Y13.5959 F120.00
G01 X27.2500 Y13.5988 F120.00
G01 X27.3087 Y13.5959 F120.00
G01 X27.3668 Y13.5873 F120.00
G01 X27.4238 Y13.5730 F120.00
G01 X27.4791 Y13.5532 F120.00
G01 X27.5323 Y13.5281 F120.00
G01 X27.5827 Y13.4979 F120.00
G01 X27.6299 Y13.4629 F120.00
G01 X27.6734 Y13.4234 F120.00
G01 X27.7129 Y13.3799 F120.00
G01 X27.7479 Y13.3327 F120.00
G01 X27.7781 Y13.2823 F120.00
G01 X27.8032 Y13.2291 F120.00
G01 X27.8230 Y13.1738 F120.00
G01 X27.8373 Y13.1168 F120.00
G01 X27.8459 Y13.0587 F120.00
G01 X27.8488 Y13.0000 F120.00
G00 X27.8488 Y13.0000
G01 F60.00
G01 Z-0.8000
G01 F120.00
G01 X27.8459 Y12.9413 F120.00
G01 X27.8373 Y12.8832 F120.00
G01 X27.8230 Y12.8262 F120.00
G01 X27.8032 Y12.7709 F120.00
G01 X27.7781 Y12.7177 F120.00
G01 X27.7479 Y12.6673 F120.00
G01 X27.7129 Y12.6201 F120.00
G01 X27.6734 Y12.5766 F120.00
G01 X27.6299 Y12.5371 F120.00
G01 X27.5827 Y12.5021 F120.00
G01 X27.5323 Y12.4719 F120.00
G01 X27.4791 Y12.4468 F120.00
G01 X27.4238 Y12.4270 F120.00
G01 X27.3668 Y12.4127 F120.00
G01 X27.3087 Y12.4041 F120.00
G01 X27.2500 Y12.4012 F120.00
G01 X27.1913 Y12.4041 F120.00
G01 X27.1332 Y12.4127 F120.00
G01 X27.0762 Y12.4270 F120.00
G01 X27.0209 Y12.4468 F120.00
G01 X26.9677 Y12.4719 F120.00
G01 X26.9173 Y12.5021 F120.00
G01 X26.8701 Y12.5371 F120.00
G01 X26.8266 Y12.5766 F120.00
G01 X26.7871 Y12.6201 F120.00
G01 X26.7521 Y12.6673 F120.00
G01 X26.7219 Y12.7177 F120.00
G01 X26.6968 Y12.7709 F120.00
G01 X26.6770 Y12.8262 F120.00
G01 X26.6627 Y12.8832 F120.00
G01 X26.6541 Y12.9413 F120.00
G01 X26.6512 Y13.0000 F120.00
G01 X26.6541 Y13.0587 F120.00
G01 X26.6627 Y13.1168 F120.00
G01 X26.6770 Y13.1738 F120.00
G01 X26.6968 Y13.2291 F120.00
G01 X26.7219 Y13.2823 F120.00
G01 X26.7521 Y13.3327 F120.00
G01 X26.7871 Y13.3799 F120.00
G01 X26.8266 Y13.4234 F120.00
G01 X26.8701 Y13.4629 F120.00
G01 X26.9173 Y13.4979 F120.00
G01 X26.9677 Y13.5281 F120.00
G01 X27.0209 Y13.5532 F120.00
G01 X27.0762 Y13.5730 F120.00
G01 X27.1332 Y13.5873 F120.00
G01 X27.1913 Y13.5959 F120.00
G01 X27.2500 Y13.5988 F120.00
G01 X27.3087 Y13.5959 F120.00
G01 X27.3668 Y13.5873 F120.00
G01 X27.4238 Y13.5730 F120.00
G01 X27.4791 Y13.5532 F120.00
G01 X27.5323 Y13.5281 F120.00
G01 X27.5827 Y13.4979 F120.00
G01 X27.6299 Y13.4629 F120.00
G01 X27.6734 Y13.4234 F120.00
G01 X27.7129 Y13.3799 F120.00
G01 X27.7479 Y13.3327 F120.00
G01 X27.7781 Y13.2823 F120.00
G01 X27.8032 Y13.2291 F120.00
G01 X27.8230 Y13.1738 F120.00
G01 X27.8373 Y13.1168 F120.00
G01 X27.8459 Y13.0587 F120.00
G01 X27.8488 Y13.0000 F120.00
G00 X27.8488 Y13.0000
G01 F60.00
G01 Z-1.2000
G01 F120.00
G01 X27.8459 Y12.9413 F120.00
G01 X27.8373 Y12.8832 F120.00
G01 X27.8230 Y12.8262 F120.00
G01 X27.8032 Y12.7709 F120.00
G01 X27.7781 Y12.7177 F120.00
G01 X27.7479 Y12.6673 F120.00
G01 X27.7129 Y12.6201 F120.00
G01 X27.6734 Y12.5766 F120.00
G01 X27.6299 Y12.5371 F120.00
G01 X27.5827 Y12.5021 F120.00
G01 X27.5323 Y12.4719 F120.00
G01 X27.4791 Y12.4468 F120.00
G01 X27.4238 Y12.4270 F120.00
G01 X27.3668 Y12.4127 F120.00
G01 X27.3087 Y12.4041 F120.00
G01 X27.2500 Y12.4012 F120.00
G01 X27.1913 Y12.4041 F120.00
G01 X27.1332 Y12.4127 F120.00
G01 X27.0762 Y12.4270 F120.00
G01 X27.0209 Y12.4468 F120.00
G01 X26.9677 Y12.4719 F120.00
G01 X26.9173 Y12.5021 F120.00
G01 X26.8701 Y12.5371 F120.00
G01 X26.8266 Y12.5766 F120.00
G01 X26.7871 Y12.6201 F120.00
G01 X26.7521 Y12.6673 F120.00
G01 X26.7219 Y12.7177 F120.00
G01 X26.6968 Y12.7709 F120.00
G01 X26.6770 Y12.8262 F120.00
G01 X26.6627 Y12.8832 F120.00
G01 X26.6541 Y12.9413 F120.00
G01 X26.6512 Y13.0000 F120.00
G01 X26.6541 Y13.0587 F120.00
G01 X26.6627 Y13.1168 F120.00
G01 X26.6770 Y13.1738 F120.00
G01 X26.6968 Y13.2291 F120.00
G01 X26.7219 Y13.2823 F120.00
G01 X26.7521 Y13.3327 F120.00
G01 X26.7871 Y13.3799 F120.00
G01 X26.8266 Y13.4234 F120.00
G01 X26.8701 Y13.4629 F120.00
G01 X26.9173 Y13.4979 F120.00
G01 X26.9677 Y13.5281 F120.00
G01 X27.0209 Y13.5532 F120.00
G01 X27.0762 Y13.5730 F120.00
G01 X27.1332 Y13.5873 F120.00
G01 X27.1913 Y13.5959 F120.00
G01 X27.2500 Y13.5988 F120.00
G01 X27.3087 Y13.5959 F120.00
G01 X27.3668 Y13.5873 F120.00
G01 X27.4238 Y13.5730 F120.00
G01 X27.4791 Y13.5532 F120.00
G01 X27.5323 Y13.5281 F120.00
G01 X27.5827 Y13.4979 F120.00
G01 X27.6299 Y13.4629 F120.00
G01 X27.6734 Y13.4234 F120.00
G01 X27.7129 Y13.3799 F120.00
G01 X27.7479 Y13.3327 F120.00
G01 X27.7781 Y13.2823 F120.00
G01 X27.8032 Y13.2291 F120.00
G01 X27.8230 Y13.1738 F120.00
G01 X27.8373 Y13.1168 F120.00
G01 X27.8459 Y13.0587 F120.00
G01 X27.8488 Y13.0000 F120.00
G00 X27.8488 Y13.0000
G01 F60.00
G01 Z-1.6000
G01 F120.00
G01 X27.8459 Y12.9413 F120.00
G01 X27.8373 Y12.8832 F120.00
G01 X27.8230 Y12.8262 F120.00
G01 X27.8032 Y12.7709 F120.00
G01 X27.7781 Y12.7177 F120.00
G01 X27.7479 Y12.6673 F120.00
G01 X27.7129 Y12.6201 F120.00
G01 X27.6734 Y12.5766 F120.00
G01 X27.6299 Y12.5371 F120.00
G01 X27.5827 Y12.5021 F120.00
G01 X27.5323 Y12.4719 F120.00
G01 X27.4791 Y12.4468 F120.00
G01 X27.4238 Y12.4270 F120.00
G01 X27.3668 Y12.4127 F120.00
G01 X27.3087 Y12.4041 F120.00
G01 X27.2500 Y12.4012 F120.00
G01 X27.1913 Y12.4041 F120.00
G01 X27.1332 Y12.4127 F120.00
G01 X27.0762 Y12.4270 F120.00
G01 X27.0209 Y12.4468 F120.00
G01 X26.9677 Y12.4719 F120.00
G01 X26.9173 Y12.5021 F120.00
G01 X26.8701 Y12.5371 F120.00
G01 X26.8266 Y12.5766 F120.00
G01 X26.7871 Y12.6201 F120.00
G01 X26.7521 Y12.6673 F120.00
G01 X26.7219 Y12.7177 F120.00
G01 X26.6968 Y12.7709 F120.00
G01 X26.6770 Y12.8262 F120.00
G01 X26.6627 Y12.8832 F120.00
G01 X26.6541 Y12.9413 F120.00
G01 X26.6512 Y13.0000 F120.00
G01 X26.6541 Y13.0587 F120.00
G01 X26.6627 Y13.1168 F120.00
G01 X26.6770 Y13.1738 F120.00
G01 X26.6968 Y13.2291 F120.00
G01 X26.7219 Y13.2823 F120.00
G01 X26.7521 Y13.3327 F120.00
G01 X26.7871 Y13.3799 F120.00
G01 X26.8266 Y13.4234 F120.00
G01 X26.8701 Y13.4629 F120.00
G01 X26.9173 Y13.4979 F120.00
G01 X26.9677 Y13.5281 F120.00
G01 X27.0209 Y13.5532 F120.00
G01 X27.0762 Y13.5730 F120.00
G01 X27.1332 Y13.5873 F120.00
G01 X27.1913 Y13.5959 F120.00
G01 X27.2500 Y13.5988 F120.00
G01 X27.3087 Y13.5959 F120.00
G01 X27.3668 Y13.5873 F120.00
G01 X27.4238 Y13.5730 F120.00
G01 X27.4791 Y13.5532 F120.00
G01 X27.5323 Y13.5281 F120.00
G01 X27.5827 Y13.4979 F120.00
G01 X27.6299 Y13.4629 F120.00
G01 X27.6734 Y13.4234 F120.00
G01 X27.7129 Y13.3799 F120.00
G01 X27.7479 Y13.3327 F120.00
G01 X27.7781 Y13.2823 F120.00
G01 X27.8032 Y13.2291 F120.00
G01 X27.8230 Y13.1738 F120.00
G01 X27.8373 Y13.1168 F120.00
G01 X27.8459 Y13.0587 F120.00
G01 X27.8488 Y13.0000 F120.00
G00 X27.8488 Y13.0000
G01 F60.00
G01 Z-2.0000
G01 F120.00
G01 X27.8459 Y12.9413 F120.00
G01 X27.8373 Y12.8832 F120.00
G01 X27.8230 Y12.8262 F120.00
G01 X27.8032 Y12.7709 F120.00
G01 X27.7781 Y12.7177 F120.00
G01 X27.7479 Y12.6673 F120.00
G01 X27.7129 Y12.6201 F120.00
G01 X27.6734 Y12.5766 F120.00
G01 X27.6299 Y12.5371 F120.00
G01 X27.5827 Y12.5021 F120.00
G01 X27.5323 Y12.4719 F120.00
G01 X27.4791 Y12.4468 F120.00
G01 X27.4238 Y12.4270 F120.00
G01 X27.3668 Y12.4127 F120.00
G01 X27.3087 Y12.4041 F120.00
G01 X27.2500 Y12.4012 F120.00
G01 X27.1913 Y12.4041 F120.00
G01 X27.1332 Y12.4127 F120.00
G01 X27.0762 Y12.4270 F120.00
G01 X27.0209 Y12.4468 F120.00
G01 X26.9677 Y12.4719 F120.00
G01 X26.9173 Y12.5021 F120.00
G01 X26.8701 Y12.5371 F120.00
G01 X26.8266 Y12.5766 F120.00
G01 X26.7871 Y12.6201 F120.00
G01 X26.7521 Y12.6673 F120.00
G01 X26.7219 Y12.7177 F120.00
G01 X26.6968 Y12.7709 F120.00
G01 X26.6770 Y12.8262 F120.00
G01 X26.6627 Y12.8832 F120.00
G01 X26.6541 Y12.9413 F120.00
G01 X26.6512 Y13.0000 F120.00
G01 X26.6541 Y13.0587 F120.00
G01 X26.6627 Y13.1168 F120.00
G01 X26.6770 Y13.1738 F120.00
G01 X26.6968 Y13.2291 F120.00
G01 X26.7219 Y13.2823 F120.00
G01 X26.7521 Y13.3327 F120.00
G01 X26.7871 Y13.3799 F120.00
G01 X26.8266 Y13.4234 F120.00
G01 X26.8701 Y13.4629 F120.00
G01 X26.9173 Y13.4979 F120.00
G01 X26.9677 Y13.5281 F120.00
G01 X27.0209 Y13.5532 F120.00
G01 X27.0762 Y13.5730 F120.00
G01 X27.1332 Y13.5873 F120.00
G01 X27.1913 Y13.5959 F120.00
G01 X27.2500 Y13.5988 F120.00
G01 X27.3087 Y13.5959 F120.00
G01 X27.3668 Y13.5873 F120.00
G01 X27.4238 Y13.5730 F120.00
G01 X27.4791 Y13.5532 F120.00
G01 X27.5323 Y13.5281 F120.00
G01 X27.5827 Y13.4979 F120.00
G01 X27.6299 Y13.4629 F120.00
G01 X27.6734 Y13.4234 F120.00
G01 X27.7129 Y13.3799 F120.00
G01 X27.7479 Y13.3327 F120.00
G01 X27.7781 Y13.2823 F120.00
G01 X27.8032 Y13.2291 F120.00
G01 X27.8230 Y13.1738 F120.00
G01 X27.8373 Y13.1168 F120.00
G01 X27.8459 Y13.0587 F120.00
G01 X27.8488 Y13.0000 F120.00
G00 X27.8488 Y13.0000
G01 F60.00
G01 Z-2.4000
G01 F120.00
G01 X27.8459 Y12.9413 F120.00
G01 X27.8373 Y12.8832 F120.00
G01 X27.8230 Y12.8262 F120.00
G01 X27.8032 Y12.7709 F120.00
G01 X27.7781 Y12.7177 F120.00
G01 X27.7479 Y12.6673 F120.00
G01 X27.7129 Y12.6201 F120.00
G01 X27.6734 Y12.5766 F120.00
G01 X27.6299 Y12.5371 F120.00
G01 X27.5827 Y12.5021 F120.00
G01 X27.5323 Y12.4719 F120.00
G01 X27.4791 Y12.4468 F120.00
G01 X27.4238 Y12.4270 F120.00
G01 X27.3668 Y12.4127 F120.00
G01 X27.3087 Y12.4041 F120.00
G01 X27.2500 Y12.4012 F120.00
G01 X27.1913 Y12.4041 F120.00
G01 X27.1332 Y12.4127 F120.00
G01 X27.0762 Y12.4270 F120.00
G01 X27.0209 Y12.4468 F120.00
G01 X26.9677 Y12.4719 F120.00
G01 X26.9173 Y12.5021 F120.00
G01 X26.8701 Y12.5371 F120.00
G01 X26.8266 Y12.5766 F120.00
G01 X26.7871 Y12.6201 F120.00
G01 X26.7521 Y12.6673 F120.00
G01 X26.7219 Y12.7177 F120.00
G01 X26.6968 Y12.7709 F120.00
G01 X26.6770 Y12.8262 F120.00
G01 X26.6627 Y12.8832 F120.00
G01 X26.6541 Y12.9413 F120.00
G01 X26.6512 Y13.0000 F120.00
G01 X26.6541 Y13.0587 F120.00
G01 X26.6627 Y13.1168 F120.00
G01 X26.6770 Y13.1738 F120.00
G01 X26.6968 Y13.2291 F120.00
G01 X26.7219 Y13.2823 F120.00
G01 X26.7521 Y13.3327 F120.00
G01 X26.7871 Y13.3799 F120.00
G01 X26.8266 Y13.4234 F120.00
G01 X26.8701 Y13.4629 F120.00
G01 X26.9173 Y13.4979 F120.00
G01 X26.9677 Y13.5281 F120.00
G01 X27.0209 Y13.5532 F120.00
G01 X27.0762 Y13.5730 F120.00
G01 X27.1332 Y13.5873 F120.00
G01 X27.1913 Y13.5959 F120.00
G01 X27.2500 Y13.5988 F120.00
G01 X27.3087 Y13.5959 F120.00
G01 X27.3668 Y13.5873 F120.00
G01 X27.4238 Y13.5730 F120.00
G01 X27.4791 Y13.5532 F120.00
G01 X27.5323 Y13.5281 F120.00
G01 X27.5827 Y13.4979 F120.00
G01 X27.6299 Y13.4629 F120.00
G01 X27.6734 Y13.4234 F120.00
G01 X27.7129 Y13.3799 F120.00
G01 X27.7479 Y13.3327 F120.00
G01 X27.7781 Y13.2823 F120.00
G01 X27.8032 Y13.2291 F120.00
G01 X27.8230 Y13.1738 F120.00
G01 X27.8373 Y13.1168 F120.00
G01 X27.8459 Y13.0587 F120.00
G01 X27.8488 Y13.0000 F120.00
G00 Z2.0000
G00 X42.5988 Y8.6000
G01 F60.00
G01 Z-0.4000
G01 F120.00
G01 X42.5983 Y8.5903 F120.00
G01 X42.5969 Y8.5807 F120.00
G01 X42.5945 Y8.5713 F120.00
G01 X42.5913 Y8.5622 F120.00
G01 X42.5871 Y8.5534 F120.00
G01 X42.5821 Y8.5451 F120.00
G01 X42.5764 Y8.5373 F120.00
G01 X42.5699 Y8.5301 F120.00
G01 X42.5627 Y8.5236 F120.00
G01 X42.5549 Y8.5179 F120.00
G01 X42.5466 Y8.5129 F120.00
G01 X42.5378 Y8.5087 F120.00
G01 X42.5287 Y8.5055 F120.00
G01 X42.5193 Y8.5031 F120.00
G01 X42.5097 Y8.5017 F120.00
G01 X42.5000 Y8.5012 F120.00
G01 X42.4903 Y8.5017 F120.00
G01 X42.4807 Y8.5031 F120.00
G01 X42.4713 Y8.5055 F120.00
G01 X42.4622 Y8.5087 F120.00
G01 X42.4534 Y8.5129 F120.00
G01 X42.4451 Y8.5179 F120.00
G01 X42.4373 Y8.5236 F120.00
G01 X42.4301 Y8.5301 F120.00
G01 X42.4236 Y8.5373 F120.00
G01 X42.4179 Y8.5451 F120.00
G01 X42.4129 Y8.5534 F120.00
G01 X42.4087 Y8.5622 F120.00
G01 X42.4055 Y8.5713 F120.00
G01 X42.4031 Y8.5807 F120.00
G01 X42.4017 Y8.5903 F120.00
G01 X42.4012 Y8.6000 F120.00
G01 X42.4017 Y8.6097 F120.00
G01 X42.4031 Y8.6193 F120.00
G01 X42.4055 Y8.6287 F120.00
G01 X42.4087 Y8.6378 F120.00
G01 X42.4129 Y8.6466 F120.00
G01 X42.4179 Y8.6549 F120.00
G01 X42.4236 Y8.6627 F120.00
G01 X42.4301 Y8.6699 F120.00
G01 X42.4373 Y8.6764 F120.00
G01 X42.4451 Y8.6821 F120.00
G01 X42.4534 Y8.6871 F120.00
G01 X42.4622 Y8.6913 F120.00
G01 X42.4713 Y8.6945 F120.00
G01 X42.4807 Y8.6969 F120.00
G01 X42.4903 Y8.6983 F120.00
G01 X42.5000 Y8.6988 F120.00
G01 X42.5097 Y8.6983 F120.00
G01 X42.5193 Y8.6969 F120.00
G01 X42.5287 Y8.6945 F120.00
G01 X42.5378 Y8.6913 F120.00
G01 X42.5466 Y8.6871 F120.00
G01 X42.5549 Y8.6821 F120.00
G01 X42.5627 Y8.6764 F120.00
G01 X42.5699 Y8.6699 F120.00
G01 X42.5764 Y8.6627 F120.00
G01 X42.5821 Y8.6549 F120.00
G01 X42.5871 Y8.6466 F120.00
G01 X42.5913 Y8.6378 F120.00
G01 X42.5945 Y8.6287 F120.00
G01 X42.5969 Y8.6193 F120.00
G01 X42.5983 Y8.6097 F120.00
G01 X42.5988 Y8.6000 F120.00
G00 X42.5988 Y8.6000
G01 F60.00
G01 Z-0.8000
G01 F120.00
G01 X42.5983 Y8.5903 F120.00
G01 X42.5969 Y8.5807 F120.00
G01 X42.5945 Y8.5713 F120.00
G01 X42.5913 Y8.5622 F120.00
G01 X42.5871 Y8.5534 F120.00
G01 X42.5821 Y8.5451 F120.00
G01 X42.5764 Y8.5373 F120.00
G01 X42.5699 Y8.5301 F120.00
G01 X42.5627 Y8.5236 F120.00
G01 X42.5549 Y8.5179 F120.00
G01 X42.5466 Y8.5129 F120.00
G01 X42.5378 Y8.5087 F120.00
G01 X42.5287 Y8.5055 F120.00
G01 X42.5193 Y8.5031 F120.00
G01 X42.5097 Y8.5017 F120.00
G01 X42.5000 Y8.5012 F120.00
G01 X42.4903 Y8.5017 F120.00
G01 X42.4807 Y8.5031 F120.00
G01 X42.4713 Y8.5055 F120.00
G01 X42.4622 Y8.5087 F120.00
G01 X42.4534 Y8.5129 F120.00
G01 X42.4451 Y8.5179 F120.00
G01 X42.4373 Y8.5236 F120.00
G01 X42.4301 Y8.5301 F120.00
G01 X42.4236 Y8.5373 F120.00
G01 X42.4179 Y8.5451 F120.00
G01 X42.4129 Y8.5534 F120.00
G01 X42.4087 Y8.5622 F120.00
G01 X42.4055 Y8.5713 F120.00
G01 X42.4031 Y8.5807 F120.00
G01 X42.4017 Y8.5903 F120.00
G01 X42.4012 Y8.6000 F120.00
G01 X42.4017 Y8.6097 F120.00
G01 X42.4031 Y8.6193 F120.00
G01 X42.4055 Y8.6287 F120.00
G01 X42.4087 Y8.6378 F120.00
G01 X42.4129 Y8.6466 F120.00
G01 X42.4179 Y8.6549 F120.00
G01 X42.4236 Y8.6627 F120.00
G01 X42.4301 Y8.6699 F120.00
G01 X42.4373 Y8.6764 F120.00
G01 X42.4451 Y8.6821 F120.00
G01 X42.4534 Y8.6871 F120.00
G01 X42.4622 Y8.6913 F120.00
G01 X42.4713 Y8.6945 F120.00
G01 X42.4807 Y8.6969 F120.00
G01 X42.4903 Y8.6983 F120.00
G01 X42.5000 Y8.6988 F120.00
G01 X42.5097 Y8.6983 F120.00
G01 X42.5193 Y8.6969 F120.00
G01 X42.5287 Y8.6945 F120.00
G01 X42.5378 Y8.6913 F120.00
G01 X42.5466 Y8.6871 F120.00
G01 X42.5549 Y8.6821 F120.00
G01 X42.5627 Y8.6764 F120.00
G01 X42.5699 Y8.6699 F120.00
G01 X42.5764 Y8.6627 F120.00
G01 X42.5821 Y8.6549 F120.00
G01 X42.5871 Y8.6466 F120.00
G01 X42.5913 Y8.6378 F120.00
G01 X42.5945 Y8.6287 F120.00
G01 X42.5969 Y8.6193 F120.00
G01 X42.5983 Y8.6097 F120.00
G01 X42.5988 Y8.6000 F120.00
G00 X42.5988 Y8.6000
G01 F60.00
G01 Z-1.2000
G01 F120.00
G01 X42.5983 Y8.5903 F120.00
G01 X42.5969 Y8.5807 F120.00
G01 X42.5945 Y8.5713 F120.00
G01 X42.5913 Y8.5622 F120.00
G01 X42.5871 Y8.5534 F120.00
G01 X42.5821 Y8.5451 F120.00
G01 X42.5764 Y8.5373 F120.00
G01 X42.5699 Y8.5301 F120.00
G01 X42.5627 Y8.5236 F120.00
G01 X42.5549 Y8.5179 F120.00
G01 X42.5466 Y8.5129 F120.00
G01 X42.5378 Y8.5087 F120.00
G01 X42.5287 Y8.5055 F120.00
G01 X42.5193 Y8.5031 F120.00
G01 X42.5097 Y8.5017 F120.00
G01 X42.5000 Y8.5012 F120.00
G01 X42.4903 Y8.5017 F120.00
G01 X42.4807 Y8.5031 F120.00
G01 X42.4713 Y8.5055 F120.00
G01 X42.4622 Y8.5087 F120.00
G01 X42.4534 Y8.5129 F120.00
G01 X42.4451 Y8.5179 F120.00
G01 X42.4373 Y8.5236 F120.00
G01 X42.4301 Y8.5301 F120.00
G01 X42.4236 Y8.5373 F120.00
G01 X42.4179 Y8.5451 F120.00
G01 X42.4129 Y8.5534 F120.00
G01 X42.4087 Y8.5622 F120.00
G01 X42.4055 Y8.5713 F120.00
G01 X42.4031 Y8.5807 F120.00
G01 X42.4017 Y8.5903 F120.00
G01 X42.4012 Y8.6000 F120.00
G01 X42.4017 Y8.6097 F120.00
G01 X42.4031 Y8.6193 F120.00
G01 X42.4055 Y8.6287 F120.00
G01 X42.4087 Y8.6378 F120.00
G01 X42.4129 Y8.6466 F120.00
G01 X42.4179 Y8.6549 F120.00
G01 X42.4236 Y8.6627 F120.00
G01 X42.4301 Y8.6699 F120.00
G01 X42.4373 Y8.6764 F120.00
G01 X42.4451 Y8.6821 F120.00
G01 X42.4534 Y8.6871 F120.00
G01 X42.4622 Y8.6913 F120.00
G01 X42.4713 Y8.6945 F120.00
G01 X42.4807 Y8.6969 F120.00
G01 X42.4903 Y8.6983 F120.00
G01 X42.5000 Y8.6988 F120.00
G01 X42.5097 Y8.6983 F120.00
G01 X42.5193 Y8.6969 F120.00
G01 X42.5287 Y8.6945 F120.00
G01 X42.5378 Y8.6913 F120.00
G01 X42.5466 Y8.6871 F120.00
G01 X42.5549 Y8.6821 F120.00
G01 X42.5627 Y8.6764 F120.00
G01 X42.5699 Y8.6699 F120.00
G01 X42.5764 Y8.6627 F120.00
G01 X42.5821 Y8.6549 F120.00
G01 X42.5871 Y8.6466 F120.00
G01 X42.5913 Y8.6378 F120.00
G01 X42.5945 Y8.6287 F120.00
G01 X42.5969 Y8.6193 F120.00
G01 X42.5983 Y8.6097 F120.00
G01 X42.5988 Y8.6000 F120.00
G00 X42.5988 Y8.6000
G01 F60.00
G01 Z-1.6000
G01 F120.00
G01 X42.5983 Y8.5903 F120.00
G01 X42.5969 Y8.5807 F120.00
G01 X42.5945 Y8.5713 F120.00
G01 X42.5913 Y8.5622 F120.00
G01 X42.5871 Y8.5534 F120.00
G01 X42.5821 Y8.5451 F120.00
G01 X42.5764 Y8.5373 F120.00
G01 X42.5699 Y8.5301 F120.00
G01 X42.5627 Y8.5236 F120.00
G01 X42.5549 Y8.5179 F120.00
G01 X42.5466 Y8.5129 F120.00
G01 X42.5378 Y8.5087 F120.00
G01 X42.5287 Y8.5055 F120.00
G01 X42.5193 Y8.5031 F120.00
G01 X42.5097 Y8.5017 F120.00
G01 X42.5000 Y8.5012 F120.00
G01 X42.4903 Y8.5017 F120.00
G01 X42.4807 Y8.5031 F120.00
G01 X42.4713 Y8.5055 F120.00
G01 X42.4622 Y8.5087 F120.00
G01 X42.4534 Y8.5129 F120.00
G01 X42.4451 Y8.5179 F120.00
G01 X42.4373 Y8.5236 F120.00
G01 X42.4301 Y8.5301 F120.00
G01 X42.4236 Y8.5373 F120.00
G01 X42.4179 Y8.5451 F120.00
G01 X42.4129 Y8.5534 F120.00
G01 X42.4087 Y8.5622 F120.00
G01 X42.4055 Y8.5713 F120.00
G01 X42.4031 Y8.5807 F120.00
G01 X42.4017 Y8.5903 F120.00
G01 X42.4012 Y8.6000 F120.00
G01 X42.4017 Y8.6097 F120.00
G01 X42.4031 Y8.6193 F120.00
G01 X42.4055 Y8.6287 F120.00
G01 X42.4087 Y8.6378 F120.00
G01 X42.4129 Y8.6466 F120.00
G01 X42.4179 Y8.6549 F120.00
G01 X42.4236 Y8.6627 F120.00
G01 X42.4301 Y8.6699 F120.00
G01 X42.4373 Y8.6764 F120.00
G01 X42.4451 Y8.6821 F120.00
G01 X42.4534 Y8.6871 F120.00
G01 X42.4622 Y8.6913 F120.00
G01 X42.4713 Y8.6945 F120.00
G01 X42.4807 Y8.6969 F120.00
G01 X42.4903 Y8.6983 F120.00
G01 X42.5000 Y8.6988 F120.00
G01 X42.5097 Y8.6983 F120.00
G01 X42.5193 Y8.6969 F120.00
G01 X42.5287 Y8.6945 F120.00
G01 X42.5378 Y8.6913 F120.00
G01 X42.5466 Y8.6871 F120.00
G01 X42.5549 Y8.6821 F120.00
G01 X42.5627 Y8.6764 F120.00
G01 X42.5699 Y8.6699 F120.00
G01 X42.5764 Y8.6627 F120.00
G01 X42.5821 Y8.6549 F120.00
G01 X42.5871 Y8.6466 F120.00
G01 X42.5913 Y8.6378 F120.00
G01 X42.5945 Y8.6287 F120.00
G01 X42.5969 Y8.6193 F120.00
G01 X42.5983 Y8.6097 F120.00
G01 X42.5988 Y8.6000 F120.00
G00 X42.5988 Y8.6000
G01 F60.00
G01 Z-2.0000
G01 F120.00
G01 X42.5983 Y8.5903 F120.00
G01 X42.5969 Y8.5807 F120.00
G01 X42.5945 Y8.5713 F120.00
G01 X42.5913 Y8.5622 F120.00
G01 X42.5871 Y8.5534 F120.00
G01 X42.5821 Y8.5451 F120.00
G01 X42.5764 Y8.5373 F120.00
G01 X42.5699 Y8.5301 F120.00
G01 X42.5627 Y8.5236 F120.00
G01 X42.5549 Y8.5179 F120.00
G01 X42.5466 Y8.5129 F120.00
G01 X42.5378 Y8.5087 F120.00
G01 X42.5287 Y8.5055 F120.00
G01 X42.5193 Y8.5031 F120.00
G01 X42.5097 Y8.5017 F120.00
G01 X42.5000 Y8.5012 F120.00
G01 X42.4903 Y8.5017 F120.00
G01 X42.4807 Y8.5031 F120.00
G01 X42.4713 Y8.5055 F120.00
G01 X42.4622 Y8.5087 F120.00
G01 X42.4534 Y8.5129 F120.00
G01 X42.4451 Y8.5179 F120.00
G01 X42.4373 Y8.5236 F120.00
G01 X42.4301 Y8.5301 F120.00
G01 X42.4236 Y8.5373 F120.00
G01 X42.4179 Y8.5451 F120.00
G01 X42.4129 Y8.5534 F120.00
G01 X42.4087 Y8.5622 F120.00
G01 X42.4055 Y8.5713 F120.00
G01 X42.4031 Y8.5807 F120.00
G01 X42.4017 Y8.5903 F120.00
G01 X42.4012 Y8.6000 F120.00
G01 X42.4017 Y8.6097 F120.00
G01 X42.4031 Y8.6193 F120.00
G01 X42.4055 Y8.6287 F120.00
G01 X42.4087 Y8.6378 F120.00
G01 X42.4129 Y8.6466 F120.00
G01 X42.4179 Y8.6549 F120.00
G01 X42.4236 Y8.6627 F120.00
G01 X42.4301 Y8.6699 F120.00
G01 X42.4373 Y8.6764 F120.00
G01 X42.4451 Y8.6821 F120.00
G01 X42.4534 Y8.6871 F120.00
G01 X42.4622 Y8.6913 F120.00
G01 X42.4713 Y8.6945 F120.00
G01 X42.4807 Y8.6969 F120.00
G01 X42.4903 Y8.6983 F120.00
G01 X42.5000 Y8.6988 F120.00
G01 X42.5097 Y8.6983 F120.00
G01 X42.5193 Y8.6969 F120.00
G01 X42.5287 Y8.6945 F120.00
G01 X42.5378 Y8.6913 F120.00
G01 X42.5466 Y8.6871 F120.00
G01 X42.5549 Y8.6821 F120.00
G01 X42.5627 Y8.6764 F120.00
G01 X42.5699 Y8.6699 F120.00
G01 X42.5764 Y8.6627 F120.00
G01 X42.5821 Y8.6549 F120.00
G01 X42.5871 Y8.6466 F120.00
G01 X42.5913 Y8.6378 F120.00
G01 X42.5945 Y8.6287 F120.00
G01 X42.5969 Y8.6193 F120.00
G01 X42.5983 Y8.6097 F120.00
G01 X42.5988 Y8.6000 F120.00
G00 X42.5988 Y8.6000
G01 F60.00
G01 Z-2.4000
G01 F120.00
G01 X42.5983 Y8.5903 F120.00
G01 X42.5969 Y8.5807 F120.00
G01 X42.5945 Y8.5713 F120.00
G01 X42.5913 Y8.5622 F120.00
G01 X42.5871 Y8.5534 F120.00
G01 X42.5821 Y8.5451 F120.00
G01 X42.5764 Y8.5373 F120.00
G01 X42.5699 Y8.5301 F120.00
G01 X42.5627 Y8.5236 F120.00
G01 X42.5549 Y8.5179 F120.00
G01 X42.5466 Y8.5129 F120.00
G01 X42.5378 Y8.5087 F120.00
G01 X42.5287 Y8.5055 F120.00
G01 X42.5193 Y8.5031 F120.00
G01 X42.5097 Y8.5017 F120.00
G01 X42.5000 Y8.5012 F120.00
G01 X42.4903 Y8.5017 F120.00
G01 X42.4807 Y8.5031 F120.00
G01 X42.4713 Y8.5055 F120.00
G01 X42.4622 Y8.5087 F120.00
G01 X42.4534 Y8.5129 F120.00
G01 X42.4451 Y8.5179 F120.00
G01 X42.4373 Y8.5236 F120.00
G01 X42.4301 Y8.5301 F120.00
G01 X42.4236 Y8.5373 F120.00
G01 X42.4179 Y8.5451 F120.00
G01 X42.4129 Y8.5534 F120.00
G01 X42.4087 Y8.5622 F120.00
G01 X42.4055 Y8.5713 F120.00
G01 X42.4031 Y8.5807 F120.00
G01 X42.4017 Y8.5903 F120.00
G01 X42.4012 Y8.6000 F120.00
G01 X42.4017 Y8.6097 F120.00
G01 X42.4031 Y8.6193 F120.00
G01 X42.4055 Y8.6287 F120.00
G01 X42.4087 Y8.6378 F120.00
G01 X42.4129 Y8.6466 F120.00
G01 X42.4179 Y8.6549 F120.00
G01 X42.4236 Y8.6627 F120.00
G01 X42.4301 Y8.6699 F120.00
G01 X42.4373 Y8.6764 F120.00
G01 X42.4451 Y8.6821 F120.00
G01 X42.4534 Y8.6871 F120.00
G01 X42.4622 Y8.6913 F120.00
G01 X42.4713 Y8.6945 F120.00
G01 X42.4807 Y8.6969 F120.00
G01 X42.4903 Y8.6983 F120.00
G01 X42.5000 Y8.6988 F120.00
G01 X42.5097 Y8.6983 F120.00
G01 X42.5193 Y8.6969 F120.00
G01 X42.5287 Y8.6945 F120.00
G01 X42.5378 Y8.6913 F120.00
G01 X42.5466 Y8.6871 F120.00
G01 X42.5549 Y8.6821 F120.00
G01 X42.5627 Y8.6764 F120.00
G01 X42.5699 Y8.6699 F120.00
G01 X42.5764 Y8.6627 F120.00
G01 X42.5821 Y8.6549 F120.00
G01 X42.5871 Y8.6466 F120.00
G01 X42.5913 Y8.6378 F120.00
G01 X42.5945 Y8.6287 F120.00
G01 X42.5969 Y8.6193 F120.00
G01 X42.5983 Y8.6097 F120.00
G01 X42.5988 Y8.6000 F120.00
G00 Z2.0000
G00 X42.5988 Y17.4000
G01 F60.00
G01 Z-0.4000
G01 F120.00
G01 X42.5983 Y17.3903 F120.00
G01 X42.5969 Y17.3807 F120.00
G01 X42.5945 Y17.3713 F120.00
G01 X42.5913 Y17.3622 F120.00
G01 X42.5871 Y17.3534 F120.00
G01 X42.5821 Y17.3451 F120.00
G01 X42.5764 Y17.3373 F120.00
G01 X42.5699 Y17.3301 F120.00
G01 X42.5627 Y17.3236 F120.00
G01 X42.5549 Y17.3179 F120.00
G01 X42.5466 Y17.3129 F120.00
G01 X42.5378 Y17.3087 F120.00
G01 X42.5287 Y17.3055 F120.00
G01 X42.5193 Y17.3031 F120.00
G01 X42.5097 Y17.3017 F120.00
G01 X42.5000 Y17.3012 F120.00
G01 X42.4903 Y17.3017 F120.00
G01 X42.4807 Y17.3031 F120.00
G01 X42.4713 Y17.3055 F120.00
G01 X42.4622 Y17.3087 F120.00
G01 X42.4534 Y17.3129 F120.00
G01 X42.4451 Y17.3179 F120.00
G01 X42.4373 Y17.3236 F120.00
G01 X42.4301 Y17.3301 F120.00
G01 X42.4236 Y17.3373 F120.00
G01 X42.4179 Y17.3451 F120.00
G01 X42.4129 Y17.3534 F120.00
G01 X42.4087 Y17.3622 F120.00
G01 X42.4055 Y17.3713 F120.00
G01 X42.4031 Y17.3807 F120.00
G01 X42.4017 Y17.3903 F120.00
G01 X42.4012 Y17.4000 F120.00
G01 X42.4017 Y17.4097 F120.00
G01 X42.4031 Y17.4193 F120.00
G01 X42.4055 Y17.4287 F120.00
G01 X42.4087 Y17.4378 F120.00
G01 X42.4129 Y17.4466 F120.00
G01 X42.4179 Y17.4549 F120.00
G01 X42.4236 Y17.4627 F120.00
G01 X42.4301 Y17.4699 F120.00
G01 X42.4373 Y17.4764 F120.00
G01 X42.4451 Y17.4821 F120.00
G01 X42.4534 Y17.4871 F120.00
G01 X42.4622 Y17.4913 F120.00
G01 X42.4713 Y17.4945 F120.00
G01 X42.4807 Y17.4969 F120.00
G01 X42.4903 Y17.4983 F120.00
G01 X42.5000 Y17.4988 F120.00
G01 X42.5097 Y17.4983 F120.00
G01 X42.5193 Y17.4969 F120.00
G01 X42.5287 Y17.4945 F120.00
G01 X42.5378 Y17.4913 F120.00
G01 X42.5466 Y17.4871 F120.00
G01 X42.5549 Y17.4821 F120.00
G01 X42.5627 Y17.4764 F120.00
G01 X42.5699 Y17.4699 F120.00
G01 X42.5764 Y17.4627 F120.00
G01 X42.5821 Y17.4549 F120.00
G01 X42.5871 Y17.4466 F120.00
G01 X42.5913 Y17.4378 F120.00
G01 X42.5945 Y17.4287 F120.00
G01 X42.5969 Y17.4193 F120.00
G01 X42.5983 Y17.4097 F120.00
G01 X42.5988 Y17.4000 F120.00
G00 X42.5988 Y17.4000
G01 F60.00
G01 Z-0.8000
G01 F120.00
G01 X42.5983 Y17.3903 F120.00
G01 X42.5969 Y17.3807 F120.00
G01 X42.5945 Y17.3713 F120.00
G01 X42.5913 Y17.3622 F120.00
G01 X42.5871 Y17.3534 F120.00
G01 X42.5821 Y17.3451 F120.00
G01 X42.5764 Y17.3373 F120.00
G01 X42.5699 Y17.3301 F120.00
G01 X42.5627 Y17.3236 F120.00
G01 X42.5549 Y17.3179 F120.00
G01 X42.5466 Y17.3129 F120.00
G01 X42.5378 Y17.3087 F120.00
G01 X42.5287 Y17.3055 F120.00
G01 X42.5193 Y17.3031 F120.00
G01 X42.5097 Y17.3017 F120.00
G01 X42.5000 Y17.3012 F120.00
G01 X42.4903 Y17.3017 F120.00
G01 X42.4807 Y17.3031 F120.00
G01 X42.4713 Y17.3055 F120.00
G01 X42.4622 Y17.3087 F120.00
G01 X42.4534 Y17.3129 F120.00
G01 X42.4451 Y17.3179 F120.00
G01 X42.4373 Y17.3236 F120.00
G01 X42.4301 Y17.3301 F120.00
G01 X42.4236 Y17.3373 F120.00
G01 X42.4179 Y17.3451 F120.00
G01 X42.4129 Y17.3534 F120.00
G01 X42.4087 Y17.3622 F120.00
G01 X42.4055 Y17.3713 F120.00
G01 X42.4031 Y17.3807 F120.00
G01 X42.4017 Y17.3903 F120.00
G01 X42.4012 Y17.4000 F120.00
G01 X42.4017 Y17.4097 F120.00
G01 X42.4031 Y17.4193 F120.00
G01 X42.4055 Y17.4287 F120.00
G01 X42.4087 Y17.4378 F120.00
G01 X42.4129 Y17.4466 F120.00
G01 X42.4179 Y17.4549 F120.00
G01 X42.4236 Y17.4627 F120.00
G01 X42.4301 Y17.4699 F120.00
G01 X42.4373 Y17.4764 F120.00
G01 X42.4451 Y17.4821 F120.00
G01 X42.4534 Y17.4871 F120.00
G01 X42.4622 Y17.4913 F120.00
G01 X42.4713 Y17.4945 F120.00
G01 X42.4807 Y17.4969 F120.00
G01 X42.4903 Y17.4983 F120.00
G01 X42.5000 Y17.4988 F120.00
G01 X42.5097 Y17.4983 F120.00
G01 X42.5193 Y17.4969 F120.00
G01 X42.5287 Y17.4945 F120.00
G01 X42.5378 Y17.4913 F120.00
G01 X42.5466 Y17.4871 F120.00
G01 X42.5549 Y17.4821 F120.00
G01 X42.5627 Y17.4764 F120.00
G01 X42.5699 Y17.4699 F120.00
G01 X42.5764 Y17.4627 F120.00
G01 X42.5821 Y17.4549 F120.00
G01 X42.5871 Y17.4466 F120.00
G01 X42.5913 Y17.4378 F120.00
G01 X42.5945 Y17.4287 F120.00
G01 X42.5969 Y17.4193 F120.00
G01 X42.5983 Y17.4097 F120.00
G01 X42.5988 Y17.4000 F120.00
G00 X42.5988 Y17.4000
G01 F60.00
G01 Z-1.2000
G01 F120.00
G01 X42.5983 Y17.3903 F120.00
G01 X42.5969 Y17.3807 F120.00
G01 X42.5945 Y17.3713 F120.00
G01 X42.5913 Y17.3622 F120.00
G01 X42.5871 Y17.3534 F120.00
G01 X42.5821 Y17.3451 F120.00
G01 X42.5764 Y17.3373 F120.00
G01 X42.5699 Y17.3301 F120.00
G01 X42.5627 Y17.3236 F120.00
G01 X42.5549 Y17.3179 F120.00
G01 X42.5466 Y17.3129 F120.00
G01 X42.5378 Y17.3087 F120.00
G01 X42.5287 Y17.3055 F120.00
G01 X42.5193 Y17.3031 F120.00
G01 X42.5097 Y17.3017 F120.00
G01 X42.5000 Y17.3012 F120.00
G01 X42.4903 Y17.3017 F120.00
G01 X42.4807 Y17.3031 F120.00
G01 X42.4713 Y17.3055 F120.00
G01 X42.4622 Y17.3087 F120.00
G01 X42.4534 Y17.3129 F120.00
G01 X42.4451 Y17.3179 F120.00
G01 X42.4373 Y17.3236 F120.00
G01 X42.4301 Y17.3301 F120.00
G01 X42.4236 Y17.3373 F120.00
G01 X42.4179 Y17.3451 F120.00
G01 X42.4129 Y17.3534 F120.00
G01 X42.4087 Y17.3622 F120.00
G01 X42.4055 Y17.3713 F120.00
G01 X42.4031 Y17.3807 F120.00
G01 X42.4017 Y17.3903 F120.00
G01 X42.4012 Y17.4000 F120.00
G01 X42.4017 Y17.4097 F120.00
G01 X42.4031 Y17.4193 F120.00
G01 X42.4055 Y17.4287 F120.00
G01 X42.4087 Y17.4378 F120.00
G01 X42.4129 Y17.4466 F120.00
G01 X42.4179 Y17.4549 F120.00
G01 X42.4236 Y17.4627 F120.00
G01 X42.4301 Y17.4699 F120.00
G01 X42.4373 Y17.4764 F120.00
G01 X42.4451 Y17.4821 F120.00
G01 X42.4534 Y17.4871 F120.00
G01 X42.4622 Y17.4913 F120.00
G01 X42.4713 Y17.4945 F120.00
G01 X42.4807 Y17.4969 F120.00
G01 X42.4903 Y17.4983 F120.00
G01 X42.5000 Y17.4988 F120.00
G01 X42.5097 Y17.4983 F120.00
G01 X42.5193 Y17.4969 F120.00
G01 X42.5287 Y17.4945 F120.00
G01 X42.5378 Y17.4913 F120.00
G01 X42.5466 Y17.4871 F120.00
G01 X42.5549 Y17.4821 F120.00
G01 X42.5627 Y17.4764 F120.00
G01 X42.5699 Y17.4699 F120.00
G01 X42.5764 Y17.4627 F120.00
G01 X42.5821 Y17.4549 F120.00
G01 X42.5871 Y17.4466 F120.00
G01 X42.5913 Y17.4378 F120.00
G01 X42.5945 Y17.4287 F120.00
G01 X42.5969 Y17.4193 F120.00
G01 X42.5983 Y17.4097 F120.00
G01 X42.5988 Y17.4000 F120.00
G00 X42.5988 Y17.4000
G01 F60.00
G01 Z-1.6000
G01 F120.00
G01 X42.5983 Y17.3903 F120.00
G01 X42.5969 Y17.3807 F120.00
G01 X42.5945 Y17.3713 F120.00
G01 X42.5913 Y17.3622 F120.00
G01 X42.5871 Y17.3534 F120.00
G01 X42.5821 Y17.3451 F120.00
G01 X42.5764 Y17.3373 F120.00
G01 X42.5699 Y17.3301 F120.00
G01 X42.5627 Y17.3236 F120.00
G01 X42.5549 Y17.3179 F120.00
G01 X42.5466 Y17.3129 F120.00
G01 X42.5378 Y17.3087 F120.00
G01 X42.5287 Y17.3055 F120.00
G01 X42.5193 Y17.3031 F120.00
G01 X42.5097 Y17.3017 F120.00
G01 X42.5000 Y17.3012 F120.00
G01 X42.4903 Y17.3017 F120.00
G01 X42.4807 Y17.3031 F120.00
G01 X42.4713 Y17.3055 F120.00
G01 X42.4622 Y17.3087 F120.00
G01 X42.4534 Y17.3129 F120.00
G01 X42.4451 Y17.3179 F120.00
G01 X42.4373 Y17.3236 F120.00
G01 X42.4301 Y17.3301 F120.00
G01 X42.4236 Y17.3373 F120.00
G01 X42.4179 Y17.3451 F120.00
G01 X42.4129 Y17.3534 F120.00
G01 X42.4087 Y17.3622 F120.00
G01 X42.4055 Y17.3713 F120.00
G01 X42.4031 Y17.3807 F120.00
G01 X42.4017 Y17.3903 F120.00
G01 X42.4012 Y17.4000 F120.00
G01 X42.4017 Y17.4097 F120.00
G01 X42.4031 Y17.4193 F120.00
G01 X42.4055 Y17.4287 F120.00
G01 X42.4087 Y17.4378 F120.00
G01 X42.4129 Y17.4466 F120.00
G01 X42.4179 Y17.4549 F120.00
G01 X42.4236 Y17.4627 F120.00
G01 X42.4301 Y17.4699 F120.00
G01 X42.4373 Y17.4764 F120.00
G01 X42.4451 Y17.4821 F120.00
G01 X42.4534 Y17.4871 F120.00
G01 X42.4622 Y17.4913 F120.00
G01 X42.4713 Y17.4945 F120.00
G01 X42.4807 Y17.4969 F120.00
G01 X42.4903 Y17.4983 F120.00
G01 X42.5000 Y17.4988 F120.00
G01 X42.5097 Y17.4983 F120.00
G01 X42.5193 Y17.4969 F120.00
G01 X42.5287 Y17.4945 F120.00
G01 X42.5378 Y17.4913 F120.00
G01 X42.5466 Y17.4871 F120.00
G01 X42.5549 Y17.4821 F120.00
G01 X42.5627 Y17.4764 F120.00
G01 X42.5699 Y17.4699 F120.00
G01 X42.5764 Y17.4627 F120.00
G01 X42.5821 Y17.4549 F120.00
G01 X42.5871 Y17.4466 F120.00
G01 X42.5913 Y17.4378 F120.00
G01 X42.5945 Y17.4287 F120.00
G01 X42.5969 Y17.4193 F120.00
G01 X42.5983 Y17.4097 F120.00
G01 X42.5988 Y17.4000 F120.00
G00 X42.5988 Y17.4000
G01 F60.00
G01 Z-2.0000
G01 F120.00
G01 X42.5983 Y17.3903 F120.00
G01 X42.5969 Y17.3807 F120.00
G01 X42.5945 Y17.3713 F120.00
G01 X42.5913 Y17.3622 F120.00
G01 X42.5871 Y17.3534 F120.00
G01 X42.5821 Y17.3451 F120.00
G01 X42.5764 Y17.3373 F120.00
G01 X42.5699 Y17.3301 F120.00
G01 X42.5627 Y17.3236 F120.00
G01 X42.5549 Y17.3179 F120.00
G01 X42.5466 Y17.3129 F120.00
G01 X42.5378 Y17.3087 F120.00
G01 X42.5287 Y17.3055 F120.00
G01 X42.5193 Y17.3031 F120.00
G01 X42.5097 Y17.3017 F120.00
G01 X42.5000 Y17.3012 F120.00
G01 X42.4903 Y17.3017 F120.00
G01 X42.4807 Y17.3031 F120.00
G01 X42.4713 Y17.3055 F120.00
G01 X42.4622 Y17.3087 F120.00
G01 X42.4534 Y17.3129 F120.00
G01 X42.4451 Y17.3179 F120.00
G01 X42.4373 Y17.3236 F120.00
G01 X42.4301 Y17.3301 F120.00
G01 X42.4236 Y17.3373 F120.00
G01 X42.4179 Y17.3451 F120.00
G01 X42.4129 Y17.3534 F120.00
G01 X42.4087 Y17.3622 F120.00
G01 X42.4055 Y17.3713 F120.00
G01 X42.4031 Y17.3807 F120.00
G01 X42.4017 Y17.3903 F120.00
G01 X42.4012 Y17.4000 F120.00
G01 X42.4017 Y17.4097 F120.00
G01 X42.4031 Y17.4193 F120.00
G01 X42.4055 Y17.4287 F120.00
G01 X42.4087 Y17.4378 F120.00
G01 X42.4129 Y17.4466 F120.00
G01 X42.4179 Y17.4549 F120.00
G01 X42.4236 Y17.4627 F120.00
G01 X42.4301 Y17.4699 F120.00
G01 X42.4373 Y17.4764 F120.00
G01 X42.4451 Y17.4821 F120.00
G01 X42.4534 Y17.4871 F120.00
G01 X42.4622 Y17.4913 F120.00
G01 X42.4713 Y17.4945 F120.00
G01 X42.4807 Y17.4969 F120.00
G01 X42.4903 Y17.4983 F120.00
G01 X42.5000 Y17.4988 F120.00
G01 X42.5097 Y17.4983 F120.00
G01 X42.5193 Y17.4969 F120.00
G01 X42.5287 Y17.4945 F120.00
G01 X42.5378 Y17.4913 F120.00
G01 X42.5466 Y17.4871 F120.00
G01 X42.5549 Y17.4821 F120.00
G01 X42.5627 Y17.4764 F120.00
G01 X42.5699 Y17.4699 F120.00
G01 X42.5764 Y17.4627 F120.00
G01 X42.5821 Y17.4549 F120.00
G01 X42.5871 Y17.4466 F120.00
G01 X42.5913 Y17.4378 F120.00
G01 X42.5945 Y17.4287 F120.00
G01 X42.5969 Y17.4193 F120.00
G01 X42.5983 Y17.4097 F120.00
G01 X42.5988 Y17.4000 F120.00
G00 X42.5988 Y17.4000
G01 F60.00
G01 Z-2.4000
G01 F120.00
G01 X42.5983 Y17.3903 F120.00
G01 X42.5969 Y17.3807 F120.00
G01 X42.5945 Y17.3713 F120.00
G01 X42.5913 Y17.3622 F120.00
G01 X42.5871 Y17.3534 F120.00
G01 X42.5821 Y17.3451 F120.00
G01 X42.5764 Y17.3373 F120.00
G01 X42.5699 Y17.3301 F120.00
G01 X42.5627 Y17.3236 F120.00
G01 X42.5549 Y17.3179 F120.00
G01 X42.5466 Y17.3129 F120.00
G01 X42.5378 Y17.3087 F120.00
G01 X42.5287 Y17.3055 F120.00
G01 X42.5193 Y17.3031 F120.00
G01 X42.5097 Y17.3017 F120.00
G01 X42.5000 Y17.3012 F120.00
G01 X42.4903 Y17.3017 F120.00
G01 X42.4807 Y17.3031 F120.00
G01 X42.4713 Y17.3055 F120.00
G01 X42.4622 Y17.3087 F120.00
G01 X42.4534 Y17.3129 F120.00
G01 X42.4451 Y17.3179 F120.00
G01 X42.4373 Y17.3236 F120.00
G01 X42.4301 Y17.3301 F120.00
G01 X42.4236 Y17.3373 F120.00
G01 X42.4179 Y17.3451 F120.00
G01 X42.4129 Y17.3534 F120.00
G01 X42.4087 Y17.3622 F120.00
G01 X42.4055 Y17.3713 F120.00
G01 X42.4031 Y17.3807 F120.00
G01 X42.4017 Y17.3903 F120.00
G01 X42.4012 Y17.4000 F120.00
G01 X42.4017 Y17.4097 F120.00
G01 X42.4031 Y17.4193 F120.00
G01 X42.4055 Y17.4287 F120.00
G01 X42.4087 Y17.4378 F120.00
G01 X42.4129 Y17.4466 F120.00
G01 X42.4179 Y17.4549 F120.00
G01 X42.4236 Y17.4627 F120.00
G01 X42.4301 Y17.4699 F120.00
G01 X42.4373 Y17.4764 F120.00
G01 X42.4451 Y17.4821 F120.00
G01 X42.4534 Y17.4871 F120.00
G01 X42.4622 Y17.4913 F120.00
G01 X42.4713 Y17.4945 F120.00
G01 X42.4807 Y17.4969 F120.00
G01 X42.4903 Y17.4983 F120.00
G01 X42.5000 Y17.4988 F120.00
G01 X42.5097 Y17.4983 F120.00
G01 X42.5193 Y17.4969 F120.00
G01 X42.5287 Y17.4945 F120.00
G01 X42.5378 Y17.4913 F120.00
G01 X42.5466 Y17.4871 F120.00
G01 X42.5549 Y17.4821 F120.00
G01 X42.5627 Y17.4764 F120.00
G01 X42.5699 Y17.4699 F120.00
G01 X42.5764 Y17.4627 F120.00
G01 X42.5821 Y17.4549 F120.00
G01 X42.5871 Y17.4466 F120.00
G01 X42.5913 Y17.4378 F120.00
G01 X42.5945 Y17.4287 F120.00
G01 X42.5969 Y17.4193 F120.00
G01 X42.5983 Y17.4097 F120.00
G01 X42.5988 Y17.4000 F120.00
G00 Z2.0000
G00 X49.8488 Y-20.5000
G01 F60.00
G01 Z-0.4000
G01 F120.00
G01 X49.8459 Y-20.5587 F120.00
G01 X49.8373 Y-20.6168 F120.00
G01 X49.8230 Y-20.6738 F120.00
G01 X49.8032 Y-20.7291 F120.00
G01 X49.7781 Y-20.7823 F120.00
G01 X49.7479 Y-20.8327 F120.00
G01 X49.7129 Y-20.8799 F120.00
G01 X49.6734 Y-20.9234 F120.00
G01 X49.6299 Y-20.9629 F120.00
G01 X49.5827 Y-20.9979 F120.00
G01 X49.5323 Y-21.0281 F120.00
G01 X49.4791 Y-21.0532 F120.00
G01 X49.4238 Y-21.0730 F120.00
G01 X49.3668 Y-21.0873 F120.00
G01 X49.3087 Y-21.0959 F120.00
G01 X49.2500 Y-21.0988 F120.00
G01 X49.1913 Y-21.0959 F120.00
G01 X49.1332 Y-21.0873 F120.00
G01 X49.0762 Y-21.0730 F120.00
G01 X49.0209 Y-21.0532 F120.00
G01 X48.9677 Y-21.0281 F120.00
G01 X48.9173 Y-20.9979 F120.00
G01 X48.8701 Y-20.9629 F120.00
G01 X48.8266 Y-20.9234 F120.00
G01 X48.7871 Y-20.8799 F120.00
G01 X48.7521 Y-20.8327 F120.00
G01 X48.7219 Y-20.7823 F120.00
G01 X48.6968 Y-20.7291 F120.00
G01 X48.6770 Y-20.6738 F120.00
G01 X48.6627 Y-20.6168 F120.00
G01 X48.6541 Y-20.5587 F120.00
G01 X48.6512 Y-20.5000 F120.00
G01 X48.6541 Y-20.4413 F120.00
G01 X48.6627 Y-20.3832 F120.00
G01 X48.6770 Y-20.3262 F120.00
G01 X48.6968 Y-20.2709 F120.00
G01 X48.7219 Y-20.2177 F120.00
G01 X48.7521 Y-20.1673 F120.00
G01 X48.7871 Y-20.1201 F120.00
G01 X48.8266 Y-20.0766 F120.00
G01 X48.8701 Y-20.0371 F120.00
G01 X48.9173 Y-20.0021 F120.00
G01 X48.9677 Y-19.9719 F120.00
G01 X49.0209 Y-19.9468 F120.00
G01 X49.0762 Y-19.9270 F120.00
G01 X49.1332 Y-19.9127 F120.00
G01 X49.1913 Y-19.9041 F120.00
G01 X49.2500 Y-19.9012 F120.00
G01 X49.3087 Y-19.9041 F120.00
G01 X49.3668 Y-19.9127 F120.00
G01 X49.4238 Y-19.9270 F120.00
G01 X49.4791 Y-19.9468 F120.00
G01 X49.5323 Y-19.9719 F120.00
G01 X49.5827 Y-20.0021 F120.00
G01 X49.6299 Y-20.0371 F120.00
G01 X49.6734 Y-20.0766 F120.00
G01 X49.7129 Y-20.1201 F120.00
G01 X49.7479 Y-20.1673 F120.00
G01 X49.7781 Y-20.2177 F120.00
G01 X49.8032 Y-20.2709 F120.00
G01 X49.8230 Y-20.3262 F120.00
G01 X49.8373 Y-20.3832 F120.00
G01 X49.8459 Y-20.4413 F120.00
G01 X49.8488 Y-20.5000 F120.00
G00 X49.8488 Y-20.5000
G01 F60.00
G01 Z-0.8000
G01 F120.00
G01 X49.8459 Y-20.5587 F120.00
G01 X49.8373 Y-20.6168 F120.00
G01 X49.8230 Y-20.6738 F120.00
G01 X49.8032 Y-20.7291 F120.00
G01 X49.7781 Y-20.7823 F120.00
G01 X49.7479 Y-20.8327 F120.00
G01 X49.7129 Y-20.8799 F120.00
G01 X49.6734 Y-20.9234 F120.00
G01 X49.6299 Y-20.9629 F120.00
G01 X49.5827 Y-20.9979 F120.00
G01 X49.5323 Y-21.0281 F120.00
G01 X49.4791 Y-21.0532 F120.00
G01 X49.4238 Y-21.0730 F120.00
G01 X49.3668 Y-21.0873 F120.00
G01 X49.3087 Y-21.0959 F120.00
G01 X49.2500 Y-21.0988 F120.00
G01 X49.1913 Y-21.0959 F120.00
G01 X49.1332 Y-21.0873 F120.00
G01 X49.0762 Y-21.0730 F120.00
G01 X49.0209 Y-21.0532 F120.00
G01 X48.9677 Y-21.0281 F120.00
G01 X48.9173 Y-20.9979 F120.00
G01 X48.8701 Y-20.9629 F120.00
G01 X48.8266 Y-20.9234 F120.00
G01 X48.7871 Y-20.8799 F120.00
G01 X48.7521 Y-20.8327 F120.00
G01 X48.7219 Y-20.7823 F120.00
G01 X48.6968 Y-20.7291 F120.00
G01 X48.6770 Y-20.6738 F120.00
G01 X48.6627 Y-20.6168 F120.00
G01 X48.6541 Y-20.5587 F120.00
G01 X48.6512 Y-20.5000 F120.00
G01 X48.6541 Y-20.4413 F120.00
G01 X48.6627 Y-20.3832 F120.00
G01 X48.6770 Y-20.3262 F120.00
G01 X48.6968 Y-20.2709 F120.00
G01 X48.7219 Y-20.2177 F120.00
G01 X48.7521 Y-20.1673 F120.00
G01 X48.7871 Y-20.1201 F120.00
G01 X48.8266 Y-20.0766 F120.00
G01 X48.8701 Y-20.0371 F120.00
G01 X48.9173 Y-20.0021 F120.00
G01 X48.9677 Y-19.9719 F120.00
G01 X49.0209 Y-19.9468 F120.00
G01 X49.0762 Y-19.9270 F120.00
G01 X49.1332 Y-19.9127 F120.00
G01 X49.1913 Y-19.9041 F120.00
G01 X49.2500 Y-19.9012 F120.00
G01 X49.3087 Y-19.9041 F120.00
G01 X49.3668 Y-19.9127 F120.00
G01 X49.4238 Y-19.9270 F120.00
G01 X49.4791 Y-19.9468 F120.00
G01 X49.5323 Y-19.9719 F120.00
G01 X49.5827 Y-20.0021 F120.00
G01 X49.6299 Y-20.0371 F120.00
G01 X49.6734 Y-20.0766 F120.00
G01 X49.7129 Y-20.1201 F120.00
G01 X49.7479 Y-20.1673 F120.00
G01 X49.7781 Y-20.2177 F120.00
G01 X49.8032 Y-20.2709 F120.00
G01 X49.8230 Y-20.3262 F120.00
G01 X49.8373 Y-20.3832 F120.00
G01 X49.8459 Y-20.4413 F120.00
G01 X49.8488 Y-20.5000 F120.00
G00 X49.8488 Y-20.5000
G01 F60.00
G01 Z-1.2000
G01 F120.00
G01 X49.8459 Y-20.5587 F120.00
G01 X49.8373 Y-20.6168 F120.00
G01 X49.8230 Y-20.6738 F120.00
G01 X49.8032 Y-20.7291 F120.00
G01 X49.7781 Y-20.7823 F120.00
G01 X49.7479 Y-20.8327 F120.00
G01 X49.7129 Y-20.8799 F120.00
G01 X49.6734 Y-20.9234 F120.00
G01 X49.6299 Y-20.9629 F120.00
G01 X49.5827 Y-20.9979 F120.00
G01 X49.5323 Y-21.0281 F120.00
G01 X49.4791 Y-21.0532 F120.00
G01 X49.4238 Y-21.0730 F120.00
G01 X49.3668 Y-21.0873 F120.00
G01 X49.3087 Y-21.0959 F120.00
G01 X49.2500 Y-21.0988 F120.00
G01 X49.1913 Y-21.0959 F120.00
G01 X49.1332 Y-21.0873 F120.00
G01 X49.0762 Y-21.0730 F120.00
G01 X49.0209 Y-21.0532 F120.00
G01 X48.9677 Y-21.0281 F120.00
G01 X48.9173 Y-20.9979 F120.00
G01 X48.8701 Y-20.9629 F120.00
G01 X48.8266 Y-20.9234 F120.00
G01 X48.7871 Y-20.8799 F120.00
G01 X48.7521 Y-20.8327 F120.00
G01 X48.7219 Y-20.7823 F120.00
G01 X48.6968 Y-20.7291 F120.00
G01 X48.6770 Y-20.6738 F120.00
G01 X48.6627 Y-20.6168 F120.00
G01 X48.6541 Y-20.5587 F120.00
G01 X48.6512 Y-20.5000 F120.00
G01 X48.6541 Y-20.4413 F120.00
G01 X48.6627 Y-20.3832 F120.00
G01 X48.6770 Y-20.3262 F120.00
G01 X48.6968 Y-20.2709 F120.00
G01 X48.7219 Y-20.2177 F120.00
G01 X48.7521 Y-20.1673 F120.00
G01 X48.7871 Y-20.1201 F120.00
G01 X48.8266 Y-20.0766 F120.00
G01 X48.8701 Y-20.0371 F120.00
G01 X48.9173 Y-20.0021 F120.00
G01 X48.9677 Y-19.9719 F120.00
G01 X49.0209 Y-19.9468 F120.00
G01 X49.0762 Y-19.9270 F120.00
G01 X49.1332 Y-19.9127 F120.00
G01 X49.1913 Y-19.9041 F120.00
G01 X49.2500 Y-19.9012 F120.00
G01 X49.3087 Y-19.9041 F120.00
G01 X49.3668 Y-19.9127 F120.00
G01 X49.4238 Y-19.9270 F120.00
G01 X49.4791 Y-19.9468 F120.00
G01 X49.5323 Y-19.9719 F120.00
G01 X49.5827 Y-20.0021 F120.00
G01 X49.6299 Y-20.0371 F120.00
G01 X49.6734 Y-20.0766 F120.00
G01 X49.7129 Y-20.1201 F120.00
G01 X49.7479 Y-20.1673 F120.00
G01 X49.7781 Y-20.2177 F120.00
G01 X49.8032 Y-20.2709 F120.00
G01 X49.8230 Y-20.3262 F120.00
G01 X49.8373 Y-20.3832 F120.00
G01 X49.8459 Y-20.4413 F120.00
G01 X49.8488 Y-20.5000 F120.00
G00 X49.8488 Y-20.5000
G01 F60.00
G01 Z-1.6000
G01 F120.00
G01 X49.8459 Y-20.5587 F120.00
G01 X49.8373 Y-20.6168 F120.00
G01 X49.8230 Y-20.6738 F120.00
G01 X49.8032 Y-20.7291 F120.00
G01 X49.7781 Y-20.7823 F120.00
G01 X49.7479 Y-20.8327 F120.00
G01 X49.7129 Y-20.8799 F120.00
G01 X49.6734 Y-20.9234 F120.00
G01 X49.6299 Y-20.9629 F120.00
G01 X49.5827 Y-20.9979 F120.00
G01 X49.5323 Y-21.0281 F120.00
G01 X49.4791 Y-21.0532 F120.00
G01 X49.4238 Y-21.0730 F120.00
G01 X49.3668 Y-21.0873 F120.00
G01 X49.3087 Y-21.0959 F120.00
G01 X49.2500 Y-21.0988 F120.00
G01 X49.1913 Y-21.0959 F120.00
G01 X49.1332 Y-21.0873 F120.00
G01 X49.0762 Y-21.0730 F120.00
G01 X49.0209 Y-21.0532 F120.00
G01 X48.9677 Y-21.0281 F120.00
G01 X48.9173 Y-20.9979 F120.00
G01 X48.8701 Y-20.9629 F120.00
G01 X48.8266 Y-20.9234 F120.00
G01 X48.7871 Y-20.8799 F120.00
G01 X48.7521 Y-20.8327 F120.00
G01 X48.7219 Y-20.7823 F120.00
G01 X48.6968 Y-20.7291 F120.00
G01 X48.6770 Y-20.6738 F120.00
G01 X48.6627 Y-20.6168 F120.00
G01 X48.6541 Y-20.5587 F120.00
G01 X48.6512 Y-20.5000 F120.00
G01 X48.6541 Y-20.4413 F120.00
G01 X48.6627 Y-20.3832 F120.00
G01 X48.6770 Y-20.3262 F120.00
G01 X48.6968 Y-20.2709 F120.00
G01 X48.7219 Y-20.2177 F120.00
G01 X48.7521 Y-20.1673 F120.00
G01 X48.7871 Y-20.1201 F120.00
G01 X48.8266 Y-20.0766 F120.00
G01 X48.8701 Y-20.0371 F120.00
G01 X48.9173 Y-20.0021 F120.00
G01 X48.9677 Y-19.9719 F120.00
G01 X49.0209 Y-19.9468 F120.00
G01 X49.0762 Y-19.9270 F120.00
G01 X49.1332 Y-19.9127 F120.00
G01 X49.1913 Y-19.9041 F120.00
G01 X49.2500 Y-19.9012 F120.00
G01 X49.3087 Y-19.9041 F120.00
G01 X49.3668 Y-19.9127 F120.00
G01 X49.4238 Y-19.9270 F120.00
G01 X49.4791 Y-19.9468 F120.00
G01 X49.5323 Y-19.9719 F120.00
G01 X49.5827 Y-20.0021 F120.00
G01 X49.6299 Y-20.0371 F120.00
G01 X49.6734 Y-20.0766 F120.00
G01 X49.7129 Y-20.1201 F120.00
G01 X49.7479 Y-20.1673 F120.00
G01 X49.7781 Y-20.2177 F120.00
G01 X49.8032 Y-20.2709 F120.00
G01 X49.8230 Y-20.3262 F120.00
G01 X49.8373 Y-20.3832 F120.00
G01 X49.8459 Y-20.4413 F120.00
G01 X49.8488 Y-20.5000 F120.00
G00 X49.8488 Y-20.5000
G01 F60.00
G01 Z-2.0000
G01 F120.00
G01 X49.8459 Y-20.5587 F120.00
G01 X49.8373 Y-20.6168 F120.00
G01 X49.8230 Y-20.6738 F120.00
G01 X49.8032 Y-20.7291 F120.00
G01 X49.7781 Y-20.7823 F120.00
G01 X49.7479 Y-20.8327 F120.00
G01 X49.7129 Y-20.8799 F120.00
G01 X49.6734 Y-20.9234 F120.00
G01 X49.6299 Y-20.9629 F120.00
G01 X49.5827 Y-20.9979 F120.00
G01 X49.5323 Y-21.0281 F120.00
G01 X49.4791 Y-21.0532 F120.00
G01 X49.4238 Y-21.0730 F120.00
G01 X49.3668 Y-21.0873 F120.00
G01 X49.3087 Y-21.0959 F120.00
G01 X49.2500 Y-21.0988 F120.00
G01 X49.1913 Y-21.0959 F120.00
G01 X49.1332 Y-21.0873 F120.00
G01 X49.0762 Y-21.0730 F120.00
G01 X49.0209 Y-21.0532 F120.00
G01 X48.9677 Y-21.0281 F120.00
G01 X48.9173 Y-20.9979 F120.00
G01 X48.8701 Y-20.9629 F120.00
G01 X48.8266 Y-20.9234 F120.00
G01 X48.7871 Y-20.8799 F120.00
G01 X48.7521 Y-20.8327 F120.00
G01 X48.7219 Y-20.7823 F120.00
G01 X48.6968 Y-20.7291 F120.00
G01 X48.6770 Y-20.6738 F120.00
G01 X48.6627 Y-20.6168 F120.00
G01 X48.6541 Y-20.5587 F120.00
G01 X48.6512 Y-20.5000 F120.00
G01 X48.6541 Y-20.4413 F120.00
G01 X48.6627 Y-20.3832 F120.00
G01 X48.6770 Y-20.3262 F120.00
G01 X48.6968 Y-20.2709 F120.00
G01 X48.7219 Y-20.2177 F120.00
G01 X48.7521 Y-20.1673 F120.00
G01 X48.7871 Y-20.1201 F120.00
G01 X48.8266 Y-20.0766 F120.00
G01 X48.8701 Y-20.0371 F120.00
G01 X48.9173 Y-20.0021 F120.00
G01 X48.9677 Y-19.9719 F120.00
G01 X49.0209 Y-19.9468 F120.00
G01 X49.0762 Y-19.9270 F120.00
G01 X49.1332 Y-19.9127 F120.00
G01 X49.1913 Y-19.9041 F120.00
G01 X49.2500 Y-19.9012 F120.00
G01 X49.3087 Y-19.9041 F120.00
G01 X49.3668 Y-19.9127 F120.00
G01 X49.4238 Y-19.9270 F120.00
G01 X49.4791 Y-19.9468 F120.00
G01 X49.5323 Y-19.9719 F120.00
G01 X49.5827 Y-20.0021 F120.00
G01 X49.6299 Y-20.0371 F120.00
G01 X49.6734 Y-20.0766 F120.00
G01 X49.7129 Y-20.1201 F120.00
G01 X49.7479 Y-20.1673 F120.00
G01 X49.7781 Y-20.2177 F120.00
G01 X49.8032 Y-20.2709 F120.00
G01 X49.8230 Y-20.3262 F120.00
G01 X49.8373 Y-20.3832 F120.00
G01 X49.8459 Y-20.4413 F120.00
G01 X49.8488 Y-20.5000 F120.00
G00 X49.8488 Y-20.5000
G01 F60.00
G01 Z-2.4000
G01 F120.00
G01 X49.8459 Y-20.5587 F120.00
G01 X49.8373 Y-20.6168 F120.00
G01 X49.8230 Y-20.6738 F120.00
G01 X49.8032 Y-20.7291 F120.00
G01 X49.7781 Y-20.7823 F120.00
G01 X49.7479 Y-20.8327 F120.00
G01 X49.7129 Y-20.8799 F120.00
G01 X49.6734 Y-20.9234 F120.00
G01 X49.6299 Y-20.9629 F120.00
G01 X49.5827 Y-20.9979 F120.00
G01 X49.5323 Y-21.0281 F120.00
G01 X49.4791 Y-21.0532 F120.00
G01 X49.4238 Y-21.0730 F120.00
G01 X49.3668 Y-21.0873 F120.00
G01 X49.3087 Y-21.0959 F120.00
G01 X49.2500 Y-21.0988 F120.00
G01 X49.1913 Y-21.0959 F120.00
G01 X49.1332 Y-21.0873 F120.00
G01 X49.0762 Y-21.0730 F120.00
G01 X49.0209 Y-21.0532 F120.00
G01 X48.9677 Y-21.0281 F120.00
G01 X48.9173 Y-20.9979 F120.00
G01 X48.8701 Y-20.9629 F120.00
G01 X48.8266 Y-20.9234 F120.00
G01 X48.7871 Y-20.8799 F120.00
G01 X48.7521 Y-20.8327 F120.00
G01 X48.7219 Y-20.7823 F120.00
G01 X48.6968 Y-20.7291 F120.00
G01 X48.6770 Y-20.6738 F120.00
G01 X48.6627 Y-20.6168 F120.00
G01 X48.6541 Y-20.5587 F120.00
G01 X48.6512 Y-20.5000 F120.00
G01 X48.6541 Y-20.4413 F120.00
G01 X48.6627 Y-20.3832 F120.00
G01 X48.6770 Y-20.3262 F120.00
G01 X48.6968 Y-20.2709 F120.00
G01 X48.7219 Y-20.2177 F120.00
G01 X48.7521 Y-20.1673 F120.00
G01 X48.7871 Y-20.1201 F120.00
G01 X48.8266 Y-20.0766 F120.00
G01 X48.8701 Y-20.0371 F120.00
G01 X48.9173 Y-20.0021 F120.00
G01 X48.9677 Y-19.9719 F120.00
G01 X49.0209 Y-19.9468 F120.00
G01 X49.0762 Y-19.9270 F120.00
G01 X49.1332 Y-19.9127 F120.00
G01 X49.1913 Y-19.9041 F120.00
G01 X49.2500 Y-19.9012 F120.00
G01 X49.3087 Y-19.9041 F120.00
G01 X49.3668 Y-19.9127 F120.00
G01 X49.4238 Y-19.9270 F120.00
G01 X49.4791 Y-19.9468 F120.00
G01 X49.5323 Y-19.9719 F120.00
G01 X49.5827 Y-20.0021 F120.00
G01 X49.6299 Y-20.0371 F120.00
G01 X49.6734 Y-20.0766 F120.00
G01 X49.7129 Y-20.1201 F120.00
G01 X49.7479 Y-20.1673 F120.00
G01 X49.7781 Y-20.2177 F120.00
G01 X49.8032 Y-20.2709 F120.00
G01 X49.8230 Y-20.3262 F120.00
G01 X49.8373 Y-20.3832 F120.00
G01 X49.8459 Y-20.4413 F120.00
G01 X49.8488 Y-20.5000 F120.00
G00 Z2.0000
G00 X-15.4512 Y8.6000
G01 F60.00
G01 Z-0.4000
G01 F120.00
G01 X-15.4517 Y8.5903 F120.00
G01 X-15.4531 Y8.5807 F120.00
G01 X-15.4555 Y8.5713 F120.00
G01 X-15.4587 Y8.5622 F120.00
G01 X-15.4629 Y8.5534 F120.00
G01 X-15.4679 Y8.5451 F120.00
G01 X-15.4736 Y8.5373 F120.00
G01 X-15.4801 Y8.5301 F120.00
G01 X-15.4873 Y8.5236 F120.00
G01 X-15.4951 Y8.5179 F120.00
G01 X-15.5034 Y8.5129 F120.00
G01 X-15.5122 Y8.5087 F120.00
G01 X-15.5213 Y8.5055 F120.00
G01 X-15.5307 Y8.5031 F120.00
G01 X-15.5403 Y8.5017 F120.00
G01 X-15.5500 Y8.5012 F120.00
G01 X-15.5597 Y8.5017 F120.00
G01 X-15.5693 Y8.5031 F120.00
G01 X-15.5787 Y8.5055 F120.00
G01 X-15.5878 Y8.5087 F120.00
G01 X-15.5966 Y8.5129 F120.00
G01 X-15.6049 Y8.5179 F120.00
G01 X-15.6127 Y8.5236 F120.00
G01 X-15.6199 Y8.5301 F120.00
G01 X-15.6264 Y8.5373 F120.00
G01 X-15.6321 Y8.5451 F120.00
G01 X-15.6371 Y8.5534 F120.00
G01 X-15.6413 Y8.5622 F120.00
G01 X-15.6445 Y8.5713 F120.00
G01 X-15.6469 Y8.5807 F120.00
G01 X-15.6483 Y8.5903 F120.00
G01 X-15.6488 Y8.6000 F120.00
G01 X-15.6483 Y8.6097 F120.00
G01 X-15.6469 Y8.6193 F120.00
G01 X-15.6445 Y8.6287 F120.00
G01 X-15.6413 Y8.6378 F120.00
G01 X-15.6371 Y8.6466 F120.00
G01 X-15.6321 Y8.6549 F120.00
G01 X-15.6264 Y8.6627 F120.00
G01 X-15.6199 Y8.6699 F120.00
G01 X-15.6127 Y8.6764 F120.00
G01 X-15.6049 Y8.6821 F120.00
G01 X-15.5966 Y8.6871 F120.00
G01 X-15.5878 Y8.6913 F120.00
G01 X-15.5787 Y8.6945 F120.00
G01 X-15.5693 Y8.6969 F120.00
G01 X-15.5597 Y8.6983 F120.00
G01 X-15.5500 Y8.6988 F120.00
G01 X-15.5403 Y8.6983 F120.00
G01 X-15.5307 Y8.6969 F120.00
G01 X-15.5213 Y8.6945 F120.00
G01 X-15.5122 Y8.6913 F120.00
G01 X-15.5034 Y8.6871 F120.00
G01 X-15.4951 Y8.6821 F120.00
G01 X-15.4873 Y8.6764 F120.00
G01 X-15.4801 Y8.6699 F120.00
G01 X-15.4736 Y8.6627 F120.00
G01 X-15.4679 Y8.6549 F120.00
G01 X-15.4629 Y8.6466 F120.00
G01 X-15.4587 Y8.6378 F120.00
G01 X-15.4555 Y8.6287 F120.00
G01 X-15.4531 Y8.6193 F120.00
G01 X-15.4517 Y8.6097 F120.00
G01 X-15.4512 Y8.6000 F120.00
G00 X-15.4512 Y8.6000
G01 F60.00
G01 Z-0.8000
G01 F120.00
G01 X-15.4517 Y8.5903 F120.00
G01 X-15.4531 Y8.5807 F120.00
G01 X-15.4555 Y8.5713 F120.00
G01 X-15.4587 Y8.5622 F120.00
G01 X-15.4629 Y8.5534 F120.00
G01 X-15.4679 Y8.5451 F120.00
G01 X-15.4736 Y8.5373 F120.00
G01 X-15.4801 Y8.5301 F120.00
G01 X-15.4873 Y8.5236 F120.00
G01 X-15.4951 Y8.5179 F120.00
G01 X-15.5034 Y8.5129 F120.00
G01 X-15.5122 Y8.5087 F120.00
G01 X-15.5213 Y8.5055 F120.00
G01 X-15.5307 Y8.5031 F120.00
G01 X-15.5403 Y8.5017 F120.00
G01 X-15.5500 Y8.5012 F120.00
G01 X-15.5597 Y8.5017 F120.00
G01 X-15.5693 Y8.5031 F120.00
G01 X-15.5787 Y8.5055 F120.00
G01 X-15.5878 Y8.5087 F120.00
G01 X-15.5966 Y8.5129 F120.00
G01 X-15.6049 Y8.5179 F120.00
G01 X-15.6127 Y8.5236 F120.00
G01 X-15.6199 Y8.5301 F120.00
G01 X-15.6264 Y8.5373 F120.00
G01 X-15.6321 Y8.5451 F120.00
G01 X-15.6371 Y8.5534 F120.00
G01 X-15.6413 Y8.5622 F120.00
G01 X-15.6445 Y8.5713 F120.00
G01 X-15.6469 Y8.5807 F120.00
G01 X-15.6483 Y8.5903 F120.00
G01 X-15.6488 Y8.6000 F120.00
G01 X-15.6483 Y8.6097 F120.00
G01 X-15.6469 Y8.6193 F120.00
G01 X-15.6445 Y8.6287 F120.00
G01 X-15.6413 Y8.6378 F120.00
G01 X-15.6371 Y8.6466 F120.00
G01 X-15.6321 Y8.6549 F120.00
G01 X-15.6264 Y8.6627 F120.00
G01 X-15.6199 Y8.6699 F120.00
G01 X-15.6127 Y8.6764 F120.00
G01 X-15.6049 Y8.6821 F120.00
G01 X-15.5966 Y8.6871 F120.00
G01 X-15.5878 Y8.6913 F120.00
G01 X-15.5787 Y8.6945 F120.00
G01 X-15.5693 Y8.6969 F120.00
G01 X-15.5597 Y8.6983 F120.00
G01 X-15.5500 Y8.6988 F120.00
G01 X-15.5403 Y8.6983 F120.00
G01 X-15.5307 Y8.6969 F120.00
G01 X-15.5213 Y8.6945 F120.00
G01 X-15.5122 Y8.6913 F120.00
G01 X-15.5034 Y8.6871 F120.00
G01 X-15.4951 Y8.6821 F120.00
G01 X-15.4873 Y8.6764 F120.00
G01 X-15.4801 Y8.6699 F120.00
G01 X-15.4736 Y8.6627 F120.00
G01 X-15.4679 Y8.6549 F120.00
G01 X-15.4629 Y8.6466 F120.00
G01 X-15.4587 Y8.6378 F120.00
G01 X-15.4555 Y8.6287 F120.00
G01 X-15.4531 Y8.6193 F120.00
G01 X-15.4517 Y8.6097 F120.00
G01 X-15.4512 Y8.6000 F120.00
G00 X-15.4512 Y8.6000
G01 F60.00
G01 Z-1.2000
G01 F120.00
G01 X-15.4517 Y8.5903 F120.00
G01 X-15.4531 Y8.5807 F120.00
G01 X-15.4555 Y8.5713 F120.00
G01 X-15.4587 Y8.5622 F120.00
G01 X-15.4629 Y8.5534 F120.00
G01 X-15.4679 Y8.5451 F120.00
G01 X-15.4736 Y8.5373 F120.00
G01 X-15.4801 Y8.5301 F120.00
G01 X-15.4873 Y8.5236 F120.00
G01 X-15.4951 Y8.5179 F120.00
G01 X-15.5034 Y8.5129 F120.00
G01 X-15.5122 Y8.5087 F120.00
G01 X-15.5213 Y8.5055 F120.00
G01 X-15.5307 Y8.5031 F120.00
G01 X-15.5403 Y8.5017 F120.00
G01 X-15.5500 Y8.5012 F120.00
G01 X-15.5597 Y8.5017 F120.00
G01 X-15.5693 Y8.5031 F120.00
G01 X-15.5787 Y8.5055 F120.00
G01 X-15.5878 Y8.5087 F120.00
G01 X-15.5966 Y8.5129 F120.00
G01 X-15.6049 Y8.5179 F120.00
G01 X-15.6127 Y8.5236 F120.00
G01 X-15.6199 Y8.5301 F120.00
G01 X-15.6264 Y8.5373 F120.00
G01 X-15.6321 Y8.5451 F120.00
G01 X-15.6371 Y8.5534 F120.00
G01 X-15.6413 Y8.5622 F120.00
G01 X-15.6445 Y8.5713 F120.00
G01 X-15.6469 Y8.5807 F120.00
G01 X-15.6483 Y8.5903 F120.00
G01 X-15.6488 Y8.6000 F120.00
G01 X-15.6483 Y8.6097 F120.00
G01 X-15.6469 Y8.6193 F120.00
G01 X-15.6445 Y8.6287 F120.00
G01 X-15.6413 Y8.6378 F120.00
G01 X-15.6371 Y8.6466 F120.00
G01 X-15.6321 Y8.6549 F120.00
G01 X-15.6264 Y8.6627 F120.00
G01 X-15.6199 Y8.6699 F120.00
G01 X-15.6127 Y8.6764 F120.00
G01 X-15.6049 Y8.6821 F120.00
G01 X-15.5966 Y8.6871 F120.00
G01 X-15.5878 Y8.6913 F120.00
G01 X-15.5787 Y8.6945 F120.00
G01 X-15.5693 Y8.6969 F120.00
G01 X-15.5597 Y8.6983 F120.00
G01 X-15.5500 Y8.6988 F120.00
G01 X-15.5403 Y8.6983 F120.00
G01 X-15.5307 Y8.6969 F120.00
G01 X-15.5213 Y8.6945 F120.00
G01 X-15.5122 Y8.6913 F120.00
G01 X-15.5034 Y8.6871 F120.00
G01 X-15.4951 Y8.6821 F120.00
G01 X-15.4873 Y8.6764 F120.00
G01 X-15.4801 Y8.6699 F120.00
G01 X-15.4736 Y8.6627 F120.00
G01 X-15.4679 Y8.6549 F120.00
G01 X-15.4629 Y8.6466 F120.00
G01 X-15.4587 Y8.6378 F120.00
G01 X-15.4555 Y8.6287 F120.00
G01 X-15.4531 Y8.6193 F120.00
G01 X-15.4517 Y8.6097 F120.00
G01 X-15.4512 Y8.6000 F120.00
G00 X-15.4512 Y8.6000
G01 F60.00
G01 Z-1.6000
G01 F120.00
G01 X-15.4517 Y8.5903 F120.00
G01 X-15.4531 Y8.5807 F120.00
G01 X-15.4555 Y8.5713 F120.00
G01 X-15.4587 Y8.5622 F120.00
G01 X-15.4629 Y8.5534 F120.00
G01 X-15.4679 Y8.5451 F120.00
G01 X-15.4736 Y8.5373 F120.00
G01 X-15.4801 Y8.5301 F120.00
G01 X-15.4873 Y8.5236 F120.00
G01 X-15.4951 Y8.5179 F120.00
G01 X-15.5034 Y8.5129 F120.00
G01 X-15.5122 Y8.5087 F120.00
G01 X-15.5213 Y8.5055 F120.00
G01 X-15.5307 Y8.5031 F120.00
G01 X-15.5403 Y8.5017 F120.00
G01 X-15.5500 Y8.5012 F120.00
G01 X-15.5597 Y8.5017 F120.00
G01 X-15.5693 Y8.5031 F120.00
G01 X-15.5787 Y8.5055 F120.00
G01 X-15.5878 Y8.5087 F120.00
G01 X-15.5966 Y8.5129 F120.00
G01 X-15.6049 Y8.5179 F120.00
G01 X-15.6127 Y8.5236 F120.00
G01 X-15.6199 Y8.5301 F120.00
G01 X-15.6264 Y8.5373 F120.00
G01 X-15.6321 Y8.5451 F120.00
G01 X-15.6371 Y8.5534 F120.00
G01 X-15.6413 Y8.5622 F120.00
G01 X-15.6445 Y8.5713 F120.00
G01 X-15.6469 Y8.5807 F120.00
G01 X-15.6483 Y8.5903 F120.00
G01 X-15.6488 Y8.6000 F120.00
G01 X-15.6483 Y8.6097 F120.00
G01 X-15.6469 Y8.6193 F120.00
G01 X-15.6445 Y8.6287 F120.00
G01 X-15.6413 Y8.6378 F120.00
G01 X-15.6371 Y8.6466 F120.00
G01 X-15.6321 Y8.6549 F120.00
G01 X-15.6264 Y8.6627 F120.00
G01 X-15.6199 Y8.6699 F120.00
G01 X-15.6127 Y8.6764 F120.00
G01 X-15.6049 Y8.6821 F120.00
G01 X-15.5966 Y8.6871 F120.00
G01 X-15.5878 Y8.6913 F120.00
G01 X-15.5787 Y8.6945 F120.00
G01 X-15.5693 Y8.6969 F120.00
G01 X-15.5597 Y8.6983 F120.00
G01 X-15.5500 Y8.6988 F120.00
G01 X-15.5403 Y8.6983 F120.00
G01 X-15.5307 Y8.6969 F120.00
G01 X-15.5213 Y8.6945 F120.00
G01 X-15.5122 Y8.6913 F120.00
G01 X-15.5034 Y8.6871 F120.00
G01 X-15.4951 Y8.6821 F120.00
G01 X-15.4873 Y8.6764 F120.00
G01 X-15.4801 Y8.6699 F120.00
G01 X-15.4736 Y8.6627 F120.00
G01 X-15.4679 Y8.6549 F120.00
G01 X-15.4629 Y8.6466 F120.00
G01 X-15.4587 Y8.6378 F120.00
G01 X-15.4555 Y8.6287 F120.00
G01 X-15.4531 Y8.6193 F120.00
G01 X-15.4517 Y8.6097 F120.00
G01 X-15.4512 Y8.6000 F120.00
G00 X-15.4512 Y8.6000
G01 F60.00
G01 Z-2.0000
G01 F120.00
G01 X-15.4517 Y8.5903 F120.00
G01 X-15.4531 Y8.5807 F120.00
G01 X-15.4555 Y8.5713 F120.00
G01 X-15.4587 Y8.5622 F120.00
G01 X-15.4629 Y8.5534 F120.00
G01 X-15.4679 Y8.5451 F120.00
G01 X-15.4736 Y8.5373 F120.00
G01 X-15.4801 Y8.5301 F120.00
G01 X-15.4873 Y8.5236 F120.00
G01 X-15.4951 Y8.5179 F120.00
G01 X-15.5034 Y8.5129 F120.00
G01 X-15.5122 Y8.5087 F120.00
G01 X-15.5213 Y8.5055 F120.00
G01 X-15.5307 Y8.5031 F120.00
G01 X-15.5403 Y8.5017 F120.00
G01 X-15.5500 Y8.5012 F120.00
G01 X-15.5597 Y8.5017 F120.00
G01 X-15.5693 Y8.5031 F120.00
G01 X-15.5787 Y8.5055 F120.00
G01 X-15.5878 Y8.5087 F120.00
G01 X-15.5966 Y8.5129 F120.00
G01 X-15.6049 Y8.5179 F120.00
G01 X-15.6127 Y8.5236 F120.00
G01 X-15.6199 Y8.5301 F120.00
G01 X-15.6264 Y8.5373 F120.00
G01 X-15.6321 Y8.5451 F120.00
G01 X-15.6371 Y8.5534 F120.00
G01 X-15.6413 Y8.5622 F120.00
G01 X-15.6445 Y8.5713 F120.00
G01 X-15.6469 Y8.5807 F120.00
G01 X-15.6483 Y8.5903 F120.00
G01 X-15.6488 Y8.6000 F120.00
G01 X-15.6483 Y8.6097 F120.00
G01 X-15.6469 Y8.6193 F120.00
G01 X-15.6445 Y8.6287 F120.00
G01 X-15.6413 Y8.6378 F120.00
G01 X-15.6371 Y8.6466 F120.00
G01 X-15.6321 Y8.6549 F120.00
G01 X-15.6264 Y8.6627 F120.00
G01 X-15.6199 Y8.6699 F120.00
G01 X-15.6127 Y8.6764 F120.00
G01 X-15.6049 Y8.6821 F120.00
G01 X-15.5966 Y8.6871 F120.00
G01 X-15.5878 Y8.6913 F120.00
G01 X-15.5787 Y8.6945 F120.00
G01 X-15.5693 Y8.6969 F120.00
G01 X-15.5597 Y8.6983 F120.00
G01 X-15.5500 Y8.6988 F120.00
G01 X-15.5403 Y8.6983 F120.00
G01 X-15.5307 Y8.6969 F120.00
G01 X-15.5213 Y8.6945 F120.00
G01 X-15.5122 Y8.6913 F120.00
G01 X-15.5034 Y8.6871 F120.00
G01 X-15.4951 Y8.6821 F120.00
G01 X-15.4873 Y8.6764 F120.00
G01 X-15.4801 Y8.6699 F120.00
G01 X-15.4736 Y8.6627 F120.00
G01 X-15.4679 Y8.6549 F120.00
G01 X-15.4629 Y8.6466 F120.00
G01 X-15.4587 Y8.6378 F120.00
G01 X-15.4555 Y8.6287 F120.00
G01 X-15.4531 Y8.6193 F120.00
G01 X-15.4517 Y8.6097 F120.00
G01 X-15.4512 Y8.6000 F120.00
G00 X-15.4512 Y8.6000
G01 F60.00
G01 Z-2.4000
G01 F120.00
G01 X-15.4517 Y8.5903 F120.00
G01 X-15.4531 Y8.5807 F120.00
G01 X-15.4555 Y8.5713 F120.00
G01 X-15.4587 Y8.5622 F120.00
G01 X-15.4629 Y8.5534 F120.00
G01 X-15.4679 Y8.5451 F120.00
G01 X-15.4736 Y8.5373 F120.00
G01 X-15.4801 Y8.5301 F120.00
G01 X-15.4873 Y8.5236 F120.00
G01 X-15.4951 Y8.5179 F120.00
G01 X-15.5034 Y8.5129 F120.00
G01 X-15.5122 Y8.5087 F120.00
G01 X-15.5213 Y8.5055 F120.00
G01 X-15.5307 Y8.5031 F120.00
G01 X-15.5403 Y8.5017 F120.00
G01 X-15.5500 Y8.5012 F120.00
G01 X-15.5597 Y8.5017 F120.00
G01 X-15.5693 Y8.5031 F120.00
G01 X-15.5787 Y8.5055 F120.00
G01 X-15.5878 Y8.5087 F120.00
G01 X-15.5966 Y8.5129 F120.00
G01 X-15.6049 Y8.5179 F120.00
G01 X-15.6127 Y8.5236 F120.00
G01 X-15.6199 Y8.5301 F120.00
G01 X-15.6264 Y8.5373 F120.00
G01 X-15.6321 Y8.5451 F120.00
G01 X-15.6371 Y8.5534 F120.00
G01 X-15.6413 Y8.5622 F120.00
G01 X-15.6445 Y8.5713 F120.00
G01 X-15.6469 Y8.5807 F120.00
G01 X-15.6483 Y8.5903 F120.00
G01 X-15.6488 Y8.6000 F120.00
G01 X-15.6483 Y8.6097 F120.00
G01 X-15.6469 Y8.6193 F120.00
G01 X-15.6445 Y8.6287 F120.00
G01 X-15.6413 Y8.6378 F120.00
G01 X-15.6371 Y8.6466 F120.00
G01 X-15.6321 Y8.6549 F120.00
G01 X-15.6264 Y8.6627 F120.00
G01 X-15.6199 Y8.6699 F120.00
G01 X-15.6127 Y8.6764 F120.00
G01 X-15.6049 Y8.6821 F120.00
G01 X-15.5966 Y8.6871 F120.00
G01 X-15.5878 Y8.6913 F120.00
G01 X-15.5787 Y8.6945 F120.00
G01 X-15.5693 Y8.6969 F120.00
G01 X-15.5597 Y8.6983 F120.00
G01 X-15.5500 Y8.6988 F120.00
G01 X-15.5403 Y8.6983 F120.00
G01 X-15.5307 Y8.6969 F120.00
G01 X-15.5213 Y8.6945 F120.00
G01 X-15.5122 Y8.6913 F120.00
G01 X-15.5034 Y8.6871 F120.00
G01 X-15.4951 Y8.6821 F120.00
G01 X-15.4873 Y8.6764 F120.00
G01 X-15.4801 Y8.6699 F120.00
G01 X-15.4736 Y8.6627 F120.00
G01 X-15.4679 Y8.6549 F120.00
G01 X-15.4629 Y8.6466 F120.00
G01 X-15.4587 Y8.6378 F120.00
G01 X-15.4555 Y8.6287 F120.00
G01 X-15.4531 Y8.6193 F120.00
G01 X-15.4517 Y8.6097 F120.00
G01 X-15.4512 Y8.6000 F120.00
G00 Z2.0000
G00 X-15.4512 Y17.4000
G01 F60.00
G01 Z-0.4000
G01 F120.00
G01 X-15.4517 Y17.3903 F120.00
G01 X-15.4531 Y17.3807 F120.00
G01 X-15.4555 Y17.3713 F120.00
G01 X-15.4587 Y17.3622 F120.00
G01 X-15.4629 Y17.3534 F120.00
G01 X-15.4679 Y17.3451 F120.00
G01 X-15.4736 Y17.3373 F120.00
G01 X-15.4801 Y17.3301 F120.00
G01 X-15.4873 Y17.3236 F120.00
G01 X-15.4951 Y17.3179 F120.00
G01 X-15.5034 Y17.3129 F120.00
G01 X-15.5122 Y17.3087 F120.00
G01 X-15.5213 Y17.3055 F120.00
G01 X-15.5307 Y17.3031 F120.00
G01 X-15.5403 Y17.3017 F120.00
G01 X-15.5500 Y17.3012 F120.00
G01 X-15.5597 Y17.3017 F120.00
G01 X-15.5693 Y17.3031 F120.00
G01 X-15.5787 Y17.3055 F120.00
G01 X-15.5878 Y17.3087 F120.00
G01 X-15.5966 Y17.3129 F120.00
G01 X-15.6049 Y17.3179 F120.00
G01 X-15.6127 Y17.3236 F120.00
G01 X-15.6199 Y17.3301 F120.00
G01 X-15.6264 Y17.3373 F120.00
G01 X-15.6321 Y17.3451 F120.00
G01 X-15.6371 Y17.3534 F120.00
G01 X-15.6413 Y17.3622 F120.00
G01 X-15.6445 Y17.3713 F120.00
G01 X-15.6469 Y17.3807 F120.00
G01 X-15.6483 Y17.3903 F120.00
G01 X-15.6488 Y17.4000 F120.00
G01 X-15.6483 Y17.4097 F120.00
G01 X-15.6469 Y17.4193 F120.00
G01 X-15.6445 Y17.4287 F120.00
G01 X-15.6413 Y17.4378 F120.00
G01 X-15.6371 Y17.4466 F120.00
G01 X-15.6321 Y17.4549 F120.00
G01 X-15.6264 Y17.4627 F120.00
G01 X-15.6199 Y17.4699 F120.00
G01 X-15.6127 Y17.4764 F120.00
G01 X-15.6049 Y17.4821 F120.00
G01 X-15.5966 Y17.4871 F120.00
G01 X-15.5878 Y17.4913 F120.00
G01 X-15.5787 Y17.4945 F120.00
G01 X-15.5693 Y17.4969 F120.00
G01 X-15.5597 Y17.4983 F120.00
G01 X-15.5500 Y17.4988 F120.00
G01 X-15.5403 Y17.4983 F120.00
G01 X-15.5307 Y17.4969 F120.00
G01 X-15.5213 Y17.4945 F120.00
G01 X-15.5122 Y17.4913 F120.00
G01 X-15.5034 Y17.4871 F120.00
G01 X-15.4951 Y17.4821 F120.00
G01 X-15.4873 Y17.4764 F120.00
G01 X-15.4801 Y17.4699 F120.00
G01 X-15.4736 Y17.4627 F120.00
G01 X-15.4679 Y17.4549 F120.00
G01 X-15.4629 Y17.4466 F120.00
G01 X-15.4587 Y17.4378 F120.00
G01 X-15.4555 Y17.4287 F120.00
G01 X-15.4531 Y17.4193 F120.00
G01 X-15.4517 Y17.4097 F120.00
G01 X-15.4512 Y17.4000 F120.00
G00 X-15.4512 Y17.4000
G01 F60.00
G01 Z-0.8000
G01 F120.00
G01 X-15.4517 Y17.3903 F120.00
G01 X-15.4531 Y17.3807 F120.00
G01 X-15.4555 Y17.3713 F120.00
G01 X-15.4587 Y17.3622 F120.00
G01 X-15.4629 Y17.3534 F120.00
G01 X-15.4679 Y17.3451 F120.00
G01 X-15.4736 Y17.3373 F120.00
G01 X-15.4801 Y17.3301 F120.00
G01 X-15.4873 Y17.3236 F120.00
G01 X-15.4951 Y17.3179 F120.00
G01 X-15.5034 Y17.3129 F120.00
G01 X-15.5122 Y17.3087 F120.00
G01 X-15.5213 Y17.3055 F120.00
G01 X-15.5307 Y17.3031 F120.00
G01 X-15.5403 Y17.3017 F120.00
G01 X-15.5500 Y17.3012 F120.00
G01 X-15.5597 Y17.3017 F120.00
G01 X-15.5693 Y17.3031 F120.00
G01 X-15.5787 Y17.3055 F120.00
G01 X-15.5878 Y17.3087 F120.00
G01 X-15.5966 Y17.3129 F120.00
G01 X-15.6049 Y17.3179 F120.00
G01 X-15.6127 Y17.3236 F120.00
G01 X-15.6199 Y17.3301 F120.00
G01 X-15.6264 Y17.3373 F120.00
G01 X-15.6321 Y17.3451 F120.00
G01 X-15.6371 Y17.3534 F120.00
G01 X-15.6413 Y17.3622 F120.00
G01 X-15.6445 Y17.3713 F120.00
G01 X-15.6469 Y17.3807 F120.00
G01 X-15.6483 Y17.3903 F120.00
G01 X-15.6488 Y17.4000 F120.00
G01 X-15.6483 Y17.4097 F120.00
G01 X-15.6469 Y17.4193 F120.00
G01 X-15.6445 Y17.4287 F120.00
G01 X-15.6413 Y17.4378 F120.00
G01 X-15.6371 Y17.4466 F120.00
G01 X-15.6321 Y17.4549 F120.00
G01 X-15.6264 Y17.4627 F120.00
G01 X-15.6199 Y17.4699 F120.00
G01 X-15.6127 Y17.4764 F120.00
G01 X-15.6049 Y17.4821 F120.00
G01 X-15.5966 Y17.4871 F120.00
G01 X-15.5878 Y17.4913 F120.00
G01 X-15.5787 Y17.4945 F120.00
G01 X-15.5693 Y17.4969 F120.00
G01 X-15.5597 Y17.4983 F120.00
G01 X-15.5500 Y17.4988 F120.00
G01 X-15.5403 Y17.4983 F120.00
G01 X-15.5307 Y17.4969 F120.00
G01 X-15.5213 Y17.4945 F120.00
G01 X-15.5122 Y17.4913 F120.00
G01 X-15.5034 Y17.4871 F120.00
G01 X-15.4951 Y17.4821 F120.00
G01 X-15.4873 Y17.4764 F120.00
G01 X-15.4801 Y17.4699 F120.00
G01 X-15.4736 Y17.4627 F120.00
G01 X-15.4679 Y17.4549 F120.00
G01 X-15.4629 Y17.4466 F120.00
G01 X-15.4587 Y17.4378 F120.00
G01 X-15.4555 Y17.4287 F120.00
G01 X-15.4531 Y17.4193 F120.00
G01 X-15.4517 Y17.4097 F120.00
G01 X-15.4512 Y17.4000 F120.00
G00 X-15.4512 Y17.4000
G01 F60.00
G01 Z-1.2000
G01 F120.00
G01 X-15.4517 Y17.3903 F120.00
G01 X-15.4531 Y17.3807 F120.00
G01 X-15.4555 Y17.3713 F120.00
G01 X-15.4587 Y17.3622 F120.00
G01 X-15.4629 Y17.3534 F120.00
G01 X-15.4679 Y17.3451 F120.00
G01 X-15.4736 Y17.3373 F120.00
G01 X-15.4801 Y17.3301 F120.00
G01 X-15.4873 Y17.3236 F120.00
G01 X-15.4951 Y17.3179 F120.00
G01 X-15.5034 Y17.3129 F120.00
G01 X-15.5122 Y17.3087 F120.00
G01 X-15.5213 Y17.3055 F120.00
G01 X-15.5307 Y17.3031 F120.00
G01 X-15.5403 Y17.3017 F120.00
G01 X-15.5500 Y17.3012 F120.00
G01 X-15.5597 Y17.3017 F120.00
G01 X-15.5693 Y17.3031 F120.00
G01 X-15.5787 Y17.3055 F120.00
G01 X-15.5878 Y17.3087 F120.00
G01 X-15.5966 Y17.3129 F120.00
G01 X-15.6049 Y17.3179 F120.00
G01 X-15.6127 Y17.3236 F120.00
G01 X-15.6199 Y17.3301 F120.00
G01 X-15.6264 Y17.3373 F120.00
G01 X-15.6321 Y17.3451 F120.00
G01 X-15.6371 Y17.3534 F120.00
G01 X-15.6413 Y17.3622 F120.00
G01 X-15.6445 Y17.3713 F120.00
G01 X-15.6469 Y17.3807 F120.00
G01 X-15.6483 Y17.3903 F120.00
G01 X-15.6488 Y17.4000 F120.00
G01 X-15.6483 Y17.4097 F120.00
G01 X-15.6469 Y17.4193 F120.00
G01 X-15.6445 Y17.4287 F120.00
G01 X-15.6413 Y17.4378 F120.00
G01 X-15.6371 Y17.4466 F120.00
G01 X-15.6321 Y17.4549 F120.00
G01 X-15.6264 Y17.4627 F120.00
G01 X-15.6199 Y17.4699 F120.00
G01 X-15.6127 Y17.4764 F120.00
G01 X-15.6049 Y17.4821 F120.00
G01 X-15.5966 Y17.4871 F120.00
G01 X-15.5878 Y17.4913 F120.00
G01 X-15.5787 Y17.4945 F120.00
G01 X-15.5693 Y17.4969 F120.00
G01 X-15.5597 Y17.4983 F120.00
G01 X-15.5500 Y17.4988 F120.00
G01 X-15.5403 Y17.4983 F120.00
G01 X-15.5307 Y17.4969 F120.00
G01 X-15.5213 Y17.4945 F120.00
G01 X-15.5122 Y17.4913 F120.00
G01 X-15.5034 Y17.4871 F120.00
G01 X-15.4951 Y17.4821 F120.00
G01 X-15.4873 Y17.4764 F120.00
G01 X-15.4801 Y17.4699 F120.00
G01 X-15.4736 Y17.4627 F120.00
G01 X-15.4679 Y17.4549 F120.00
G01 X-15.4629 Y17.4466 F120.00
G01 X-15.4587 Y17.4378 F120.00
G01 X-15.4555 Y17.4287 F120.00
G01 X-15.4531 Y17.4193 F120.00
G01 X-15.4517 Y17.4097 F120.00
G01 X-15.4512 Y17.4000 F120.00
G00 X-15.4512 Y17.4000
G01 F60.00
G01 Z-1.6000
G01 F120.00
G01 X-15.4517 Y17.3903 F120.00
G01 X-15.4531 Y17.3807 F120.00
G01 X-15.4555 Y17.3713 F120.00
G01 X-15.4587 Y17.3622 F120.00
G01 X-15.4629 Y17.3534 F120.00
G01 X-15.4679 Y17.3451 F120.00
G01 X-15.4736 Y17.3373 F120.00
G01 X-15.4801 Y17.3301 F120.00
G01 X-15.4873 Y17.3236 F120.00
G01 X-15.4951 Y17.3179 F120.00
G01 X-15.5034 Y17.3129 F120.00
G01 X-15.5122 Y17.3087 F120.00
G01 X-15.5213 Y17.3055 F120.00
G01 X-15.5307 Y17.3031 F120.00
G01 X-15.5403 Y17.3017 F120.00
G01 X-15.5500 Y17.3012 F120.00
G01 X-15.5597 Y17.3017 F120.00
G01 X-15.5693 Y17.3031 F120.00
G01 X-15.5787 Y17.3055 F120.00
G01 X-15.5878 Y17.3087 F120.00
G01 X-15.5966 Y17.3129 F120.00
G01 X-15.6049 Y17.3179 F120.00
G01 X-15.6127 Y17.3236 F120.00
G01 X-15.6199 Y17.3301 F120.00
G01 X-15.6264 Y17.3373 F120.00
G01 X-15.6321 Y17.3451 F120.00
G01 X-15.6371 Y17.3534 F120.00
G01 X-15.6413 Y17.3622 F120.00
G01 X-15.6445 Y17.3713 F120.00
G01 X-15.6469 Y17.3807 F120.00
G01 X-15.6483 Y17.3903 F120.00
G01 X-15.6488 Y17.4000 F120.00
G01 X-15.6483 Y17.4097 F120.00
G01 X-15.6469 Y17.4193 F120.00
G01 X-15.6445 Y17.4287 F120.00
G01 X-15.6413 Y17.4378 F120.00
G01 X-15.6371 Y17.4466 F120.00
G01 X-15.6321 Y17.4549 F120.00
G01 X-15.6264 Y17.4627 F120.00
G01 X-15.6199 Y17.4699 F120.00
G01 X-15.6127 Y17.4764 F120.00
G01 X-15.6049 Y17.4821 F120.00
G01 X-15.5966 Y17.4871 F120.00
G01 X-15.5878 Y17.4913 F120.00
G01 X-15.5787 Y17.4945 F120.00
G01 X-15.5693 Y17.4969 F120.00
G01 X-15.5597 Y17.4983 F120.00
G01 X-15.5500 Y17.4988 F120.00
G01 X-15.5403 Y17.4983 F120.00
G01 X-15.5307 Y17.4969 F120.00
G01 X-15.5213 Y17.4945 F120.00
G01 X-15.5122 Y17.4913 F120.00
G01 X-15.5034 Y17.4871 F120.00
G01 X-15.4951 Y17.4821 F120.00
G01 X-15.4873 Y17.4764 F120.00
G01 X-15.4801 Y17.4699 F120.00
G01 X-15.4736 Y17.4627 F120.00
G01 X-15.4679 Y17.4549 F120.00
G01 X-15.4629 Y17.4466 F120.00
G01 X-15.4587 Y17.4378 F120.00
G01 X-15.4555 Y17.4287 F120.00
G01 X-15.4531 Y17.4193 F120.00
G01 X-15.4517 Y17.4097 F120.00
G01 X-15.4512 Y17.4000 F120.00
G00 X-15.4512 Y17.4000
G01 F60.00
G01 Z-2.0000
G01 F120.00
G01 X-15.4517 Y17.3903 F120.00
G01 X-15.4531 Y17.3807 F120.00
G01 X-15.4555 Y17.3713 F120.00
G01 X-15.4587 Y17.3622 F120.00
G01 X-15.4629 Y17.3534 F120.00
G01 X-15.4679 Y17.3451 F120.00
G01 X-15.4736 Y17.3373 F120.00
G01 X-15.4801 Y17.3301 F120.00
G01 X-15.4873 Y17.3236 F120.00
G01 X-15.4951 Y17.3179 F120.00
G01 X-15.5034 Y17.3129 F120.00
G01 X-15.5122 Y17.3087 F120.00
G01 X-15.5213 Y17.3055 F120.00
G01 X-15.5307 Y17.3031 F120.00
G01 X-15.5403 Y17.3017 F120.00
G01 X-15.5500 Y17.3012 F120.00
G01 X-15.5597 Y17.3017 F120.00
G01 X-15.5693 Y17.3031 F120.00
G01 X-15.5787 Y17.3055 F120.00
G01 X-15.5878 Y17.3087 F120.00
G01 X-15.5966 Y17.3129 F120.00
G01 X-15.6049 Y17.3179 F120.00
G01 X-15.6127 Y17.3236 F120.00
G01 X-15.6199 Y17.3301 F120.00
G01 X-15.6264 Y17.3373 F120.00
G01 X-15.6321 Y17.3451 F120.00
G01 X-15.6371 Y17.3534 F120.00
G01 X-15.6413 Y17.3622 F120.00
G01 X-15.6445 Y17.3713 F120.00
G01 X-15.6469 Y17.3807 F120.00
G01 X-15.6483 Y17.3903 F120.00
G01 X-15.6488 Y17.4000 F120.00
G01 X-15.6483 Y17.4097 F120.00
G01 X-15.6469 Y17.4193 F120.00
G01 X-15.6445 Y17.4287 F120.00
G01 X-15.6413 Y17.4378 F120.00
G01 X-15.6371 Y17.4466 F120.00
G01 X-15.6321 Y17.4549 F120.00
G01 X-15.6264 Y17.4627 F120.00
G01 X-15.6199 Y17.4699 F120.00
G01 X-15.6127 Y17.4764 F120.00
G01 X-15.6049 Y17.4821 F120.00
G01 X-15.5966 Y17.4871 F120.00
G01 X-15.5878 Y17.4913 F120.00
G01 X-15.5787 Y17.4945 F120.00
G01 X-15.5693 Y17.4969 F120.00
G01 X-15.5597 Y17.4983 F120.00
G01 X-15.5500 Y17.4988 F120.00
G01 X-15.5403 Y17.4983 F120.00
G01 X-15.5307 Y17.4969 F120.00
G01 X-15.5213 Y17.4945 F120.00
G01 X-15.5122 Y17.4913 F120.00
G01 X-15.5034 Y17.4871 F120.00
G01 X-15.4951 Y17.4821 F120.00
G01 X-15.4873 Y17.4764 F120.00
G01 X-15.4801 Y17.4699 F120.00
G01 X-15.4736 Y17.4627 F120.00
G01 X-15.4679 Y17.4549 F120.00
G01 X-15.4629 Y17.4466 F120.00
G01 X-15.4587 Y17.4378 F120.00
G01 X-15.4555 Y17.4287 F120.00
G01 X-15.4531 Y17.4193 F120.00
G01 X-15.4517 Y17.4097 F120.00
G01 X-15.4512 Y17.4000 F120.00
G00 X-15.4512 Y17.4000
G01 F60.00
G01 Z-2.4000
G01 F120.00
G01 X-15.4517 Y17.3903 F120.00
G01 X-15.4531 Y17.3807 F120.00
G01 X-15.4555 Y17.3713 F120.00
G01 X-15.4587 Y17.3622 F120.00
G01 X-15.4629 Y17.3534 F120.00
G01 X-15.4679 Y17.3451 F120.00
G01 X-15.4736 Y17.3373 F120.00
G01 X-15.4801 Y17.3301 F120.00
G01 X-15.4873 Y17.3236 F120.00
G01 X-15.4951 Y17.3179 F120.00
G01 X-15.5034 Y17.3129 F120.00
G01 X-15.5122 Y17.3087 F120.00
G01 X-15.5213 Y17.3055 F120.00
G01 X-15.5307 Y17.3031 F120.00
G01 X-15.5403 Y17.3017 F120.00
G01 X-15.5500 Y17.3012 F120.00
G01 X-15.5597 Y17.3017 F120.00
G01 X-15.5693 Y17.3031 F120.00
G01 X-15.5787 Y17.3055 F120.00
G01 X-15.5878 Y17.3087 F120.00
G01 X-15.5966 Y17.3129 F120.00
G01 X-15.6049 Y17.3179 F120.00
G01 X-15.6127 Y17.3236 F120.00
G01 X-15.6199 Y17.3301 F120.00
G01 X-15.6264 Y17.3373 F120.00
G01 X-15.6321 Y17.3451 F120.00
G01 X-15.6371 Y17.3534 F120.00
G01 X-15.6413 Y17.3622 F120.00
G01 X-15.6445 Y17.3713 F120.00
G01 X-15.6469 Y17.3807 F120.00
G01 X-15.6483 Y17.3903 F120.00
G01 X-15.6488 Y17.4000 F120.00
G01 X-15.6483 Y17.4097 F120.00
G01 X-15.6469 Y17.4193 F120.00
G01 X-15.6445 Y17.4287 F120.00
G01 X-15.6413 Y17.4378 F120.00
G01 X-15.6371 Y17.4466 F120.00
G01 X-15.6321 Y17.4549 F120.00
G01 X-15.6264 Y17.4627 F120.00
G01 X-15.6199 Y17.4699 F120.00
G01 X-15.6127 Y17.4764 F120.00
G01 X-15.6049 Y17.4821 F120.00
G01 X-15.5966 Y17.4871 F120.00
G01 X-15.5878 Y17.4913 F120.00
G01 X-15.5787 Y17.4945 F120.00
G01 X-15.5693 Y17.4969 F120.00
G01 X-15.5597 Y17.4983 F120.00
G01 X-15.5500 Y17.4988 F120.00
G01 X-15.5403 Y17.4983 F120.00
G01 X-15.5307 Y17.4969 F120.00
G01 X-15.5213 Y17.4945 F120.00
G01 X-15.5122 Y17.4913 F120.00
G01 X-15.5034 Y17.4871 F120.00
G01 X-15.4951 Y17.4821 F120.00
G01 X-15.4873 Y17.4764 F120.00
G01 X-15.4801 Y17.4699 F120.00
G01 X-15.4736 Y17.4627 F120.00
G01 X-15.4679 Y17.4549 F120.00
G01 X-15.4629 Y17.4466 F120.00
G01 X-15.4587 Y17.4378 F120.00
G01 X-15.4555 Y17.4287 F120.00
G01 X-15.4531 Y17.4193 F120.00
G01 X-15.4517 Y17.4097 F120.00
G01 X-15.4512 Y17.4000 F120.00
G00 Z2.0000
G00 X-30.1512 Y13.0000
G01 F60.00
G01 Z-0.4000
G01 F120.00
G01 X-30.1541 Y12.9413 F120.00
G01 X-30.1627 Y12.8832 F120.00
G01 X-30.1770 Y12.8262 F120.00
G01 X-30.1968 Y12.7709 F120.00
G01 X-30.2219 Y12.7177 F120.00
G01 X-30.2521 Y12.6673 F120.00
G01 X-30.2871 Y12.6201 F120.00
G01 X-30.3266 Y12.5766 F120.00
G01 X-30.3701 Y12.5371 F120.00
G01 X-30.4173 Y12.5021 F120.00
G01 X-30.4677 Y12.4719 F120.00
G01 X-30.5209 Y12.4468 F120.00
G01 X-30.5762 Y12.4270 F120.00
G01 X-30.6332 Y12.4127 F120.00
G01 X-30.6913 Y12.4041 F120.00
G01 X-30.7500 Y12.4012 F120.00
G01 X-30.8087 Y12.4041 F120.00
G01 X-30.8668 Y12.4127 F120.00
G01 X-30.9238 Y12.4270 F120.00
G01 X-30.9791 Y12.4468 F120.00
G01 X-31.0323 Y12.4719 F120.00
G01 X-31.0827 Y12.5021 F120.00
G01 X-31.1299 Y12.5371 F120.00
G01 X-31.1734 Y12.5766 F120.00
G01 X-31.2129 Y12.6201 F120.00
G01 X-31.2479 Y12.6673 F120.00
G01 X-31.2781 Y12.7177 F120.00
G01 X-31.3032 Y12.7709 F120.00
G01 X-31.3230 Y12.8262 F120.00
G01 X-31.3373 Y12.8832 F120.00
G01 X-31.3459 Y12.9413 F120.00
G01 X-31.3488 Y13.0000 F120.00
G01 X-31.3459 Y13.0587 F120.00
G01 X-31.3373 Y13.1168 F120.00
G01 X-31.3230 Y13.1738 F120.00
G01 X-31.3032 Y13.2291 F120.00
G01 X-31.2781 Y13.2823 F120.00
G01 X-31.2479 Y13.3327 F120.00
G01 X-31.2129 Y13.3799 F120.00
G01 X-31.1734 Y13.4234 F120.00
G01 X-31.1299 Y13.4629 F120.00
G01 X-31.0827 Y13.4979 F120.00
G01 X-31.0323 Y13.5281 F120.00
G01 X-30.9791 Y13.5532 F120.00
G01 X-30.9238 Y13.5730 F120.00
G01 X-30.8668 Y13.5873 F120.00
G01 X-30.8087 Y13.5959 F120.00
G01 X-30.7500 Y13.5988 F120.00
G01 X-30.6913 Y13.5959 F120.00
G01 X-30.6332 Y13.5873 F120.00
G01 X-30.5762 Y13.5730 F120.00
G01 X-30.5209 Y13.5532 F120.00
G01 X-30.4677 Y13.5281 F120.00
G01 X-30.4173 Y13.4979 F120.00
G01 X-30.3701 Y13.4629 F120.00
G01 X-30.3266 Y13.4234 F120.00
G01 X-30.2871 Y13.3799 F120.00
G01 X-30.2521 Y13.3327 F120.00
G01 X-30.2219 Y13.2823 F120.00
G01 X-30.1968 Y13.2291 F120.00
G01 X-30.1770 Y13.1738 F120.00
G01 X-30.1627 Y13.1168 F120.00
G01 X-30.1541 Y13.0587 F120.00
G01 X-30.1512 Y13.0000 F120.00
G00 X-30.1512 Y13.0000
G01 F60.00
G01 Z-0.8000
G01 F120.00
G01 X-30.1541 Y12.9413 F120.00
G01 X-30.1627 Y12.8832 F120.00
G01 X-30.1770 Y12.8262 F120.00
G01 X-30.1968 Y12.7709 F120.00
G01 X-30.2219 Y12.7177 F120.00
G01 X-30.2521 Y12.6673 F120.00
G01 X-30.2871 Y12.6201 F120.00
G01 X-30.3266 Y12.5766 F120.00
G01 X-30.3701 Y12.5371 F120.00
G01 X-30.4173 Y12.5021 F120.00
G01 X-30.4677 Y12.4719 F120.00
G01 X-30.5209 Y12.4468 F120.00
G01 X-30.5762 Y12.4270 F120.00
G01 X-30.6332 Y12.4127 F120.00
G01 X-30.6913 Y12.4041 F120.00
G01 X-30.7500 Y12.4012 F120.00
G01 X-30.8087 Y12.4041 F120.00
G01 X-30.8668 Y12.4127 F120.00
G01 X-30.9238 Y12.4270 F120.00
G01 X-30.9791 Y12.4468 F120.00
G01 X-31.0323 Y12.4719 F120.00
G01 X-31.0827 Y12.5021 F120.00
G01 X-31.1299 Y12.5371 F120.00
G01 X-31.1734 Y12.5766 F120.00
G01 X-31.2129 Y12.6201 F120.00
G01 X-31.2479 Y12.6673 F120.00
G01 X-31.2781 Y12.7177 F120.00
G01 X-31.3032 Y12.7709 F120.00
G01 X-31.3230 Y12.8262 F120.00
G01 X-31.3373 Y12.8832 F120.00
G01 X-31.3459 Y12.9413 F120.00
G01 X-31.3488 Y13.0000 F120.00
G01 X-31.3459 Y13.0587 F120.00
G01 X-31.3373 Y13.1168 F120.00
G01 X-31.3230 Y13.1738 F120.00
G01 X-31.3032 Y13.2291 F120.00
G01 X-31.2781 Y13.2823 F120.00
G01 X-31.2479 Y13.3327 F120.00
G01 X-31.2129 Y13.3799 F120.00
G01 X-31.1734 Y13.4234 F120.00
G01 X-31.1299 Y13.4629 F120.00
G01 X-31.0827 Y13.4979 F120.00
G01 X-31.0323 Y13.5281 F120.00
G01 X-30.9791 Y13.5532 F120.00
G01 X-30.9238 Y13.5730 F120.00
G01 X-30.8668 Y13.5873 F120.00
G01 X-30.8087 Y13.5959 F120.00
G01 X-30.7500 Y13.5988 F120.00
G01 X-30.6913 Y13.5959 F120.00
G01 X-30.6332 Y13.5873 F120.00
G01 X-30.5762 Y13.5730 F120.00
G01 X-30.5209 Y13.5532 F120.00
G01 X-30.4677 Y13.5281 F120.00
G01 X-30.4173 Y13.4979 F120.00
G01 X-30.3701 Y13.4629 F120.00
G01 X-30.3266 Y13.4234 F120.00
G01 X-30.2871 Y13.3799 F120.00
G01 X-30.2521 Y13.3327 F120.00
G01 X-30.2219 Y13.2823 F120.00
G01 X-30.1968 Y13.2291 F120.00
