(G-CODE GENERATED BY FLATCAM v8.994 - www.flatcam.org - Version Date: 2020/11/7)

(Name: FX-Pots-Edge_Cuts.gbr_cutout_cnc)
(Type: G-code from Geometry)
(Units: MM)

(Created on Monday, 19 August 2024 at 00:01)

(This preprocessor is used with a motion controller loaded with GRBL firmware.)
(It is configured to be compatible with almost any version of GRBL firmware.)

(TOOL DIAMETER: 2.0 mm)
(Feedrate_XY: 120.0 mm/min)
(Feedrate_Z: 60.0 mm/min)
(Feedrate rapids 1500.0 mm/min)

(Z_Cut: -2.0 mm)
(DepthPerCut: 0.4 mm <=>5 passes)
(Z_Move: 2.0 mm)
(Z Start: None mm)
(Z End: 7.0 mm)
(X,Y End: None mm)
(Steps per circle: 64)
(Steps per circle: 64)
(Preprocessor Geometry: GRBL_11_no_M6)

(X range:  -55.1251 ...   55.1251  mm)
(Y range:  -26.1251 ...   26.1251  mm)

(Spindle Speed: 900.0 RPM)
G21
G90
G17
G94


G01 F120.00

M5             
G00 Z7.0000
G00 X0.0000 Y0.0000                
T1
(MSG, Change to Tool Dia = 2.0000)
M0
G00 Z7.0000
        
M03 S900.0
G01 F120.00
G00 X-3.0000 Y-26.1251
G01 F60.00
G01 Z-0.4000
G01 F120.00
G01 X-51.0000 Y-26.1251 F120.00
G01 X-51.0552 Y-26.1237 F120.00
G01 X-51.3493 Y-26.1093 F120.00
G01 X-51.4104 Y-26.1044 F120.00
G01 X-51.4591 Y-26.0984 F120.00
G01 X-51.7504 Y-26.0552 F120.00
G01 X-51.8107 Y-26.0445 F120.00
G01 X-51.8586 Y-26.0337 F120.00
G01 X-52.1442 Y-25.9622 F120.00
G01 X-52.2033 Y-25.9455 F120.00
G01 X-52.2499 Y-25.9301 F120.00
G01 X-52.5271 Y-25.8309 F120.00
G01 X-52.5729 Y-25.8133 F120.00
G01 X-52.6291 Y-25.7887 F120.00
G01 X-52.8952 Y-25.6628 F120.00
G01 X-52.9391 Y-25.6407 F120.00
G01 X-52.9926 Y-25.6108 F120.00
G01 X-53.2451 Y-25.4594 F120.00
G01 X-53.2866 Y-25.4331 F120.00
G01 X-53.3369 Y-25.3981 F120.00
G01 X-53.5734 Y-25.2227 F120.00
G01 X-53.6121 Y-25.1925 F120.00
G01 X-53.6587 Y-25.1526 F120.00
G01 X-53.8769 Y-24.9549 F120.00
G01 X-53.9124 Y-24.9211 F120.00
G01 X-53.9549 Y-24.8769 F120.00
G01 X-54.1526 Y-24.6587 F120.00
G01 X-54.1847 Y-24.6216 F120.00
G01 X-54.2227 Y-24.5734 F120.00
G01 X-54.3981 Y-24.3369 F120.00
G01 X-54.4263 Y-24.2968 F120.00
G01 X-54.4594 Y-24.2451 F120.00
G01 X-54.6108 Y-23.9926 F120.00
G01 X-54.6350 Y-23.9499 F120.00
G01 X-54.6628 Y-23.8952 F120.00
G01 X-54.7887 Y-23.6291 F120.00
G01 X-54.8086 Y-23.5842 F120.00
G01 X-54.8309 Y-23.5271 F120.00
G01 X-54.9301 Y-23.2499 F120.00
G01 X-54.9455 Y-23.2033 F120.00
G01 X-54.9622 Y-23.1442 F120.00
G01 X-55.0337 Y-22.8586 F120.00
G01 X-55.0445 Y-22.8107 F120.00
G01 X-55.0552 Y-22.7504 F120.00
G01 X-55.0984 Y-22.4591 F120.00
G01 X-55.1044 Y-22.4104 F120.00
G01 X-55.1093 Y-22.3493 F120.00
G01 X-55.1237 Y-22.0552 F120.00
G01 X-55.1248 Y-22.0245 F120.00
G01 X-55.1251 Y-22.0000 F120.00
G01 X-55.1251 Y-3.0000 F120.00
G00 X-55.1251 Y-3.0000
G01 F60.00
G01 Z-0.8000
G01 F120.00
G01 X-55.1251 Y-22.0000 F120.00
G01 X-55.1248 Y-22.0245 F120.00
G01 X-55.1237 Y-22.0552 F120.00
G01 X-55.1093 Y-22.3493 F120.00
G01 X-55.1044 Y-22.4104 F120.00
G01 X-55.0984 Y-22.4591 F120.00
G01 X-55.0552 Y-22.7504 F120.00
G01 X-55.0445 Y-22.8107 F120.00
G01 X-55.0337 Y-22.8586 F120.00
G01 X-54.9622 Y-23.1442 F120.00
G01 X-54.9455 Y-23.2033 F120.00
G01 X-54.9301 Y-23.2499 F120.00
G01 X-54.8309 Y-23.5271 F120.00
G01 X-54.8086 Y-23.5842 F120.00
G01 X-54.7887 Y-23.6291 F120.00
G01 X-54.6628 Y-23.8952 F120.00
G01 X-54.6350 Y-23.9499 F120.00
G01 X-54.6108 Y-23.9926 F120.00
G01 X-54.4594 Y-24.2451 F120.00
G01 X-54.4263 Y-24.2968 F120.00
G01 X-54.3981 Y-24.3369 F120.00
G01 X-54.2227 Y-24.5734 F120.00
G01 X-54.1847 Y-24.6216 F120.00
G01 X-54.1526 Y-24.6587 F120.00
G01 X-53.9549 Y-24.8769 F120.00
G01 X-53.9124 Y-24.9211 F120.00
G01 X-53.8769 Y-24.9549 F120.00
G01 X-53.6587 Y-25.1526 F120.00
G01 X-53.6121 Y-25.1925 F120.00
G01 X-53.5734 Y-25.2227 F120.00
G01 X-53.3369 Y-25.3981 F120.00
G01 X-53.2866 Y-25.4331 F120.00
G01 X-53.2451 Y-25.4594 F120.00
G01 X-52.9926 Y-25.6108 F120.00
G01 X-52.9391 Y-25.6407 F120.00
G01 X-52.8952 Y-25.6628 F120.00
G01 X-52.6291 Y-25.7887 F120.00
G01 X-52.5729 Y-25.8133 F120.00
G01 X-52.5271 Y-25.8309 F120.00
G01 X-52.2499 Y-25.9301 F120.00
G01 X-52.2033 Y-25.9455 F120.00
G01 X-52.1442 Y-25.9622 F120.00
G01 X-51.8586 Y-26.0337 F120.00
G01 X-51.8107 Y-26.0445 F120.00
G01 X-51.7504 Y-26.0552 F120.00
G01 X-51.4591 Y-26.0984 F120.00
G01 X-51.4104 Y-26.1044 F120.00
G01 X-51.3493 Y-26.1093 F120.00
G01 X-51.0552 Y-26.1237 F120.00
G01 X-51.0000 Y-26.1251 F120.00
G01 X-3.0000 Y-26.1251 F120.00
G00 X-3.0000 Y-26.1251
G01 F60.00
G01 Z-1.2000
G01 F120.00
G01 X-51.0000 Y-26.1251 F120.00
G01 X-51.0552 Y-26.1237 F120.00
G01 X-51.3493 Y-26.1093 F120.00
G01 X-51.4104 Y-26.1044 F120.00
G01 X-51.4591 Y-26.0984 F120.00
G01 X-51.7504 Y-26.0552 F120.00
G01 X-51.8107 Y-26.0445 F120.00
G01 X-51.8586 Y-26.0337 F120.00
G01 X-52.1442 Y-25.9622 F120.00
G01 X-52.2033 Y-25.9455 F120.00
G01 X-52.2499 Y-25.9301 F120.00
G01 X-52.5271 Y-25.8309 F120.00
G01 X-52.5729 Y-25.8133 F120.00
G01 X-52.6291 Y-25.7887 F120.00
G01 X-52.8952 Y-25.6628 F120.00
G01 X-52.9391 Y-25.6407 F120.00
G01 X-52.9926 Y-25.6108 F120.00
G01 X-53.2451 Y-25.4594 F120.00
G01 X-53.2866 Y-25.4331 F120.00
G01 X-53.3369 Y-25.3981 F120.00
G01 X-53.5734 Y-25.2227 F120.00
G01 X-53.6121 Y-25.1925 F120.00
G01 X-53.6587 Y-25.1526 F120.00
G01 X-53.8769 Y-24.9549 F120.00
G01 X-53.9124 Y-24.9211 F120.00
G01 X-53.9549 Y-24.8769 F120.00
G01 X-54.1526 Y-24.6587 F120.00
G01 X-54.1847 Y-24.6216 F120.00
G01 X-54.2227 Y-24.5734 F120.00
G01 X-54.3981 Y-24.3369 F120.00
G01 X-54.4263 Y-24.2968 F120.00
G01 X-54.4594 Y-24.2451 F120.00
G01 X-54.6108 Y-23.9926 F120.00
G01 X-54.6350 Y-23.9499 F120.00
G01 X-54.6628 Y-23.8952 F120.00
G01 X-54.7887 Y-23.6291 F120.00
G01 X-54.8086 Y-23.5842 F120.00
G01 X-54.8309 Y-23.5271 F120.00
G01 X-54.9301 Y-23.2499 F120.00
G01 X-54.9455 Y-23.2033 F120.00
G01 X-54.9622 Y-23.1442 F120.00
G01 X-55.0337 Y-22.8586 F120.00
G01 X-55.0445 Y-22.8107 F120.00
G01 X-55.0552 Y-22.7504 F120.00
G01 X-55.0984 Y-22.4591 F120.00
G01 X-55.1044 Y-22.4104 F120.00
G01 X-55.1093 Y-22.3493 F120.00
G01 X-55.1237 Y-22.0552 F120.00
G01 X-55.1248 Y-22.0245 F120.00
G01 X-55.1251 Y-22.0000 F120.00
G01 X-55.1251 Y-3.0000 F120.00
G00 X-55.1251 Y-3.0000
G01 F60.00
G01 Z-1.6000
G01 F120.00
G01 X-55.1251 Y-22.0000 F120.00
G01 X-55.1248 Y-22.0245 F120.00
G01 X-55.1237 Y-22.0552 F120.00
G01 X-55.1093 Y-22.3493 F120.00
G01 X-55.1044 Y-22.4104 F120.00
G01 X-55.0984 Y-22.4591 F120.00
G01 X-55.0552 Y-22.7504 F120.00
G01 X-55.0445 Y-22.8107 F120.00
G01 X-55.0337 Y-22.8586 F120.00
G01 X-54.9622 Y-23.1442 F120.00
G01 X-54.9455 Y-23.2033 F120.00
G01 X-54.9301 Y-23.2499 F120.00
G01 X-54.8309 Y-23.5271 F120.00
G01 X-54.8086 Y-23.5842 F120.00
G01 X-54.7887 Y-23.6291 F120.00
G01 X-54.6628 Y-23.8952 F120.00
G01 X-54.6350 Y-23.9499 F120.00
G01 X-54.6108 Y-23.9926 F120.00
G01 X-54.4594 Y-24.2451 F120.00
G01 X-54.4263 Y-24.2968 F120.00
G01 X-54.3981 Y-24.3369 F120.00
G01 X-54.2227 Y-24.5734 F120.00
G01 X-54.1847 Y-24.6216 F120.00
G01 X-54.1526 Y-24.6587 F120.00
G01 X-53.9549 Y-24.8769 F120.00
G01 X-53.9124 Y-24.9211 F120.00
G01 X-53.8769 Y-24.9549 F120.00
G01 X-53.6587 Y-25.1526 F120.00
G01 X-53.6121 Y-25.1925 F120.00
G01 X-53.5734 Y-25.2227 F120.00
G01 X-53.3369 Y-25.3981 F120.00
G01 X-53.2866 Y-25.4331 F120.00
G01 X-53.2451 Y-25.4594 F120.00
G01 X-52.9926 Y-25.6108 F120.00
G01 X-52.9391 Y-25.6407 F120.00
G01 X-52.8952 Y-25.6628 F120.00
G01 X-52.6291 Y-25.7887 F120.00
G01 X-52.5729 Y-25.8133 F120.00
G01 X-52.5271 Y-25.8309 F120.00
G01 X-52.2499 Y-25.9301 F120.00
G01 X-52.2033 Y-25.9455 F120.00
G01 X-52.1442 Y-25.9622 F120.00
G01 X-51.8586 Y-26.0337 F120.00
G01 X-51.8107 Y-26.0445 F120.00
G01 X-51.7504 Y-26.0552 F120.00
G01 X-51.4591 Y-26.0984 F120.00
G01 X-51.4104 Y-26.1044 F120.00
G01 X-51.3493 Y-26.1093 F120.00
G01 X-51.0552 Y-26.1237 F120.00
G01 X-51.0000 Y-26.1251 F120.00
G01 X-3.0000 Y-26.1251 F120.00
G00 X-3.0000 Y-26.1251
G01 F60.00
G01 Z-2.0000
G01 F120.00
G01 X-51.0000 Y-26.1251 F120.00
G01 X-51.0552 Y-26.1237 F120.00
G01 X-51.3493 Y-26.1093 F120.00
G01 X-51.4104 Y-26.1044 F120.00
G01 X-51.4591 Y-26.0984 F120.00
G01 X-51.7504 Y-26.0552 F120.00
G01 X-51.8107 Y-26.0445 F120.00
G01 X-51.8586 Y-26.0337 F120.00
G01 X-52.1442 Y-25.9622 F120.00
G01 X-52.2033 Y-25.9455 F120.00
G01 X-52.2499 Y-25.9301 F120.00
G01 X-52.5271 Y-25.8309 F120.00
G01 X-52.5729 Y-25.8133 F120.00
G01 X-52.6291 Y-25.7887 F120.00
G01 X-52.8952 Y-25.6628 F120.00
G01 X-52.9391 Y-25.6407 F120.00
G01 X-52.9926 Y-25.6108 F120.00
G01 X-53.2451 Y-25.4594 F120.00
G01 X-53.2866 Y-25.4331 F120.00
G01 X-53.3369 Y-25.3981 F120.00
G01 X-53.5734 Y-25.2227 F120.00
G01 X-53.6121 Y-25.1925 F120.00
G01 X-53.6587 Y-25.1526 F120.00
G01 X-53.8769 Y-24.9549 F120.00
G01 X-53.9124 Y-24.9211 F120.00
G01 X-53.9549 Y-24.8769 F120.00
G01 X-54.1526 Y-24.6587 F120.00
G01 X-54.1847 Y-24.6216 F120.00
G01 X-54.2227 Y-24.5734 F120.00
G01 X-54.3981 Y-24.3369 F120.00
G01 X-54.4263 Y-24.2968 F120.00
G01 X-54.4594 Y-24.2451 F120.00
G01 X-54.6108 Y-23.9926 F120.00
G01 X-54.6350 Y-23.9499 F120.00
G01 X-54.6628 Y-23.8952 F120.00
G01 X-54.7887 Y-23.6291 F120.00
G01 X-54.8086 Y-23.5842 F120.00
G01 X-54.8309 Y-23.5271 F120.00
G01 X-54.9301 Y-23.2499 F120.00
G01 X-54.9455 Y-23.2033 F120.00
G01 X-54.9622 Y-23.1442 F120.00
G01 X-55.0337 Y-22.8586 F120.00
G01 X-55.0445 Y-22.8107 F120.00
G01 X-55.0552 Y-22.7504 F120.00
G01 X-55.0984 Y-22.4591 F120.00
G01 X-55.1044 Y-22.4104 F120.00
G01 X-55.1093 Y-22.3493 F120.00
G01 X-55.1237 Y-22.0552 F120.00
G01 X-55.1248 Y-22.0245 F120.00
G01 X-55.1251 Y-22.0000 F120.00
G01 X-55.1251 Y-3.0000 F120.00
G00 Z2.0000
G00 X-55.1251 Y3.0000
G01 F60.00
G01 Z-0.4000
G01 F120.00
G01 X-55.1251 Y22.0000 F120.00
G01 X-55.1246 Y22.0307 F120.00
G01 X-55.1237 Y22.0552 F120.00
G01 X-55.1093 Y22.3493 F120.00
G01 X-55.1044 Y22.4104 F120.00
G01 X-55.0984 Y22.4591 F120.00
G01 X-55.0552 Y22.7504 F120.00
G01 X-55.0468 Y22.7987 F120.00
G01 X-55.0337 Y22.8586 F120.00
G01 X-54.9622 Y23.1442 F120.00
G01 X-54.9491 Y23.1915 F120.00
G01 X-54.9301 Y23.2499 F120.00
G01 X-54.8309 Y23.5271 F120.00
G01 X-54.8133 Y23.5729 F120.00
G01 X-54.7887 Y23.6291 F120.00
G01 X-54.6628 Y23.8952 F120.00
G01 X-54.6407 Y23.9391 F120.00
G01 X-54.6108 Y23.9926 F120.00
G01 X-54.4594 Y24.2451 F120.00
G01 X-54.4331 Y24.2866 F120.00
G01 X-54.3981 Y24.3369 F120.00
G01 X-54.2227 Y24.5734 F120.00
G01 X-54.1925 Y24.6121 F120.00
G01 X-54.1526 Y24.6587 F120.00
G01 X-53.9549 Y24.8769 F120.00
G01 X-53.9211 Y24.9124 F120.00
G01 X-53.8769 Y24.9549 F120.00
G01 X-53.6587 Y25.1526 F120.00
G01 X-53.6216 Y25.1847 F120.00
G01 X-53.5734 Y25.2227 F120.00
G01 X-53.3369 Y25.3981 F120.00
G01 X-53.2968 Y25.4263 F120.00
G01 X-53.2451 Y25.4594 F120.00
G01 X-52.9926 Y25.6108 F120.00
G01 X-52.9499 Y25.6350 F120.00
G01 X-52.8952 Y25.6628 F120.00
G01 X-52.6291 Y25.7887 F120.00
G01 X-52.5842 Y25.8086 F120.00
G01 X-52.5271 Y25.8309 F120.00
G01 X-52.2499 Y25.9301 F120.00
G01 X-52.2033 Y25.9455 F120.00
G01 X-52.1442 Y25.9622 F120.00
G01 X-51.8586 Y26.0337 F120.00
G01 X-51.8107 Y26.0445 F120.00
G01 X-51.7504 Y26.0552 F120.00
G01 X-51.4591 Y26.0984 F120.00
G01 X-51.4104 Y26.1044 F120.00
G01 X-51.3493 Y26.1093 F120.00
G01 X-51.0552 Y26.1237 F120.00
G01 X-51.0245 Y26.1248 F120.00
G01 X-51.0000 Y26.1251 F120.00
G01 X-3.0000 Y26.1251 F120.00
G00 X-3.0000 Y26.1251
G01 F60.00
G01 Z-0.8000
G01 F120.00
G01 X-51.0000 Y26.1251 F120.00
G01 X-51.0245 Y26.1248 F120.00
G01 X-51.0552 Y26.1237 F120.00
G01 X-51.3493 Y26.1093 F120.00
G01 X-51.4104 Y26.1044 F120.00
G01 X-51.4591 Y26.0984 F120.00
G01 X-51.7504 Y26.0552 F120.00
G01 X-51.8107 Y26.0445 F120.00
G01 X-51.8586 Y26.0337 F120.00
G01 X-52.1442 Y25.9622 F120.00
G01 X-52.2033 Y25.9455 F120.00
G01 X-52.2499 Y25.9301 F120.00
G01 X-52.5271 Y25.8309 F120.00
G01 X-52.5842 Y25.8086 F120.00
G01 X-52.6291 Y25.7887 F120.00
G01 X-52.8952 Y25.6628 F120.00
G01 X-52.9499 Y25.6350 F120.00
G01 X-52.9926 Y25.6108 F120.00
G01 X-53.2451 Y25.4594 F120.00
G01 X-53.2968 Y25.4263 F120.00
G01 X-53.3369 Y25.3981 F120.00
G01 X-53.5734 Y25.2227 F120.00
G01 X-53.6216 Y25.1847 F120.00
G01 X-53.6587 Y25.1526 F120.00
G01 X-53.8769 Y24.9549 F120.00
G01 X-53.9211 Y24.9124 F120.00
G01 X-53.9549 Y24.8769 F120.00
G01 X-54.1526 Y24.6587 F120.00
G01 X-54.1925 Y24.6121 F120.00
G01 X-54.2227 Y24.5734 F120.00
G01 X-54.3981 Y24.3369 F120.00
G01 X-54.4331 Y24.2866 F120.00
G01 X-54.4594 Y24.2451 F120.00
G01 X-54.6108 Y23.9926 F120.00
G01 X-54.6407 Y23.9391 F120.00
G01 X-54.6628 Y23.8952 F120.00
G01 X-54.7887 Y23.6291 F120.00
G01 X-54.8133 Y23.5729 F120.00
G01 X-54.8309 Y23.5271 F120.00
G01 X-54.9301 Y23.2499 F120.00
G01 X-54.9491 Y23.1915 F120.00
G01 X-54.9622 Y23.1442 F120.00
G01 X-55.0337 Y22.8586 F120.00
G01 X-55.0468 Y22.7987 F120.00
G01 X-55.0552 Y22.7504 F120.00
G01 X-55.0984 Y22.4591 F120.00
G01 X-55.1044 Y22.4104 F120.00
G01 X-55.1093 Y22.3493 F120.00
G01 X-55.1237 Y22.0552 F120.00
G01 X-55.1246 Y22.0307 F120.00
G01 X-55.1251 Y22.0000 F120.00
G01 X-55.1251 Y3.0000 F120.00
G00 X-55.1251 Y3.0000
G01 F60.00
G01 Z-1.2000
G01 F120.00
G01 X-55.1251 Y22.0000 F120.00
G01 X-55.1246 Y22.0307 F120.00
G01 X-55.1237 Y22.0552 F120.00
G01 X-55.1093 Y22.3493 F120.00
G01 X-55.1044 Y22.4104 F120.00
G01 X-55.0984 Y22.4591 F120.00
G01 X-55.0552 Y22.7504 F120.00
G01 X-55.0468 Y22.7987 F120.00
G01 X-55.0337 Y22.8586 F120.00
G01 X-54.9622 Y23.1442 F120.00
G01 X-54.9491 Y23.1915 F120.00
G01 X-54.9301 Y23.2499 F120.00
G01 X-54.8309 Y23.5271 F120.00
G01 X-54.8133 Y23.5729 F120.00
G01 X-54.7887 Y23.6291 F120.00
G01 X-54.6628 Y23.8952 F120.00
G01 X-54.6407 Y23.9391 F120.00
G01 X-54.6108 Y23.9926 F120.00
G01 X-54.4594 Y24.2451 F120.00
G01 X-54.4331 Y24.2866 F120.00
G01 X-54.3981 Y24.3369 F120.00
G01 X-54.2227 Y24.5734 F120.00
G01 X-54.1925 Y24.6121 F120.00
G01 X-54.1526 Y24.6587 F120.00
G01 X-53.9549 Y24.8769 F120.00
G01 X-53.9211 Y24.9124 F120.00
G01 X-53.8769 Y24.9549 F120.00
G01 X-53.6587 Y25.1526 F120.00
G01 X-53.6216 Y25.1847 F120.00
G01 X-53.5734 Y25.2227 F120.00
G01 X-53.3369 Y25.3981 F120.00
G01 X-53.2968 Y25.4263 F120.00
G01 X-53.2451 Y25.4594 F120.00
G01 X-52.9926 Y25.6108 F120.00
G01 X-52.9499 Y25.6350 F120.00
G01 X-52.8952 Y25.6628 F120.00
G01 X-52.6291 Y25.7887 F120.00
G01 X-52.5842 Y25.8086 F120.00
G01 X-52.5271 Y25.8309 F120.00
G01 X-52.2499 Y25.9301 F120.00
G01 X-52.2033 Y25.9455 F120.00
G01 X-52.1442 Y25.9622 F120.00
G01 X-51.8586 Y26.0337 F120.00
G01 X-51.8107 Y26.0445 F120.00
G01 X-51.7504 Y26.0552 F120.00
G01 X-51.4591 Y26.0984 F120.00
G01 X-51.4104 Y26.1044 F120.00
G01 X-51.3493 Y26.1093 F120.00
G01 X-51.0552 Y26.1237 F120.00
G01 X-51.0245 Y26.1248 F120.00
G01 X-51.0000 Y26.1251 F120.00
G01 X-3.0000 Y26.1251 F120.00
G00 X-3.0000 Y26.1251
G01 F60.00
G01 Z-1.6000
G01 F120.00
G01 X-51.0000 Y26.1251 F120.00
G01 X-51.0245 Y26.1248 F120.00
G01 X-51.0552 Y26.1237 F120.00
G01 X-51.3493 Y26.1093 F120.00
G01 X-51.4104 Y26.1044 F120.00
G01 X-51.4591 Y26.0984 F120.00
G01 X-51.7504 Y26.0552 F120.00
G01 X-51.8107 Y26.0445 F120.00
G01 X-51.8586 Y26.0337 F120.00
G01 X-52.1442 Y25.9622 F120.00
G01 X-52.2033 Y25.9455 F120.00
G01 X-52.2499 Y25.9301 F120.00
G01 X-52.5271 Y25.8309 F120.00
G01 X-52.5842 Y25.8086 F120.00
G01 X-52.6291 Y25.7887 F120.00
G01 X-52.8952 Y25.6628 F120.00
G01 X-52.9499 Y25.6350 F120.00
G01 X-52.9926 Y25.6108 F120.00
G01 X-53.2451 Y25.4594 F120.00
G01 X-53.2968 Y25.4263 F120.00
G01 X-53.3369 Y25.3981 F120.00
G01 X-53.5734 Y25.2227 F120.00
G01 X-53.6216 Y25.1847 F120.00
G01 X-53.6587 Y25.1526 F120.00
G01 X-53.8769 Y24.9549 F120.00
G01 X-53.9211 Y24.9124 F120.00
G01 X-53.9549 Y24.8769 F120.00
G01 X-54.1526 Y24.6587 F120.00
G01 X-54.1925 Y24.6121 F120.00
G01 X-54.2227 Y24.5734 F120.00
G01 X-54.3981 Y24.3369 F120.00
G01 X-54.4331 Y24.2866 F120.00
G01 X-54.4594 Y24.2451 F120.00
G01 X-54.6108 Y23.9926 F120.00
G01 X-54.6407 Y23.9391 F120.00
G01 X-54.6628 Y23.8952 F120.00
G01 X-54.7887 Y23.6291 F120.00
G01 X-54.8133 Y23.5729 F120.00
G01 X-54.8309 Y23.5271 F120.00
G01 X-54.9301 Y23.2499 F120.00
G01 X-54.9491 Y23.1915 F120.00
G01 X-54.9622 Y23.1442 F120.00
G01 X-55.0337 Y22.8586 F120.00
G01 X-55.0468 Y22.7987 F120.00
G01 X-55.0552 Y22.7504 F120.00
G01 X-55.0984 Y22.4591 F120.00
G01 X-55.1044 Y22.4104 F120.00
G01 X-55.1093 Y22.3493 F120.00
G01 X-55.1237 Y22.0552 F120.00
G01 X-55.1246 Y22.0307 F120.00
G01 X-55.1251 Y22.0000 F120.00
G01 X-55.1251 Y3.0000 F120.00
G00 X-55.1251 Y3.0000
G01 F60.00
G01 Z-2.0000
G01 F120.00
G01 X-55.1251 Y22.0000 F120.00
G01 X-55.1246 Y22.0307 F120.00
G01 X-55.1237 Y22.0552 F120.00
G01 X-55.1093 Y22.3493 F120.00
G01 X-55.1044 Y22.4104 F120.00
G01 X-55.0984 Y22.4591 F120.00
G01 X-55.0552 Y22.7504 F120.00
G01 X-55.0468 Y22.7987 F120.00
G01 X-55.0337 Y22.8586 F120.00
G01 X-54.9622 Y23.1442 F120.00
G01 X-54.9491 Y23.1915 F120.00
G01 X-54.9301 Y23.2499 F120.00
G01 X-54.8309 Y23.5271 F120.00
G01 X-54.8133 Y23.5729 F120.00
G01 X-54.7887 Y23.6291 F120.00
G01 X-54.6628 Y23.8952 F120.00
G01 X-54.6407 Y23.9391 F120.00
G01 X-54.6108 Y23.9926 F120.00
G01 X-54.4594 Y24.2451 F120.00
G01 X-54.4331 Y24.2866 F120.00
G01 X-54.3981 Y24.3369 F120.00
G01 X-54.2227 Y24.5734 F120.00
G01 X-54.1925 Y24.6121 F120.00
G01 X-54.1526 Y24.6587 F120.00
G01 X-53.9549 Y24.8769 F120.00
G01 X-53.9211 Y24.9124 F120.00
G01 X-53.8769 Y24.9549 F120.00
G01 X-53.6587 Y25.1526 F120.00
G01 X-53.6216 Y25.1847 F120.00
G01 X-53.5734 Y25.2227 F120.00
G01 X-53.3369 Y25.3981 F120.00
G01 X-53.2968 Y25.4263 F120.00
G01 X-53.2451 Y25.4594 F120.00
G01 X-52.9926 Y25.6108 F120.00
G01 X-52.9499 Y25.6350 F120.00
G01 X-52.8952 Y25.6628 F120.00
G01 X-52.6291 Y25.7887 F120.00
G01 X-52.5842 Y25.8086 F120.00
G01 X-52.5271 Y25.8309 F120.00
G01 X-52.2499 Y25.9301 F120.00
G01 X-52.2033 Y25.9455 F120.00
G01 X-52.1442 Y25.9622 F120.00
G01 X-51.8586 Y26.0337 F120.00
G01 X-51.8107 Y26.0445 F120.00
G01 X-51.7504 Y26.0552 F120.00
G01 X-51.4591 Y26.0984 F120.00
G01 X-51.4104 Y26.1044 F120.00
G01 X-51.3493 Y26.1093 F120.00
G01 X-51.0552 Y26.1237 F120.00
G01 X-51.0245 Y26.1248 F120.00
G01 X-51.0000 Y26.1251 F120.00
G01 X-3.0000 Y26.1251 F120.00
G00 Z2.0000
G00 X3.0000 Y26.1251
G01 F60.00
G01 Z-0.4000
G01 F120.00
G01 X51.0000 Y26.1251 F120.00
G01 X51.0307 Y26.1246 F120.00
G01 X51.0552 Y26.1237 F120.00
G01 X51.3493 Y26.1093 F120.00
G01 X51.4104 Y26.1044 F120.00
G01 X51.4591 Y26.0984 F120.00
G01 X51.7504 Y26.0552 F120.00
G01 X51.8107 Y26.0445 F120.00
G01 X51.8586 Y26.0337 F120.00
G01 X52.1442 Y25.9622 F120.00
G01 X52.2033 Y25.9455 F120.00
G01 X52.2499 Y25.9301 F120.00
G01 X52.5271 Y25.8309 F120.00
G01 X52.5729 Y25.8133 F120.00
G01 X52.6291 Y25.7887 F120.00
G01 X52.8952 Y25.6628 F120.00
G01 X52.9391 Y25.6407 F120.00
G01 X52.9926 Y25.6108 F120.00
G01 X53.2451 Y25.4594 F120.00
G01 X53.2866 Y25.4331 F120.00
G01 X53.3369 Y25.3981 F120.00
G01 X53.5734 Y25.2227 F120.00
G01 X53.6121 Y25.1925 F120.00
G01 X53.6587 Y25.1526 F120.00
G01 X53.8769 Y24.9549 F120.00
G01 X53.9124 Y24.9211 F120.00
G01 X53.9549 Y24.8769 F120.00
G01 X54.1526 Y24.6587 F120.00
G01 X54.1847 Y24.6216 F120.00
G01 X54.2227 Y24.5734 F120.00
G01 X54.3981 Y24.3369 F120.00
G01 X54.4263 Y24.2968 F120.00
G01 X54.4594 Y24.2451 F120.00
G01 X54.6108 Y23.9926 F120.00
G01 X54.6350 Y23.9499 F120.00
G01 X54.6628 Y23.8952 F120.00
G01 X54.7887 Y23.6291 F120.00
G01 X54.8086 Y23.5842 F120.00
G01 X54.8309 Y23.5271 F120.00
G01 X54.9301 Y23.2499 F120.00
G01 X54.9455 Y23.2033 F120.00
G01 X54.9622 Y23.1442 F120.00
G01 X55.0337 Y22.8586 F120.00
G01 X55.0445 Y22.8107 F120.00
G01 X55.0552 Y22.7504 F120.00
G01 X55.0984 Y22.4591 F120.00
G01 X55.1044 Y22.4104 F120.00
G01 X55.1093 Y22.3493 F120.00
G01 X55.1237 Y22.0552 F120.00
G01 X55.1248 Y22.0245 F120.00
G01 X55.1251 Y22.0000 F120.00
G01 X55.1251 Y3.0000 F120.00
G00 X55.1251 Y3.0000
G01 F60.00
G01 Z-0.8000
G01 F120.00
G01 X55.1251 Y22.0000 F120.00
G01 X55.1248 Y22.0245 F120.00
G01 X55.1237 Y22.0552 F120.00
G01 X55.1093 Y22.3493 F120.00
G01 X55.1044 Y22.4104 F120.00
G01 X55.0984 Y22.4591 F120.00
G01 X55.0552 Y22.7504 F120.00
G01 X55.0445 Y22.8107 F120.00
G01 X55.0337 Y22.8586 F120.00
G01 X54.9622 Y23.1442 F120.00
G01 X54.9455 Y23.2033 F120.00
G01 X54.9301 Y23.2499 F120.00
G01 X54.8309 Y23.5271 F120.00
G01 X54.8086 Y23.5842 F120.00
G01 X54.7887 Y23.6291 F120.00
G01 X54.6628 Y23.8952 F120.00
G01 X54.6350 Y23.9499 F120.00
G01 X54.6108 Y23.9926 F120.00
G01 X54.4594 Y24.2451 F120.00
G01 X54.4263 Y24.2968 F120.00
G01 X54.3981 Y24.3369 F120.00
G01 X54.2227 Y24.5734 F120.00
G01 X54.1847 Y24.6216 F120.00
G01 X54.1526 Y24.6587 F120.00
G01 X53.9549 Y24.8769 F120.00
G01 X53.9124 Y24.9211 F120.00
G01 X53.8769 Y24.9549 F120.00
G01 X53.6587 Y25.1526 F120.00
G01 X53.6121 Y25.1925 F120.00
G01 X53.5734 Y25.2227 F120.00
G01 X53.3369 Y25.3981 F120.00
G01 X53.2866 Y25.4331 F120.00
G01 X53.2451 Y25.4594 F120.00
G01 X52.9926 Y25.6108 F120.00
G01 X52.9391 Y25.6407 F120.00
G01 X52.8952 Y25.6628 F120.00
G01 X52.6291 Y25.7887 F120.00
G01 X52.5729 Y25.8133 F120.00
G01 X52.5271 Y25.8309 F120.00
G01 X52.2499 Y25.9301 F120.00
G01 X52.2033 Y25.9455 F120.00
G01 X52.1442 Y25.9622 F120.00
G01 X51.8586 Y26.0337 F120.00
G01 X51.8107 Y26.0445 F120.00
G01 X51.7504 Y26.0552 F120.00
G01 X51.4591 Y26.0984 F120.00
G01 X51.4104 Y26.1044 F120.00
G01 X51.3493 Y26.1093 F120.00
G01 X51.0552 Y26.1237 F120.00
G01 X51.0307 Y26.1246 F120.00
G01 X51.0000 Y26.1251 F120.00
G01 X3.0000 Y26.1251 F120.00
G00 X3.0000 Y26.1251
G01 F60.00
G01 Z-1.2000
G01 F120.00
G01 X51.0000 Y26.1251 F120.00
G01 X51.0307 Y26.1246 F120.00
G01 X51.0552 Y26.1237 F120.00
G01 X51.3493 Y26.1093 F120.00
G01 X51.4104 Y26.1044 F120.00
G01 X51.4591 Y26.0984 F120.00
G01 X51.7504 Y26.0552 F120.00
G01 X51.8107 Y26.0445 F120.00
G01 X51.8586 Y26.0337 F120.00
G01 X52.1442 Y25.9622 F120.00
G01 X52.2033 Y25.9455 F120.00
G01 X52.2499 Y25.9301 F120.00
G01 X52.5271 Y25.8309 F120.00
G01 X52.5729 Y25.8133 F120.00
G01 X52.6291 Y25.7887 F120.00
G01 X52.8952 Y25.6628 F120.00
G01 X52.9391 Y25.6407 F120.00
G01 X52.9926 Y25.6108 F120.00
G01 X53.2451 Y25.4594 F120.00
G01 X53.2866 Y25.4331 F120.00
G01 X53.3369 Y25.3981 F120.00
G01 X53.5734 Y25.2227 F120.00
G01 X53.6121 Y25.1925 F120.00
G01 X53.6587 Y25.1526 F120.00
G01 X53.8769 Y24.9549 F120.00
G01 X53.9124 Y24.9211 F120.00
G01 X53.9549 Y24.8769 F120.00
G01 X54.1526 Y24.6587 F120.00
G01 X54.1847 Y24.6216 F120.00
G01 X54.2227 Y24.5734 F120.00
G01 X54.3981 Y24.3369 F120.00
G01 X54.4263 Y24.2968 F120.00
G01 X54.4594 Y24.2451 F120.00
G01 X54.6108 Y23.9926 F120.00
G01 X54.6350 Y23.9499 F120.00
G01 X54.6628 Y23.8952 F120.00
G01 X54.7887 Y23.6291 F120.00
G01 X54.8086 Y23.5842 F120.00
G01 X54.8309 Y23.5271 F120.00
G01 X54.9301 Y23.2499 F120.00
G01 X54.9455 Y23.2033 F120.00
G01 X54.9622 Y23.1442 F120.00
G01 X55.0337 Y22.8586 F120.00
G01 X55.0445 Y22.8107 F120.00
G01 X55.0552 Y22.7504 F120.00
G01 X55.0984 Y22.4591 F120.00
G01 X55.1044 Y22.4104 F120.00
G01 X55.1093 Y22.3493 F120.00
G01 X55.1237 Y22.0552 F120.00
G01 X55.1248 Y22.0245 F120.00
G01 X55.1251 Y22.0000 F120.00
G01 X55.1251 Y3.0000 F120.00
G00 X55.1251 Y3.0000
G01 F60.00
G01 Z-1.6000
G01 F120.00
G01 X55.1251 Y22.0000 F120.00
G01 X55.1248 Y22.0245 F120.00
G01 X55.1237 Y22.0552 F120.00
G01 X55.1093 Y22.3493 F120.00
G01 X55.1044 Y22.4104 F120.00
G01 X55.0984 Y22.4591 F120.00
G01 X55.0552 Y22.7504 F120.00
G01 X55.0445 Y22.8107 F120.00
G01 X55.0337 Y22.8586 F120.00
G01 X54.9622 Y23.1442 F120.00
G01 X54.9455 Y23.2033 F120.00
G01 X54.9301 Y23.2499 F120.00
G01 X54.8309 Y23.5271 F120.00
G01 X54.8086 Y23.5842 F120.00
G01 X54.7887 Y23.6291 F120.00
G01 X54.6628 Y23.8952 F120.00
G01 X54.6350 Y23.9499 F120.00
G01 X54.6108 Y23.9926 F120.00
G01 X54.4594 Y24.2451 F120.00
G01 X54.4263 Y24.2968 F120.00
G01 X54.3981 Y24.3369 F120.00
G01 X54.2227 Y24.5734 F120.00
G01 X54.1847 Y24.6216 F120.00
G01 X54.1526 Y24.6587 F120.00
G01 X53.9549 Y24.8769 F120.00
G01 X53.9124 Y24.9211 F120.00
G01 X53.8769 Y24.9549 F120.00
G01 X53.6587 Y25.1526 F120.00
G01 X53.6121 Y25.1925 F120.00
G01 X53.5734 Y25.2227 F120.00
G01 X53.3369 Y25.3981 F120.00
G01 X53.2866 Y25.4331 F120.00
G01 X53.2451 Y25.4594 F120.00
G01 X52.9926 Y25.6108 F120.00
G01 X52.9391 Y25.6407 F120.00
G01 X52.8952 Y25.6628 F120.00
G01 X52.6291 Y25.7887 F120.00
G01 X52.5729 Y25.8133 F120.00
G01 X52.5271 Y25.8309 F120.00
G01 X52.2499 Y25.9301 F120.00
G01 X52.2033 Y25.9455 F120.00
G01 X52.1442 Y25.9622 F120.00
G01 X51.8586 Y26.0337 F120.00
G01 X51.8107 Y26.0445 F120.00
G01 X51.7504 Y26.0552 F120.00
G01 X51.4591 Y26.0984 F120.00
G01 X51.4104 Y26.1044 F120.00
G01 X51.3493 Y26.1093 F120.00
G01 X51.0552 Y26.1237 F120.00
G01 X51.0307 Y26.1246 F120.00
G01 X51.0000 Y26.1251 F120.00
G01 X3.0000 Y26.1251 F120.00
G00 X3.0000 Y26.1251
G01 F60.00
G01 Z-2.0000
G01 F120.00
G01 X51.0000 Y26.1251 F120.00
G01 X51.0307 Y26.1246 F120.00
G01 X51.0552 Y26.1237 F120.00
G01 X51.3493 Y26.1093 F120.00
G01 X51.4104 Y26.1044 F120.00
G01 X51.4591 Y26.0984 F120.00
G01 X51.7504 Y26.0552 F120.00
G01 X51.8107 Y26.0445 F120.00
G01 X51.8586 Y26.0337 F120.00
G01 X52.1442 Y25.9622 F120.00
G01 X52.2033 Y25.9455 F120.00
G01 X52.2499 Y25.9301 F120.00
G01 X52.5271 Y25.8309 F120.00
G01 X52.5729 Y25.8133 F120.00
G01 X52.6291 Y25.7887 F120.00
G01 X52.8952 Y25.6628 F120.00
G01 X52.9391 Y25.6407 F120.00
G01 X52.9926 Y25.6108 F120.00
G01 X53.2451 Y25.4594 F120.00
G01 X53.2866 Y25.4331 F120.00
G01 X53.3369 Y25.3981 F120.00
G01 X53.5734 Y25.2227 F120.00
G01 X53.6121 Y25.1925 F120.00
G01 X53.6587 Y25.1526 F120.00
G01 X53.8769 Y24.9549 F120.00
G01 X53.9124 Y24.9211 F120.00
G01 X53.9549 Y24.8769 F120.00
G01 X54.1526 Y24.6587 F120.00
G01 X54.1847 Y24.6216 F120.00
G01 X54.2227 Y24.5734 F120.00
G01 X54.3981 Y24.3369 F120.00
G01 X54.4263 Y24.2968 F120.00
G01 X54.4594 Y24.2451 F120.00
G01 X54.6108 Y23.9926 F120.00
G01 X54.6350 Y23.9499 F120.00
G01 X54.6628 Y23.8952 F120.00
G01 X54.7887 Y23.6291 F120.00
G01 X54.8086 Y23.5842 F120.00
G01 X54.8309 Y23.5271 F120.00
G01 X54.9301 Y23.2499 F120.00
G01 X54.9455 Y23.2033 F120.00
G01 X54.9622 Y23.1442 F120.00
G01 X55.0337 Y22.8586 F120.00
G01 X55.0445 Y22.8107 F120.00
G01 X55.0552 Y22.7504 F120.00
G01 X55.0984 Y22.4591 F120.00
G01 X55.1044 Y22.4104 F120.00
G01 X55.1093 Y22.3493 F120.00
G01 X55.1237 Y22.0552 F120.00
G01 X55.1248 Y22.0245 F120.00
G01 X55.1251 Y22.0000 F120.00
G01 X55.1251 Y3.0000 F120.00
G00 Z2.0000
G00 X55.1251 Y-3.0000
G01 F60.00
G01 Z-0.4000
G01 F120.00
G01 X55.1251 Y-22.0000 F120.00
G01 X55.1246 Y-22.0307 F120.00
G01 X55.1237 Y-22.0552 F120.00
G01 X55.1093 Y-22.3493 F120.00
G01 X55.1044 Y-22.4104 F120.00
G01 X55.0984 Y-22.4591 F120.00
G01 X55.0552 Y-22.7504 F120.00
G01 X55.0468 Y-22.7987 F120.00
G01 X55.0337 Y-22.8586 F120.00
G01 X54.9622 Y-23.1442 F120.00
G01 X54.9491 Y-23.1915 F120.00
G01 X54.9301 Y-23.2499 F120.00
G01 X54.8309 Y-23.5271 F120.00
G01 X54.8133 Y-23.5729 F120.00
G01 X54.7887 Y-23.6291 F120.00
G01 X54.6628 Y-23.8952 F120.00
G01 X54.6407 Y-23.9391 F120.00
G01 X54.6108 Y-23.9926 F120.00
G01 X54.4594 Y-24.2451 F120.00
G01 X54.4331 Y-24.2866 F120.00
G01 X54.3981 Y-24.3369 F120.00
G01 X54.2227 Y-24.5734 F120.00
G01 X54.1925 Y-24.6121 F120.00
G01 X54.1526 Y-24.6587 F120.00
G01 X53.9549 Y-24.8769 F120.00
G01 X53.9211 Y-24.9124 F120.00
G01 X53.8769 Y-24.9549 F120.00
G01 X53.6587 Y-25.1526 F120.00
G01 X53.6216 Y-25.1847 F120.00
G01 X53.5734 Y-25.2227 F120.00
G01 X53.3369 Y-25.3981 F120.00
G01 X53.2968 Y-25.4263 F120.00
G01 X53.2451 Y-25.4594 F120.00
G01 X52.9926 Y-25.6108 F120.00
G01 X52.9499 Y-25.6350 F120.00
G01 X52.8952 Y-25.6628 F120.00
G01 X52.6291 Y-25.7887 F120.00
G01 X52.5842 Y-25.8086 F120.00
G01 X52.5271 Y-25.8309 F120.00
G01 X52.2499 Y-25.9301 F120.00
G01 X52.2033 Y-25.9455 F120.00
G01 X52.1442 Y-25.9622 F120.00
G01 X51.8586 Y-26.0337 F120.00
G01 X51.8107 Y-26.0445 F120.00
G01 X51.7504 Y-26.0552 F120.00
G01 X51.4591 Y-26.0984 F120.00
G01 X51.4104 Y-26.1044 F120.00
G01 X51.3493 Y-26.1093 F120.00
G01 X51.0552 Y-26.1237 F120.00
G01 X51.0245 Y-26.1248 F120.00
G01 X51.0000 Y-26.1251 F120.00
G01 X3.0000 Y-26.1251 F120.00
G00 X3.0000 Y-26.1251
G01 F60.00
G01 Z-0.8000
G01 F120.00
G01 X51.0000 Y-26.1251 F120.00
G01 X51.0245 Y-26.1248 F120.00
G01 X51.0552 Y-26.1237 F120.00
G01 X51.3493 Y-26.1093 F120.00
G01 X51.4104 Y-26.1044 F120.00
G01 X51.4591 Y-26.0984 F120.00
G01 X51.7504 Y-26.0552 F120.00
G01 X51.8107 Y-26.0445 F120.00
G01 X51.8586 Y-26.0337 F120.00
G01 X52.1442 Y-25.9622 F120.00
G01 X52.2033 Y-25.9455 F120.00
G01 X52.2499 Y-25.9301 F120.00
G01 X52.5271 Y-25.8309 F120.00
G01 X52.5842 Y-25.8086 F120.00
G01 X52.6291 Y-25.7887 F120.00
G01 X52.8952 Y-25.6628 F120.00
G01 X52.9499 Y-25.6350 F120.00
G01 X52.9926 Y-25.6108 F120.00
G01 X53.2451 Y-25.4594 F120.00
G01 X53.2968 Y-25.4263 F120.00
G01 X53.3369 Y-25.3981 F120.00
G01 X53.5734 Y-25.2227 F120.00
G01 X53.6216 Y-25.1847 F120.00
G01 X53.6587 Y-25.1526 F120.00
G01 X53.8769 Y-24.9549 F120.00
G01 X53.9211 Y-24.9124 F120.00
G01 X53.9549 Y-24.8769 F120.00
G01 X54.1526 Y-24.6587 F120.00
G01 X54.1925 Y-24.6121 F120.00
G01 X54.2227 Y-24.5734 F120.00
G01 X54.3981 Y-24.3369 F120.00
G01 X54.4331 Y-24.2866 F120.00
G01 X54.4594 Y-24.2451 F120.00
G01 X54.6108 Y-23.9926 F120.00
G01 X54.6407 Y-23.9391 F120.00
G01 X54.6628 Y-23.8952 F120.00
G01 X54.7887 Y-23.6291 F120.00
G01 X54.8133 Y-23.5729 F120.00
G01 X54.8309 Y-23.5271 F120.00
G01 X54.9301 Y-23.2499 F120.00
G01 X54.9491 Y-23.1915 F120.00
G01 X54.9622 Y-23.1442 F120.00
G01 X55.0337 Y-22.8586 F120.00
G01 X55.0468 Y-22.7987 F120.00
G01 X55.0552 Y-22.7504 F120.00
G01 X55.0984 Y-22.4591 F120.00
G01 X55.1044 Y-22.4104 F120.00
G01 X55.1093 Y-22.3493 F120.00
G01 X55.1237 Y-22.0552 F120.00
G01 X55.1246 Y-22.0307 F120.00
G01 X55.1251 Y-22.0000 F120.00
G01 X55.1251 Y-3.0000 F120.00
G00 X55.1251 Y-3.0000
G01 F60.00
G01 Z-1.2000
G01 F120.00
G01 X55.1251 Y-22.0000 F120.00
G01 X55.1246 Y-22.0307 F120.00
G01 X55.1237 Y-22.0552 F120.00
G01 X55.1093 Y-22.3493 F120.00
G01 X55.1044 Y-22.4104 F120.00
G01 X55.0984 Y-22.4591 F120.00
G01 X55.0552 Y-22.7504 F120.00
G01 X55.0468 Y-22.7987 F120.00
G01 X55.0337 Y-22.8586 F120.00
G01 X54.9622 Y-23.1442 F120.00
G01 X54.9491 Y-23.1915 F120.00
G01 X54.9301 Y-23.2499 F120.00
G01 X54.8309 Y-23.5271 F120.00
G01 X54.8133 Y-23.5729 F120.00
G01 X54.7887 Y-23.6291 F120.00
G01 X54.6628 Y-23.8952 F120.00
G01 X54.6407 Y-23.9391 F120.00
G01 X54.6108 Y-23.9926 F120.00
G01 X54.4594 Y-24.2451 F120.00
G01 X54.4331 Y-24.2866 F120.00
G01 X54.3981 Y-24.3369 F120.00
G01 X54.2227 Y-24.5734 F120.00
G01 X54.1925 Y-24.6121 F120.00
G01 X54.1526 Y-24.6587 F120.00
G01 X53.9549 Y-24.8769 F120.00
G01 X53.9211 Y-24.9124 F120.00
G01 X53.8769 Y-24.9549 F120.00
G01 X53.6587 Y-25.1526 F120.00
G01 X53.6216 Y-25.1847 F120.00
G01 X53.5734 Y-25.2227 F120.00
G01 X53.3369 Y-25.3981 F120.00
G01 X53.2968 Y-25.4263 F120.00
G01 X53.2451 Y-25.4594 F120.00
G01 X52.9926 Y-25.6108 F120.00
G01 X52.9499 Y-25.6350 F120.00
G01 X52.8952 Y-25.6628 F120.00
G01 X52.6291 Y-25.7887 F120.00
G01 X52.5842 Y-25.8086 F120.00
G01 X52.5271 Y-25.8309 F120.00
G01 X52.2499 Y-25.9301 F120.00
G01 X52.2033 Y-25.9455 F120.00
G01 X52.1442 Y-25.9622 F120.00
G01 X51.8586 Y-26.0337 F120.00
G01 X51.8107 Y-26.0445 F120.00
G01 X51.7504 Y-26.0552 F120.00
G01 X51.4591 Y-26.0984 F120.00
G01 X51.4104 Y-26.1044 F120.00
G01 X51.3493 Y-26.1093 F120.00
G01 X51.0552 Y-26.1237 F120.00
G01 X51.0245 Y-26.1248 F120.00
G01 X51.0000 Y-26.1251 F120.00
G01 X3.0000 Y-26.1251 F120.00
G00 X3.0000 Y-26.1251
G01 F60.00
G01 Z-1.6000
G01 F120.00
G01 X51.0000 Y-26.1251 F120.00
G01 X51.0245 Y-26.1248 F120.00
G01 X51.0552 Y-26.1237 F120.00
G01 X51.3493 Y-26.1093 F120.00
G01 X51.4104 Y-26.1044 F120.00
G01 X51.4591 Y-26.0984 F120.00
G01 X51.7504 Y-26.0552 F120.00
G01 X51.8107 Y-26.0445 F120.00
G01 X51.8586 Y-26.0337 F120.00
G01 X52.1442 Y-25.9622 F120.00
G01 X52.2033 Y-25.9455 F120.00
G01 X52.2499 Y-25.9301 F120.00
G01 X52.5271 Y-25.8309 F120.00
G01 X52.5842 Y-25.8086 F120.00
G01 X52.6291 Y-25.7887 F120.00
G01 X52.8952 Y-25.6628 F120.00
G01 X52.9499 Y-25.6350 F120.00
G01 X52.9926 Y-25.6108 F120.00
G01 X53.2451 Y-25.4594 F120.00
G01 X53.2968 Y-25.4263 F120.00
G01 X53.3369 Y-25.3981 F120.00
G01 X53.5734 Y-25.2227 F120.00
G01 X53.6216 Y-25.1847 F120.00
G01 X53.6587 Y-25.1526 F120.00
G01 X53.8769 Y-24.9549 F120.00
G01 X53.9211 Y-24.9124 F120.00
G01 X53.9549 Y-24.8769 F120.00
G01 X54.1526 Y-24.6587 F120.00
G01 X54.1925 Y-24.6121 F120.00
G01 X54.2227 Y-24.5734 F120.00
G01 X54.3981 Y-24.3369 F120.00
G01 X54.4331 Y-24.2866 F120.00
G01 X54.4594 Y-24.2451 F120.00
G01 X54.6108 Y-23.9926 F120.00
G01 X54.6407 Y-23.9391 F120.00
G01 X54.6628 Y-23.8952 F120.00
G01 X54.7887 Y-23.6291 F120.00
G01 X54.8133 Y-23.5729 F120.00
G01 X54.8309 Y-23.5271 F120.00
G01 X54.9301 Y-23.2499 F120.00
G01 X54.9491 Y-23.1915 F120.00
G01 X54.9622 Y-23.1442 F120.00
G01 X55.0337 Y-22.8586 F120.00
G01 X55.0468 Y-22.7987 F120.00
G01 X55.0552 Y-22.7504 F120.00
G01 X55.0984 Y-22.4591 F120.00
G01 X55.1044 Y-22.4104 F120.00
G01 X55.1093 Y-22.3493 F120.00
G01 X55.1237 Y-22.0552 F120.00
G01 X55.1246 Y-22.0307 F120.00
G01 X55.1251 Y-22.0000 F120.00
G01 X55.1251 Y-3.0000 F120.00
G00 X55.1251 Y-3.0000
G01 F60.00
G01 Z-2.0000
G01 F120.00
G01 X55.1251 Y-22.0000 F120.00
G01 X55.1246 Y-22.0307 F120.00
G01 X55.1237 Y-22.0552 F120.00
G01 X55.1093 Y-22.3493 F120.00
G01 X55.1044 Y-22.4104 F120.00
G01 X55.0984 Y-22.4591 F120.00
G01 X55.0552 Y-22.7504 F120.00
G01 X55.0468 Y-22.7987 F120.00
G01 X55.0337 Y-22.8586 F120.00
G01 X54.9622 Y-23.1442 F120.00
G01 X54.9491 Y-23.1915 F120.00
G01 X54.9301 Y-23.2499 F120.00
G01 X54.8309 Y-23.5271 F120.00
G01 X54.8133 Y-23.5729 F120.00
G01 X54.7887 Y-23.6291 F120.00
G01 X54.6628 Y-23.8952 F120.00
G01 X54.6407 Y-23.9391 F120.00
G01 X54.6108 Y-23.9926 F120.00
G01 X54.4594 Y-24.2451 F120.00
G01 X54.4331 Y-24.2866 F120.00
G01 X54.3981 Y-24.3369 F120.00
G01 X54.2227 Y-24.5734 F120.00
G01 X54.1925 Y-24.6121 F120.00
G01 X54.1526 Y-24.6587 F120.00
G01 X53.9549 Y-24.8769 F120.00
G01 X53.9211 Y-24.9124 F120.00
G01 X53.8769 Y-24.9549 F120.00
G01 X53.6587 Y-25.1526 F120.00
G01 X53.6216 Y-25.1847 F120.00
G01 X53.5734 Y-25.2227 F120.00
G01 X53.3369 Y-25.3981 F120.00
G01 X53.2968 Y-25.4263 F120.00
G01 X53.2451 Y-25.4594 F120.00
G01 X52.9926 Y-25.6108 F120.00
G01 X52.9499 Y-25.6350 F120.00
G01 X52.8952 Y-25.6628 F120.00
G01 X52.6291 Y-25.7887 F120.00
G01 X52.5842 Y-25.8086 F120.00
G01 X52.5271 Y-25.8309 F120.00
G01 X52.2499 Y-25.9301 F120.00
G01 X52.2033 Y-25.9455 F120.00
G01 X52.1442 Y-25.9622 F120.00
G01 X51.8586 Y-26.0337 F120.00
G01 X51.8107 Y-26.0445 F120.00
G01 X51.7504 Y-26.0552 F120.00
G01 X51.4591 Y-26.0984 F120.00
G01 X51.4104 Y-26.1044 F120.00
G01 X51.3493 Y-26.1093 F120.00
G01 X51.0552 Y-26.1237 F120.00
G01 X51.0245 Y-26.1248 F120.00
G01 X51.0000 Y-26.1251 F120.00
G01 X3.0000 Y-26.1251 F120.00
G00 Z2.0000
M05
G00 Z2.0000
G00 Z7.00


