(G-CODE GENERATED BY FLATCAM v8.994 - www.flatcam.org - Version Date: 2020/11/7)

(Name: FX-Pots-B_Cu.gbr_ncc_cnc)
(Type: G-code from Geometry)
(Units: MM)

(Created on Monday, 12 August 2024 at 22:59)

(This preprocessor is used with a motion controller loaded with GRBL firmware.)
(It is configured to be compatible with almost any version of GRBL firmware.)

(TOOL DIAMETER: 0.1536 mm)
(Feedrate_XY: 120.0 mm/min)
(Feedrate_Z: 60.0 mm/min)
(Feedrate rapids 1500.0 mm/min)

(Z_Cut: -0.1 mm)
(Z_Move: 2.0 mm)
(Z Start: None mm)
(Z End: 7.0 mm)
(X,Y End: None mm)
(Steps per circle: 64)
(Steps per circle: 64)
(Preprocessor Geometry: GRBL_11_no_M6)

(X range:  -17.4237 ...   81.5440  mm)
(Y range:  -78.3285 ...  -30.1715  mm)

(Spindle Speed: 900.0 RPM)
G21
G90
G17
G94


G01 F120.00

M5             
G00 Z7.0000
G00 X0.0000 Y0.0000                
T1
(MSG, Change to Tool Dia = 0.1536)
M0
G00 Z7.0000
        
M03 S900.0
G01 F120.00
G00 X13.1319 Y-30.3534
G01 F60.00
G01 Z-0.1000
G01 F120.00
G01 X13.1967 Y-30.3930 F120.00
G01 X13.2505 Y-30.4279 F120.00
G01 X13.3033 Y-30.4642 F120.00
G01 X13.3552 Y-30.5017 F120.00
G01 X13.4062 Y-30.5405 F120.00
G01 X13.4563 Y-30.5806 F120.00
G01 X13.4835 Y-30.6034 F120.00
G00 Z2.0000
G00 X13.4131 Y-30.6247
G01 F60.00
G01 Z-0.1000
G01 F120.00
G01 X13.3684 Y-30.5890 F120.00
G01 X13.3186 Y-30.5511 F120.00
G01 X13.2679 Y-30.5144 F120.00
G01 X13.2163 Y-30.4790 F120.00
G01 X13.1639 Y-30.4449 F120.00
G01 X13.1106 Y-30.4121 F120.00
G01 X13.0644 Y-30.3851 F120.00
G01 X12.9960 Y-30.4173 F120.00
G01 X13.0262 Y-30.4340 F120.00
G01 X13.0790 Y-30.4648 F120.00
G01 X13.1310 Y-30.4968 F120.00
G01 X13.1822 Y-30.5301 F120.00
G01 X13.2326 Y-30.5646 F120.00
G01 X13.2820 Y-30.6004 F120.00
G01 X13.3306 Y-30.6374 F120.00
G01 X13.3452 Y-30.6490 F120.00
G00 Z2.0000
G00 X13.2767 Y-30.6735
G01 F60.00
G01 Z-0.1000
G01 F120.00
G01 X13.2454 Y-30.6498 F120.00
G01 X13.1972 Y-30.6149 F120.00
G01 X13.1481 Y-30.5812 F120.00
G01 X13.0981 Y-30.5487 F120.00
G01 X13.0474 Y-30.5175 F120.00
G01 X12.9960 Y-30.4875 F120.00
G01 X12.9438 Y-30.4587 F120.00
G01 X12.9268 Y-30.4499 F120.00
G01 X12.8600 Y-30.4846 F120.00
G01 X12.9148 Y-30.5129 F120.00
G01 X12.9657 Y-30.5409 F120.00
G01 X13.0158 Y-30.5702 F120.00
G01 X13.0653 Y-30.6006 F120.00
G01 X13.1139 Y-30.6323 F120.00
G01 X13.1618 Y-30.6651 F120.00
G01 X13.2121 Y-30.7016 F120.00
G00 Z2.0000
G00 X13.1488 Y-30.7315
G01 F60.00
G01 Z-0.1000
G01 F120.00
G01 X13.1264 Y-30.7153 F120.00
G01 X13.0798 Y-30.6834 F120.00
G01 X13.0324 Y-30.6525 F120.00
G01 X12.9842 Y-30.6229 F120.00
G01 X12.9354 Y-30.5944 F120.00
G01 X12.8859 Y-30.5671 F120.00
G01 X12.8357 Y-30.5411 F120.00
G01 X12.7991 Y-30.5232 F120.00
G01 X12.7377 Y-30.5622 F120.00
G01 X12.7586 Y-30.5718 F120.00
G01 X12.8080 Y-30.5959 F120.00
G01 X12.8569 Y-30.6213 F120.00
G01 X12.9051 Y-30.6478 F120.00
G01 X12.9527 Y-30.6755 F120.00
G01 X12.9995 Y-30.7044 F120.00
G01 X13.0457 Y-30.7344 F120.00
G01 X13.0852 Y-30.7616 F120.00
G00 Z2.0000
G00 X13.0259 Y-30.7954
G01 F60.00
G01 Z-0.1000
G01 F120.00
G01 X13.0115 Y-30.7855 F120.00
G01 X12.9666 Y-30.7563 F120.00
G01 X12.9211 Y-30.7282 F120.00
G01 X12.8748 Y-30.7013 F120.00
G01 X12.8279 Y-30.6755 F120.00
G01 X12.7804 Y-30.6508 F120.00
G01 X12.7323 Y-30.6273 F120.00
G01 X12.6756 Y-30.6016 F120.00
G01 X12.6143 Y-30.6422 F120.00
G01 X12.6587 Y-30.6612 F120.00
G01 X12.7060 Y-30.6829 F120.00
G01 X12.7528 Y-30.7057 F120.00
G01 X12.7990 Y-30.7297 F120.00
G01 X12.8445 Y-30.7548 F120.00
G01 X12.8895 Y-30.7809 F120.00
G01 X12.9338 Y-30.8082 F120.00
G01 X12.9676 Y-30.8303 F120.00
G00 Z2.0000
G00 X12.9090 Y-30.8654
G01 F60.00
G01 Z-0.1000
G01 F120.00
G01 X12.8579 Y-30.8336 F120.00
G01 X12.8143 Y-30.8082 F120.00
G01 X12.7700 Y-30.7839 F120.00
G01 X12.7252 Y-30.7606 F120.00
G01 X12.6798 Y-30.7384 F120.00
G01 X12.6338 Y-30.7174 F120.00
G01 X12.5874 Y-30.6975 F120.00
G01 X12.5604 Y-30.6867 F120.00
G01 X12.5062 Y-30.7315 F120.00
G01 X12.5184 Y-30.7361 F120.00
G01 X12.5639 Y-30.7543 F120.00
G01 X12.6089 Y-30.7736 F120.00
G01 X12.6535 Y-30.7940 F120.00
G01 X12.6975 Y-30.8155 F120.00
G01 X12.7410 Y-30.8380 F120.00
G01 X12.7840 Y-30.8617 F120.00
G01 X12.8263 Y-30.8863 F120.00
G01 X12.8547 Y-30.9038 F120.00
G00 Z2.0000
G00 X12.8016 Y-30.9433
G01 F60.00
G01 Z-0.1000
G01 F120.00
G01 X12.7537 Y-30.9151 F120.00
G01 X12.7121 Y-30.8922 F120.00
G01 X12.6699 Y-30.8703 F120.00
G01 X12.6272 Y-30.8495 F120.00
G01 X12.5840 Y-30.8297 F120.00
G01 X12.5404 Y-30.8110 F120.00
G01 X12.4963 Y-30.7934 F120.00
G01 X12.4516 Y-30.7768 F120.00
G01 X12.3961 Y-30.8227 F120.00
G01 X12.4311 Y-30.8347 F120.00
G01 X12.4742 Y-30.8507 F120.00
G01 X12.5169 Y-30.8678 F120.00
G01 X12.5591 Y-30.8859 F120.00
G01 X12.6010 Y-30.9051 F120.00
G01 X12.6423 Y-30.9252 F120.00
G01 X12.6831 Y-30.9464 F120.00
G01 X12.7234 Y-30.9686 F120.00
G01 X12.7481 Y-30.9830 F120.00
G00 Z2.0000
G00 X12.6986 Y-31.0252
G01 F60.00
G01 Z-0.1000
G01 F120.00
G01 X12.6542 Y-31.0006 F120.00
G01 X12.6147 Y-30.9801 F120.00
G01 X12.5747 Y-30.9606 F120.00
G01 X12.5342 Y-30.9421 F120.00
G01 X12.4934 Y-30.9245 F120.00
G01 X12.4521 Y-30.9080 F120.00
G01 X12.4104 Y-30.8925 F120.00
G01 X12.3683 Y-30.8781 F120.00
G01 X12.3482 Y-30.8717 F120.00
G01 X12.3014 Y-30.9215 F120.00
G01 X12.3490 Y-30.9364 F120.00
G01 X12.3897 Y-30.9504 F120.00
G01 X12.4299 Y-30.9653 F120.00
G01 X12.4698 Y-30.9813 F120.00
G01 X12.5093 Y-30.9982 F120.00
G01 X12.5484 Y-31.0161 F120.00
G01 X12.5870 Y-31.0350 F120.00
G01 X12.6252 Y-31.0548 F120.00
G01 X12.6506 Y-31.0687 F120.00
G00 Z2.0000
G00 X12.6024 Y-31.1124
G01 F60.00
G01 Z-0.1000
G01 F120.00
G01 X12.5594 Y-31.0899 F120.00
G01 X12.5222 Y-31.0717 F120.00
G01 X12.4845 Y-31.0544 F120.00
G01 X12.4463 Y-31.0381 F120.00
G01 X12.4078 Y-31.0227 F120.00
G01 X12.3690 Y-31.0082 F120.00
G01 X12.3298 Y-30.9947 F120.00
G01 X12.2902 Y-30.9822 F120.00
G01 X12.2542 Y-30.9718 F120.00
G01 X12.2064 Y-31.0226 F120.00
G01 X12.2340 Y-31.0299 F120.00
G01 X12.2724 Y-31.0410 F120.00
G01 X12.3105 Y-31.0531 F120.00
G01 X12.3483 Y-31.0661 F120.00
G01 X12.3857 Y-31.0800 F120.00
G01 X12.4228 Y-31.0948 F120.00
G01 X12.4596 Y-31.1106 F120.00
G01 X12.4959 Y-31.1272 F120.00
G01 X12.5318 Y-31.1447 F120.00
G01 X12.5573 Y-31.1580 F120.00
G00 Z2.0000
G00 X12.5147 Y-31.2051
G01 F60.00
G01 Z-0.1000
G01 F120.00
G01 X12.4696 Y-31.1828 F120.00
G01 X12.4347 Y-31.1667 F120.00
G01 X12.3993 Y-31.1516 F120.00
G01 X12.3636 Y-31.1373 F120.00
G01 X12.3276 Y-31.1239 F120.00
G01 X12.2912 Y-31.1114 F120.00
G01 X12.2546 Y-31.0998 F120.00
G01 X12.2176 Y-31.0891 F120.00
G01 X12.1804 Y-31.0793 F120.00
G01 X12.1622 Y-31.0749 F120.00
G01 X12.1229 Y-31.1289 F120.00
G01 X12.1655 Y-31.1389 F120.00
G01 X12.2012 Y-31.1483 F120.00
G01 X12.2367 Y-31.1586 F120.00
G01 X12.2719 Y-31.1698 F120.00
G01 X12.3069 Y-31.1818 F120.00
G01 X12.3415 Y-31.1946 F120.00
G01 X12.3758 Y-31.2084 F120.00
G01 X12.4098 Y-31.2229 F120.00
G01 X12.4433 Y-31.2383 F120.00
G01 X12.4719 Y-31.2522 F120.00
G00 Z2.0000
G00 X12.4310 Y-31.3007
G01 F60.00
G01 Z-0.1000
G01 F120.00
G01 X12.4171 Y-31.2938 F120.00
G01 X12.3849 Y-31.2791 F120.00
G01 X12.3523 Y-31.2651 F120.00
G01 X12.3194 Y-31.2520 F120.00
G01 X12.2862 Y-31.2396 F120.00
G01 X12.2527 Y-31.2281 F120.00
G01 X12.2189 Y-31.2174 F120.00
G01 X12.1848 Y-31.2075 F120.00
G01 X12.1506 Y-31.1985 F120.00
G01 X12.1161 Y-31.1903 F120.00
G01 X12.0834 Y-31.1834 F120.00
G01 X12.0434 Y-31.2384 F120.00
G01 X12.0694 Y-31.2432 F120.00
G01 X12.1026 Y-31.2502 F120.00
G01 X12.1357 Y-31.2581 F120.00
G01 X12.1685 Y-31.2667 F120.00
G01 X12.2010 Y-31.2762 F120.00
G01 X12.2334 Y-31.2864 F120.00
G01 X12.2655 Y-31.2975 F120.00
G01 X12.2973 Y-31.3093 F120.00
G01 X12.3288 Y-31.3219 F120.00
G01 X12.3600 Y-31.3353 F120.00
G01 X12.3938 Y-31.3508 F120.00
G01 X12.3564 Y-31.4012 F120.00
G01 X12.3351 Y-31.3914 F120.00
G01 X12.3053 Y-31.3786 F120.00
G01 X12.2752 Y-31.3666 F120.00
G01 X12.2448 Y-31.3553 F120.00
G01 X12.2141 Y-31.3448 F120.00
G01 X12.1832 Y-31.3350 F120.00
G01 X12.1521 Y-31.3259 F120.00
G01 X12.1207 Y-31.3177 F120.00
G01 X12.0892 Y-31.3102 F120.00
G01 X12.0575 Y-31.3035 F120.00
G01 X12.0256 Y-31.2975 F120.00
G01 X12.0031 Y-31.2939 F120.00
G01 X11.9707 Y-31.3513 F120.00
G01 X12.0151 Y-31.3581 F120.00
G01 X12.0455 Y-31.3637 F120.00
G01 X12.0757 Y-31.3701 F120.00
G01 X12.1058 Y-31.3773 F120.00
G01 X12.1357 Y-31.3852 F120.00
G01 X12.1654 Y-31.3938 F120.00
G01 X12.1948 Y-31.4031 F120.00
G01 X12.2241 Y-31.4132 F120.00
G01 X12.2531 Y-31.4239 F120.00
G01 X12.2818 Y-31.4354 F120.00
G01 X12.3197 Y-31.4519 F120.00
G00 Z2.0000
G00 X12.2879 Y-31.5050
G01 F60.00
G01 Z-0.1000
G01 F120.00
G01 X12.2582 Y-31.4922 F120.00
G01 X12.2309 Y-31.4813 F120.00
G01 X12.2034 Y-31.4710 F120.00
G01 X12.1756 Y-31.4614 F120.00
G01 X12.1475 Y-31.4526 F120.00
G01 X12.1193 Y-31.4444 F120.00
G01 X12.0909 Y-31.4369 F120.00
G01 X12.0623 Y-31.4301 F120.00
G01 X12.0335 Y-31.4240 F120.00
G01 X12.0046 Y-31.4186 F120.00
G01 X11.9756 Y-31.4139 F120.00
G01 X11.9389 Y-31.4092 F120.00
G01 X11.9068 Y-31.4675 F120.00
G01 X11.9389 Y-31.4710 F120.00
G01 X11.9665 Y-31.4747 F120.00
G01 X11.9941 Y-31.4792 F120.00
G01 X12.0215 Y-31.4843 F120.00
G01 X12.0488 Y-31.4900 F120.00
G01 X12.0759 Y-31.4965 F120.00
G01 X12.1029 Y-31.5036 F120.00
G01 X12.1297 Y-31.5114 F120.00
G01 X12.1563 Y-31.5198 F120.00
G01 X12.1827 Y-31.5289 F120.00
G01 X12.2088 Y-31.5386 F120.00
G01 X12.2347 Y-31.5489 F120.00
G01 X12.2560 Y-31.5581 F120.00
G01 X12.2242 Y-31.6113 F120.00
G01 X12.1867 Y-31.5959 F120.00
G01 X12.1620 Y-31.5867 F120.00
G01 X12.1370 Y-31.5781 F120.00
G01 X12.1119 Y-31.5702 F120.00
G01 X12.0865 Y-31.5628 F120.00
G01 X12.0610 Y-31.5561 F120.00
G01 X12.0353 Y-31.5500 F120.00
G01 X12.0095 Y-31.5445 F120.00
G01 X11.9836 Y-31.5397 F120.00
G01 X11.9575 Y-31.5355 F120.00
G01 X11.9314 Y-31.5319 F120.00
G01 X11.9051 Y-31.5290 F120.00
G01 X11.8744 Y-31.5265 F120.00
G00 Z2.0000
G00 X11.8526 Y-31.5660
G01 F60.00
G01 Z-0.1000
G01 F120.00
G01 X11.9996 Y-31.2987 F120.00
G01 X12.1788 Y-31.0520 F120.00
G01 X12.3876 Y-30.8297 F120.00
G01 X12.6226 Y-30.6353 F120.00
G01 X12.8801 Y-30.4719 F120.00
G01 X13.1560 Y-30.3420 F120.00
G01 X13.4461 Y-30.2478 F120.00
G01 X13.7456 Y-30.1907 F120.00
G01 X14.0500 Y-30.1715 F120.00
G01 X14.3544 Y-30.1907 F120.00
G01 X14.6539 Y-30.2478 F120.00
G01 X14.9440 Y-30.3420 F120.00
G01 X15.2199 Y-30.4719 F120.00
G01 X15.4774 Y-30.6353 F120.00
G01 X15.7124 Y-30.8297 F120.00
G01 X15.9212 Y-31.0520 F120.00
G01 X16.1004 Y-31.2987 F120.00
G01 X16.2474 Y-31.5660 F120.00
G01 X16.3596 Y-31.8496 F120.00
G01 X16.4355 Y-32.1449 F120.00
G01 X16.4737 Y-32.4475 F120.00
G01 X16.4737 Y-32.7525 F120.00
G01 X16.4355 Y-33.0551 F120.00
G01 X16.3596 Y-33.3504 F120.00
G01 X16.2474 Y-33.6340 F120.00
G01 X16.1004 Y-33.9013 F120.00
G01 X15.9212 Y-34.1480 F120.00
G01 X15.7124 Y-34.3703 F120.00
G01 X15.4774 Y-34.5647 F120.00
G01 X15.2199 Y-34.7281 F120.00
G01 X14.9440 Y-34.8580 F120.00
G01 X14.6539 Y-34.9522 F120.00
G01 X14.3544 Y-35.0093 F120.00
G01 X14.0500 Y-35.0285 F120.00
G01 X13.7456 Y-35.0093 F120.00
G01 X13.4461 Y-34.9522 F120.00
G01 X13.1560 Y-34.8580 F120.00
G01 X12.8801 Y-34.7281 F120.00
G01 X12.6226 Y-34.5647 F120.00
G01 X12.3876 Y-34.3703 F120.00
G01 X12.1788 Y-34.1480 F120.00
G01 X11.9996 Y-33.9013 F120.00
G01 X11.8526 Y-33.6340 F120.00
G01 X11.7404 Y-33.3504 F120.00
G01 X11.6645 Y-33.0551 F120.00
G01 X11.6263 Y-32.7525 F120.00
G01 X11.6263 Y-32.4475 F120.00
G01 X11.6645 Y-32.1450 F120.00
G01 X11.7404 Y-31.8496 F120.00
G01 X11.8526 Y-31.5660 F120.00
G01 X11.8446 Y-31.5863 F120.00
G01 X11.8743 Y-31.5880 F120.00
G01 X11.8991 Y-31.5902 F120.00
G01 X11.9239 Y-31.5929 F120.00
G01 X11.9485 Y-31.5963 F120.00
G01 X11.9731 Y-31.6002 F120.00
G01 X11.9975 Y-31.6048 F120.00
G01 X12.0219 Y-31.6099 F120.00
G01 X12.0461 Y-31.6157 F120.00
G01 X12.0701 Y-31.6220 F120.00
G01 X12.0940 Y-31.6289 F120.00
G01 X12.1178 Y-31.6365 F120.00
G01 X12.1413 Y-31.6446 F120.00
G01 X12.1646 Y-31.6532 F120.00
G01 X12.1969 Y-31.6664 F120.00
G01 X12.1706 Y-31.7220 F120.00
G01 X12.1425 Y-31.7105 F120.00
G01 X12.1206 Y-31.7024 F120.00
G01 X12.0985 Y-31.6948 F120.00
G01 X12.0762 Y-31.6877 F120.00
G01 X12.0538 Y-31.6812 F120.00
G01 X12.0312 Y-31.6753 F120.00
G01 X12.0084 Y-31.6699 F120.00
G01 X11.9855 Y-31.6650 F120.00
G01 X11.9626 Y-31.6608 F120.00
G01 X11.9395 Y-31.6570 F120.00
G01 X11.9163 Y-31.6539 F120.00
G01 X11.8931 Y-31.6513 F120.00
G01 X11.8698 Y-31.6493 F120.00
G01 X11.8465 Y-31.6479 F120.00
G01 X11.8231 Y-31.6470 F120.00
G01 X11.8206 Y-31.6470 F120.00
G01 X11.7963 Y-31.7082 F120.00
G01 X11.8216 Y-31.7084 F120.00
G01 X11.8435 Y-31.7093 F120.00
G01 X11.8653 Y-31.7106 F120.00
G01 X11.8871 Y-31.7125 F120.00
G01 X11.9088 Y-31.7149 F120.00
G01 X11.9305 Y-31.7178 F120.00
G01 X11.9521 Y-31.7213 F120.00
G01 X11.9736 Y-31.7253 F120.00
G01 X11.9949 Y-31.7298 F120.00
G01 X12.0162 Y-31.7349 F120.00
G01 X12.0374 Y-31.7404 F120.00
G01 X12.0584 Y-31.7465 F120.00
G01 X12.0792 Y-31.7531 F120.00
G01 X12.0999 Y-31.7603 F120.00
G01 X12.1204 Y-31.7679 F120.00
G01 X12.1443 Y-31.7775 F120.00
G00 Z2.0000
G00 X12.1208 Y-31.8343
G01 F60.00
G01 Z-0.1000
G01 F120.00
G01 X12.0983 Y-31.8252 F120.00
G01 X12.0792 Y-31.8181 F120.00
G01 X12.0405 Y-31.8053 F120.00
G01 X12.0013 Y-31.7945 F120.00
G01 X11.9616 Y-31.7856 F120.00
G01 X11.9215 Y-31.7786 F120.00
G01 X11.8811 Y-31.7736 F120.00
G01 X11.8405 Y-31.7706 F120.00
G01 X11.7998 Y-31.7696 F120.00
G01 X11.7718 Y-31.7701 F120.00
G01 X11.7470 Y-31.8329 F120.00
G01 X11.7809 Y-31.8313 F120.00
G01 X11.7998 Y-31.8311 F120.00
G01 X11.8374 Y-31.8320 F120.00
G01 X11.8750 Y-31.8348 F120.00
G01 X11.8938 Y-31.8368 F120.00
G01 X11.9311 Y-31.8424 F120.00
G01 X11.9680 Y-31.8497 F120.00
G01 X12.0046 Y-31.8589 F120.00
G01 X12.0227 Y-31.8641 F120.00
G01 X12.0585 Y-31.8760 F120.00
G01 X12.0762 Y-31.8825 F120.00
G01 X12.1001 Y-31.8923 F120.00
G01 X12.0793 Y-31.9502 F120.00
G01 X12.0540 Y-31.9398 F120.00
G01 X12.0378 Y-31.9338 F120.00
G01 X12.0214 Y-31.9282 F120.00
G01 X11.9882 Y-31.9181 F120.00
G01 X11.9714 Y-31.9137 F120.00
G01 X11.9376 Y-31.9061 F120.00
G01 X11.9034 Y-31.9001 F120.00
G01 X11.8690 Y-31.8959 F120.00
G01 X11.8344 Y-31.8933 F120.00
G01 X11.8171 Y-31.8927 F120.00
G01 X11.7824 Y-31.8927 F120.00
G01 X11.7651 Y-31.8933 F120.00
G01 X11.7284 Y-31.8961 F120.00
G01 X11.7120 Y-31.9600 F120.00
G01 X11.7365 Y-31.9570 F120.00
G01 X11.7523 Y-31.9557 F120.00
G01 X11.7839 Y-31.9541 F120.00
G01 X11.7998 Y-31.9539 F120.00
G01 X11.8314 Y-31.9547 F120.00
G01 X11.8472 Y-31.9557 F120.00
G01 X11.8630 Y-31.9570 F120.00
G01 X11.8944 Y-31.9609 F120.00
G01 X11.9256 Y-31.9663 F120.00
G01 X11.9565 Y-31.9733 F120.00
G01 X11.9718 Y-31.9773 F120.00
G01 X11.9870 Y-31.9817 F120.00
G01 X12.0171 Y-31.9916 F120.00
G01 X12.0319 Y-31.9972 F120.00
G01 X12.0597 Y-32.0086 F120.00
G00 Z2.0000
G00 X12.0445 Y-32.0692
G01 F60.00
G01 Z-0.1000
G01 F120.00
G01 X12.0231 Y-32.0598 F120.00
G01 X11.9964 Y-32.0495 F120.00
G01 X11.9692 Y-32.0405 F120.00
G01 X11.9554 Y-32.0365 F120.00
G01 X11.9276 Y-32.0296 F120.00
G01 X11.9136 Y-32.0266 F120.00
G01 X11.8995 Y-32.0240 F120.00
G01 X11.8712 Y-32.0198 F120.00
G01 X11.8427 Y-32.0170 F120.00
G01 X11.8284 Y-32.0161 F120.00
G01 X11.7998 Y-32.0154 F120.00
G01 X11.7854 Y-32.0156 F120.00
G01 X11.7711 Y-32.0161 F120.00
G01 X11.7425 Y-32.0182 F120.00
G01 X11.7141 Y-32.0217 F120.00
G01 X11.6954 Y-32.0248 F120.00
G01 X11.6783 Y-32.0912 F120.00
G01 X11.6979 Y-32.0869 F120.00
G01 X11.7231 Y-32.0825 F120.00
G01 X11.7358 Y-32.0807 F120.00
G01 X11.7613 Y-32.0782 F120.00
G01 X11.7869 Y-32.0770 F120.00
G01 X11.8126 Y-32.0770 F120.00
G01 X11.8254 Y-32.0774 F120.00
G01 X11.8509 Y-32.0793 F120.00
G01 X11.8764 Y-32.0825 F120.00
G01 X11.9016 Y-32.0869 F120.00
G01 X11.9266 Y-32.0925 F120.00
G01 X11.9390 Y-32.0957 F120.00
G01 X11.9636 Y-32.1032 F120.00
G01 X11.9877 Y-32.1118 F120.00
G01 X12.0114 Y-32.1216 F120.00
G01 X12.0293 Y-32.1300 F120.00
G01 X12.0139 Y-32.1911 F120.00
G01 X11.9968 Y-32.1825 F120.00
G01 X11.9761 Y-32.1733 F120.00
G01 X11.9550 Y-32.1652 F120.00
G01 X11.9335 Y-32.1581 F120.00
G01 X11.9117 Y-32.1521 F120.00
G01 X11.8897 Y-32.1471 F120.00
G01 X11.8674 Y-32.1432 F120.00
G01 X11.8449 Y-32.1405 F120.00
G01 X11.8224 Y-32.1388 F120.00
G01 X11.7998 Y-32.1383 F120.00
G01 X11.7771 Y-32.1388 F120.00
G01 X11.7546 Y-32.1405 F120.00
G01 X11.7321 Y-32.1432 F120.00
G01 X11.7099 Y-32.1471 F120.00
G01 X11.6878 Y-32.1521 F120.00
G01 X11.6627 Y-32.1591 F120.00
G01 X11.6541 Y-32.2272 F120.00
G01 X11.6745 Y-32.2199 F120.00
G01 X11.6932 Y-32.2142 F120.00
G01 X11.7123 Y-32.2094 F120.00
G01 X11.7412 Y-32.2040 F120.00
G01 X11.7606 Y-32.2016 F120.00
G01 X11.7900 Y-32.1998 F120.00
G01 X11.8096 Y-32.1998 F120.00
G01 X11.8291 Y-32.2008 F120.00
G01 X11.8486 Y-32.2027 F120.00
G01 X11.8777 Y-32.2074 F120.00
G01 X11.8968 Y-32.2117 F120.00
G01 X11.9157 Y-32.2169 F120.00
G01 X11.9435 Y-32.2265 F120.00
G01 X11.9616 Y-32.2340 F120.00
G01 X11.9793 Y-32.2423 F120.00
G01 X12.0040 Y-32.2559 F120.00
G01 X11.9941 Y-32.3226 F120.00
G01 X11.9735 Y-32.3092 F120.00
G01 X11.9591 Y-32.3010 F120.00
G01 X11.9367 Y-32.2901 F120.00
G01 X11.9214 Y-32.2838 F120.00
G01 X11.8978 Y-32.2757 F120.00
G01 X11.8819 Y-32.2713 F120.00
G01 X11.8657 Y-32.2676 F120.00
G01 X11.8493 Y-32.2648 F120.00
G01 X11.8246 Y-32.2621 F120.00
G01 X11.8080 Y-32.2612 F120.00
G01 X11.7915 Y-32.2612 F120.00
G01 X11.7749 Y-32.2621 F120.00
G01 X11.7502 Y-32.2648 F120.00
G01 X11.7338 Y-32.2676 F120.00
G01 X11.7176 Y-32.2713 F120.00
G01 X11.6938 Y-32.2782 F120.00
G01 X11.6704 Y-32.2869 F120.00
G01 X11.6553 Y-32.2936 F120.00
G01 X11.6451 Y-32.2986 F120.00
G01 X11.6352 Y-32.3769 F120.00
G01 X11.6462 Y-32.3692 F120.00
G01 X11.6576 Y-32.3619 F120.00
G01 X11.6754 Y-32.3521 F120.00
G01 X11.6940 Y-32.3436 F120.00
G01 X11.7066 Y-32.3387 F120.00
G01 X11.7195 Y-32.3345 F120.00
G01 X11.7392 Y-32.3293 F120.00
G01 X11.7525 Y-32.3266 F120.00
G01 X11.7659 Y-32.3247 F120.00
G01 X11.7794 Y-32.3233 F120.00
G01 X11.7930 Y-32.3227 F120.00
G01 X11.8133 Y-32.3229 F120.00
G01 X11.8269 Y-32.3239 F120.00
G01 X11.8403 Y-32.3256 F120.00
G01 X11.8603 Y-32.3293 F120.00
G01 X11.8800 Y-32.3345 F120.00
G01 X11.8929 Y-32.3387 F120.00
G01 X11.9056 Y-32.3436 F120.00
G01 X11.9241 Y-32.3521 F120.00
G01 X11.9360 Y-32.3585 F120.00
G01 X11.9477 Y-32.3655 F120.00
G01 X11.9645 Y-32.3770 F120.00
G01 X11.9752 Y-32.3853 F120.00
G01 X11.9837 Y-32.3926 F120.00
G00 Z2.0000
G00 X11.9790 Y-32.4803
G01 F60.00
G01 Z-0.1000
G01 F120.00
G01 X11.9725 Y-32.4710 F120.00
G01 X11.9660 Y-32.4626 F120.00
G01 X11.9591 Y-32.4546 F120.00
G01 X11.9518 Y-32.4470 F120.00
G01 X11.9442 Y-32.4397 F120.00
G01 X11.9362 Y-32.4328 F120.00
G01 X11.9279 Y-32.4263 F120.00
G01 X11.9192 Y-32.4203 F120.00
G01 X11.9103 Y-32.4146 F120.00
G01 X11.9011 Y-32.4094 F120.00
G01 X11.8917 Y-32.4047 F120.00
G01 X11.8820 Y-32.4004 F120.00
G01 X11.8722 Y-32.3966 F120.00
G01 X11.8622 Y-32.3933 F120.00
G01 X11.8520 Y-32.3905 F120.00
G01 X11.8417 Y-32.3881 F120.00
G01 X11.8313 Y-32.3863 F120.00
G01 X11.8208 Y-32.3851 F120.00
G01 X11.8103 Y-32.3843 F120.00
G01 X11.7998 Y-32.3840 F120.00
G01 X11.7892 Y-32.3843 F120.00
G01 X11.7787 Y-32.3851 F120.00
G01 X11.7682 Y-32.3863 F120.00
G01 X11.7578 Y-32.3881 F120.00
G01 X11.7424 Y-32.3918 F120.00
G01 X11.7323 Y-32.3949 F120.00
G01 X11.7224 Y-32.3984 F120.00
G01 X11.7126 Y-32.4025 F120.00
G01 X11.7031 Y-32.4070 F120.00
G01 X11.6938 Y-32.4120 F120.00
G01 X11.6847 Y-32.4174 F120.00
G01 X11.6759 Y-32.4232 F120.00
G01 X11.6633 Y-32.4328 F120.00
G01 X11.6553 Y-32.4397 F120.00
G01 X11.6477 Y-32.4470 F120.00
G01 X11.6369 Y-32.4586 F120.00
G01 X11.6263 Y-32.4720 F120.00
G01 X11.8305 Y-32.5991 F120.00
G01 X11.8302 Y-32.6028 F120.00
G01 X11.8294 Y-32.6073 F120.00
G01 X11.8278 Y-32.6115 F120.00
G01 X11.8257 Y-32.6155 F120.00
G01 X11.8230 Y-32.6191 F120.00
G01 X11.8198 Y-32.6223 F120.00
G01 X11.8162 Y-32.6250 F120.00
G01 X11.8129 Y-32.6268 F120.00
G01 X11.8087 Y-32.6285 F120.00
G01 X11.8050 Y-32.6293 F120.00
G01 X11.8005 Y-32.6298 F120.00
G01 X11.7960 Y-32.6295 F120.00
G01 X11.7916 Y-32.6287 F120.00
G01 X11.7873 Y-32.6271 F120.00
G01 X11.7833 Y-32.6250 F120.00
G01 X11.7803 Y-32.6228 F120.00
G01 X11.7770 Y-32.6197 F120.00
G01 X11.7742 Y-32.6161 F120.00
G01 X11.7720 Y-32.6122 F120.00
G01 X11.7706 Y-32.6087 F120.00
G01 X11.7695 Y-32.6043 F120.00
G01 X11.7690 Y-32.5998 F120.00
G01 X11.7693 Y-32.5953 F120.00
G01 X11.7700 Y-32.5916 F120.00
G01 X11.7711 Y-32.5880 F120.00
G01 X11.7730 Y-32.5839 F120.00
G01 X11.7755 Y-32.5802 F120.00
G01 X11.7780 Y-32.5773 F120.00
G01 X11.7809 Y-32.5748 F120.00
G01 X11.7846 Y-32.5723 F120.00
G01 X11.7853 Y-32.5720 F120.00
G01 X11.7859 Y-32.5716 F120.00
G01 X11.7866 Y-32.5713 F120.00
G01 X11.7887 Y-32.5704 F120.00
G01 X11.7930 Y-32.5691 F120.00
G01 X11.7998 Y-32.5683 F120.00
G01 X11.8065 Y-32.5691 F120.00
G01 X11.8129 Y-32.5713 F120.00
G01 X11.8187 Y-32.5748 F120.00
G01 X11.8235 Y-32.5796 F120.00
G01 X11.8275 Y-32.5859 F120.00
G01 X11.8297 Y-32.5923 F120.00
G01 X11.8305 Y-32.5991 F120.00
G01 X11.8919 Y-32.5991 F120.00
G01 X11.8909 Y-32.6126 F120.00
G01 X11.8886 Y-32.6236 F120.00
G01 X11.8849 Y-32.6343 F120.00
G01 X11.8799 Y-32.6445 F120.00
G01 X11.8738 Y-32.6540 F120.00
G01 X11.8649 Y-32.6642 F120.00
G01 X11.8547 Y-32.6731 F120.00
G01 X11.8452 Y-32.6792 F120.00
G01 X11.8350 Y-32.6842 F120.00
G01 X11.8221 Y-32.6885 F120.00
G01 X11.8110 Y-32.6905 F120.00
G01 X11.7975 Y-32.6912 F120.00
G01 X11.7840 Y-32.6899 F120.00
G01 X11.7730 Y-32.6872 F120.00
G01 X11.7624 Y-32.6833 F120.00
G01 X11.7505 Y-32.6769 F120.00
G01 X11.7396 Y-32.6688 F120.00
G01 X11.7315 Y-32.6609 F120.00
G01 X11.7231 Y-32.6503 F120.00
G01 X11.7164 Y-32.6385 F120.00
G01 X11.7122 Y-32.6280 F120.00
G01 X11.7090 Y-32.6148 F120.00
G01 X11.7077 Y-32.6036 F120.00
G01 X11.7080 Y-32.5900 F120.00
G01 X11.7098 Y-32.5789 F120.00
G01 X11.7138 Y-32.5659 F120.00
G01 X11.7196 Y-32.5536 F120.00
G01 X11.7271 Y-32.5424 F120.00
G01 X11.7300 Y-32.5389 F120.00
G01 X11.7315 Y-32.5372 F120.00
G01 X11.7362 Y-32.5323 F120.00
G01 X11.7449 Y-32.5250 F120.00
G01 X11.7543 Y-32.5189 F120.00
G01 X11.7666 Y-32.5131 F120.00
G01 X11.7752 Y-32.5102 F120.00
G01 X11.7840 Y-32.5083 F120.00
G01 X11.7952 Y-32.5070 F120.00
G01 X11.8043 Y-32.5070 F120.00
G01 X11.8133 Y-32.5079 F120.00
G01 X11.8221 Y-32.5097 F120.00
G01 X11.8308 Y-32.5123 F120.00
G01 X11.8392 Y-32.5157 F120.00
G01 X11.8510 Y-32.5224 F120.00
G01 X11.8600 Y-32.5293 F120.00
G01 X11.8695 Y-32.5389 F120.00
G01 X11.8776 Y-32.5498 F120.00
G01 X11.8831 Y-32.5597 F120.00
G01 X11.8879 Y-32.5723 F120.00
G01 X11.8909 Y-32.5855 F120.00
G01 X11.8919 Y-32.5991 F120.00
G01 X11.9534 Y-32.5991 F120.00
G01 X11.9529 Y-32.6104 F120.00
G01 X11.9517 Y-32.6216 F120.00
G01 X11.9496 Y-32.6327 F120.00
G01 X11.9467 Y-32.6436 F120.00
G01 X11.9431 Y-32.6543 F120.00
G01 X11.9386 Y-32.6647 F120.00
G01 X11.9334 Y-32.6748 F120.00
G01 X11.9275 Y-32.6844 F120.00
G01 X11.9208 Y-32.6936 F120.00
G01 X11.9136 Y-32.7022 F120.00
G01 X11.9057 Y-32.7103 F120.00
G01 X11.8972 Y-32.7178 F120.00
G01 X11.8882 Y-32.7246 F120.00
G01 X11.8787 Y-32.7308 F120.00
G01 X11.8688 Y-32.7363 F120.00
G01 X11.8585 Y-32.7410 F120.00
G01 X11.8515 Y-32.7437 F120.00
G01 X11.8407 Y-32.7471 F120.00
G01 X11.8297 Y-32.7497 F120.00
G01 X11.8186 Y-32.7515 F120.00
G01 X11.8073 Y-32.7525 F120.00
G01 X11.7960 Y-32.7526 F120.00
G01 X11.7847 Y-32.7519 F120.00
G01 X11.7735 Y-32.7504 F120.00
G01 X11.7624 Y-32.7481 F120.00
G01 X11.7516 Y-32.7449 F120.00
G01 X11.7410 Y-32.7410 F120.00
G01 X11.7307 Y-32.7363 F120.00
G01 X11.7208 Y-32.7308 F120.00
G01 X11.7113 Y-32.7246 F120.00
G01 X11.7023 Y-32.7178 F120.00
G01 X11.6938 Y-32.7103 F120.00
G01 X11.6859 Y-32.7022 F120.00
G01 X11.6787 Y-32.6936 F120.00
G01 X11.6720 Y-32.6844 F120.00
G01 X11.6661 Y-32.6748 F120.00
G01 X11.6609 Y-32.6647 F120.00
G01 X11.6564 Y-32.6543 F120.00
G01 X11.6528 Y-32.6436 F120.00
G01 X11.6499 Y-32.6327 F120.00
G01 X11.6473 Y-32.6179 F120.00
G01 X11.6463 Y-32.6066 F120.00
G01 X11.6462 Y-32.5953 F120.00
G01 X11.6469 Y-32.5840 F120.00
G01 X11.6484 Y-32.5728 F120.00
G01 X11.6508 Y-32.5617 F120.00
G01 X11.6539 Y-32.5509 F120.00
G01 X11.6578 Y-32.5403 F120.00
G01 X11.6626 Y-32.5300 F120.00
G01 X11.6680 Y-32.5201 F120.00
G01 X11.6742 Y-32.5106 F120.00
G01 X11.6764 Y-32.5076 F120.00
G01 X11.6787 Y-32.5046 F120.00
G01 X11.6834 Y-32.4987 F120.00
G01 X11.6911 Y-32.4904 F120.00
G01 X11.6994 Y-32.4828 F120.00
G01 X11.7083 Y-32.4757 F120.00
G01 X11.7176 Y-32.4693 F120.00
G01 X11.7273 Y-32.4636 F120.00
G01 X11.7375 Y-32.4586 F120.00
G01 X11.7480 Y-32.4544 F120.00
G01 X11.7588 Y-32.4510 F120.00
G01 X11.7698 Y-32.4484 F120.00
G01 X11.7810 Y-32.4466 F120.00
G01 X11.7922 Y-32.4456 F120.00
G01 X11.8035 Y-32.4455 F120.00
G01 X11.8111 Y-32.4459 F120.00
G01 X11.8223 Y-32.4471 F120.00
G01 X11.8297 Y-32.4484 F120.00
G01 X11.8407 Y-32.4510 F120.00
G01 X11.8515 Y-32.4544 F120.00
G01 X11.8585 Y-32.4571 F120.00
G01 X11.8688 Y-32.4619 F120.00
G01 X11.8755 Y-32.4654 F120.00
G01 X11.8819 Y-32.4693 F120.00
G01 X11.8913 Y-32.4757 F120.00
G01 X11.9001 Y-32.4828 F120.00
G01 X11.9057 Y-32.4878 F120.00
G01 X11.9136 Y-32.4959 F120.00
G01 X11.9185 Y-32.5016 F120.00
G01 X11.9231 Y-32.5076 F120.00
G01 X11.9295 Y-32.5169 F120.00
G01 X11.9370 Y-32.5300 F120.00
G01 X11.9417 Y-32.5403 F120.00
G01 X11.9456 Y-32.5509 F120.00
G01 X11.9488 Y-32.5617 F120.00
G01 X11.9511 Y-32.5728 F120.00
G01 X11.9522 Y-32.5803 F120.00
G01 X11.9529 Y-32.5878 F120.00
G01 X11.9534 Y-32.5991 F120.00
G01 X11.9789 Y-32.7180 F120.00
G01 X11.9725 Y-32.7272 F120.00
G01 X11.9660 Y-32.7355 F120.00
G01 X11.9591 Y-32.7435 F120.00
G01 X11.9480 Y-32.7548 F120.00
G01 X11.9402 Y-32.7619 F120.00
G01 X11.9279 Y-32.7718 F120.00
G01 X11.9148 Y-32.7807 F120.00
G01 X11.9057 Y-32.7862 F120.00
G01 X11.8964 Y-32.7911 F120.00
G01 X11.8820 Y-32.7977 F120.00
G01 X11.8722 Y-32.8015 F120.00
G01 X11.8571 Y-32.8063 F120.00
G01 X11.8417 Y-32.8100 F120.00
G01 X11.8313 Y-32.8118 F120.00
G01 X11.8156 Y-32.8135 F120.00
G01 X11.8050 Y-32.8140 F120.00
G01 X11.7892 Y-32.8138 F120.00
G01 X11.7787 Y-32.8131 F120.00
G01 X11.7682 Y-32.8118 F120.00
G01 X11.7526 Y-32.8089 F120.00
G01 X11.7424 Y-32.8063 F120.00
G01 X11.7273 Y-32.8015 F120.00
G01 X11.7175 Y-32.7977 F120.00
G01 X11.7031 Y-32.7911 F120.00
G01 X11.6892 Y-32.7835 F120.00
G01 X11.6803 Y-32.7779 F120.00
G01 X11.6675 Y-32.7686 F120.00
G01 X11.6593 Y-32.7619 F120.00
G01 X11.6477 Y-32.7511 F120.00
G01 X11.6404 Y-32.7435 F120.00
G01 X11.6335 Y-32.7355 F120.00
G01 X11.6263 Y-32.7261 F120.00
G01 X11.6350 Y-32.8211 F120.00
G01 X11.6462 Y-32.8289 F120.00
G01 X11.6576 Y-32.8362 F120.00
G01 X11.6694 Y-32.8429 F120.00
G01 X11.6815 Y-32.8490 F120.00
G01 X11.7003 Y-32.8570 F120.00
G01 X11.7130 Y-32.8616 F120.00
G01 X11.7260 Y-32.8655 F120.00
G01 X11.7392 Y-32.8688 F120.00
G01 X11.7525 Y-32.8715 F120.00
G01 X11.7727 Y-32.8742 F120.00
G01 X11.7930 Y-32.8755 F120.00
G01 X11.8065 Y-32.8755 F120.00
G01 X11.8201 Y-32.8748 F120.00
G01 X11.8403 Y-32.8725 F120.00
G01 X11.8537 Y-32.8702 F120.00
G01 X11.8669 Y-32.8673 F120.00
G01 X11.8800 Y-32.8636 F120.00
G01 X11.8993 Y-32.8570 F120.00
G01 X11.9180 Y-32.8490 F120.00
G01 X11.9301 Y-32.8429 F120.00
G01 X11.9419 Y-32.8362 F120.00
G01 X11.9590 Y-32.8251 F120.00
G01 X11.9699 Y-32.8170 F120.00
G01 X11.9834 Y-32.8057 F120.00
G00 Z2.0000
G00 X11.9938 Y-32.8757
G01 F60.00
G01 Z-0.1000
G01 F120.00
G01 X11.9735 Y-32.8889 F120.00
G01 X11.9517 Y-32.9009 F120.00
G01 X11.9367 Y-32.9080 F120.00
G01 X11.9136 Y-32.9172 F120.00
G01 X11.8899 Y-32.9247 F120.00
G01 X11.8657 Y-32.9305 F120.00
G01 X11.8493 Y-32.9333 F120.00
G01 X11.8246 Y-32.9361 F120.00
G01 X11.7998 Y-32.9370 F120.00
G01 X11.7749 Y-32.9361 F120.00
G01 X11.7502 Y-32.9333 F120.00
G01 X11.7338 Y-32.9305 F120.00
G01 X11.7096 Y-32.9247 F120.00
G01 X11.6859 Y-32.9172 F120.00
G01 X11.6628 Y-32.9080 F120.00
G01 X11.6449 Y-32.8994 F120.00
G01 X11.6539 Y-32.9708 F120.00
G01 X11.6745 Y-32.9783 F120.00
G01 X11.6932 Y-32.9840 F120.00
G01 X11.7218 Y-32.9907 F120.00
G01 X11.7412 Y-32.9941 F120.00
G01 X11.7606 Y-32.9965 F120.00
G01 X11.7900 Y-32.9983 F120.00
G01 X11.8096 Y-32.9983 F120.00
G01 X11.8291 Y-32.9973 F120.00
G01 X11.8486 Y-32.9954 F120.00
G01 X11.8777 Y-32.9907 F120.00
G01 X11.8968 Y-32.9864 F120.00
G01 X11.9157 Y-32.9812 F120.00
G01 X11.9435 Y-32.9717 F120.00
G01 X11.9616 Y-32.9642 F120.00
G01 X11.9793 Y-32.9558 F120.00
G01 X12.0037 Y-32.9424 F120.00
G00 Z2.0000
G00 X12.0135 Y-33.0072
G01 F60.00
G01 Z-0.1000
G01 F120.00
G01 X11.9968 Y-33.0156 F120.00
G01 X11.9761 Y-33.0248 F120.00
G01 X11.9550 Y-33.0329 F120.00
G01 X11.9335 Y-33.0400 F120.00
G01 X11.9117 Y-33.0460 F120.00
G01 X11.8897 Y-33.0510 F120.00
G01 X11.8674 Y-33.0549 F120.00
G01 X11.8449 Y-33.0576 F120.00
G01 X11.8224 Y-33.0593 F120.00
G01 X11.7998 Y-33.0599 F120.00
G01 X11.7771 Y-33.0593 F120.00
G01 X11.7546 Y-33.0576 F120.00
G01 X11.7321 Y-33.0549 F120.00
G01 X11.7099 Y-33.0510 F120.00
G01 X11.6878 Y-33.0460 F120.00
G01 X11.6625 Y-33.0389 F120.00
G01 X11.6778 Y-33.1068 F120.00
G01 X11.6979 Y-33.1113 F120.00
G01 X11.7231 Y-33.1156 F120.00
G01 X11.7358 Y-33.1174 F120.00
G01 X11.7613 Y-33.1199 F120.00
G01 X11.7869 Y-33.1211 F120.00
G01 X11.7998 Y-33.1213 F120.00
G01 X11.8254 Y-33.1207 F120.00
G01 X11.8382 Y-33.1199 F120.00
G01 X11.8637 Y-33.1174 F120.00
G01 X11.8890 Y-33.1136 F120.00
G01 X11.9016 Y-33.1113 F120.00
G01 X11.9266 Y-33.1056 F120.00
G01 X11.9514 Y-33.0988 F120.00
G01 X11.9636 Y-33.0949 F120.00
G01 X11.9877 Y-33.0863 F120.00
G01 X11.9996 Y-33.0815 F120.00
G01 X12.0114 Y-33.0765 F120.00
G01 X12.0288 Y-33.0683 F120.00
G00 Z2.0000
G00 X12.0441 Y-33.1291
G01 F60.00
G01 Z-0.1000
G01 F120.00
G01 X12.0231 Y-33.1383 F120.00
G01 X11.9964 Y-33.1486 F120.00
G01 X11.9828 Y-33.1533 F120.00
G01 X11.9554 Y-33.1616 F120.00
G01 X11.9276 Y-33.1686 F120.00
G01 X11.9136 Y-33.1715 F120.00
G01 X11.8854 Y-33.1764 F120.00
G01 X11.8712 Y-33.1783 F120.00
G01 X11.8427 Y-33.1812 F120.00
G01 X11.8284 Y-33.1820 F120.00
G01 X11.7998 Y-33.1827 F120.00
G01 X11.7854 Y-33.1826 F120.00
G01 X11.7711 Y-33.1820 F120.00
G01 X11.7425 Y-33.1799 F120.00
G01 X11.7141 Y-33.1764 F120.00
G01 X11.6949 Y-33.1732 F120.00
G01 X11.7115 Y-33.2381 F120.00
G01 X11.7365 Y-33.2411 F120.00
G01 X11.7681 Y-33.2434 F120.00
G01 X11.7839 Y-33.2440 F120.00
G01 X11.8156 Y-33.2440 F120.00
G01 X11.8472 Y-33.2424 F120.00
G01 X11.8787 Y-33.2393 F120.00
G01 X11.9100 Y-33.2347 F120.00
G01 X11.9256 Y-33.2318 F120.00
G01 X11.9565 Y-33.2248 F120.00
G01 X11.9870 Y-33.2164 F120.00
G01 X12.0171 Y-33.2065 F120.00
G01 X12.0319 Y-33.2009 F120.00
G01 X12.0592 Y-33.1897 F120.00
G00 Z2.0000
G00 X12.0787 Y-33.2482
G01 F60.00
G01 Z-0.1000
G01 F120.00
G01 X12.0540 Y-33.2583 F120.00
G01 X12.0378 Y-33.2643 F120.00
G01 X12.0214 Y-33.2700 F120.00
G01 X11.9882 Y-33.2800 F120.00
G01 X11.9546 Y-33.2884 F120.00
G01 X11.9206 Y-33.2952 F120.00
G01 X11.9034 Y-33.2980 F120.00
G01 X11.8690 Y-33.3022 F120.00
G01 X11.8517 Y-33.3037 F120.00
G01 X11.8171 Y-33.3054 F120.00
G01 X11.7998 Y-33.3056 F120.00
G01 X11.7651 Y-33.3048 F120.00
G01 X11.7478 Y-33.3037 F120.00
G01 X11.7279 Y-33.3019 F120.00
G01 X11.7462 Y-33.3652 F120.00
G01 X11.7809 Y-33.3668 F120.00
G01 X11.7998 Y-33.3671 F120.00
G01 X11.8374 Y-33.3661 F120.00
G01 X11.8750 Y-33.3634 F120.00
G01 X11.9124 Y-33.3587 F120.00
G01 X11.9496 Y-33.3523 F120.00
G01 X11.9864 Y-33.3440 F120.00
G01 X12.0227 Y-33.3340 F120.00
G01 X12.0585 Y-33.3222 F120.00
G01 X12.0762 Y-33.3156 F120.00
G01 X12.0995 Y-33.3061 F120.00
G00 Z2.0000
G00 X12.1202 Y-33.3641
G01 F60.00
G01 Z-0.1000
G01 F120.00
G01 X12.0983 Y-33.3729 F120.00
G01 X12.0792 Y-33.3800 F120.00
G01 X12.0405 Y-33.3928 F120.00
G01 X12.0210 Y-33.3985 F120.00
G01 X11.9815 Y-33.4083 F120.00
G01 X11.9416 Y-33.4163 F120.00
G01 X11.9013 Y-33.4223 F120.00
G01 X11.8608 Y-33.4263 F120.00
G01 X11.8201 Y-33.4282 F120.00
G01 X11.7998 Y-33.4285 F120.00
G01 X11.7710 Y-33.4279 F120.00
G01 X11.7956 Y-33.4899 F120.00
G01 X11.8216 Y-33.4897 F120.00
G01 X11.8435 Y-33.4889 F120.00
G01 X11.8653 Y-33.4875 F120.00
G01 X11.8871 Y-33.4856 F120.00
G01 X11.9088 Y-33.4832 F120.00
G01 X11.9305 Y-33.4803 F120.00
G01 X11.9521 Y-33.4768 F120.00
G01 X11.9736 Y-33.4728 F120.00
G01 X11.9949 Y-33.4683 F120.00
G01 X12.0162 Y-33.4632 F120.00
G01 X12.0374 Y-33.4577 F120.00
G01 X12.0584 Y-33.4516 F120.00
G01 X12.0792 Y-33.4450 F120.00
G01 X12.0999 Y-33.4379 F120.00
G01 X12.1204 Y-33.4302 F120.00
G01 X12.1435 Y-33.4209 F120.00
G01 X12.1698 Y-33.4765 F120.00
G01 X12.1425 Y-33.4876 F120.00
G01 X12.1206 Y-33.4957 F120.00
G01 X12.0985 Y-33.5033 F120.00
G01 X12.0762 Y-33.5104 F120.00
G01 X12.0538 Y-33.5169 F120.00
G01 X12.0312 Y-33.5228 F120.00
G01 X12.0084 Y-33.5282 F120.00
G01 X11.9855 Y-33.5331 F120.00
G01 X11.9626 Y-33.5374 F120.00
G01 X11.9395 Y-33.5411 F120.00
G01 X11.9163 Y-33.5442 F120.00
G01 X11.8931 Y-33.5468 F120.00
G01 X11.8698 Y-33.5488 F120.00
G01 X11.8465 Y-33.5502 F120.00
G01 X11.8198 Y-33.5511 F120.00
G01 X11.8438 Y-33.6118 F120.00
G01 X11.8743 Y-33.6101 F120.00
G01 X11.8991 Y-33.6079 F120.00
G01 X11.9239 Y-33.6052 F120.00
G01 X11.9485 Y-33.6018 F120.00
G01 X11.9731 Y-33.5979 F120.00
G01 X11.9975 Y-33.5933 F120.00
G01 X12.0219 Y-33.5882 F120.00
G01 X12.0461 Y-33.5824 F120.00
G01 X12.0701 Y-33.5761 F120.00
G01 X12.0940 Y-33.5692 F120.00
G01 X12.1178 Y-33.5617 F120.00
G01 X12.1413 Y-33.5536 F120.00
G01 X12.1646 Y-33.5449 F120.00
G01 X12.1961 Y-33.5320 F120.00
G00 Z2.0000
G00 X12.2233 Y-33.5872
G01 F60.00
G01 Z-0.1000
G01 F120.00
G01 X12.1867 Y-33.6022 F120.00
G01 X12.1620 Y-33.6114 F120.00
G01 X12.1370 Y-33.6200 F120.00
G01 X12.1119 Y-33.6280 F120.00
G01 X12.0865 Y-33.6353 F120.00
G01 X12.0610 Y-33.6420 F120.00
G01 X12.0353 Y-33.6481 F120.00
G01 X12.0095 Y-33.6536 F120.00
G01 X11.9836 Y-33.6584 F120.00
G01 X11.9575 Y-33.6626 F120.00
G01 X11.9314 Y-33.6662 F120.00
G01 X11.9051 Y-33.6691 F120.00
G01 X11.8733 Y-33.6717 F120.00
G01 X11.9058 Y-33.7307 F120.00
G01 X11.9389 Y-33.7271 F120.00
G01 X11.9665 Y-33.7234 F120.00
G01 X11.9941 Y-33.7190 F120.00
G01 X12.0215 Y-33.7139 F120.00
G01 X12.0488 Y-33.7081 F120.00
G01 X12.0759 Y-33.7016 F120.00
G01 X12.1029 Y-33.6945 F120.00
G01 X12.1297 Y-33.6868 F120.00
G01 X12.1563 Y-33.6783 F120.00
G01 X12.1827 Y-33.6693 F120.00
G01 X12.2088 Y-33.6595 F120.00
G01 X12.2347 Y-33.6492 F120.00
G01 X12.2551 Y-33.6404 F120.00
G00 Z2.0000
G00 X12.2870 Y-33.6936
G01 F60.00
G01 Z-0.1000
G01 F120.00
G01 X12.2582 Y-33.7059 F120.00
G01 X12.2309 Y-33.7169 F120.00
G01 X12.2034 Y-33.7271 F120.00
G01 X12.1756 Y-33.7367 F120.00
G01 X12.1475 Y-33.7455 F120.00
G01 X12.1193 Y-33.7537 F120.00
G01 X12.0909 Y-33.7612 F120.00
G01 X12.0623 Y-33.7680 F120.00
G01 X12.0335 Y-33.7741 F120.00
G01 X12.0046 Y-33.7795 F120.00
G01 X11.9756 Y-33.7842 F120.00
G01 X11.9379 Y-33.7891 F120.00
G01 X11.9697 Y-33.8470 F120.00
G01 X12.0151 Y-33.8400 F120.00
G01 X12.0455 Y-33.8344 F120.00
G01 X12.0757 Y-33.8280 F120.00
G01 X12.1058 Y-33.8208 F120.00
G01 X12.1357 Y-33.8130 F120.00
G01 X12.1654 Y-33.8043 F120.00
G01 X12.1948 Y-33.7950 F120.00
G01 X12.2241 Y-33.7850 F120.00
G01 X12.2531 Y-33.7742 F120.00
G01 X12.2818 Y-33.7627 F120.00
G01 X12.3188 Y-33.7466 F120.00
G00 Z2.0000
G00 X12.3554 Y-33.7974
G01 F60.00
G01 Z-0.1000
G01 F120.00
G01 X12.3351 Y-33.8067 F120.00
G01 X12.3053 Y-33.8195 F120.00
G01 X12.2752 Y-33.8315 F120.00
G01 X12.2448 Y-33.8428 F120.00
G01 X12.2141 Y-33.8533 F120.00
G01 X12.1832 Y-33.8631 F120.00
G01 X12.1521 Y-33.8722 F120.00
G01 X12.1207 Y-33.8804 F120.00
G01 X12.0892 Y-33.8879 F120.00
G01 X12.0575 Y-33.8946 F120.00
G01 X12.0256 Y-33.9006 F120.00
G01 X12.0018 Y-33.9044 F120.00
G01 X12.0422 Y-33.9600 F120.00
G01 X12.0694 Y-33.9549 F120.00
G01 X12.1026 Y-33.9479 F120.00
G01 X12.1357 Y-33.9400 F120.00
G01 X12.1685 Y-33.9314 F120.00
G01 X12.2010 Y-33.9219 F120.00
G01 X12.2334 Y-33.9117 F120.00
G01 X12.2655 Y-33.9006 F120.00
G01 X12.2973 Y-33.8888 F120.00
G01 X12.3288 Y-33.8762 F120.00
G01 X12.3600 Y-33.8629 F120.00
G01 X12.3928 Y-33.8478 F120.00
G00 Z2.0000
G00 X12.4300 Y-33.8980
G01 F60.00
G01 Z-0.1000
G01 F120.00
G01 X12.4171 Y-33.9043 F120.00
G01 X12.3849 Y-33.9190 F120.00
G01 X12.3523 Y-33.9330 F120.00
G01 X12.3194 Y-33.9461 F120.00
G01 X12.2862 Y-33.9585 F120.00
G01 X12.2527 Y-33.9700 F120.00
G01 X12.2189 Y-33.9807 F120.00
G01 X12.1848 Y-33.9906 F120.00
G01 X12.1506 Y-33.9996 F120.00
G01 X12.1161 Y-34.0078 F120.00
G01 X12.0822 Y-34.0150 F120.00
G01 X12.1217 Y-34.0694 F120.00
G01 X12.1655 Y-34.0592 F120.00
G01 X12.2012 Y-34.0498 F120.00
G01 X12.2367 Y-34.0395 F120.00
G01 X12.2719 Y-34.0284 F120.00
G01 X12.3069 Y-34.0163 F120.00
G01 X12.3415 Y-34.0035 F120.00
G01 X12.3758 Y-33.9898 F120.00
G01 X12.4098 Y-33.9752 F120.00
G01 X12.4433 Y-33.9598 F120.00
G01 X12.4707 Y-33.9465 F120.00
G00 Z2.0000
G00 X12.5135 Y-33.9937
G01 F60.00
G01 Z-0.1000
G01 F120.00
G01 X12.4696 Y-34.0154 F120.00
G01 X12.4347 Y-34.0314 F120.00
G01 X12.3993 Y-34.0465 F120.00
G01 X12.3636 Y-34.0608 F120.00
G01 X12.3276 Y-34.0742 F120.00
G01 X12.2912 Y-34.0867 F120.00
G01 X12.2546 Y-34.0983 F120.00
G01 X12.2176 Y-34.1090 F120.00
G01 X12.1804 Y-34.1188 F120.00
G01 X12.1610 Y-34.1234 F120.00
G01 X12.2050 Y-34.1759 F120.00
G01 X12.2340 Y-34.1682 F120.00
G01 X12.2724 Y-34.1571 F120.00
G01 X12.3105 Y-34.1450 F120.00
G01 X12.3483 Y-34.1320 F120.00
G01 X12.3857 Y-34.1181 F120.00
G01 X12.4228 Y-34.1033 F120.00
G01 X12.4596 Y-34.0875 F120.00
G01 X12.4959 Y-34.0709 F120.00
G01 X12.5318 Y-34.0534 F120.00
G01 X12.5562 Y-34.0407 F120.00
G00 Z2.0000
G00 X12.6011 Y-34.0865
G01 F60.00
G01 Z-0.1000
G01 F120.00
G01 X12.5594 Y-34.1082 F120.00
G01 X12.5222 Y-34.1264 F120.00
G01 X12.4845 Y-34.1437 F120.00
G01 X12.4463 Y-34.1600 F120.00
G01 X12.4078 Y-34.1754 F120.00
G01 X12.3690 Y-34.1899 F120.00
G01 X12.3298 Y-34.2034 F120.00
G01 X12.2902 Y-34.2159 F120.00
G01 X12.2528 Y-34.2268 F120.00
G01 X12.3000 Y-34.2770 F120.00
G01 X12.3490 Y-34.2617 F120.00
G01 X12.3897 Y-34.2477 F120.00
G01 X12.4299 Y-34.2328 F120.00
G01 X12.4698 Y-34.2168 F120.00
G01 X12.5093 Y-34.1999 F120.00
G01 X12.5484 Y-34.1820 F120.00
G01 X12.5870 Y-34.1631 F120.00
G01 X12.6252 Y-34.1433 F120.00
G01 X12.6493 Y-34.1301 F120.00
G01 X12.6973 Y-34.1736 F120.00
G01 X12.6542 Y-34.1975 F120.00
G01 X12.6147 Y-34.2180 F120.00
G01 X12.5747 Y-34.2375 F120.00
G01 X12.5342 Y-34.2560 F120.00
G01 X12.4934 Y-34.2736 F120.00
G01 X12.4521 Y-34.2901 F120.00
G01 X12.4104 Y-34.3056 F120.00
G01 X12.3683 Y-34.3201 F120.00
G01 X12.3468 Y-34.3269 F120.00
G01 X12.3945 Y-34.3760 F120.00
G01 X12.4311 Y-34.3634 F120.00
G01 X12.4742 Y-34.3474 F120.00
G01 X12.5169 Y-34.3303 F120.00
G01 X12.5591 Y-34.3122 F120.00
G01 X12.6010 Y-34.2931 F120.00
G01 X12.6423 Y-34.2729 F120.00
G01 X12.6831 Y-34.2517 F120.00
G01 X12.7234 Y-34.2295 F120.00
G01 X12.7466 Y-34.2160 F120.00
G00 Z2.0000
G00 X12.8002 Y-34.2557
G01 F60.00
G01 Z-0.1000
G01 F120.00
G01 X12.7537 Y-34.2830 F120.00
G01 X12.7121 Y-34.3059 F120.00
G01 X12.6699 Y-34.3278 F120.00
G01 X12.6272 Y-34.3486 F120.00
G01 X12.5840 Y-34.3684 F120.00
G01 X12.5404 Y-34.3871 F120.00
G01 X12.4963 Y-34.4047 F120.00
G01 X12.4500 Y-34.4219 F120.00
G01 X12.5047 Y-34.4672 F120.00
G01 X12.5184 Y-34.4621 F120.00
G01 X12.5639 Y-34.4439 F120.00
G01 X12.6089 Y-34.4246 F120.00
G01 X12.6535 Y-34.4041 F120.00
G01 X12.6975 Y-34.3826 F120.00
G01 X12.7410 Y-34.3601 F120.00
G01 X12.7840 Y-34.3364 F120.00
G01 X12.8263 Y-34.3118 F120.00
G01 X12.8533 Y-34.2951 F120.00
G00 Z2.0000
G00 X12.9075 Y-34.3337
G01 F60.00
G01 Z-0.1000
G01 F120.00
G01 X12.8579 Y-34.3645 F120.00
G01 X12.8143 Y-34.3899 F120.00
G01 X12.7700 Y-34.4143 F120.00
G01 X12.7252 Y-34.4375 F120.00
G01 X12.6798 Y-34.4597 F120.00
G01 X12.6338 Y-34.4807 F120.00
G01 X12.5874 Y-34.5006 F120.00
G01 X12.5589 Y-34.5120 F120.00
G01 X12.6128 Y-34.5566 F120.00
G01 X12.6587 Y-34.5369 F120.00
G01 X12.7060 Y-34.5152 F120.00
G01 X12.7528 Y-34.4924 F120.00
G01 X12.7990 Y-34.4684 F120.00
G01 X12.8445 Y-34.4434 F120.00
G01 X12.8895 Y-34.4172 F120.00
G01 X12.9338 Y-34.3899 F120.00
G01 X12.9661 Y-34.3688 F120.00
G00 Z2.0000
G00 X13.0244 Y-34.4038
G01 F60.00
G01 Z-0.1000
G01 F120.00
G01 X13.0115 Y-34.4126 F120.00
G01 X12.9666 Y-34.4418 F120.00
G01 X12.9211 Y-34.4699 F120.00
G01 X12.8748 Y-34.4968 F120.00
G01 X12.8279 Y-34.5226 F120.00
G01 X12.7804 Y-34.5473 F120.00
G01 X12.7323 Y-34.5708 F120.00
G01 X12.6739 Y-34.5972 F120.00
G01 X12.7360 Y-34.6367 F120.00
G01 X12.7586 Y-34.6263 F120.00
G01 X12.8080 Y-34.6022 F120.00
G01 X12.8569 Y-34.5768 F120.00
G01 X12.9051 Y-34.5503 F120.00
G01 X12.9527 Y-34.5226 F120.00
G01 X12.9995 Y-34.4937 F120.00
G01 X13.0457 Y-34.4637 F120.00
G01 X13.0836 Y-34.4376 F120.00
G00 Z2.0000
G00 X13.1472 Y-34.4677
G01 F60.00
G01 Z-0.1000
G01 F120.00
G01 X13.1264 Y-34.4828 F120.00
G01 X13.0798 Y-34.5148 F120.00
G01 X13.0324 Y-34.5456 F120.00
G01 X12.9842 Y-34.5753 F120.00
G01 X12.9354 Y-34.6037 F120.00
G01 X12.8859 Y-34.6310 F120.00
G01 X12.8357 Y-34.6570 F120.00
G01 X12.7975 Y-34.6757 F120.00
G01 X12.8584 Y-34.7143 F120.00
G01 X12.9148 Y-34.6852 F120.00
G01 X12.9657 Y-34.6572 F120.00
G01 X13.0158 Y-34.6280 F120.00
G01 X13.0653 Y-34.5975 F120.00
G01 X13.1139 Y-34.5658 F120.00
G01 X13.1618 Y-34.5330 F120.00
G01 X13.2106 Y-34.4977 F120.00
G00 Z2.0000
G00 X13.2750 Y-34.5259
G01 F60.00
G01 Z-0.1000
G01 F120.00
G01 X13.2454 Y-34.5483 F120.00
G01 X13.1972 Y-34.5832 F120.00
G01 X13.1481 Y-34.6169 F120.00
G01 X13.0981 Y-34.6494 F120.00
G01 X13.0474 Y-34.6807 F120.00
G01 X12.9960 Y-34.7107 F120.00
G01 X12.9438 Y-34.7394 F120.00
G01 X12.9249 Y-34.7492 F120.00
G01 X12.9941 Y-34.7818 F120.00
G01 X13.0262 Y-34.7641 F120.00
G01 X13.0790 Y-34.7334 F120.00
G01 X13.1310 Y-34.7013 F120.00
G01 X13.1822 Y-34.6680 F120.00
G01 X13.2326 Y-34.6335 F120.00
G01 X13.2820 Y-34.5977 F120.00
G01 X13.3306 Y-34.5607 F120.00
G01 X13.3435 Y-34.5504 F120.00
G00 Z2.0000
G00 X13.4115 Y-34.5747
G01 F60.00
G01 Z-0.1000
G01 F120.00
G01 X13.3684 Y-34.6092 F120.00
G01 X13.3186 Y-34.6470 F120.00
G01 X13.2679 Y-34.6837 F120.00
G01 X13.2163 Y-34.7191 F120.00
G01 X13.1639 Y-34.7532 F120.00
G01 X13.1106 Y-34.7861 F120.00
G01 X13.0626 Y-34.8140 F120.00
G01 X13.1301 Y-34.8458 F120.00
G01 X13.1422 Y-34.8388 F120.00
G01 X13.1967 Y-34.8051 F120.00
G01 X13.2505 Y-34.7702 F120.00
G01 X13.3033 Y-34.7339 F120.00
G01 X13.3552 Y-34.6964 F120.00
G01 X13.4062 Y-34.6576 F120.00
G01 X13.4563 Y-34.6175 F120.00
G01 X13.4817 Y-34.5961 F120.00
G01 X13.5549 Y-34.6145 F120.00
G01 X13.5455 Y-34.6228 F120.00
G01 X13.4953 Y-34.6650 F120.00
G01 X13.4440 Y-34.7060 F120.00
G01 X13.3918 Y-34.7457 F120.00
G01 X13.3387 Y-34.7842 F120.00
G01 X13.2846 Y-34.8213 F120.00
G01 X13.2296 Y-34.8570 F120.00
G01 X13.2032 Y-34.8733 F120.00
G01 X13.2793 Y-34.8980 F120.00
G01 X13.3187 Y-34.8724 F120.00
G01 X13.3741 Y-34.8344 F120.00
G01 X13.4284 Y-34.7951 F120.00
G01 X13.4818 Y-34.7545 F120.00
G01 X13.5342 Y-34.7125 F120.00
G01 X13.5856 Y-34.6693 F120.00
G01 X13.6272 Y-34.6326 F120.00
G00 Z2.0000
G00 X13.7037 Y-34.6457
G01 F60.00
G01 Z-0.1000
G01 F120.00
G01 X13.6771 Y-34.6704 F120.00
G01 X13.6257 Y-34.7159 F120.00
G01 X13.5732 Y-34.7600 F120.00
G01 X13.5196 Y-34.8029 F120.00
G01 X13.4650 Y-34.8444 F120.00
G01 X13.4094 Y-34.8846 F120.00
G01 X13.3544 Y-34.9224 F120.00
G01 X13.4281 Y-34.9464 F120.00
G01 X13.4448 Y-34.9349 F120.00
G01 X13.5016 Y-34.8938 F120.00
G01 X13.5574 Y-34.8513 F120.00
G01 X13.6122 Y-34.8075 F120.00
G01 X13.6658 Y-34.7624 F120.00
G01 X13.7184 Y-34.7159 F120.00
G01 X13.7697 Y-34.6682 F120.00
G01 X13.7810 Y-34.6572 F120.00
G00 Z2.0000
G00 X13.8585 Y-34.6675
G01 F60.00
G01 Z-0.1000
G01 F120.00
G01 X13.8121 Y-34.7127 F120.00
G01 X13.7596 Y-34.7614 F120.00
G01 X13.7060 Y-34.8089 F120.00
G01 X13.6512 Y-34.8550 F120.00
G01 X13.5952 Y-34.8998 F120.00
G01 X13.5382 Y-34.9431 F120.00
G01 X13.5091 Y-34.9642 F120.00
G01 X13.5914 Y-34.9799 F120.00
G01 X13.6330 Y-34.9482 F120.00
G01 X13.6901 Y-34.9025 F120.00
G01 X13.7461 Y-34.8554 F120.00
G01 X13.8009 Y-34.8070 F120.00
G01 X13.8545 Y-34.7572 F120.00
G01 X13.9068 Y-34.7061 F120.00
G01 X13.9406 Y-34.6715 F120.00
G01 X14.0216 Y-34.6755 F120.00
G01 X14.0024 Y-34.6961 F120.00
G01 X13.9503 Y-34.7496 F120.00
G01 X13.8968 Y-34.8017 F120.00
G01 X13.8422 Y-34.8525 F120.00
G01 X13.7862 Y-34.9019 F120.00
G01 X13.7291 Y-34.9500 F120.00
G01 X13.6724 Y-34.9954 F120.00
G01 X13.7527 Y-35.0098 F120.00
G01 X13.7681 Y-34.9975 F120.00
G01 X13.8264 Y-34.9485 F120.00
G01 X13.8834 Y-34.8980 F120.00
G01 X13.9392 Y-34.8462 F120.00
G01 X13.9937 Y-34.7930 F120.00
G01 X14.0469 Y-34.7385 F120.00
G01 X14.1063 Y-34.6741 F120.00
G00 Z2.0000
G00 X14.0462 Y-34.6767
G01 F60.00
G01 Z-0.1000
G01 F120.00
G01 X14.0538 Y-34.6767 F120.00
G01 X14.2536 Y-34.6668 F120.00
G01 X14.4552 Y-34.6369 F120.00
G01 X14.6529 Y-34.5874 F120.00
G01 X14.8448 Y-34.5187 F120.00
G01 X15.0290 Y-34.4316 F120.00
G01 X15.2038 Y-34.3268 F120.00
G01 X15.3675 Y-34.2054 F120.00
G01 X15.5185 Y-34.0685 F120.00
G01 X15.6554 Y-33.9175 F120.00
G01 X15.7768 Y-33.7538 F120.00
G01 X15.8816 Y-33.5790 F120.00
G01 X15.9687 Y-33.3948 F120.00
G01 X16.0374 Y-33.2029 F120.00
G01 X16.0869 Y-33.0052 F120.00
G01 X16.1168 Y-32.8036 F120.00
G01 X16.1268 Y-32.6000 F120.00
G01 X16.1168 Y-32.3964 F120.00
G01 X16.0869 Y-32.1948 F120.00
G01 X16.0374 Y-31.9971 F120.00
G01 X15.9687 Y-31.8052 F120.00
G01 X15.8816 Y-31.6210 F120.00
G01 X15.7768 Y-31.4462 F120.00
G01 X15.6554 Y-31.2825 F120.00
G01 X15.5185 Y-31.1315 F120.00
G01 X15.3675 Y-30.9946 F120.00
G01 X15.2038 Y-30.8732 F120.00
G01 X15.0290 Y-30.7684 F120.00
G01 X14.8448 Y-30.6813 F120.00
G01 X14.6529 Y-30.6126 F120.00
G01 X14.4552 Y-30.5631 F120.00
G01 X14.2536 Y-30.5332 F120.00
G01 X14.0500 Y-30.5232 F120.00
G01 X13.8464 Y-30.5332 F120.00
G01 X13.6448 Y-30.5631 F120.00
G01 X13.4471 Y-30.6126 F120.00
G01 X13.2552 Y-30.6813 F120.00
G01 X13.0710 Y-30.7684 F120.00
G01 X12.8962 Y-30.8732 F120.00
G01 X12.7325 Y-30.9946 F120.00
G01 X12.5815 Y-31.1315 F120.00
G01 X12.4446 Y-31.2825 F120.00
G01 X12.3232 Y-31.4462 F120.00
G01 X12.2184 Y-31.6210 F120.00
G01 X12.1313 Y-31.8052 F120.00
G01 X12.0626 Y-31.9971 F120.00
G01 X12.0131 Y-32.1948 F120.00
G01 X11.9832 Y-32.3964 F120.00
G01 X11.9732 Y-32.6000 F120.00
G01 X11.9832 Y-32.8036 F120.00
G01 X12.0131 Y-33.0052 F120.00
G01 X12.0626 Y-33.2029 F120.00
G01 X12.1313 Y-33.3948 F120.00
G01 X12.2184 Y-33.5790 F120.00
G01 X12.3232 Y-33.7538 F120.00
G01 X12.4446 Y-33.9175 F120.00
G01 X12.5815 Y-34.0685 F120.00
G01 X12.7325 Y-34.2054 F120.00
G01 X12.8962 Y-34.3268 F120.00
G01 X13.0710 Y-34.4316 F120.00
G01 X13.2552 Y-34.5187 F120.00
G01 X13.4471 Y-34.5874 F120.00
G01 X13.6448 Y-34.6369 F120.00
G01 X13.8464 Y-34.6668 F120.00
G01 X14.0462 Y-34.6767 F120.00
G00 Z2.0000
G00 X14.1920 Y-34.6699
G01 F60.00
G01 Z-0.1000
G01 F120.00
G01 X14.1442 Y-34.7240 F120.00
G01 X14.0914 Y-34.7809 F120.00
G01 X14.0372 Y-34.8365 F120.00
G01 X13.9816 Y-34.8907 F120.00
G01 X13.9247 Y-34.9435 F120.00
G01 X13.8665 Y-34.9950 F120.00
G01 X13.8422 Y-35.0154 F120.00
G01 X13.9299 Y-35.0209 F120.00
G01 X13.9659 Y-34.9891 F120.00
G01 X14.0239 Y-34.9352 F120.00
G01 X14.0806 Y-34.8799 F120.00
G01 X14.1359 Y-34.8232 F120.00
G01 X14.1898 Y-34.7652 F120.00
G01 X14.2422 Y-34.7059 F120.00
G01 X14.2781 Y-34.6632 F120.00
G00 Z2.0000
G00 X14.3682 Y-34.6499
G01 F60.00
G01 Z-0.1000
G01 F120.00
G01 X14.3407 Y-34.6843 F120.00
G01 X14.2887 Y-34.7461 F120.00
G01 X14.2353 Y-34.8065 F120.00
G01 X14.1804 Y-34.8656 F120.00
G01 X14.1240 Y-34.9233 F120.00
G01 X14.0663 Y-34.9797 F120.00
G01 X14.0161 Y-35.0264 F120.00
G01 X14.1080 Y-35.0248 F120.00
G01 X14.1675 Y-34.9668 F120.00
G01 X14.2249 Y-34.9080 F120.00
G01 X14.2808 Y-34.8478 F120.00
G01 X14.3353 Y-34.7862 F120.00
G01 X14.3882 Y-34.7233 F120.00
G01 X14.4395 Y-34.6591 F120.00
G01 X14.4567 Y-34.6366 F120.00
G00 Z2.0000
G00 X14.5512 Y-34.6129
G01 F60.00
G01 Z-0.1000
G01 F120.00
G01 X14.5386 Y-34.6303 F120.00
G01 X14.4880 Y-34.6969 F120.00
G01 X14.4357 Y-34.7623 F120.00
G01 X14.3818 Y-34.8263 F120.00
G01 X14.3263 Y-34.8890 F120.00
G01 X14.2694 Y-34.9503 F120.00
G01 X14.2109 Y-35.0102 F120.00
G01 X14.2020 Y-35.0189 F120.00
G01 X14.2939 Y-35.0131 F120.00
G01 X14.3139 Y-34.9927 F120.00
G01 X14.3719 Y-34.9303 F120.00
G01 X14.4283 Y-34.8665 F120.00
G01 X14.4832 Y-34.8013 F120.00
G01 X14.5364 Y-34.7347 F120.00
G01 X14.5880 Y-34.6669 F120.00
G01 X14.6434 Y-34.5898 F120.00
G00 Z2.0000
G00 X14.7410 Y-34.5559
G01 F60.00
G01 Z-0.1000
G01 F120.00
G01 X14.6881 Y-34.6333 F120.00
G01 X14.6373 Y-34.7035 F120.00
G01 X14.5848 Y-34.7725 F120.00
G01 X14.5306 Y-34.8402 F120.00
G01 X14.4748 Y-34.9066 F120.00
G01 X14.4174 Y-34.9715 F120.00
G01 X14.3883 Y-35.0029 F120.00
G01 X14.4886 Y-34.9837 F120.00
G01 X14.5213 Y-34.9467 F120.00
G01 X14.5781 Y-34.8792 F120.00
G01 X14.6333 Y-34.8103 F120.00
G01 X14.6867 Y-34.7401 F120.00
G01 X14.7384 Y-34.6687 F120.00
G01 X14.7883 Y-34.5959 F120.00
G01 X14.8365 Y-34.5218 F120.00
G00 Z2.0000
G00 X14.9373 Y-34.4750
G01 F60.00
G01 Z-0.1000
G01 F120.00
G01 X14.8883 Y-34.5548 F120.00
G01 X14.8393 Y-34.6300 F120.00
G01 X14.7886 Y-34.7040 F120.00
G01 X14.7360 Y-34.7767 F120.00
G01 X14.6817 Y-34.8481 F120.00
G01 X14.6256 Y-34.9182 F120.00
G01 X14.5861 Y-34.9651 F120.00
G01 X14.6853 Y-34.9420 F120.00
G01 X14.7301 Y-34.8859 F120.00
G01 X14.7854 Y-34.8133 F120.00
G01 X14.8388 Y-34.7394 F120.00
G01 X14.8904 Y-34.6642 F120.00
G01 X14.9402 Y-34.5877 F120.00
G01 X14.9880 Y-34.5100 F120.00
G01 X15.0360 Y-34.4275 F120.00
G00 Z2.0000
G00 X15.1400 Y-34.3652
G01 F60.00
G01 Z-0.1000
G01 F120.00
G01 X15.1321 Y-34.3803 F120.00
G01 X15.0874 Y-34.4615 F120.00
G01 X15.0407 Y-34.5416 F120.00
G01 X14.9921 Y-34.6206 F120.00
G01 X14.9415 Y-34.6983 F120.00
G01 X14.8890 Y-34.7748 F120.00
G01 X14.8347 Y-34.8499 F120.00
G01 X14.7907 Y-34.9077 F120.00
G01 X14.8927 Y-34.8746 F120.00
G01 X14.9393 Y-34.8102 F120.00
G01 X14.9926 Y-34.7324 F120.00
G01 X15.0440 Y-34.6534 F120.00
G01 X15.0934 Y-34.5732 F120.00
G01 X15.1409 Y-34.4918 F120.00
G01 X15.1863 Y-34.4092 F120.00
G01 X15.2297 Y-34.3256 F120.00
G01 X15.2434 Y-34.2975 F120.00
G00 Z2.0000
G00 X15.3483 Y-34.2197
G01 F60.00
G01 Z-0.1000
G01 F120.00
G01 X15.3266 Y-34.2671 F120.00
G01 X15.2846 Y-34.3532 F120.00
G01 X15.2405 Y-34.4382 F120.00
G01 X15.1943 Y-34.5221 F120.00
G01 X15.1461 Y-34.6048 F120.00
G01 X15.0959 Y-34.6863 F120.00
G01 X15.0437 Y-34.7666 F120.00
G01 X14.9986 Y-34.8322 F120.00
G01 X15.1076 Y-34.7810 F120.00
G01 X15.1478 Y-34.7192 F120.00
G01 X15.1988 Y-34.6364 F120.00
G01 X15.2478 Y-34.5524 F120.00
G01 X15.2947 Y-34.4671 F120.00
G01 X15.3395 Y-34.3808 F120.00
G01 X15.3822 Y-34.2934 F120.00
G01 X15.4227 Y-34.2050 F120.00
G01 X15.4573 Y-34.1241 F120.00
G00 Z2.0000
G00 X15.5660 Y-34.0163
G01 F60.00
G01 Z-0.1000
G01 F120.00
G01 X15.5544 Y-34.0474 F120.00
G01 X15.5177 Y-34.1391 F120.00
G01 X15.4788 Y-34.2299 F120.00
G01 X15.4377 Y-34.3197 F120.00
G01 X15.3944 Y-34.4084 F120.00
G01 X15.3489 Y-34.4961 F120.00
G01 X15.3013 Y-34.5826 F120.00
G01 X15.2515 Y-34.6680 F120.00
G01 X15.2122 Y-34.7317 F120.00
G01 X15.3273 Y-34.6600 F120.00
G01 X15.3547 Y-34.6129 F120.00
G01 X15.4031 Y-34.5251 F120.00
G01 X15.4493 Y-34.4361 F120.00
G01 X15.4932 Y-34.3459 F120.00
G01 X15.5350 Y-34.2548 F120.00
G01 X15.5745 Y-34.1626 F120.00
G01 X15.6117 Y-34.0695 F120.00
G01 X15.6467 Y-33.9755 F120.00
G01 X15.6763 Y-33.8895 F120.00
G00 Z2.0000
G00 X15.7880 Y-33.7353
G01 F60.00
G01 Z-0.1000
G01 F120.00
G01 X15.7684 Y-33.8029 F120.00
G01 X15.7376 Y-33.9000 F120.00
G01 X15.7045 Y-33.9962 F120.00
G01 X15.6691 Y-34.0916 F120.00
G01 X15.6313 Y-34.1861 F120.00
G01 X15.5912 Y-34.2797 F120.00
G01 X15.5488 Y-34.3722 F120.00
G01 X15.5041 Y-34.4637 F120.00
G01 X15.4573 Y-34.5540 F120.00
G01 X15.4374 Y-34.5901 F120.00
G01 X15.5537 Y-34.5016 F120.00
G01 X15.5590 Y-34.4913 F120.00
G01 X15.6043 Y-34.3985 F120.00
G01 X15.6473 Y-34.3046 F120.00
G01 X15.6880 Y-34.2096 F120.00
G01 X15.7264 Y-34.1137 F120.00
G01 X15.7624 Y-34.0169 F120.00
G01 X15.7960 Y-33.9192 F120.00
G01 X15.8272 Y-33.8208 F120.00
G01 X15.8559 Y-33.7216 F120.00
G01 X15.8823 Y-33.6217 F120.00
G01 X15.9032 Y-33.5334 F120.00
G00 Z2.0000
G00 X16.0189 Y-33.2546
G01 F60.00
G01 Z-0.1000
G01 F120.00
G01 X16.0070 Y-33.3291 F120.00
G01 X15.9878 Y-33.4321 F120.00
G01 X15.9661 Y-33.5346 F120.00
G01 X15.9419 Y-33.6366 F120.00
G01 X15.9152 Y-33.7379 F120.00
G01 X15.8860 Y-33.8386 F120.00
G01 X15.8543 Y-33.9385 F120.00
G01 X15.8202 Y-34.0376 F120.00
G01 X15.7837 Y-34.1358 F120.00
G01 X15.7448 Y-34.2331 F120.00
G01 X15.7035 Y-34.3295 F120.00
G01 X15.6680 Y-34.4071 F120.00
G01 X15.7868 Y-34.2911 F120.00
G01 X15.8016 Y-34.2567 F120.00
G01 X15.8410 Y-34.1580 F120.00
G01 X15.8781 Y-34.0583 F120.00
G01 X15.9127 Y-33.9578 F120.00
G01 X15.9448 Y-33.8564 F120.00
G01 X15.9744 Y-33.7543 F120.00
G01 X16.0015 Y-33.6515 F120.00
G01 X16.0260 Y-33.5481 F120.00
G01 X16.0480 Y-33.4441 F120.00
G01 X16.0675 Y-33.3396 F120.00
G01 X16.0844 Y-33.2346 F120.00
G01 X16.0987 Y-33.1293 F120.00
G01 X16.1104 Y-33.0236 F120.00
G01 X16.1195 Y-32.9177 F120.00
G01 X16.1261 Y-32.8116 F120.00
G01 X16.1300 Y-32.7054 F120.00
G01 X16.1313 Y-32.5991 F120.00
G01 X16.1300 Y-32.4928 F120.00
G01 X16.1261 Y-32.3865 F120.00
G01 X16.1195 Y-32.2804 F120.00
G01 X16.1104 Y-32.1745 F120.00
G01 X16.0987 Y-32.0688 F120.00
G01 X16.0844 Y-31.9635 F120.00
G01 X16.0675 Y-31.8585 F120.00
G01 X16.0480 Y-31.7540 F120.00
G01 X16.0260 Y-31.6500 F120.00
G01 X16.0015 Y-31.5466 F120.00
G01 X15.9744 Y-31.4438 F120.00
G01 X15.9448 Y-31.3417 F120.00
G01 X15.9127 Y-31.2403 F120.00
G01 X15.8781 Y-31.1398 F120.00
G01 X15.8410 Y-31.0402 F120.00
G01 X15.8016 Y-30.9415 F120.00
G01 X15.7883 Y-30.9105 F120.00
G01 X15.6693 Y-30.7941 F120.00
G01 X15.7035 Y-30.8686 F120.00
G01 X15.7448 Y-30.9650 F120.00
G01 X15.7837 Y-31.0623 F120.00
G01 X15.8202 Y-31.1605 F120.00
G01 X15.8543 Y-31.2596 F120.00
G01 X15.8860 Y-31.3595 F120.00
G01 X15.9152 Y-31.4602 F120.00
G01 X15.9419 Y-31.5615 F120.00
G01 X15.9661 Y-31.6635 F120.00
G01 X15.9878 Y-31.7660 F120.00
G01 X16.0070 Y-31.8690 F120.00
G01 X16.0195 Y-31.9469 F120.00
G00 Z2.0000
G00 X15.9041 Y-31.6685
G01 F60.00
G01 Z-0.1000
G01 F120.00
G01 X15.8823 Y-31.5764 F120.00
G01 X15.8559 Y-31.4766 F120.00
G01 X15.8272 Y-31.3774 F120.00
G01 X15.7960 Y-31.2789 F120.00
G01 X15.7624 Y-31.1812 F120.00
G01 X15.7264 Y-31.0844 F120.00
G01 X15.6880 Y-30.9885 F120.00
G01 X15.6473 Y-30.8935 F120.00
G01 X15.6043 Y-30.7996 F120.00
G01 X15.5554 Y-30.6998 F120.00
G01 X15.4390 Y-30.6109 F120.00
G01 X15.4573 Y-30.6441 F120.00
G01 X15.5041 Y-30.7344 F120.00
G01 X15.5488 Y-30.8259 F120.00
G01 X15.5912 Y-30.9184 F120.00
G01 X15.6313 Y-31.0120 F120.00
G01 X15.6691 Y-31.1065 F120.00
G01 X15.7045 Y-31.2019 F120.00
G01 X15.7376 Y-31.2982 F120.00
G01 X15.7684 Y-31.3952 F120.00
G01 X15.7890 Y-31.4664 F120.00
G00 Z2.0000
G00 X15.6775 Y-31.3121
G01 F60.00
G01 Z-0.1000
G01 F120.00
G01 X15.6467 Y-31.2226 F120.00
G01 X15.6117 Y-31.1286 F120.00
G01 X15.5745 Y-31.0355 F120.00
G01 X15.5350 Y-30.9433 F120.00
G01 X15.4932 Y-30.8522 F120.00
G01 X15.4493 Y-30.7621 F120.00
G01 X15.4031 Y-30.6730 F120.00
G01 X15.3547 Y-30.5852 F120.00
G01 X15.3290 Y-30.5411 F120.00
G01 X15.2139 Y-30.4690 F120.00
G01 X15.2515 Y-30.5301 F120.00
G01 X15.3013 Y-30.6155 F120.00
G01 X15.3489 Y-30.7020 F120.00
G01 X15.3944 Y-30.7897 F120.00
G01 X15.4377 Y-30.8784 F120.00
G01 X15.4788 Y-30.9682 F120.00
G01 X15.5177 Y-31.0590 F120.00
G01 X15.5544 Y-31.1507 F120.00
G01 X15.5672 Y-31.1850 F120.00
G00 Z2.0000
G00 X15.4586 Y-31.0771
G01 F60.00
G01 Z-0.1000
G01 F120.00
G01 X15.4227 Y-30.9931 F120.00
G01 X15.3822 Y-30.9047 F120.00
G01 X15.3395 Y-30.8173 F120.00
G01 X15.2947 Y-30.7310 F120.00
G01 X15.2478 Y-30.6458 F120.00
G01 X15.1988 Y-30.5617 F120.00
G01 X15.1478 Y-30.4789 F120.00
G01 X15.1094 Y-30.4199 F120.00
G01 X15.0005 Y-30.3687 F120.00
G01 X15.0437 Y-30.4315 F120.00
G01 X15.0959 Y-30.5118 F120.00
G01 X15.1461 Y-30.5933 F120.00
G01 X15.1943 Y-30.6760 F120.00
G01 X15.2405 Y-30.7599 F120.00
G01 X15.2846 Y-30.8449 F120.00
G01 X15.3266 Y-30.9310 F120.00
G01 X15.3496 Y-30.9812 F120.00
G00 Z2.0000
G00 X15.2449 Y-30.9035
G01 F60.00
G01 Z-0.1000
G01 F120.00
G01 X15.2297 Y-30.8726 F120.00
G01 X15.1863 Y-30.7889 F120.00
G01 X15.1409 Y-30.7063 F120.00
G01 X15.0934 Y-30.6249 F120.00
G01 X15.0440 Y-30.5447 F120.00
G01 X14.9926 Y-30.4657 F120.00
G01 X14.9393 Y-30.3880 F120.00
G01 X14.8945 Y-30.3260 F120.00
G01 X14.7926 Y-30.2929 F120.00
G01 X14.8347 Y-30.3482 F120.00
G01 X14.8890 Y-30.4233 F120.00
G01 X14.9415 Y-30.4998 F120.00
G01 X14.9921 Y-30.5775 F120.00
G01 X15.0407 Y-30.6565 F120.00
G01 X15.0874 Y-30.7366 F120.00
G01 X15.1321 Y-30.8179 F120.00
G01 X15.1414 Y-30.8357 F120.00
G00 Z2.0000
G00 X15.0376 Y-30.7735
G01 F60.00
G01 Z-0.1000
G01 F120.00
G01 X14.9880 Y-30.6881 F120.00
G01 X14.9402 Y-30.6104 F120.00
G01 X14.8904 Y-30.5339 F120.00
G01 X14.8388 Y-30.4587 F120.00
G01 X14.7854 Y-30.3848 F120.00
G01 X14.7301 Y-30.3122 F120.00
G01 X14.6873 Y-30.2586 F120.00
G01 X14.5880 Y-30.2352 F120.00
G01 X14.6256 Y-30.2799 F120.00
G01 X14.6817 Y-30.3500 F120.00
G01 X14.7360 Y-30.4214 F120.00
G01 X14.7886 Y-30.4941 F120.00
G01 X14.8393 Y-30.5681 F120.00
G01 X14.8883 Y-30.6433 F120.00
G01 X14.9388 Y-30.7257 F120.00
G00 Z2.0000
G00 X14.8380 Y-30.6788
G01 F60.00
G01 Z-0.1000
G01 F120.00
G01 X14.7883 Y-30.6022 F120.00
G01 X14.7384 Y-30.5295 F120.00
G01 X14.6867 Y-30.4580 F120.00
G01 X14.6333 Y-30.3878 F120.00
G01 X14.5781 Y-30.3189 F120.00
G01 X14.5213 Y-30.2514 F120.00
G01 X14.4906 Y-30.2166 F120.00
G01 X14.3904 Y-30.1975 F120.00
G01 X14.4174 Y-30.2266 F120.00
G01 X14.4748 Y-30.2915 F120.00
G01 X14.5306 Y-30.3579 F120.00
G01 X14.5848 Y-30.4256 F120.00
G01 X14.6373 Y-30.4946 F120.00
G01 X14.6881 Y-30.5648 F120.00
G01 X14.7426 Y-30.6446 F120.00
G00 Z2.0000
G00 X14.6450 Y-30.6106
G01 F60.00
G01 Z-0.1000
G01 F120.00
G01 X14.6379 Y-30.6002 F120.00
G01 X14.5880 Y-30.5312 F120.00
G01 X14.5364 Y-30.4634 F120.00
G01 X14.4832 Y-30.3969 F120.00
G01 X14.4283 Y-30.3317 F120.00
G01 X14.3719 Y-30.2678 F120.00
G01 X14.3139 Y-30.2054 F120.00
G01 X14.2959 Y-30.1870 F120.00
G01 X14.2041 Y-30.1812 F120.00
G01 X14.2694 Y-30.2478 F120.00
G01 X14.3263 Y-30.3091 F120.00
G01 X14.3818 Y-30.3718 F120.00
G01 X14.4357 Y-30.4358 F120.00
G01 X14.4880 Y-30.5012 F120.00
G01 X14.5386 Y-30.5678 F120.00
G01 X14.5529 Y-30.5875 F120.00
G00 Z2.0000
G00 X14.4584 Y-30.5638
G01 F60.00
G01 Z-0.1000
G01 F120.00
G01 X14.4395 Y-30.5390 F120.00
G01 X14.3882 Y-30.4748 F120.00
G01 X14.3353 Y-30.4119 F120.00
G01 X14.2808 Y-30.3504 F120.00
G01 X14.2249 Y-30.2901 F120.00
G01 X14.1675 Y-30.2313 F120.00
G01 X14.1101 Y-30.1753 F120.00
G01 X14.0180 Y-30.1735 F120.00
G01 X14.0663 Y-30.2184 F120.00
G01 X14.1240 Y-30.2748 F120.00
G01 X14.1804 Y-30.3325 F120.00
G01 X14.2353 Y-30.3916 F120.00
G01 X14.2887 Y-30.4521 F120.00
G01 X14.3407 Y-30.5138 F120.00
G01 X14.3700 Y-30.5504 F120.00
G01 X14.2799 Y-30.5370 F120.00
G01 X14.2422 Y-30.4922 F120.00
G01 X14.1898 Y-30.4329 F120.00
G01 X14.1359 Y-30.3749 F120.00
G01 X14.0806 Y-30.3182 F120.00
G01 X14.0239 Y-30.2629 F120.00
G01 X13.9659 Y-30.2090 F120.00
G01 X13.9319 Y-30.1789 F120.00
G01 X13.8443 Y-30.1844 F120.00
G01 X13.8665 Y-30.2031 F120.00
G01 X13.9247 Y-30.2546 F120.00
G01 X13.9816 Y-30.3074 F120.00
G01 X14.0372 Y-30.3617 F120.00
G01 X14.0914 Y-30.4172 F120.00
G01 X14.1442 Y-30.4741 F120.00
G01 X14.1938 Y-30.5302 F120.00
G01 X14.1081 Y-30.5260 F120.00
G01 X14.0987 Y-30.5154 F120.00
G01 X14.0469 Y-30.4596 F120.00
G01 X13.9937 Y-30.4051 F120.00
G01 X13.9392 Y-30.3519 F120.00
G01 X13.8834 Y-30.3001 F120.00
G01 X13.8264 Y-30.2497 F120.00
G01 X13.7681 Y-30.2006 F120.00
G01 X13.7549 Y-30.1901 F120.00
G01 X13.6743 Y-30.2043 F120.00
G01 X13.7291 Y-30.2481 F120.00
G01 X13.7862 Y-30.2962 F120.00
G01 X13.8422 Y-30.3456 F120.00
G01 X13.8968 Y-30.3964 F120.00
G01 X13.9503 Y-30.4485 F120.00
G01 X14.0024 Y-30.5020 F120.00
G01 X14.0232 Y-30.5244 F120.00
G00 Z2.0000
G00 X13.9423 Y-30.5284
G01 F60.00
G01 Z-0.1000
G01 F120.00
G01 X13.9068 Y-30.4920 F120.00
G01 X13.8545 Y-30.4409 F120.00
G01 X13.8009 Y-30.3911 F120.00
G01 X13.7461 Y-30.3427 F120.00
G01 X13.6901 Y-30.2956 F120.00
G01 X13.6330 Y-30.2499 F120.00
G01 X13.5933 Y-30.2197 F120.00
G01 X13.5111 Y-30.2354 F120.00
G01 X13.5382 Y-30.2550 F120.00
G01 X13.5952 Y-30.2983 F120.00
G01 X13.6512 Y-30.3431 F120.00
G01 X13.7060 Y-30.3892 F120.00
G01 X13.7596 Y-30.4367 F120.00
G01 X13.8121 Y-30.4854 F120.00
G01 X13.8603 Y-30.5324 F120.00
G00 Z2.0000
G00 X13.7827 Y-30.5426
G01 F60.00
G01 Z-0.1000
G01 F120.00
G01 X13.7697 Y-30.5299 F120.00
G01 X13.7184 Y-30.4822 F120.00
G01 X13.6658 Y-30.4357 F120.00
G01 X13.6122 Y-30.3906 F120.00
G01 X13.5574 Y-30.3468 F120.00
G01 X13.5016 Y-30.3043 F120.00
G01 X13.4448 Y-30.2633 F120.00
G01 X13.4299 Y-30.2530 F120.00
G01 X13.3562 Y-30.2770 F120.00
G01 X13.4094 Y-30.3135 F120.00
G01 X13.4650 Y-30.3537 F120.00
G01 X13.5196 Y-30.3952 F120.00
G01 X13.5732 Y-30.4381 F120.00
G01 X13.6257 Y-30.4823 F120.00
G01 X13.6771 Y-30.5277 F120.00
G01 X13.7054 Y-30.5540 F120.00
G00 Z2.0000
G00 X13.6288 Y-30.5670
G01 F60.00
G01 Z-0.1000
G01 F120.00
G01 X13.5856 Y-30.5288 F120.00
G01 X13.5342 Y-30.4856 F120.00
G01 X13.4818 Y-30.4437 F120.00
G01 X13.4284 Y-30.4030 F120.00
G01 X13.3741 Y-30.3637 F120.00
G01 X13.3187 Y-30.3258 F120.00
G01 X13.2812 Y-30.3014 F120.00
G01 X13.2052 Y-30.3261 F120.00
G01 X13.2296 Y-30.3411 F120.00
G01 X13.2846 Y-30.3768 F120.00
G01 X13.3387 Y-30.4139 F120.00
G01 X13.3918 Y-30.4524 F120.00
G01 X13.4440 Y-30.4921 F120.00
G01 X13.4953 Y-30.5331 F120.00
G01 X13.5455 Y-30.5753 F120.00
G01 X13.5565 Y-30.5851 F120.00
G00 Z2.0000
G00 X15.9043 Y-31.0340
G01 F60.00
G01 Z-0.1000
G01 F120.00
G01 X15.9359 Y-31.1191 F120.00
G01 X15.9710 Y-31.2211 F120.00
G01 X16.0036 Y-31.3238 F120.00
G01 X16.0336 Y-31.4274 F120.00
G01 X16.0611 Y-31.5317 F120.00
G01 X16.0860 Y-31.6366 F120.00
G01 X16.1083 Y-31.7420 F120.00
G01 X16.1280 Y-31.8480 F120.00
G01 X16.1452 Y-31.9545 F120.00
G01 X16.1597 Y-32.0613 F120.00
G01 X16.1716 Y-32.1685 F120.00
G01 X16.1808 Y-32.2759 F120.00
G01 X16.1874 Y-32.3835 F120.00
G01 X16.1914 Y-32.4912 F120.00
G01 X16.1927 Y-32.5991 F120.00
G01 X16.1914 Y-32.7069 F120.00
G01 X16.1874 Y-32.8146 F120.00
G01 X16.1808 Y-32.9222 F120.00
G01 X16.1716 Y-33.0296 F120.00
G01 X16.1597 Y-33.1368 F120.00
G01 X16.1452 Y-33.2436 F120.00
G01 X16.1280 Y-33.3501 F120.00
G01 X16.1083 Y-33.4561 F120.00
G01 X16.0860 Y-33.5616 F120.00
G01 X16.0611 Y-33.6665 F120.00
G01 X16.0336 Y-33.7707 F120.00
G01 X16.0036 Y-33.8743 F120.00
G01 X15.9710 Y-33.9770 F120.00
G01 X15.9359 Y-34.0790 F120.00
G01 X15.9031 Y-34.1672 F120.00
G01 X16.0275 Y-34.0016 F120.00
G01 X16.0624 Y-33.8921 F120.00
G01 X16.0928 Y-33.7871 F120.00
G01 X16.1207 Y-33.6814 F120.00
G01 X16.1459 Y-33.5750 F120.00
G01 X16.1686 Y-33.4681 F120.00
G01 X16.1886 Y-33.3606 F120.00
G01 X16.2059 Y-33.2527 F120.00
G01 X16.2207 Y-33.1443 F120.00
G01 X16.2327 Y-33.0357 F120.00
G01 X16.2421 Y-32.9267 F120.00
G01 X16.2488 Y-32.8176 F120.00
G01 X16.2528 Y-32.7084 F120.00
G01 X16.2542 Y-32.5991 F120.00
G01 X16.2528 Y-32.4897 F120.00
G01 X16.2488 Y-32.3805 F120.00
G01 X16.2421 Y-32.2714 F120.00
G01 X16.2327 Y-32.1625 F120.00
G01 X16.2207 Y-32.0538 F120.00
G01 X16.2059 Y-31.9455 F120.00
G01 X16.1886 Y-31.8375 F120.00
G01 X16.1686 Y-31.7300 F120.00
G01 X16.1459 Y-31.6231 F120.00
G01 X16.1207 Y-31.5167 F120.00
G01 X16.0928 Y-31.4110 F120.00
G01 X16.0624 Y-31.3060 F120.00
G01 X16.0287 Y-31.2000 F120.00
G01 X16.1507 Y-31.3902 F120.00
G01 X16.1803 Y-31.5018 F120.00
G01 X16.2059 Y-31.6096 F120.00
G01 X16.2288 Y-31.7181 F120.00
G01 X16.2491 Y-31.8270 F120.00
G01 X16.2667 Y-31.9364 F120.00
G01 X16.2816 Y-32.0463 F120.00
G01 X16.2939 Y-32.1564 F120.00
G01 X16.3034 Y-32.2669 F120.00
G01 X16.3102 Y-32.3775 F120.00
G01 X16.3142 Y-32.4882 F120.00
G01 X16.3156 Y-32.5991 F120.00
G01 X16.3142 Y-32.7099 F120.00
G01 X16.3102 Y-32.8206 F120.00
G01 X16.3034 Y-32.9313 F120.00
G01 X16.2939 Y-33.0417 F120.00
G01 X16.2816 Y-33.1518 F120.00
G01 X16.2667 Y-33.2617 F120.00
G01 X16.2491 Y-33.3711 F120.00
G01 X16.2288 Y-33.4801 F120.00
G01 X16.2059 Y-33.5885 F120.00
G01 X16.1803 Y-33.6963 F120.00
G01 X16.1496 Y-33.8119 F120.00
G01 X16.2724 Y-33.5707 F120.00
G01 X16.2891 Y-33.4920 F120.00
G01 X16.3096 Y-33.3816 F120.00
G01 X16.3275 Y-33.2707 F120.00
G01 X16.3426 Y-33.1594 F120.00
G01 X16.3550 Y-33.0477 F120.00
G01 X16.3646 Y-32.9358 F120.00
G01 X16.3715 Y-32.8237 F120.00
G01 X16.3757 Y-32.7114 F120.00
G01 X16.3770 Y-32.5991 F120.00
G01 X16.3757 Y-32.4867 F120.00
G01 X16.3715 Y-32.3745 F120.00
G01 X16.3646 Y-32.2623 F120.00
G01 X16.3550 Y-32.1504 F120.00
G01 X16.3426 Y-32.0387 F120.00
G01 X16.3275 Y-31.9274 F120.00
G01 X16.3096 Y-31.8165 F120.00
G01 X16.2891 Y-31.7061 F120.00
G01 X16.2733 Y-31.6315 F120.00
G01 X16.4006 Y-32.0090 F120.00
G01 X16.4036 Y-32.0312 F120.00
G01 X16.4161 Y-32.1444 F120.00
G01 X16.4259 Y-32.2578 F120.00
G01 X16.4329 Y-32.3714 F120.00
G01 X16.4371 Y-32.4852 F120.00
G01 X16.4385 Y-32.5991 F120.00
G01 X16.4371 Y-32.7129 F120.00
G01 X16.4329 Y-32.8267 F120.00
G01 X16.4259 Y-32.9403 F120.00
G01 X16.4161 Y-33.0537 F120.00
G01 X16.4036 Y-33.1669 F120.00
G01 X16.4000 Y-33.1931 F120.00
G00 Z2.0000
G00 X19.8951 Y-33.8540
G01 F60.00
G01 Z-0.1000
G01 F120.00
G01 X19.9158 Y-33.8541 F120.00
G01 X19.9433 Y-33.8554 F120.00
G01 X20.0146 Y-33.9267 F120.00
G01 X19.9856 Y-33.9217 F120.00
G01 X19.9715 Y-33.9198 F120.00
G01 X19.9429 Y-33.9170 F120.00
G01 X19.9286 Y-33.9161 F120.00
G01 X19.9000 Y-33.9154 F120.00
G01 X19.8857 Y-33.9156 F120.00
G01 X19.8611 Y-33.9167 F120.00
G01 X19.8289 Y-33.9817 F120.00
G01 X19.8488 Y-33.9793 F120.00
G01 X19.8616 Y-33.9782 F120.00
G01 X19.8872 Y-33.9770 F120.00
G01 X19.9000 Y-33.9768 F120.00
G01 X19.9256 Y-33.9774 F120.00
G01 X19.9384 Y-33.9782 F120.00
G01 X19.9639 Y-33.9807 F120.00
G01 X19.9766 Y-33.9825 F120.00
G01 X20.0019 Y-33.9869 F120.00
G01 X20.0269 Y-33.9925 F120.00
G01 X20.0393 Y-33.9957 F120.00
G01 X20.0638 Y-34.0032 F120.00
G01 X20.0880 Y-34.0118 F120.00
G01 X20.0999 Y-34.0166 F120.00
G01 X20.1078 Y-34.0200 F120.00
G01 X20.1532 Y-34.1141 F120.00
G01 X20.1271 Y-34.0981 F120.00
G01 X20.1072 Y-34.0875 F120.00
G01 X20.0970 Y-34.0825 F120.00
G01 X20.0867 Y-34.0778 F120.00
G01 X20.0658 Y-34.0691 F120.00
G01 X20.0446 Y-34.0615 F120.00
G01 X20.0338 Y-34.0581 F120.00
G01 X20.0120 Y-34.0521 F120.00
G01 X20.0010 Y-34.0495 F120.00
G01 X19.9899 Y-34.0471 F120.00
G01 X19.9676 Y-34.0432 F120.00
G01 X19.9564 Y-34.0417 F120.00
G01 X19.9339 Y-34.0395 F120.00
G01 X19.9113 Y-34.0384 F120.00
G01 X19.9000 Y-34.0383 F120.00
G01 X19.8774 Y-34.0388 F120.00
G01 X19.8548 Y-34.0405 F120.00
G01 X19.8324 Y-34.0432 F120.00
G01 X19.8062 Y-34.0479 F120.00
G01 X19.7823 Y-34.1174 F120.00
G01 X19.8030 Y-34.1117 F120.00
G01 X19.8221 Y-34.1074 F120.00
G01 X19.8511 Y-34.1027 F120.00
G01 X19.8706 Y-34.1008 F120.00
G01 X19.8902 Y-34.0998 F120.00
G01 X19.9098 Y-34.0998 F120.00
G01 X19.9391 Y-34.1016 F120.00
G01 X19.9586 Y-34.1040 F120.00
G01 X19.9779 Y-34.1074 F120.00
G01 X20.0065 Y-34.1142 F120.00
G01 X20.0253 Y-34.1199 F120.00
G01 X20.0528 Y-34.1301 F120.00
G01 X20.0708 Y-34.1380 F120.00
G01 X20.0968 Y-34.1516 F120.00
G01 X20.1137 Y-34.1617 F120.00
G01 X20.1307 Y-34.1731 F120.00
G00 Z2.0000
G00 X20.1106 Y-34.2348
G01 F60.00
G01 Z-0.1000
G01 F120.00
G01 X20.0946 Y-34.2228 F120.00
G01 X20.0737 Y-34.2092 F120.00
G01 X20.0519 Y-34.1972 F120.00
G01 X20.0293 Y-34.1869 F120.00
G01 X20.0060 Y-34.1782 F120.00
G01 X19.9821 Y-34.1713 F120.00
G01 X19.9578 Y-34.1661 F120.00
G01 X19.9414 Y-34.1637 F120.00
G01 X19.9166 Y-34.1615 F120.00
G01 X19.8917 Y-34.1612 F120.00
G01 X19.8751 Y-34.1621 F120.00
G01 X19.8504 Y-34.1648 F120.00
G01 X19.8260 Y-34.1693 F120.00
G01 X19.8019 Y-34.1757 F120.00
G01 X19.7784 Y-34.1838 F120.00
G01 X19.7600 Y-34.1915 F120.00
G01 X19.7471 Y-34.2687 F120.00
G01 X19.7579 Y-34.2619 F120.00
G01 X19.7697 Y-34.2552 F120.00
G01 X19.7880 Y-34.2463 F120.00
G01 X19.8069 Y-34.2387 F120.00
G01 X19.8197 Y-34.2345 F120.00
G01 X19.8328 Y-34.2309 F120.00
G01 X19.8527 Y-34.2266 F120.00
G01 X19.8662 Y-34.2247 F120.00
G01 X19.8797 Y-34.2233 F120.00
G01 X19.8932 Y-34.2227 F120.00
G01 X19.9068 Y-34.2227 F120.00
G01 X19.9271 Y-34.2239 F120.00
G01 X19.9406 Y-34.2256 F120.00
G01 X19.9539 Y-34.2279 F120.00
G01 X19.9737 Y-34.2326 F120.00
G01 X19.9931 Y-34.2387 F120.00
G01 X20.0058 Y-34.2436 F120.00
G01 X20.0182 Y-34.2491 F120.00
G01 X20.0303 Y-34.2552 F120.00
G01 X20.0421 Y-34.2619 F120.00
G01 X20.0592 Y-34.2730 F120.00
G01 X20.0754 Y-34.2853 F120.00
G01 X20.0857 Y-34.2942 F120.00
G01 X20.0938 Y-34.3019 F120.00
G00 Z2.0000
G00 X20.0810 Y-34.3829
G01 F60.00
G01 Z-0.1000
G01 F120.00
G01 X20.0727 Y-34.3710 F120.00
G01 X20.0662 Y-34.3626 F120.00
G01 X20.0593 Y-34.3546 F120.00
G01 X20.0521 Y-34.3470 F120.00
G01 X20.0444 Y-34.3397 F120.00
G01 X20.0364 Y-34.3328 F120.00
G01 X20.0281 Y-34.3263 F120.00
G01 X20.0195 Y-34.3203 F120.00
G01 X20.0106 Y-34.3146 F120.00
G01 X20.0014 Y-34.3094 F120.00
G01 X19.9919 Y-34.3047 F120.00
G01 X19.9823 Y-34.3004 F120.00
G01 X19.9725 Y-34.2966 F120.00
G01 X19.9624 Y-34.2933 F120.00
G01 X19.9523 Y-34.2905 F120.00
G01 X19.9420 Y-34.2881 F120.00
G01 X19.9316 Y-34.2863 F120.00
G01 X19.9211 Y-34.2851 F120.00
G01 X19.9106 Y-34.2843 F120.00
G01 X19.9000 Y-34.2840 F120.00
G01 X19.8895 Y-34.2843 F120.00
G01 X19.8789 Y-34.2851 F120.00
G01 X19.8685 Y-34.2863 F120.00
G01 X19.8581 Y-34.2881 F120.00
G01 X19.8478 Y-34.2905 F120.00
G01 X19.8326 Y-34.2949 F120.00
G01 X19.8226 Y-34.2984 F120.00
G01 X19.8129 Y-34.3025 F120.00
G01 X19.8033 Y-34.3070 F120.00
G01 X19.7940 Y-34.3120 F120.00
G01 X19.7850 Y-34.3174 F120.00
G01 X19.7762 Y-34.3232 F120.00
G01 X19.7636 Y-34.3328 F120.00
G01 X19.7517 Y-34.3433 F120.00
G01 X19.7407 Y-34.3546 F120.00
G01 X19.7308 Y-34.3664 F120.00
G01 X19.9307 Y-34.4991 F120.00
G01 X19.9304 Y-34.5036 F120.00
G01 X19.9296 Y-34.5073 F120.00
G01 X19.9281 Y-34.5115 F120.00
G01 X19.9260 Y-34.5155 F120.00
G01 X19.9233 Y-34.5191 F120.00
G01 X19.9201 Y-34.5223 F120.00
G01 X19.9164 Y-34.5250 F120.00
G01 X19.9131 Y-34.5268 F120.00
G01 X19.9089 Y-34.5285 F120.00
G01 X19.9053 Y-34.5293 F120.00
G01 X19.9008 Y-34.5298 F120.00
G01 X19.8962 Y-34.5295 F120.00
G01 X19.8918 Y-34.5287 F120.00
G01 X19.8882 Y-34.5274 F120.00
G01 X19.8842 Y-34.5254 F120.00
G01 X19.8805 Y-34.5228 F120.00
G01 X19.8772 Y-34.5197 F120.00
G01 X19.8749 Y-34.5167 F120.00
G01 X19.8729 Y-34.5135 F120.00
G01 X19.8711 Y-34.5094 F120.00
G01 X19.8699 Y-34.5051 F120.00
G01 X19.8693 Y-34.5006 F120.00
G01 X19.8694 Y-34.4960 F120.00
G01 X19.8700 Y-34.4923 F120.00
G01 X19.8711 Y-34.4887 F120.00
G01 X19.8729 Y-34.4846 F120.00
G01 X19.8753 Y-34.4808 F120.00
G01 X19.8783 Y-34.4773 F120.00
G01 X19.8811 Y-34.4748 F120.00
G01 X19.8849 Y-34.4723 F120.00
G01 X19.8869 Y-34.4713 F120.00
G01 X19.8876 Y-34.4710 F120.00
G01 X19.8882 Y-34.4707 F120.00
G01 X19.8889 Y-34.4704 F120.00
G01 X19.8933 Y-34.4691 F120.00
G01 X19.9000 Y-34.4683 F120.00
G01 X19.9067 Y-34.4691 F120.00
G01 X19.9131 Y-34.4713 F120.00
G01 X19.9189 Y-34.4748 F120.00
G01 X19.9242 Y-34.4802 F120.00
G01 X19.9278 Y-34.4859 F120.00
G01 X19.9300 Y-34.4923 F120.00
G01 X19.9307 Y-34.4991 F120.00
G01 X19.9922 Y-34.4991 F120.00
G01 X19.9915 Y-34.5103 F120.00
G01 X19.9888 Y-34.5236 F120.00
G01 X19.9852 Y-34.5343 F120.00
G01 X19.9791 Y-34.5464 F120.00
G01 X19.9727 Y-34.5558 F120.00
G01 X19.9636 Y-34.5658 F120.00
G01 X19.9549 Y-34.5731 F120.00
G01 X19.9454 Y-34.5792 F120.00
G01 X19.9353 Y-34.5842 F120.00
G01 X19.9224 Y-34.5885 F120.00
G01 X19.9113 Y-34.5905 F120.00
G01 X19.8977 Y-34.5912 F120.00
G01 X19.8842 Y-34.5899 F120.00
G01 X19.8733 Y-34.5872 F120.00
G01 X19.8627 Y-34.5833 F120.00
G01 X19.8507 Y-34.5769 F120.00
G01 X19.8398 Y-34.5688 F120.00
G01 X19.8302 Y-34.5593 F120.00
G01 X19.8221 Y-34.5484 F120.00
G01 X19.8167 Y-34.5385 F120.00
G01 X19.8118 Y-34.5258 F120.00
G01 X19.8092 Y-34.5148 F120.00
G01 X19.8079 Y-34.5013 F120.00
G01 X19.8083 Y-34.4900 F120.00
G01 X19.8101 Y-34.4789 F120.00
G01 X19.8140 Y-34.4659 F120.00
G01 X19.8198 Y-34.4536 F120.00
G01 X19.8274 Y-34.4424 F120.00
G01 X19.8317 Y-34.4372 F120.00
G01 X19.8333 Y-34.4355 F120.00
G01 X19.8348 Y-34.4339 F120.00
G01 X19.8365 Y-34.4323 F120.00
G01 X19.8451 Y-34.4250 F120.00
G01 X19.8546 Y-34.4189 F120.00
G01 X19.8668 Y-34.4131 F120.00
G01 X19.8754 Y-34.4102 F120.00
G01 X19.8842 Y-34.4083 F120.00
G01 X19.8955 Y-34.4070 F120.00
G01 X19.9045 Y-34.4070 F120.00
G01 X19.9135 Y-34.4079 F120.00
G01 X19.9224 Y-34.4097 F120.00
G01 X19.9311 Y-34.4123 F120.00
G01 X19.9394 Y-34.4157 F120.00
G01 X19.9512 Y-34.4224 F120.00
G01 X19.9602 Y-34.4293 F120.00
G01 X19.9698 Y-34.4389 F120.00
G01 X19.9779 Y-34.4498 F120.00
G01 X19.9843 Y-34.4617 F120.00
G01 X19.9888 Y-34.4745 F120.00
G01 X19.9915 Y-34.4878 F120.00
G01 X19.9922 Y-34.4991 F120.00
G01 X20.0536 Y-34.4991 F120.00
G01 X20.0532 Y-34.5104 F120.00
G01 X20.0519 Y-34.5216 F120.00
G01 X20.0499 Y-34.5327 F120.00
G01 X20.0470 Y-34.5436 F120.00
G01 X20.0433 Y-34.5543 F120.00
G01 X20.0389 Y-34.5647 F120.00
G01 X20.0337 Y-34.5748 F120.00
G01 X20.0277 Y-34.5844 F120.00
G01 X20.0211 Y-34.5936 F120.00
G01 X20.0138 Y-34.6022 F120.00
G01 X20.0059 Y-34.6103 F120.00
G01 X19.9974 Y-34.6178 F120.00
G01 X19.9884 Y-34.6246 F120.00
G01 X19.9790 Y-34.6308 F120.00
G01 X19.9691 Y-34.6363 F120.00
G01 X19.9588 Y-34.6410 F120.00
G01 X19.9518 Y-34.6437 F120.00
G01 X19.9410 Y-34.6471 F120.00
G01 X19.9300 Y-34.6497 F120.00
G01 X19.9188 Y-34.6515 F120.00
G01 X19.9075 Y-34.6525 F120.00
G01 X19.8962 Y-34.6526 F120.00
G01 X19.8850 Y-34.6519 F120.00
G01 X19.8737 Y-34.6504 F120.00
G01 X19.8627 Y-34.6481 F120.00
G01 X19.8518 Y-34.6449 F120.00
G01 X19.8412 Y-34.6410 F120.00
G01 X19.8309 Y-34.6363 F120.00
G01 X19.8210 Y-34.6308 F120.00
G01 X19.8116 Y-34.6246 F120.00
G01 X19.8026 Y-34.6178 F120.00
G01 X19.7941 Y-34.6103 F120.00
G01 X19.7862 Y-34.6022 F120.00
G01 X19.7789 Y-34.5936 F120.00
G01 X19.7723 Y-34.5844 F120.00
G01 X19.7664 Y-34.5748 F120.00
G01 X19.7612 Y-34.5647 F120.00
G01 X19.7567 Y-34.5543 F120.00
G01 X19.7530 Y-34.5436 F120.00
G01 X19.7501 Y-34.5327 F120.00
G01 X19.7481 Y-34.5216 F120.00
G01 X19.7468 Y-34.5104 F120.00
G01 X19.7464 Y-34.4991 F120.00
G01 X19.7468 Y-34.4878 F120.00
G01 X19.7481 Y-34.4765 F120.00
G01 X19.7501 Y-34.4654 F120.00
G01 X19.7530 Y-34.4545 F120.00
G01 X19.7581 Y-34.4403 F120.00
G01 X19.7628 Y-34.4300 F120.00
G01 X19.7683 Y-34.4201 F120.00
G01 X19.7744 Y-34.4106 F120.00
G01 X19.7789 Y-34.4046 F120.00
G01 X19.7813 Y-34.4016 F120.00
G01 X19.7837 Y-34.3987 F120.00
G01 X19.7914 Y-34.3904 F120.00
G01 X19.7997 Y-34.3828 F120.00
G01 X19.8085 Y-34.3757 F120.00
G01 X19.8178 Y-34.3693 F120.00
G01 X19.8276 Y-34.3636 F120.00
G01 X19.8378 Y-34.3586 F120.00
G01 X19.8483 Y-34.3544 F120.00
G01 X19.8590 Y-34.3510 F120.00
G01 X19.8700 Y-34.3484 F120.00
G01 X19.8812 Y-34.3466 F120.00
G01 X19.8925 Y-34.3456 F120.00
G01 X19.9038 Y-34.3455 F120.00
G01 X19.9113 Y-34.3459 F120.00
G01 X19.9225 Y-34.3471 F120.00
G01 X19.9300 Y-34.3484 F120.00
G01 X19.9410 Y-34.3510 F120.00
G01 X19.9518 Y-34.3544 F120.00
G01 X19.9588 Y-34.3571 F120.00
G01 X19.9691 Y-34.3619 F120.00
G01 X19.9757 Y-34.3654 F120.00
G01 X19.9822 Y-34.3693 F120.00
G01 X19.9915 Y-34.3757 F120.00
G01 X20.0003 Y-34.3828 F120.00
G01 X20.0059 Y-34.3878 F120.00
G01 X20.0138 Y-34.3959 F120.00
G01 X20.0187 Y-34.4016 F120.00
G01 X20.0277 Y-34.4137 F120.00
G01 X20.0355 Y-34.4267 F120.00
G01 X20.0404 Y-34.4368 F120.00
G01 X20.0459 Y-34.4509 F120.00
G01 X20.0490 Y-34.4617 F120.00
G01 X20.0507 Y-34.4691 F120.00
G01 X20.0525 Y-34.4803 F120.00
G01 X20.0532 Y-34.4878 F120.00
G01 X20.0536 Y-34.4991 F120.00
G01 X20.0807 Y-34.6155 F120.00
G01 X20.0727 Y-34.6272 F120.00
G01 X20.0662 Y-34.6355 F120.00
G01 X20.0593 Y-34.6435 F120.00
G01 X20.0483 Y-34.6548 F120.00
G01 X20.0405 Y-34.6619 F120.00
G01 X20.0281 Y-34.6718 F120.00
G01 X20.0151 Y-34.6807 F120.00
G01 X20.0060 Y-34.6862 F120.00
G01 X19.9967 Y-34.6911 F120.00
G01 X19.9823 Y-34.6977 F120.00
G01 X19.9725 Y-34.7015 F120.00
G01 X19.9574 Y-34.7063 F120.00
G01 X19.9420 Y-34.7100 F120.00
G01 X19.9316 Y-34.7118 F120.00
G01 X19.9211 Y-34.7131 F120.00
G01 X19.9106 Y-34.7138 F120.00
G01 X19.9000 Y-34.7141 F120.00
G01 X19.8842 Y-34.7135 F120.00
G01 X19.8737 Y-34.7125 F120.00
G01 X19.8581 Y-34.7100 F120.00
G01 X19.8478 Y-34.7077 F120.00
G01 X19.8326 Y-34.7032 F120.00
G01 X19.8177 Y-34.6977 F120.00
G01 X19.8081 Y-34.6935 F120.00
G01 X19.7986 Y-34.6887 F120.00
G01 X19.7850 Y-34.6807 F120.00
G01 X19.7762 Y-34.6749 F120.00
G01 X19.7636 Y-34.6653 F120.00
G01 X19.7517 Y-34.6548 F120.00
G01 X19.7443 Y-34.6473 F120.00
G01 X19.7372 Y-34.6395 F120.00
G01 X19.7304 Y-34.6313 F120.00
G01 X19.7467 Y-34.7292 F120.00
G01 X19.7637 Y-34.7396 F120.00
G01 X19.7757 Y-34.7460 F120.00
G01 X19.7880 Y-34.7518 F120.00
G01 X19.8005 Y-34.7570 F120.00
G01 X19.8133 Y-34.7616 F120.00
G01 X19.8263 Y-34.7655 F120.00
G01 X19.8394 Y-34.7688 F120.00
G01 X19.8527 Y-34.7715 F120.00
G01 X19.8729 Y-34.7742 F120.00
G01 X19.8864 Y-34.7752 F120.00
G01 X19.9068 Y-34.7755 F120.00
G01 X19.9203 Y-34.7748 F120.00
G01 X19.9338 Y-34.7735 F120.00
G01 X19.9473 Y-34.7715 F120.00
G01 X19.9672 Y-34.7673 F120.00
G01 X19.9803 Y-34.7636 F120.00
G01 X19.9995 Y-34.7570 F120.00
G01 X20.0120 Y-34.7518 F120.00
G01 X20.0303 Y-34.7429 F120.00
G01 X20.0421 Y-34.7362 F120.00
G01 X20.0592 Y-34.7251 F120.00
G01 X20.0701 Y-34.7170 F120.00
G01 X20.0806 Y-34.7084 F120.00
G01 X20.0934 Y-34.6966 F120.00
G00 Z2.0000
G00 X20.1102 Y-34.7636
G01 F60.00
G01 Z-0.1000
G01 F120.00
G01 X20.0946 Y-34.7753 F120.00
G01 X20.0737 Y-34.7889 F120.00
G01 X20.0519 Y-34.8009 F120.00
G01 X20.0293 Y-34.8113 F120.00
G01 X20.0060 Y-34.8199 F120.00
G01 X19.9821 Y-34.8269 F120.00
G01 X19.9578 Y-34.8320 F120.00
G01 X19.9414 Y-34.8344 F120.00
G01 X19.9166 Y-34.8366 F120.00
G01 X19.8917 Y-34.8369 F120.00
G01 X19.8751 Y-34.8361 F120.00
G01 X19.8504 Y-34.8333 F120.00
G01 X19.8260 Y-34.8288 F120.00
G01 X19.8019 Y-34.8224 F120.00
G01 X19.7784 Y-34.8143 F120.00
G01 X19.7596 Y-34.8064 F120.00
G01 X19.7816 Y-34.8804 F120.00
G01 X19.8030 Y-34.8864 F120.00
G01 X19.8317 Y-34.8925 F120.00
G01 X19.8511 Y-34.8954 F120.00
G01 X19.8804 Y-34.8979 F120.00
G01 X19.9098 Y-34.8983 F120.00
G01 X19.9294 Y-34.8973 F120.00
G01 X19.9489 Y-34.8954 F120.00
G01 X19.9779 Y-34.8907 F120.00
G01 X19.9970 Y-34.8864 F120.00
G01 X20.0159 Y-34.8812 F120.00
G01 X20.0345 Y-34.8751 F120.00
G01 X20.0528 Y-34.8680 F120.00
G01 X20.0796 Y-34.8558 F120.00
G01 X20.1053 Y-34.8416 F120.00
G01 X20.1301 Y-34.8254 F120.00
G00 Z2.0000
G00 X20.1525 Y-34.8845
G01 F60.00
G01 Z-0.1000
G01 F120.00
G01 X20.1369 Y-34.8943 F120.00
G01 X20.1172 Y-34.9054 F120.00
G01 X20.0970 Y-34.9156 F120.00
G01 X20.0763 Y-34.9248 F120.00
G01 X20.0552 Y-34.9329 F120.00
G01 X20.0338 Y-34.9400 F120.00
G01 X20.0120 Y-34.9460 F120.00
G01 X19.9899 Y-34.9510 F120.00
G01 X19.9676 Y-34.9549 F120.00
G01 X19.9452 Y-34.9576 F120.00
G01 X19.9226 Y-34.9593 F120.00
G01 X19.9000 Y-34.9599 F120.00
G01 X19.8774 Y-34.9593 F120.00
G01 X19.8548 Y-34.9576 F120.00
G01 X19.8324 Y-34.9549 F120.00
G01 X19.8055 Y-34.9500 F120.00
G00 Z2.0000
G00 X19.8282 Y-35.0163
G01 F60.00
G01 Z-0.1000
G01 F120.00
G01 X19.8488 Y-35.0188 F120.00
G01 X19.8616 Y-35.0199 F120.00
G01 X19.8744 Y-35.0207 F120.00
G01 X19.9000 Y-35.0213 F120.00
G01 X19.9256 Y-35.0207 F120.00
G01 X19.9384 Y-35.0199 F120.00
G01 X19.9639 Y-35.0174 F120.00
G01 X19.9766 Y-35.0156 F120.00
G01 X20.0019 Y-35.0113 F120.00
G01 X20.0269 Y-35.0056 F120.00
G01 X20.0393 Y-35.0024 F120.00
G01 X20.0516 Y-34.9988 F120.00
G01 X20.0759 Y-34.9908 F120.00
G01 X20.0880 Y-34.9863 F120.00
G01 X20.0999 Y-34.9815 F120.00
G01 X20.1111 Y-34.9767 F120.00
G01 X20.0170 Y-35.0709 F120.00
G01 X20.0139 Y-35.0715 F120.00
G01 X19.9998 Y-35.0741 F120.00
G01 X19.9856 Y-35.0764 F120.00
G01 X19.9715 Y-35.0783 F120.00
G01 X19.9429 Y-35.0812 F120.00
G01 X19.9286 Y-35.0820 F120.00
G01 X19.9000 Y-35.0827 F120.00
G01 X19.8857 Y-35.0826 F120.00
G01 X19.8714 Y-35.0820 F120.00
G01 X19.8601 Y-35.0813 F120.00
G01 X19.8341 Y-35.0333 F120.00
G01 X19.7629 Y-34.8259 F120.00
G01 X19.7268 Y-34.6096 F120.00
G01 X19.7268 Y-34.3904 F120.00
G01 X19.7629 Y-34.1741 F120.00
G01 X19.8341 Y-33.9667 F120.00
G01 X19.9115 Y-33.8237 F120.00
G01 X20.1688 Y-34.0810 F120.00
G01 X20.1469 Y-34.1279 F120.00
G01 X20.1158 Y-34.2147 F120.00
G01 X20.0924 Y-34.3076 F120.00
G01 X20.0779 Y-34.4043 F120.00
G01 X20.0732 Y-34.5000 F120.00
G01 X20.0779 Y-34.5957 F120.00
G01 X20.0924 Y-34.6924 F120.00
G01 X20.1158 Y-34.7853 F120.00
G01 X20.1469 Y-34.8721 F120.00
G01 X20.1688 Y-34.9190 F120.00
G01 X19.9115 Y-35.1763 F120.00
G01 X19.8341 Y-35.0333 F120.00
G01 X19.8940 Y-35.1441 F120.00
G01 X19.9158 Y-35.1440 F120.00
G01 X19.9317 Y-35.1434 F120.00
G01 X19.9453 Y-35.1426 F120.00
G00 Z2.0000
G00 X20.3773 Y-35.6348
G01 F60.00
G01 Z-0.1000
G01 F120.00
G01 X20.7179 Y-36.0825 F120.00
G00 Z2.0000
G00 X20.7794 Y-36.0619
G01 F60.00
G01 Z-0.1000
G01 F120.00
G01 X20.4212 Y-35.5910 F120.00
G01 X20.4650 Y-35.5472 F120.00
G01 X20.8443 Y-36.0457 F120.00
G00 Z2.0000
G00 X20.9126 Y-36.0340
G01 F60.00
G01 Z-0.1000
G01 F120.00
G01 X20.5088 Y-35.5033 F120.00
G01 X20.5527 Y-35.4595 F120.00
G01 X20.9616 Y-35.9969 F120.00
G01 X20.9829 Y-36.0264 F120.00
G00 Z2.0000
G00 X21.0565 Y-36.0234
G01 F60.00
G01 Z-0.1000
G01 F120.00
G01 X21.0109 Y-35.9603 F120.00
G01 X20.5965 Y-35.4156 F120.00
G01 X20.6567 Y-35.3933 F120.00
G01 X21.0603 Y-35.9237 F120.00
G01 X21.1351 Y-36.0273 F120.00
G00 Z2.0000
G00 X21.2192 Y-36.0387
G01 F60.00
G01 Z-0.1000
G01 F120.00
G01 X21.1096 Y-35.8871 F120.00
G01 X20.7651 Y-35.4343 F120.00
G00 Z2.0000
G00 X20.8605 Y-35.4582
G01 F60.00
G01 Z-0.1000
G01 F120.00
G01 X21.1589 Y-35.8505 F120.00
G01 X21.3098 Y-36.0592 F120.00
G00 Z2.0000
G00 X21.4096 Y-36.0924
G01 F60.00
G01 Z-0.1000
G01 F120.00
G01 X21.2083 Y-35.8139 F120.00
G01 X20.9476 Y-35.4712 F120.00
G00 Z2.0000
G00 X21.0283 Y-35.4758
G01 F60.00
G01 Z-0.1000
G01 F120.00
G01 X21.2576 Y-35.7773 F120.00
G01 X21.5250 Y-36.1471 F120.00
G00 Z2.0000
G00 X21.6746 Y-36.2492
G01 F60.00
G01 Z-0.1000
G01 F120.00
G01 X21.3070 Y-35.7407 F120.00
G01 X21.1043 Y-35.4742 F120.00
G00 Z2.0000
G00 X21.1764 Y-35.4676
G01 F60.00
G01 Z-0.1000
G01 F120.00
G01 X21.3563 Y-35.7041 F120.00
G01 X21.8188 Y-36.3439 F120.00
G01 X22.2654 Y-36.9948 F120.00
G01 X22.3668 Y-37.1508 F120.00
G01 X22.3519 Y-37.2404 F120.00
G01 X22.2143 Y-37.0289 F120.00
G01 X21.9684 Y-36.6706 F120.00
G00 Z2.0000
G00 X22.0133 Y-36.8447
G01 F60.00
G01 Z-0.1000
G01 F120.00
G01 X22.1632 Y-37.0631 F120.00
G01 X22.3365 Y-37.3294 F120.00
G01 X22.3111 Y-37.4031 F120.00
G01 X22.1121 Y-37.0972 F120.00
G01 X22.0255 Y-36.9709 F120.00
G00 Z2.0000
G00 X22.0232 Y-37.0761
G01 F60.00
G01 Z-0.1000
G01 F120.00
G01 X22.0610 Y-37.1313 F120.00
G01 X22.2858 Y-37.4769 F120.00
G01 X22.2587 Y-37.5478 F120.00
G01 X22.0115 Y-37.1679 F120.00
G00 Z2.0000
G00 X21.9928 Y-37.2518
G01 F60.00
G01 Z-0.1000
G01 F120.00
G01 X22.2254 Y-37.6093 F120.00
G01 X22.1921 Y-37.6708 F120.00
G01 X21.9690 Y-37.3278 F120.00
G00 Z2.0000
G00 X21.9412 Y-37.3978
G01 F60.00
G01 Z-0.1000
G01 F120.00
G01 X22.1582 Y-37.7313 F120.00
G01 X22.1183 Y-37.7826 F120.00
G01 X21.9102 Y-37.4628 F120.00
G00 Z2.0000
G00 X21.8750 Y-37.5214
G01 F60.00
G01 Z-0.1000
G01 F120.00
G01 X22.0783 Y-37.8339 F120.00
G00 Z2.0000
G00 X22.0384 Y-37.8852
G01 F60.00
G01 Z-0.1000
G01 F120.00
G01 X21.8374 Y-37.5762 F120.00
G00 Z2.0000
G00 X21.7977 Y-37.6279
G01 F60.00
G01 Z-0.1000
G01 F120.00
G01 X21.9942 Y-37.9299 F120.00
G01 X21.9484 Y-37.9721 F120.00
G01 X21.7551 Y-37.6750 F120.00
G00 Z2.0000
G00 X21.7101 Y-37.7185
G01 F60.00
G01 Z-0.1000
G01 F120.00
G01 X21.9026 Y-38.0143 F120.00
G01 X21.8556 Y-38.0548 F120.00
G01 X21.6636 Y-37.7597 F120.00
G00 Z2.0000
G00 X21.6142 Y-37.7964
G01 F60.00
G01 Z-0.1000
G01 F120.00
G01 X21.8047 Y-38.0892 F120.00
G00 Z2.0000
G00 X21.7627 Y-38.1374
G01 F60.00
G01 Z-0.1000
G01 F120.00
G01 X21.5629 Y-37.8302 F120.00
G00 Z2.0000
G00 X21.5101 Y-37.8617
G01 F60.00
G01 Z-0.1000
G01 F120.00
G01 X21.7327 Y-38.2039 F120.00
G00 Z2.0000
G00 X21.7628 Y-38.3674
G01 F60.00
G01 Z-0.1000
G01 F120.00
G01 X21.7096 Y-38.2810 F120.00
G01 X21.4541 Y-37.8882 F120.00
G00 Z2.0000
G00 X21.3964 Y-37.9123
G01 F60.00
G01 Z-0.1000
G01 F120.00
G01 X21.6577 Y-38.3139 F120.00
G01 X22.0560 Y-38.9603 F120.00
G01 X22.3737 Y-39.5054 F120.00
G01 X22.3714 Y-39.6235 F120.00
G01 X22.0033 Y-38.9919 F120.00
G01 X21.6058 Y-38.3468 F120.00
G01 X21.3370 Y-37.9336 F120.00
G00 Z2.0000
G00 X21.2742 Y-37.9497
G01 F60.00
G01 Z-0.1000
G01 F120.00
G01 X21.5539 Y-38.3796 F120.00
G01 X21.9506 Y-39.0235 F120.00
G01 X22.3314 Y-39.6768 F120.00
G01 X22.3553 Y-39.7202 F120.00
G01 X22.3389 Y-39.8180 F120.00
G01 X22.2779 Y-39.7071 F120.00
G01 X21.9735 Y-39.1848 F120.00
G00 Z2.0000
G00 X22.0194 Y-39.3856
G01 F60.00
G01 Z-0.1000
G01 F120.00
G01 X22.2245 Y-39.7374 F120.00
G01 X22.3129 Y-39.8980 F120.00
G01 X22.2859 Y-39.9765 F120.00
G01 X22.1710 Y-39.7677 F120.00
G01 X22.0260 Y-39.5188 F120.00
G00 Z2.0000
G00 X22.0176 Y-39.6265
G01 F60.00
G01 Z-0.1000
G01 F120.00
G01 X22.1175 Y-39.7979 F120.00
G01 X22.2569 Y-40.0511 F120.00
G01 X22.2221 Y-40.1153 F120.00
G01 X22.0641 Y-39.8282 F120.00
G01 X22.0008 Y-39.7197 F120.00
G00 Z2.0000
G00 X21.9780 Y-39.8026
G01 F60.00
G01 Z-0.1000
G01 F120.00
G01 X22.0106 Y-39.8585 F120.00
G01 X22.1873 Y-40.1796 F120.00
G01 X22.1509 Y-40.2407 F120.00
G01 X21.9572 Y-39.8888 F120.00
G01 X21.9507 Y-39.8777 F120.00
G00 Z2.0000
G00 X21.9185 Y-39.9459
G01 F60.00
G01 Z-0.1000
G01 F120.00
G01 X22.1098 Y-40.2935 F120.00
G00 Z2.0000
G00 X22.0687 Y-40.3463
G01 F60.00
G01 Z-0.1000
G01 F120.00
G01 X21.8828 Y-40.0085 F120.00
G00 Z2.0000
G00 X21.8446 Y-40.0665
G01 F60.00
G01 Z-0.1000
G01 F120.00
G01 X22.0276 Y-40.3991 F120.00
G01 X21.9811 Y-40.4420 F120.00
G01 X21.8043 Y-40.1206 F120.00
G00 Z2.0000
G00 X21.7607 Y-40.1688
G01 F60.00
G01 Z-0.1000
G01 F120.00
G01 X21.9346 Y-40.4849 F120.00
G01 X21.8881 Y-40.5277 F120.00
G01 X21.7153 Y-40.2138 F120.00
G00 Z2.0000
G00 X21.6684 Y-40.2561
G01 F60.00
G01 Z-0.1000
G01 F120.00
G01 X21.8389 Y-40.5658 F120.00
G01 X21.7873 Y-40.5995 F120.00
G01 X21.6186 Y-40.2930 F120.00
G00 Z2.0000
G00 X21.5674 Y-40.3274
G01 F60.00
G01 Z-0.1000
G01 F120.00
G01 X21.7397 Y-40.6404 F120.00
G00 Z2.0000
G00 X21.6978 Y-40.6916
G01 F60.00
G01 Z-0.1000
G01 F120.00
G01 X21.5147 Y-40.3590 F120.00
G00 Z2.0000
G00 X21.4593 Y-40.3858
G01 F60.00
G01 Z-0.1000
G01 F120.00
G01 X21.6769 Y-40.7811 F120.00
G00 Z2.0000
G00 X21.6769 Y-40.9097
G01 F60.00
G01 Z-0.1000
G01 F120.00
G01 X21.6665 Y-40.8896 F120.00
G01 X21.4026 Y-40.4101 F120.00
G00 Z2.0000
G00 X21.3440 Y-40.4311
G01 F60.00
G01 Z-0.1000
G01 F120.00
G01 X21.6123 Y-40.9186 F120.00
G01 X21.6769 Y-41.0431 F120.00
G00 Z2.0000
G00 X21.6769 Y-41.1765
G01 F60.00
G01 Z-0.1000
G01 F120.00
G01 X21.5581 Y-40.9475 F120.00
G01 X21.3301 Y-40.5333 F120.00
G01 X21.3301 Y-40.6607 F120.00
G01 X21.5039 Y-40.9765 F120.00
G01 X21.6769 Y-41.3099 F120.00
G01 X21.6769 Y-41.4433 F120.00
G01 X21.4497 Y-41.0055 F120.00
G01 X21.3301 Y-40.7881 F120.00
G01 X21.3301 Y-40.9155 F120.00
G01 X21.3956 Y-41.0344 F120.00
G01 X21.6769 Y-41.5767 F120.00
G00 Z2.0000
G00 X21.6769 Y-41.7106
G01 F60.00
G01 Z-0.1000
G01 F120.00
G01 X21.6723 Y-41.7012 F120.00
G01 X21.3414 Y-41.0634 F120.00
G01 X21.3301 Y-41.0429 F120.00
G01 X21.3301 Y-41.1751 F120.00
G01 X21.6174 Y-41.7288 F120.00
G01 X21.6769 Y-41.8507 F120.00
G00 Z2.0000
G00 X21.6769 Y-41.9908
G01 F60.00
G01 Z-0.1000
G01 F120.00
G01 X21.5625 Y-41.7564 F120.00
G01 X21.3301 Y-41.3084 F120.00
G01 X21.3301 Y-41.4418 F120.00
G01 X21.5076 Y-41.7840 F120.00
G01 X21.6769 Y-42.1308 F120.00
G01 X21.6769 Y-42.2709 F120.00
G01 X21.4528 Y-41.8117 F120.00
G01 X21.3301 Y-41.5752 F120.00
G01 X21.3301 Y-41.7086 F120.00
G01 X21.3979 Y-41.8393 F120.00
G01 X21.6769 Y-42.4110 F120.00
G01 X21.6769 Y-42.5541 F120.00
G01 X21.6542 Y-42.5045 F120.00
G01 X21.3430 Y-41.8669 F120.00
G01 X21.3301 Y-41.8420 F120.00
G01 X21.3301 Y-41.9805 F120.00
G01 X21.5987 Y-42.5308 F120.00
G01 X21.6769 Y-42.7016 F120.00
G00 Z2.0000
G00 X21.6769 Y-42.8491
G01 F60.00
G01 Z-0.1000
G01 F120.00
G01 X21.5431 Y-42.5570 F120.00
G01 X21.3301 Y-42.1206 F120.00
G01 X21.3301 Y-42.2607 F120.00
G01 X21.4876 Y-42.5833 F120.00
G01 X21.6769 Y-42.9967 F120.00
G00 Z2.0000
G00 X21.6769 Y-43.1442
G01 F60.00
G01 Z-0.1000
G01 F120.00
G01 X21.4320 Y-42.6096 F120.00
G01 X21.3301 Y-42.4007 F120.00
G01 X21.3301 Y-42.5408 F120.00
G01 X21.3765 Y-42.6359 F120.00
G01 X21.6688 Y-43.2740 F120.00
G01 X21.6769 Y-43.2929 F120.00
G00 Z2.0000
G00 X21.6769 Y-43.4489
G01 F60.00
G01 Z-0.1000
G01 F120.00
G01 X21.6126 Y-43.2989 F120.00
G01 X21.3301 Y-42.6821 F120.00
G01 X21.3301 Y-42.8296 F120.00
G01 X21.5565 Y-43.3238 F120.00
G01 X21.6769 Y-43.6048 F120.00
G00 Z2.0000
G00 X21.6769 Y-43.7607
G01 F60.00
G01 Z-0.1000
G01 F120.00
G01 X21.5003 Y-43.3487 F120.00
G01 X21.3301 Y-42.9772 F120.00
G01 X21.3301 Y-43.1247 F120.00
G01 X21.4441 Y-43.3736 F120.00
G01 X21.6769 Y-43.9167 F120.00
G00 Z2.0000
G00 X21.6769 Y-44.0752
G01 F60.00
G01 Z-0.1000
G01 F120.00
G01 X21.6615 Y-44.0368 F120.00
G01 X21.3880 Y-43.3985 F120.00
G01 X21.3301 Y-43.2722 F120.00
G01 X21.3301 Y-43.4197 F120.00
G01 X21.6048 Y-44.0603 F120.00
G01 X21.6769 Y-44.2406 F120.00
G00 Z2.0000
G00 X21.6769 Y-44.4061
G01 F60.00
G01 Z-0.1000
G01 F120.00
G01 X21.5480 Y-44.0838 F120.00
G01 X21.3301 Y-43.5754 F120.00
G01 X21.3301 Y-43.7314 F120.00
G01 X21.4913 Y-44.1073 F120.00
G01 X21.6769 Y-44.5715 F120.00
G00 Z2.0000
G00 X21.6769 Y-44.7370
G01 F60.00
G01 Z-0.1000
G01 F120.00
G01 X21.4345 Y-44.1308 F120.00
G01 X21.3301 Y-43.8873 F120.00
G01 X21.3301 Y-44.0432 F120.00
G01 X21.3777 Y-44.1543 F120.00
G01 X21.6328 Y-44.7921 F120.00
G01 X21.6769 Y-44.9108 F120.00
G00 Z2.0000
G00 X21.6769 Y-45.0871
G01 F60.00
G01 Z-0.1000
G01 F120.00
G01 X21.5754 Y-44.8142 F120.00
G01 X21.3301 Y-44.2007 F120.00
G01 X21.3301 Y-44.3661 F120.00
G01 X21.5181 Y-44.8363 F120.00
G01 X21.6769 Y-45.2634 F120.00
G00 Z2.0000
G00 X21.6769 Y-45.4398
G01 F60.00
G01 Z-0.1000
G01 F120.00
G01 X21.4608 Y-44.8584 F120.00
G01 X21.3301 Y-44.5316 F120.00
G01 X21.3301 Y-44.6970 F120.00
G01 X21.4035 Y-44.8805 F120.00
G01 X21.6407 Y-45.5187 F120.00
G01 X21.6769 Y-45.6239 F120.00
G00 Z2.0000
G00 X21.6769 Y-45.8128
G01 F60.00
G01 Z-0.1000
G01 F120.00
G01 X21.5828 Y-45.5394 F120.00
G01 X21.3462 Y-44.9026 F120.00
G01 X21.3301 Y-44.8625 F120.00
G01 X21.3301 Y-45.0358 F120.00
G01 X21.5250 Y-45.5601 F120.00
G01 X21.6769 Y-46.0016 F120.00
G00 Z2.0000
G00 X21.6769 Y-46.1905
G01 F60.00
G01 Z-0.1000
G01 F120.00
G01 X21.4671 Y-45.5808 F120.00
G01 X21.3301 Y-45.2121 F120.00
G01 X21.3301 Y-45.3884 F120.00
G01 X21.4093 Y-45.6015 F120.00
G01 X21.6288 Y-46.2396 F120.00
G01 X21.7238 Y-46.5395 F120.00
G01 X21.7038 Y-46.6798 F120.00
G01 X21.5705 Y-46.2588 F120.00
G01 X21.3514 Y-45.6222 F120.00
G01 X21.3301 Y-45.5648 F120.00
G01 X21.3301 Y-45.7490 F120.00
G01 X21.5121 Y-46.2781 F120.00
G01 X21.6700 Y-46.7764 F120.00
G01 X21.6308 Y-46.8563 F120.00
G01 X21.4538 Y-46.2974 F120.00
G01 X21.3301 Y-45.9378 F120.00
G01 X21.3301 Y-46.1267 F120.00
G01 X21.3955 Y-46.3167 F120.00
G01 X21.5880 Y-46.9245 F120.00
G01 X21.5415 Y-46.9820 F120.00
G01 X21.3730 Y-46.4493 F120.00
G00 Z2.0000
G00 X21.3327 Y-46.3232
G01 F60.00
G01 Z-0.1000
G01 F120.00
G01 X21.3301 Y-46.3155 F120.00
G00 Z2.0000
G00 X21.3599 Y-46.6114
G01 F60.00
G01 Z-0.1000
G01 F120.00
G01 X21.4798 Y-46.9899 F120.00
G01 X21.4919 Y-47.0315 F120.00
G01 X21.4413 Y-47.0774 F120.00
G01 X21.4210 Y-47.0077 F120.00
G01 X21.3220 Y-46.6950 F120.00
G00 Z2.0000
G00 X21.2766 Y-46.7553
G01 F60.00
G01 Z-0.1000
G01 F120.00
G01 X21.3623 Y-47.0255 F120.00
G01 X21.3872 Y-47.1114 F120.00
G01 X21.3331 Y-47.1454 F120.00
G01 X21.3035 Y-47.0434 F120.00
G01 X21.2266 Y-46.8006 F120.00
G00 Z2.0000
G00 X21.1729 Y-46.8346
G01 F60.00
G01 Z-0.1000
G01 F120.00
G01 X21.2447 Y-47.0612 F120.00
G01 X21.2762 Y-47.1701 F120.00
G01 X21.2182 Y-47.1904 F120.00
G01 X21.1859 Y-47.0791 F120.00
G01 X21.1159 Y-46.8583 F120.00
G00 Z2.0000
G00 X21.0559 Y-46.8723
G01 F60.00
G01 Z-0.1000
G01 F120.00
G01 X21.1271 Y-47.0969 F120.00
G01 X21.1600 Y-47.2103 F120.00
G01 X21.0980 Y-47.2172 F120.00
G01 X21.0683 Y-47.1147 F120.00
G01 X20.9928 Y-46.8765 F120.00
G00 Z2.0000
G00 X20.9261 Y-46.8695
G01 F60.00
G01 Z-0.1000
G01 F120.00
G01 X21.0095 Y-47.1326 F120.00
G01 X21.0361 Y-47.2242 F120.00
G01 X20.9724 Y-47.2252 F120.00
G01 X20.9507 Y-47.1504 F120.00
G01 X20.8548 Y-46.8477 F120.00
G00 Z2.0000
G00 X20.7761 Y-46.8026
G01 F60.00
G01 Z-0.1000
G01 F120.00
G01 X20.8919 Y-47.1682 F120.00
G01 X20.9062 Y-47.2177 F120.00
G01 X20.8401 Y-47.2103 F120.00
G01 X20.8331 Y-47.1861 F120.00
G01 X20.6770 Y-46.6934 F120.00
G00 Z2.0000
G00 X20.6246 Y-46.5311
G01 F60.00
G01 Z-0.1000
G01 F120.00
G01 X20.4231 Y-45.9459 F120.00
G00 Z2.0000
G00 X20.4038 Y-46.0780
G01 F60.00
G01 Z-0.1000
G01 F120.00
G01 X20.5787 Y-46.5865 F120.00
G01 X20.7686 Y-47.1857 F120.00
G01 X20.6961 Y-47.1604 F120.00
G01 X20.5204 Y-46.6058 F120.00
G01 X20.3642 Y-46.1517 F120.00
G01 X20.3269 Y-46.2323 F120.00
G01 X20.4620 Y-46.6250 F120.00
G01 X20.6169 Y-47.1140 F120.00
G01 X20.5349 Y-47.0583 F120.00
G01 X20.4037 Y-46.6443 F120.00
G01 X20.2942 Y-46.3260 F120.00
G01 X20.2760 Y-46.4620 F120.00
G01 X20.3454 Y-46.6636 F120.00
G01 X20.4405 Y-46.9640 F120.00
G00 Z2.0000
G00 X20.6403 Y-46.3879
G01 F60.00
G01 Z-0.1000
G01 F120.00
G01 X20.4837 Y-45.9327 F120.00
G01 X20.4231 Y-45.7696 F120.00
G00 Z2.0000
G00 X20.4231 Y-45.5932
G01 F60.00
G01 Z-0.1000
G01 F120.00
G01 X20.5416 Y-45.9120 F120.00
G01 X20.6772 Y-46.3063 F120.00
G00 Z2.0000
G00 X20.7217 Y-46.2466
G01 F60.00
G01 Z-0.1000
G01 F120.00
G01 X20.5994 Y-45.8913 F120.00
G01 X20.4231 Y-45.4169 F120.00
G00 Z2.0000
G00 X20.4231 Y-45.2417
G01 F60.00
G01 Z-0.1000
G01 F120.00
G01 X20.4290 Y-45.2564 F120.00
G01 X20.6573 Y-45.8706 F120.00
G01 X20.7699 Y-46.1980 F120.00
G01 X20.7699 Y-46.0091 F120.00
G01 X20.7151 Y-45.8499 F120.00
G01 X20.4863 Y-45.2343 F120.00
G01 X20.4231 Y-45.0763 F120.00
G00 Z2.0000
G00 X20.4231 Y-44.9108
G01 F60.00
G01 Z-0.1000
G01 F120.00
G01 X20.5436 Y-45.2122 F120.00
G01 X20.7699 Y-45.8209 F120.00
G01 X20.7699 Y-45.6446 F120.00
G01 X20.6010 Y-45.1901 F120.00
G01 X20.4231 Y-44.7454 F120.00
G00 Z2.0000
G00 X20.4231 Y-44.5799
G01 F60.00
G01 Z-0.1000
G01 F120.00
G01 X20.6583 Y-45.1680 F120.00
G01 X20.7699 Y-45.4683 F120.00
G01 X20.7699 Y-45.2919 F120.00
G01 X20.7156 Y-45.1459 F120.00
G01 X20.4695 Y-44.5305 F120.00
G01 X20.4231 Y-44.4222 F120.00
G00 Z2.0000
G00 X20.4231 Y-44.2663
G01 F60.00
G01 Z-0.1000
G01 F120.00
G01 X20.5263 Y-44.5070 F120.00
G01 X20.7699 Y-45.1162 F120.00
G01 X20.7699 Y-44.9507 F120.00
G01 X20.5830 Y-44.4835 F120.00
G01 X20.4231 Y-44.1104 F120.00
G00 Z2.0000
G00 X20.4231 Y-43.9544
G01 F60.00
G01 Z-0.1000
G01 F120.00
G01 X20.6398 Y-44.4600 F120.00
G01 X20.7699 Y-44.7853 F120.00
G01 X20.7699 Y-44.6198 F120.00
G01 X20.6966 Y-44.4365 F120.00
G01 X20.4331 Y-43.8218 F120.00
G01 X20.4231 Y-43.8000 F120.00
G00 Z2.0000
G00 X20.4231 Y-43.6525
G01 F60.00
G01 Z-0.1000
G01 F120.00
G01 X20.4892 Y-43.7969 F120.00
G01 X20.7533 Y-44.4130 F120.00
G01 X20.7699 Y-44.4544 F120.00
G01 X20.7699 Y-44.2957 F120.00
G01 X20.5454 Y-43.7720 F120.00
G01 X20.4231 Y-43.5049 F120.00
G00 Z2.0000
G00 X20.4231 Y-43.3574
G01 F60.00
G01 Z-0.1000
G01 F120.00
G01 X20.6016 Y-43.7471 F120.00
G01 X20.7699 Y-44.1397 F120.00
G01 X20.7699 Y-43.9838 F120.00
G01 X20.6578 Y-43.7222 F120.00
G01 X20.4231 Y-43.2099 F120.00
G00 Z2.0000
G00 X20.4231 Y-43.0636
G01 F60.00
G01 Z-0.1000
G01 F120.00
G01 X20.4323 Y-43.0824 F120.00
G01 X20.7139 Y-43.6973 F120.00
G01 X20.7699 Y-43.8279 F120.00
G01 X20.7699 Y-43.6720 F120.00
G01 X20.4878 Y-43.0562 F120.00
G01 X20.4231 Y-42.9235 F120.00
G01 X20.4231 Y-42.7835 F120.00
G01 X20.5434 Y-43.0299 F120.00
G01 X20.7699 Y-43.5244 F120.00
G01 X20.7699 Y-43.3769 F120.00
G01 X20.5989 Y-43.0036 F120.00
G01 X20.4231 Y-42.6434 F120.00
G01 X20.4231 Y-42.5033 F120.00
G01 X20.6545 Y-42.9774 F120.00
G01 X20.7699 Y-43.2294 F120.00
G01 X20.7699 Y-43.0819 F120.00
G01 X20.7100 Y-42.9511 F120.00
G01 X20.4231 Y-42.3633 F120.00
G00 Z2.0000
G00 X20.4231 Y-42.2283
G01 F60.00
G01 Z-0.1000
G01 F120.00
G01 X20.4649 Y-42.3089 F120.00
G01 X20.7655 Y-42.9248 F120.00
G01 X20.7699 Y-42.9343 F120.00
G01 X20.7699 Y-42.7937 F120.00
G01 X20.5198 Y-42.2813 F120.00
G01 X20.4231 Y-42.0949 F120.00
G00 Z2.0000
G00 X20.4231 Y-41.9615
G01 F60.00
G01 Z-0.1000
G01 F120.00
G01 X20.5747 Y-42.2537 F120.00
G01 X20.7699 Y-42.6536 F120.00
G01 X20.7699 Y-42.5135 F120.00
G01 X20.6296 Y-42.2260 F120.00
G01 X20.4231 Y-41.8281 F120.00
G00 Z2.0000
G00 X20.4231 Y-41.6947
G01 F60.00
G01 Z-0.1000
G01 F120.00
G01 X20.6845 Y-42.1984 F120.00
G01 X20.7699 Y-42.3735 F120.00
G01 X20.7699 Y-42.2334 F120.00
G01 X20.7393 Y-42.1708 F120.00
G01 X20.4231 Y-41.5613 F120.00
G00 Z2.0000
G00 X20.4231 Y-41.4336
G01 F60.00
G01 Z-0.1000
G01 F120.00
G01 X20.4744 Y-41.5268 F120.00
G01 X20.7699 Y-42.0963 F120.00
G01 X20.7699 Y-41.9629 F120.00
G01 X20.5286 Y-41.4978 F120.00
G01 X20.4231 Y-41.3061 F120.00
G00 Z2.0000
G00 X20.4231 Y-41.1787
G01 F60.00
G01 Z-0.1000
G01 F120.00
G01 X20.5828 Y-41.4689 F120.00
G01 X20.7699 Y-41.8295 F120.00
G01 X20.7699 Y-41.6961 F120.00
G01 X20.6370 Y-41.4399 F120.00
G01 X20.4231 Y-41.0513 F120.00
G01 X20.4231 Y-40.9239 F120.00
G01 X20.6912 Y-41.4109 F120.00
G01 X20.7699 Y-41.5627 F120.00
G01 X20.7699 Y-41.4293 F120.00
G01 X20.7453 Y-41.3820 F120.00
G01 X20.4231 Y-40.7965 F120.00
G00 Z2.0000
G00 X20.3071 Y-40.5958
G01 F60.00
G01 Z-0.1000
G01 F120.00
G01 X20.0534 Y-40.1606 F120.00
G01 X19.6852 Y-39.5630 F120.00
G01 X19.3024 Y-38.9746 F120.00
G01 X19.2801 Y-38.9421 F120.00
G01 X19.2801 Y-38.8335 F120.00
G01 X19.3535 Y-38.9404 F120.00
G01 X19.7371 Y-39.5301 F120.00
G01 X20.1061 Y-40.1290 F120.00
G01 X20.4603 Y-40.7367 F120.00
G01 X20.7699 Y-41.2992 F120.00
G01 X20.7699 Y-41.1718 F120.00
G01 X20.5138 Y-40.7065 F120.00
G01 X20.1588 Y-40.0974 F120.00
G01 X19.7890 Y-39.4972 F120.00
G01 X19.4046 Y-38.9063 F120.00
G01 X19.2801 Y-38.7249 F120.00
G01 X19.2801 Y-38.6163 F120.00
G01 X19.4557 Y-38.8722 F120.00
G01 X19.8409 Y-39.4644 F120.00
G01 X20.2115 Y-40.0658 F120.00
G01 X20.5672 Y-40.6762 F120.00
G01 X20.7699 Y-41.0444 F120.00
G01 X20.7699 Y-40.9170 F120.00
G01 X20.6207 Y-40.6459 F120.00
G01 X20.3486 Y-40.1791 F120.00
G00 Z2.0000
G00 X20.4898 Y-40.2993
G01 F60.00
G01 Z-0.1000
G01 F120.00
G01 X20.6742 Y-40.6156 F120.00
G01 X20.7699 Y-40.7895 F120.00
G01 X20.7699 Y-40.6621 F120.00
G01 X20.7276 Y-40.5853 F120.00
G01 X20.6001 Y-40.3666 F120.00
G00 Z2.0000
G00 X20.6964 Y-40.4098
G01 F60.00
G01 Z-0.1000
G01 F120.00
G01 X20.7699 Y-40.5358 F120.00
G01 X20.7699 Y-40.4357 F120.00
G01 X20.7699 Y-46.2020 F120.00
G01 X20.7595 Y-46.2099 F120.00
G01 X20.7349 Y-46.2322 F120.00
G01 X20.7076 Y-46.2624 F120.00
G01 X20.6889 Y-46.2876 F120.00
G01 X20.6847 Y-46.2938 F120.00
G01 X20.6677 Y-46.3224 F120.00
G01 X20.6526 Y-46.3541 F120.00
G01 X20.6394 Y-46.3906 F120.00
G01 X20.6313 Y-46.4228 F120.00
G01 X20.6298 Y-46.4302 F120.00
G01 X20.6255 Y-46.4593 F120.00
G01 X20.6247 Y-46.4668 F120.00
G01 X20.6232 Y-46.5000 F120.00
G01 X20.6247 Y-46.5332 F120.00
G01 X20.6255 Y-46.5407 F120.00
G01 X20.6304 Y-46.5735 F120.00
G01 X20.6394 Y-46.6094 F120.00
G01 X20.6519 Y-46.6442 F120.00
G01 X20.6677 Y-46.6776 F120.00
G01 X20.6867 Y-46.7093 F120.00
G01 X20.7087 Y-46.7390 F120.00
G01 X20.7336 Y-46.7664 F120.00
G01 X20.7610 Y-46.7913 F120.00
G01 X20.7907 Y-46.8133 F120.00
G01 X20.8224 Y-46.8323 F120.00
G01 X20.8558 Y-46.8481 F120.00
G01 X20.8906 Y-46.8606 F120.00
G01 X20.9265 Y-46.8696 F120.00
G01 X20.9631 Y-46.8750 F120.00
G01 X21.0000 Y-46.8768 F120.00
G01 X21.0332 Y-46.8753 F120.00
G01 X21.0407 Y-46.8745 F120.00
G01 X21.0698 Y-46.8702 F120.00
G01 X21.0772 Y-46.8687 F120.00
G01 X21.1094 Y-46.8606 F120.00
G01 X21.1407 Y-46.8495 F120.00
G01 X21.1476 Y-46.8466 F120.00
G01 X21.1776 Y-46.8323 F120.00
G01 X21.2093 Y-46.8133 F120.00
G01 X21.2390 Y-46.7913 F120.00
G01 X21.2637 Y-46.7690 F120.00
G01 X21.2690 Y-46.7637 F120.00
G01 X21.2913 Y-46.7390 F120.00
G01 X21.3133 Y-46.7093 F120.00
G01 X21.3323 Y-46.6776 F120.00
G01 X21.3481 Y-46.6442 F120.00
G01 X21.3606 Y-46.6094 F120.00
G01 X21.3696 Y-46.5735 F120.00
G01 X21.3750 Y-46.5369 F120.00
G01 X21.3767 Y-46.5038 F120.00
G01 X21.3767 Y-46.4962 F120.00
G01 X21.3753 Y-46.4668 F120.00
G01 X21.3745 Y-46.4593 F120.00
G01 X21.3696 Y-46.4265 F120.00
G01 X21.3616 Y-46.3943 F120.00
G01 X21.3594 Y-46.3870 F120.00
G01 X21.3481 Y-46.3558 F120.00
G01 X21.3340 Y-46.3257 F120.00
G01 X21.3301 Y-46.3185 F120.00
G01 X21.3301 Y-40.4357 F120.00
G01 X21.3371 Y-40.4336 F120.00
G01 X21.4238 Y-40.4024 F120.00
G01 X21.5071 Y-40.3632 F120.00
G01 X21.5137 Y-40.3596 F120.00
G01 X21.5895 Y-40.3142 F120.00
G01 X21.5958 Y-40.3100 F120.00
G01 X21.6697 Y-40.2551 F120.00
G01 X21.7380 Y-40.1933 F120.00
G01 X21.7433 Y-40.1880 F120.00
G01 X21.8051 Y-40.1197 F120.00
G01 X21.8622 Y-40.0427 F120.00
G01 X21.9115 Y-39.9605 F120.00
G01 X21.9509 Y-39.8773 F120.00
G01 X21.9538 Y-39.8703 F120.00
G01 X21.9836 Y-39.7871 F120.00
G01 X21.9857 Y-39.7799 F120.00
G01 X22.0080 Y-39.6906 F120.00
G01 X22.0216 Y-39.5995 F120.00
G01 X22.0224 Y-39.5920 F120.00
G01 X22.0268 Y-39.5000 F120.00
G01 X22.0221 Y-39.4043 F120.00
G01 X22.0087 Y-39.3131 F120.00
G01 X22.0072 Y-39.3058 F120.00
G01 X21.9847 Y-39.2164 F120.00
