(G-CODE GENERATED BY FLATCAM v8.994 - www.flatcam.org - Version Date: 2020/11/7)

(Name: FX-Pots-B_Cu.gbr_iso_combined_cnc)
(Type: G-code from Geometry)
(Units: MM)

(Created on Monday, 19 August 2024 at 00:02)

(This preprocessor is used with a motion controller loaded with GRBL firmware.)
(It is configured to be compatible with almost any version of GRBL firmware.)

(TOOL DIAMETER: 0.1536 mm)
(Feedrate_XY: 100.0 mm/min)
(Feedrate_Z: 40.0 mm/min)
(Feedrate rapids 1500.0 mm/min)

(Z_Cut: -0.1 mm)
(Z_Move: 2.0 mm)
(Z Start: None mm)
(Z End: 7.0 mm)
(X,Y End: None mm)
(Steps per circle: 64)
(Steps per circle: 64)
(Preprocessor Geometry: GRBL_11_no_M6)

(X range:  -53.7145 ...   53.7145  mm)
(Y range:  -24.7145 ...   24.7145  mm)

(Spindle Speed: 900.0 RPM)
G21
G90
G17
G94


G01 F100.00

M5             
G00 Z7.0000
G00 X0.0000 Y0.0000                
T1
(MSG, Change to Tool Dia = 0.1536)
M0
G00 Z7.0000
        
M03 S900.0
G01 F100.00
G00 X0.4483 Y0.5524
G01 F40.00
G01 Z-0.1000
G01 F100.00
G01 X0.4557 Y0.5381 F100.00
G01 X0.4715 Y0.5122 F100.00
G01 X0.4895 Y0.4875 F100.00
G01 X0.4997 Y0.4754 F100.00
G01 X0.5169 Y0.4569 F100.00
G01 X0.5394 Y0.4362 F100.00
G01 X0.5517 Y0.4263 F100.00
G01 X0.5678 Y0.4145 F100.00
G01 X0.5766 Y0.4086 F100.00
G01 X0.6029 Y0.3931 F100.00
G01 X0.6257 Y0.3820 F100.00
G01 X0.6402 Y0.3758 F100.00
G01 X0.6690 Y0.3657 F100.00
G01 X0.6986 Y0.3581 F100.00
G01 X0.7090 Y0.3560 F100.00
G01 X0.7287 Y0.3530 F100.00
G01 X0.7445 Y0.3513 F100.00
G01 X0.7750 Y0.3500 F100.00
G01 X2.5250 Y0.3500 F100.00
G01 X2.5356 Y0.3502 F100.00
G01 X2.5555 Y0.3513 F100.00
G01 X2.5660 Y0.3523 F100.00
G01 X2.5910 Y0.3560 F100.00
G01 X2.6014 Y0.3581 F100.00
G01 X2.6315 Y0.3658 F100.00
G01 X2.6548 Y0.3739 F100.00
G01 X2.6647 Y0.3777 F100.00
G01 X2.6877 Y0.3883 F100.00
G01 X2.6974 Y0.3932 F100.00
G01 X2.7234 Y0.4086 F100.00
G01 X2.7322 Y0.4145 F100.00
G01 X2.7525 Y0.4295 F100.00
G01 X2.7606 Y0.4362 F100.00
G01 X2.7722 Y0.4467 F100.00
G01 X39.4617 Y0.4467 F100.00
G01 X39.8317 Y0.0767 F100.00
G01 X39.8317 Y-7.6105 F100.00
G01 X39.7949 Y-7.6237 F100.00
G01 X39.7802 Y-7.6295 F100.00
G01 X39.6867 Y-7.6737 F100.00
G01 X39.6726 Y-7.6810 F100.00
G01 X39.5750 Y-7.7397 F100.00
G01 X39.4833 Y-7.8075 F100.00
G01 X39.4712 Y-7.8177 F100.00
G01 X39.3985 Y-7.8836 F100.00
G01 X39.3908 Y-7.8908 F100.00
G01 X39.3836 Y-7.8985 F100.00
G01 X39.3108 Y-7.9792 F100.00
G01 X39.2458 Y-8.0663 F100.00
G01 X39.2369 Y-8.0794 F100.00
G01 X39.1784 Y-8.1772 F100.00
G01 X39.1317 Y-8.2754 F100.00
G01 X39.1274 Y-8.2850 F100.00
G01 X39.0906 Y-8.3873 F100.00
G01 X39.0873 Y-8.3973 F100.00
G01 X39.0606 Y-8.5027 F100.00
G01 X39.0583 Y-8.5130 F100.00
G01 X39.0565 Y-8.5234 F100.00
G01 X39.0421 Y-8.6204 F100.00
G01 X39.0408 Y-8.6309 F100.00
G01 X39.0400 Y-8.6414 F100.00
G01 X39.0350 Y-8.7500 F100.00
G01 X39.0400 Y-8.8586 F100.00
G01 X39.0408 Y-8.8691 F100.00
G01 X39.0421 Y-8.8796 F100.00
G01 X39.0583 Y-8.9870 F100.00
G01 X39.0845 Y-9.0925 F100.00
G01 X39.0873 Y-9.1027 F100.00
G01 X39.0906 Y-9.1127 F100.00
G01 X39.1274 Y-9.2150 F100.00
G01 X39.1737 Y-9.3133 F100.00
G01 X39.1784 Y-9.3228 F100.00
G01 X39.1836 Y-9.3319 F100.00
G01 X39.2397 Y-9.4250 F100.00
G01 X39.2458 Y-9.4337 F100.00
G01 X39.3108 Y-9.5208 F100.00
G01 X39.3836 Y-9.6015 F100.00
G01 X39.3908 Y-9.6092 F100.00
G01 X39.3985 Y-9.6164 F100.00
G01 X39.4792 Y-9.6892 F100.00
G01 X39.5663 Y-9.7542 F100.00
G01 X39.5750 Y-9.7603 F100.00
G01 X39.5839 Y-9.7659 F100.00
G01 X39.6681 Y-9.8164 F100.00
G01 X39.6772 Y-9.8216 F100.00
G01 X39.6867 Y-9.8263 F100.00
G01 X39.7850 Y-9.8726 F100.00
G01 X39.8873 Y-9.9094 F100.00
G01 X39.8973 Y-9.9127 F100.00
G01 X39.9075 Y-9.9155 F100.00
G01 X40.0130 Y-9.9417 F100.00
G01 X40.1204 Y-9.9579 F100.00
G01 X40.1309 Y-9.9592 F100.00
G01 X40.2394 Y-9.9648 F100.00
G01 X40.2500 Y-9.9650 F100.00
G01 X40.2606 Y-9.9648 F100.00
G01 X40.3691 Y-9.9592 F100.00
G01 X40.4819 Y-9.9427 F100.00
G01 X40.4973 Y-9.9394 F100.00
G01 X40.5925 Y-9.9155 F100.00
G01 X40.6077 Y-9.9111 F100.00
G01 X40.7101 Y-9.8745 F100.00
G01 X40.7246 Y-9.8683 F100.00
G01 X40.7599 Y-9.8516 F100.00
G01 X40.8317 Y-9.9233 F100.00
G01 X40.8317 Y-14.0767 F100.00
G01 X40.7599 Y-14.1484 F100.00
G01 X40.7246 Y-14.1317 F100.00
G01 X40.7101 Y-14.1255 F100.00
G01 X40.6077 Y-14.0889 F100.00
G01 X40.5925 Y-14.0845 F100.00
G01 X40.4973 Y-14.0606 F100.00
G01 X40.4819 Y-14.0573 F100.00
G01 X40.3691 Y-14.0408 F100.00
G01 X40.2606 Y-14.0352 F100.00
G01 X40.2500 Y-14.0350 F100.00
G01 X40.2394 Y-14.0352 F100.00
G01 X40.1414 Y-14.0400 F100.00
G01 X40.1257 Y-14.0414 F100.00
G01 X40.0234 Y-14.0565 F100.00
G01 X40.0130 Y-14.0583 F100.00
G01 X40.0027 Y-14.0606 F100.00
G01 X39.8973 Y-14.0873 F100.00
G01 X39.7949 Y-14.1237 F100.00
G01 X39.7850 Y-14.1274 F100.00
G01 X39.7754 Y-14.1317 F100.00
G01 X39.6772 Y-14.1784 F100.00
G01 X39.5839 Y-14.2341 F100.00
G01 X39.5750 Y-14.2397 F100.00
G01 X39.5663 Y-14.2458 F100.00
G01 X39.4792 Y-14.3108 F100.00
G01 X39.3985 Y-14.3836 F100.00
G01 X39.3908 Y-14.3908 F100.00
G01 X39.3836 Y-14.3985 F100.00
G01 X39.3108 Y-14.4792 F100.00
G01 X39.2458 Y-14.5663 F100.00
G01 X39.2397 Y-14.5750 F100.00
G01 X39.2341 Y-14.5839 F100.00
G01 X39.1784 Y-14.6772 F100.00
G01 X39.1317 Y-14.7754 F100.00
G01 X39.1274 Y-14.7850 F100.00
G01 X39.1237 Y-14.7949 F100.00
G01 X39.0873 Y-14.8973 F100.00
G01 X39.0606 Y-15.0027 F100.00
G01 X39.0583 Y-15.0130 F100.00
G01 X39.0565 Y-15.0234 F100.00
G01 X39.0408 Y-15.1309 F100.00
G01 X39.0352 Y-15.2394 F100.00
G01 X39.0350 Y-15.2500 F100.00
G01 X39.0352 Y-15.2606 F100.00
G01 X39.0400 Y-15.3586 F100.00
G01 X39.0414 Y-15.3743 F100.00
G01 X39.0583 Y-15.4870 F100.00
G01 X39.0845 Y-15.5925 F100.00
G01 X39.0873 Y-15.6027 F100.00
G01 X39.0906 Y-15.6127 F100.00
G01 X39.1274 Y-15.7150 F100.00
G01 X39.1737 Y-15.8133 F100.00
G01 X39.1784 Y-15.8228 F100.00
G01 X39.1836 Y-15.8319 F100.00
G01 X39.2341 Y-15.9161 F100.00
G01 X39.2397 Y-15.9250 F100.00
G01 X39.2458 Y-15.9337 F100.00
G01 X39.3108 Y-16.0208 F100.00
G01 X39.3836 Y-16.1015 F100.00
G01 X39.3908 Y-16.1092 F100.00
G01 X39.3985 Y-16.1164 F100.00
G01 X39.4792 Y-16.1892 F100.00
G01 X39.5706 Y-16.2573 F100.00
G01 X39.5839 Y-16.2659 F100.00
G01 X39.6772 Y-16.3216 F100.00
G01 X39.7754 Y-16.3683 F100.00
G01 X39.7850 Y-16.3726 F100.00
G01 X39.8873 Y-16.4094 F100.00
G01 X39.8973 Y-16.4127 F100.00
G01 X39.9075 Y-16.4155 F100.00
G01 X40.0130 Y-16.4417 F100.00
G01 X40.1204 Y-16.4579 F100.00
G01 X40.1309 Y-16.4592 F100.00
G01 X40.2394 Y-16.4648 F100.00
G01 X40.2553 Y-16.4650 F100.00
G01 X40.3586 Y-16.4600 F100.00
G01 X40.3743 Y-16.4586 F100.00
G01 X40.4819 Y-16.4427 F100.00
G01 X40.4922 Y-16.4406 F100.00
G01 X40.5192 Y-16.4339 F100.00
G01 X40.5192 Y-17.3850 F100.00
G01 X40.4794 Y-17.3872 F100.00
G01 X40.4447 Y-17.3921 F100.00
G01 X40.4343 Y-17.3939 F100.00
G01 X40.4240 Y-17.3962 F100.00
G01 X40.3900 Y-17.4050 F100.00
G01 X40.3569 Y-17.4166 F100.00
G01 X40.3470 Y-17.4204 F100.00
G01 X40.3152 Y-17.4351 F100.00
G01 X40.3058 Y-17.4399 F100.00
G01 X40.2966 Y-17.4451 F100.00
G01 X40.2666 Y-17.4633 F100.00
G01 X40.2383 Y-17.4840 F100.00
G01 X40.2300 Y-17.4905 F100.00
G01 X40.2038 Y-17.5139 F100.00
G01 X40.1925 Y-17.5249 F100.00
G01 X40.1724 Y-17.5470 F100.00
G01 X40.1655 Y-17.5550 F100.00
G01 X40.1590 Y-17.5633 F100.00
G01 X40.1413 Y-17.5873 F100.00
G01 X40.1355 Y-17.5961 F100.00
G01 X40.1199 Y-17.6219 F100.00
G01 X40.1124 Y-17.6355 F100.00
G01 X40.0954 Y-17.6720 F100.00
G01 X40.0916 Y-17.6819 F100.00
G01 X40.0800 Y-17.7150 F100.00
G01 X40.0712 Y-17.7490 F100.00
G01 X40.0689 Y-17.7593 F100.00
G01 X40.0628 Y-17.7992 F100.00
G01 X40.0614 Y-17.8149 F100.00
G01 X40.0600 Y-17.8500 F100.00
G01 X40.0600 Y-19.1500 F100.00
G01 X40.0602 Y-19.1606 F100.00
G01 X40.0622 Y-19.1956 F100.00
G01 X40.0671 Y-19.2303 F100.00
G01 X40.0700 Y-19.2459 F100.00
G01 X40.0800 Y-19.2850 F100.00
G01 X40.0916 Y-19.3181 F100.00
G01 X40.0954 Y-19.3280 F100.00
G01 X40.1101 Y-19.3598 F100.00
G01 X40.1174 Y-19.3738 F100.00
G01 X40.1383 Y-19.4084 F100.00
G01 X40.1590 Y-19.4367 F100.00
G01 X40.1655 Y-19.4450 F100.00
G01 X40.1724 Y-19.4530 F100.00
G01 X40.1962 Y-19.4788 F100.00
G01 X40.2220 Y-19.5026 F100.00
G01 X40.2300 Y-19.5095 F100.00
G01 X40.2383 Y-19.5160 F100.00
G01 X40.2666 Y-19.5367 F100.00
G01 X40.2966 Y-19.5549 F100.00
G01 X40.3060 Y-19.5602 F100.00
G01 X40.3374 Y-19.5754 F100.00
G01 X40.3470 Y-19.5796 F100.00
G01 X40.3569 Y-19.5834 F100.00
G01 X40.3900 Y-19.5950 F100.00
G01 X40.4240 Y-19.6038 F100.00
G01 X40.4395 Y-19.6071 F100.00
G01 X40.4794 Y-19.6128 F100.00
G01 X40.5144 Y-19.6148 F100.00
G01 X40.5250 Y-19.6150 F100.00
G01 X41.3553 Y-19.6150 F100.00
G01 X41.3956 Y-19.6128 F100.00
G01 X41.4303 Y-19.6079 F100.00
G01 X41.4459 Y-19.6050 F100.00
G01 X41.4850 Y-19.5950 F100.00
G01 X41.5231 Y-19.5816 F100.00
G01 X41.5376 Y-19.5754 F100.00
G01 X41.5692 Y-19.5601 F100.00
G01 X41.6039 Y-19.5395 F100.00
G01 X41.6127 Y-19.5337 F100.00
G01 X41.6367 Y-19.5160 F100.00
G01 X41.6491 Y-19.5061 F100.00
G01 X41.6788 Y-19.4788 F100.00
G01 X41.7026 Y-19.4530 F100.00
G01 X41.7128 Y-19.4409 F100.00
G01 X41.7367 Y-19.4084 F100.00
G01 X41.7577 Y-19.3736 F100.00
G01 X41.7649 Y-19.3598 F100.00
G01 X41.7796 Y-19.3280 F100.00
G01 X41.7917 Y-19.2950 F100.00
G01 X41.7965 Y-19.2799 F100.00
G01 X41.8038 Y-19.2510 F100.00
G01 X41.8071 Y-19.2355 F100.00
G01 X41.8122 Y-19.2008 F100.00
G01 X41.8136 Y-19.1851 F100.00
G01 X41.8150 Y-19.1553 F100.00
G01 X41.8150 Y-17.8500 F100.00
G01 X41.8148 Y-17.8394 F100.00
G01 X41.8128 Y-17.8044 F100.00
G01 X41.8079 Y-17.7697 F100.00
G01 X41.8061 Y-17.7593 F100.00
G01 X41.8038 Y-17.7490 F100.00
G01 X41.7950 Y-17.7150 F100.00
G01 X41.7816 Y-17.6769 F100.00
G01 X41.7776 Y-17.6672 F100.00
G01 X41.7649 Y-17.6402 F100.00
G01 X41.7601 Y-17.6308 F100.00
G01 X41.7549 Y-17.6216 F100.00
G01 X41.7367 Y-17.5916 F100.00
G01 X41.7160 Y-17.5633 F100.00
G01 X41.7095 Y-17.5550 F100.00
G01 X41.7026 Y-17.5470 F100.00
G01 X41.6788 Y-17.5212 F100.00
G01 X41.6530 Y-17.4974 F100.00
G01 X41.6450 Y-17.4905 F100.00
G01 X41.6367 Y-17.4840 F100.00
G01 X41.6084 Y-17.4633 F100.00
G01 X41.5781 Y-17.4449 F100.00
G01 X41.5644 Y-17.4374 F100.00
G01 X41.5376 Y-17.4246 F100.00
G01 X41.5280 Y-17.4204 F100.00
G01 X41.5181 Y-17.4166 F100.00
G01 X41.4850 Y-17.4050 F100.00
G01 X41.4510 Y-17.3962 F100.00
G01 X41.4407 Y-17.3939 F100.00
G01 X41.4303 Y-17.3921 F100.00
G01 X41.3956 Y-17.3872 F100.00
G01 X41.3558 Y-17.3850 F100.00
G01 X41.3558 Y-15.9322 F100.00
G01 X41.3538 Y-15.8965 F100.00
G01 X41.3488 Y-15.8611 F100.00
G01 X41.3467 Y-15.8507 F100.00
G01 X41.3393 Y-15.8211 F100.00
G01 X41.3325 Y-15.8003 F100.00
G01 X41.3726 Y-15.7150 F100.00
G01 X41.4094 Y-15.6127 F100.00
G01 X41.4127 Y-15.6027 F100.00
G01 X41.4155 Y-15.5925 F100.00
G01 X41.4394 Y-15.4973 F100.00
G01 X41.4417 Y-15.4870 F100.00
G01 X41.4435 Y-15.4766 F100.00
G01 X41.4592 Y-15.3691 F100.00
G01 X41.4600 Y-15.3586 F100.00
G01 X41.4650 Y-15.2500 F100.00
G01 X41.4600 Y-15.1414 F100.00
G01 X41.4592 Y-15.1309 F100.00
G01 X41.4435 Y-15.0234 F100.00
G01 X41.4406 Y-15.0078 F100.00
G01 X41.4155 Y-14.9075 F100.00
G01 X41.4111 Y-14.8923 F100.00
G01 X41.3745 Y-14.7899 F100.00
G01 X41.3683 Y-14.7754 F100.00
G01 X41.3516 Y-14.7401 F100.00
G01 X41.5495 Y-14.5420 F100.00
G01 X41.5734 Y-14.5154 F100.00
G01 X41.5799 Y-14.5071 F100.00
G01 X41.5978 Y-14.4824 F100.00
G01 X41.6164 Y-14.4518 F100.00
G01 X41.6237 Y-14.4378 F100.00
G01 X41.6365 Y-14.4101 F100.00
G01 X41.6470 Y-14.3815 F100.00
G01 X41.6503 Y-14.3714 F100.00
G01 X41.6592 Y-14.3368 F100.00
G01 X41.6621 Y-14.3212 F100.00
G01 X41.6663 Y-14.2910 F100.00
G01 X41.6681 Y-14.2606 F100.00
G01 X41.6683 Y-14.2500 F100.00
G01 X41.6683 Y-9.7500 F100.00
G01 X41.6671 Y-9.7195 F100.00
G01 X41.6663 Y-9.7090 F100.00
G01 X41.6621 Y-9.6788 F100.00
G01 X41.6592 Y-9.6632 F100.00
G01 X41.6503 Y-9.6286 F100.00
G01 X41.6385 Y-9.5948 F100.00
G01 X41.6322 Y-9.5803 F100.00
G01 X41.6189 Y-9.5528 F100.00
G01 X41.6007 Y-9.5220 F100.00
G01 X41.5949 Y-9.5132 F100.00
G01 X41.5767 Y-9.4887 F100.00
G01 X41.5700 Y-9.4806 F100.00
G01 X41.5495 Y-9.4580 F100.00
G01 X41.3516 Y-9.2599 F100.00
G01 X41.3726 Y-9.2150 F100.00
G01 X41.3895 Y-9.1683 F100.00
G01 X42.2500 Y-9.1683 F100.00
G01 X42.2606 Y-9.1681 F100.00
G01 X42.2910 Y-9.1663 F100.00
G01 X42.3212 Y-9.1621 F100.00
G01 X42.3368 Y-9.1592 F100.00
G01 X42.3613 Y-9.1531 F100.00
G01 X42.3765 Y-9.1487 F100.00
G01 X42.4052 Y-9.1385 F100.00
G01 X42.4149 Y-9.1344 F100.00
G01 X42.4425 Y-9.1214 F100.00
G01 X42.4564 Y-9.1137 F100.00
G01 X42.4780 Y-9.1007 F100.00
G01 X42.4868 Y-9.0949 F100.00
G01 X42.5154 Y-9.0734 F100.00
G01 X42.5420 Y-9.0495 F100.00
G01 X43.2958 Y-8.2958 F100.00
G01 X43.3200 Y-8.2694 F100.00
G01 X43.3299 Y-8.2571 F100.00
G01 X43.3478 Y-8.2324 F100.00
G01 X43.3664 Y-8.2018 F100.00
G01 X43.3737 Y-8.1878 F100.00
G01 X43.3844 Y-8.1649 F100.00
G01 X43.3885 Y-8.1552 F100.00
G01 X43.4003 Y-8.1214 F100.00
G01 X43.4092 Y-8.0868 F100.00
G01 X43.4121 Y-8.0712 F100.00
G01 X43.4157 Y-8.0463 F100.00
G01 X43.4168 Y-8.0357 F100.00
G01 X43.4183 Y-8.0000 F100.00
G01 X43.4183 Y-6.9150 F100.00
G01 X43.6250 Y-6.9150 F100.00
G01 X43.6601 Y-6.9136 F100.00
G01 X43.6706 Y-6.9128 F100.00
G01 X43.7105 Y-6.9071 F100.00
G01 X43.7260 Y-6.9038 F100.00
G01 X43.7600 Y-6.8950 F100.00
G01 X43.7931 Y-6.8834 F100.00
G01 X43.8030 Y-6.8796 F100.00
G01 X43.8348 Y-6.8649 F100.00
G01 X43.8442 Y-6.8601 F100.00
G01 X43.8534 Y-6.8549 F100.00
G01 X43.8834 Y-6.8367 F100.00
G01 X43.9117 Y-6.8160 F100.00
G01 X43.9200 Y-6.8095 F100.00
G01 X43.9462 Y-6.7861 F100.00
G01 X43.9575 Y-6.7751 F100.00
G01 X43.9776 Y-6.7530 F100.00
G01 X43.9845 Y-6.7450 F100.00
G01 X43.9910 Y-6.7367 F100.00
G01 X44.0087 Y-6.7127 F100.00
G01 X44.0145 Y-6.7039 F100.00
G01 X44.0301 Y-6.6781 F100.00
G01 X44.0376 Y-6.6645 F100.00
G01 X44.0504 Y-6.6376 F100.00
G01 X44.0566 Y-6.6231 F100.00
G01 X44.0684 Y-6.5900 F100.00
G01 X44.0728 Y-6.5748 F100.00
G01 X44.0800 Y-6.5459 F100.00
G01 X44.0829 Y-6.5303 F100.00
G01 X44.0878 Y-6.4956 F100.00
G01 X44.0898 Y-6.4606 F100.00
G01 X44.0900 Y-6.4500 F100.00
G01 X44.0900 Y-5.6500 F100.00
G01 X44.0898 Y-5.6394 F100.00
G01 X44.0878 Y-5.6044 F100.00
G01 X44.0829 Y-5.5697 F100.00
G01 X44.0811 Y-5.5593 F100.00
G01 X44.0788 Y-5.5490 F100.00
G01 X44.0700 Y-5.5150 F100.00
G01 X44.0584 Y-5.4819 F100.00
G01 X44.0546 Y-5.4720 F100.00
G01 X44.0399 Y-5.4402 F100.00
G01 X44.0351 Y-5.4308 F100.00
G01 X44.0299 Y-5.4216 F100.00
G01 X44.0145 Y-5.3961 F100.00
G01 X44.0087 Y-5.3873 F100.00
G01 X43.9845 Y-5.3550 F100.00
G01 X43.9776 Y-5.3470 F100.00
G01 X43.9538 Y-5.3212 F100.00
G01 X43.9280 Y-5.2974 F100.00
G01 X43.9200 Y-5.2905 F100.00
G01 X43.8877 Y-5.2663 F100.00
G01 X43.8789 Y-5.2605 F100.00
G01 X43.8531 Y-5.2449 F100.00
G01 X43.8348 Y-5.2351 F100.00
G01 X43.8030 Y-5.2204 F100.00
G01 X43.7931 Y-5.2166 F100.00
G01 X43.7600 Y-5.2050 F100.00
G01 X43.7260 Y-5.1962 F100.00
G01 X43.7157 Y-5.1939 F100.00
G01 X43.7053 Y-5.1921 F100.00
G01 X43.6706 Y-5.1872 F100.00
G01 X43.6356 Y-5.1852 F100.00
G01 X43.6250 Y-5.1850 F100.00
G01 X42.3750 Y-5.1850 F100.00
G01 X42.3399 Y-5.1864 F100.00
G01 X42.3242 Y-5.1878 F100.00
G01 X42.2843 Y-5.1939 F100.00
G01 X42.2502 Y-5.2022 F100.00
G01 X42.2350 Y-5.2066 F100.00
G01 X42.2069 Y-5.2166 F100.00
G01 X42.1922 Y-5.2224 F100.00
G01 X42.1605 Y-5.2374 F100.00
G01 X42.1466 Y-5.2451 F100.00
G01 X42.1211 Y-5.2605 F100.00
G01 X42.1123 Y-5.2663 F100.00
G01 X42.0841 Y-5.2872 F100.00
G01 X42.0720 Y-5.2974 F100.00
G01 X42.0462 Y-5.3212 F100.00
G01 X42.0224 Y-5.3470 F100.00
G01 X42.0122 Y-5.3591 F100.00
G01 X41.9944 Y-5.3830 F100.00
G01 X41.9883 Y-5.3916 F100.00
G01 X41.9827 Y-5.4006 F100.00
G01 X41.9673 Y-5.4264 F100.00
G01 X41.9624 Y-5.4355 F100.00
G01 X41.9454 Y-5.4720 F100.00
G01 X41.9316 Y-5.5100 F100.00
G01 X41.9285 Y-5.5201 F100.00
G01 X41.9212 Y-5.5490 F100.00
G01 X41.9179 Y-5.5645 F100.00
G01 X41.9122 Y-5.6044 F100.00
G01 X41.9102 Y-5.6394 F100.00
G01 X41.9100 Y-5.6500 F100.00
G01 X41.9100 Y-6.4553 F100.00
G01 X41.9122 Y-6.4956 F100.00
G01 X41.9171 Y-6.5303 F100.00
G01 X41.9189 Y-6.5407 F100.00
G01 X41.9212 Y-6.5510 F100.00
G01 X41.9300 Y-6.5850 F100.00
G01 X41.9434 Y-6.6231 F100.00
G01 X41.9496 Y-6.6376 F100.00
G01 X41.9649 Y-6.6692 F100.00
G01 X41.9701 Y-6.6784 F100.00
G01 X41.9883 Y-6.7084 F100.00
G01 X42.0090 Y-6.7367 F100.00
G01 X42.0155 Y-6.7450 F100.00
G01 X42.0224 Y-6.7530 F100.00
G01 X42.0462 Y-6.7788 F100.00
G01 X42.0720 Y-6.8026 F100.00
G01 X42.0800 Y-6.8095 F100.00
G01 X42.0883 Y-6.8160 F100.00
G01 X42.1166 Y-6.8367 F100.00
G01 X42.1466 Y-6.8549 F100.00
G01 X42.1560 Y-6.8602 F100.00
G01 X42.1922 Y-6.8776 F100.00
G01 X42.2019 Y-6.8816 F100.00
G01 X42.2300 Y-6.8917 F100.00
G01 X42.2400 Y-6.8950 F100.00
G01 X42.2502 Y-6.8978 F100.00
G01 X42.2843 Y-6.9061 F100.00
G01 X42.2947 Y-6.9079 F100.00
G01 X42.3294 Y-6.9128 F100.00
G01 X42.3644 Y-6.9148 F100.00
G01 X42.3750 Y-6.9150 F100.00
G01 X42.5817 Y-6.9150 F100.00
G01 X42.5817 Y-7.8267 F100.00
G01 X42.0767 Y-8.3317 F100.00
G01 X41.3895 Y-8.3317 F100.00
G01 X41.3763 Y-8.2949 F100.00
G01 X41.3705 Y-8.2802 F100.00
G01 X41.3240 Y-8.1819 F100.00
G01 X41.3164 Y-8.1681 F100.00
G01 X41.2631 Y-8.0794 F100.00
G01 X41.2542 Y-8.0663 F100.00
G01 X41.1892 Y-7.9792 F100.00
G01 X41.1164 Y-7.8985 F100.00
G01 X41.1092 Y-7.8908 F100.00
G01 X41.1015 Y-7.8836 F100.00
G01 X41.0208 Y-7.8108 F100.00
G01 X40.9337 Y-7.7458 F100.00
G01 X40.9206 Y-7.7369 F100.00
G01 X40.8319 Y-7.6836 F100.00
G01 X40.8181 Y-7.6760 F100.00
G01 X40.7198 Y-7.6295 F100.00
G01 X40.7051 Y-7.6237 F100.00
G01 X40.6683 Y-7.6105 F100.00
G01 X40.6683 Y0.2500 F100.00
G01 X40.6671 Y0.2805 F100.00
G01 X40.6663 Y0.2910 F100.00
G01 X40.6621 Y0.3212 F100.00
G01 X40.6603 Y0.3316 F100.00
G01 X40.6531 Y0.3613 F100.00
G01 X40.6503 Y0.3714 F100.00
G01 X40.6470 Y0.3815 F100.00
G01 X40.6385 Y0.4052 F100.00
G01 X40.6344 Y0.4149 F100.00
G01 X40.6189 Y0.4472 F100.00
G01 X40.6007 Y0.4780 F100.00
G01 X40.5949 Y0.4868 F100.00
G01 X40.5799 Y0.5071 F100.00
G01 X40.5734 Y0.5154 F100.00
G01 X40.5665 Y0.5234 F100.00
G01 X40.5458 Y0.5458 F100.00
G01 X39.9270 Y1.1645 F100.00
G01 X39.9004 Y1.1884 F100.00
G01 X39.8718 Y1.2099 F100.00
G01 X39.8630 Y1.2157 F100.00
G01 X39.8414 Y1.2287 F100.00
G01 X39.8322 Y1.2339 F100.00
G01 X39.8228 Y1.2387 F100.00
G01 X39.7951 Y1.2515 F100.00
G01 X39.7665 Y1.2620 F100.00
G01 X39.7514 Y1.2668 F100.00
G01 X39.7269 Y1.2730 F100.00
G01 X39.7114 Y1.2763 F100.00
G01 X39.6813 Y1.2807 F100.00
G01 X39.6655 Y1.2821 F100.00
G01 X39.6350 Y1.2833 F100.00
G01 X2.7722 Y1.2833 F100.00
G01 X2.7606 Y1.2938 F100.00
G01 X2.7525 Y1.3005 F100.00
G01 X2.7322 Y1.3155 F100.00
G01 X2.7234 Y1.3214 F100.00
G01 X2.6971 Y1.3369 F100.00
G01 X2.6877 Y1.3417 F100.00
G01 X2.6647 Y1.3523 F100.00
G01 X2.6410 Y1.3610 F100.00
G01 X2.6310 Y1.3643 F100.00
G01 X2.6014 Y1.3719 F100.00
G01 X2.5910 Y1.3740 F100.00
G01 X2.5660 Y1.3777 F100.00
G01 X2.5555 Y1.3787 F100.00
G01 X2.5356 Y1.3798 F100.00
G01 X2.5250 Y1.3800 F100.00
G01 X0.7697 Y1.3800 F100.00
G01 X0.7392 Y1.3783 F100.00
G01 X0.7090 Y1.3740 F100.00
G01 X0.6986 Y1.3719 F100.00
G01 X0.6792 Y1.3671 F100.00
G01 X0.6640 Y1.3627 F100.00
G01 X0.6353 Y1.3523 F100.00
G01 X0.6117 Y1.3414 F100.00
G01 X0.5937 Y1.3317 F100.00
G01 X0.5766 Y1.3214 F100.00
G01 X0.5678 Y1.3155 F100.00
G01 X0.5434 Y1.2972 F100.00
G01 X0.5207 Y1.2768 F100.00
G01 X0.5132 Y1.2693 F100.00
G01 X0.4997 Y1.2546 F100.00
G01 X0.4895 Y1.2425 F100.00
G01 X0.4715 Y1.2178 F100.00
G01 X0.4556 Y1.1917 F100.00
G01 X0.4483 Y1.1777 F100.00
G01 X0.4398 Y1.1595 F100.00
G01 X0.4358 Y1.1498 F100.00
G01 X0.4257 Y1.1210 F100.00
G01 X0.4181 Y1.0914 F100.00
G01 X0.4160 Y1.0810 F100.00
G01 X0.4130 Y1.0613 F100.00
G01 X0.4117 Y1.0508 F100.00
G01 X0.4109 Y1.0403 F100.00
G01 X0.4100 Y1.0150 F100.00
G01 X0.4100 Y0.7097 F100.00
G01 X0.4113 Y0.6845 F100.00
G01 X0.4123 Y0.6740 F100.00
G01 X0.4160 Y0.6490 F100.00
G01 X0.4193 Y0.6335 F100.00
G01 X0.4257 Y0.6090 F100.00
G01 X0.4339 Y0.5852 F100.00
G01 X0.4398 Y0.5705 F100.00
G01 X0.4483 Y0.5524 F100.00
G00 Z2.0000
G00 X0.5733 Y0.6115
G01 F40.00
G01 Z-0.1000
G01 F100.00
G01 X0.5768 Y0.6048 F100.00
G01 X0.5864 Y0.5890 F100.00
G01 X0.5974 Y0.5741 F100.00
G01 X0.6021 Y0.5683 F100.00
G01 X0.6146 Y0.5546 F100.00
G01 X0.6297 Y0.5409 F100.00
G01 X0.6459 Y0.5286 F100.00
G01 X0.6522 Y0.5244 F100.00
G01 X0.6681 Y0.5150 F100.00
G01 X0.6848 Y0.5070 F100.00
G01 X0.6917 Y0.5041 F100.00
G01 X0.7092 Y0.4980 F100.00
G01 X0.7308 Y0.4926 F100.00
G01 X0.7490 Y0.4898 F100.00
G01 X0.7565 Y0.4890 F100.00
G01 X0.7750 Y0.4882 F100.00
G01 X2.5250 Y0.4882 F100.00
G01 X2.5435 Y0.4890 F100.00
G01 X2.5510 Y0.4898 F100.00
G01 X2.5692 Y0.4926 F100.00
G01 X2.5910 Y0.4980 F100.00
G01 X2.6118 Y0.5055 F100.00
G01 X2.6336 Y0.5159 F100.00
G01 X2.6526 Y0.5275 F100.00
G01 X2.6674 Y0.5385 F100.00
G01 X2.6717 Y0.5421 F100.00
G01 X2.6840 Y0.5533 F100.00
G01 X2.6880 Y0.5574 F100.00
G01 X2.7003 Y0.5711 F100.00
G01 X2.7107 Y0.5849 F100.00
G01 X39.5190 Y0.5849 F100.00
G01 X39.9699 Y0.1340 F100.00
G01 X39.9699 Y-7.7113 F100.00
G01 X39.9356 Y-7.7201 F100.00
G01 X39.8362 Y-7.7559 F100.00
G01 X39.7424 Y-7.8003 F100.00
G01 X39.6502 Y-7.8557 F100.00
G01 X39.5669 Y-7.9176 F100.00
G01 X39.4886 Y-7.9886 F100.00
G01 X39.4176 Y-8.0669 F100.00
G01 X39.3557 Y-8.1502 F100.00
G01 X39.3003 Y-8.2424 F100.00
G01 X39.2567 Y-8.3345 F100.00
G01 X39.2538 Y-8.3414 F100.00
G01 X39.2207 Y-8.4338 F100.00
G01 X39.2186 Y-8.4411 F100.00
G01 X39.1939 Y-8.5399 F100.00
G01 X39.1784 Y-8.6445 F100.00
G01 X39.1732 Y-8.7500 F100.00
G01 X39.1784 Y-8.8555 F100.00
G01 X39.1939 Y-8.9601 F100.00
G01 X39.2186 Y-9.0589 F100.00
G01 X39.2207 Y-9.0662 F100.00
G01 X39.2552 Y-9.1621 F100.00
G01 X39.2987 Y-9.2542 F100.00
G01 X39.3022 Y-9.2609 F100.00
G01 X39.3547 Y-9.3482 F100.00
G01 X39.4176 Y-9.4331 F100.00
G01 X39.4860 Y-9.5087 F100.00
G01 X39.4913 Y-9.5140 F100.00
G01 X39.5669 Y-9.5824 F100.00
G01 X39.6487 Y-9.6432 F100.00
G01 X39.6549 Y-9.6473 F100.00
G01 X39.7407 Y-9.6987 F100.00
G01 X39.8379 Y-9.7448 F100.00
G01 X39.9338 Y-9.7793 F100.00
G01 X39.9411 Y-9.7814 F100.00
G01 X40.0399 Y-9.8061 F100.00
G01 X40.1407 Y-9.8212 F100.00
G01 X40.1482 Y-9.8219 F100.00
G01 X40.2519 Y-9.8268 F100.00
G01 X40.3518 Y-9.8219 F100.00
G01 X40.3593 Y-9.8212 F100.00
G01 X40.4601 Y-9.8061 F100.00
G01 X40.5608 Y-9.7810 F100.00
G01 X40.6638 Y-9.7441 F100.00
G01 X40.7559 Y-9.7005 F100.00
G01 X40.7864 Y-9.6825 F100.00
G01 X40.9699 Y-9.8660 F100.00
G01 X40.9699 Y-14.1340 F100.00
G01 X40.7864 Y-14.3175 F100.00
G01 X40.7559 Y-14.2995 F100.00
G01 X40.6638 Y-14.2559 F100.00
G01 X40.5608 Y-14.2190 F100.00
G01 X40.4601 Y-14.1939 F100.00
G01 X40.3593 Y-14.1788 F100.00
G01 X40.3518 Y-14.1781 F100.00
G01 X40.2481 Y-14.1732 F100.00
G01 X40.1445 Y-14.1784 F100.00
G01 X40.0436 Y-14.1932 F100.00
G01 X40.0362 Y-14.1947 F100.00
G01 X39.9374 Y-14.2196 F100.00
G01 X39.8414 Y-14.2538 F100.00
G01 X39.8345 Y-14.2567 F100.00
G01 X39.7424 Y-14.3003 F100.00
G01 X39.6518 Y-14.3547 F100.00
G01 X39.5669 Y-14.4176 F100.00
G01 X39.4913 Y-14.4860 F100.00
G01 X39.4860 Y-14.4913 F100.00
G01 X39.4176 Y-14.5669 F100.00
G01 X39.3568 Y-14.6487 F100.00
G01 X39.3527 Y-14.6549 F100.00
G01 X39.3003 Y-14.7424 F100.00
G01 X39.2567 Y-14.8345 F100.00
G01 X39.2538 Y-14.8414 F100.00
G01 X39.2196 Y-14.9374 F100.00
G01 X39.1947 Y-15.0362 F100.00
G01 X39.1932 Y-15.0436 F100.00
G01 X39.1784 Y-15.1445 F100.00
G01 X39.1733 Y-15.2462 F100.00
G01 X39.1733 Y-15.2538 F100.00
G01 X39.1784 Y-15.3555 F100.00
G01 X39.1939 Y-15.4601 F100.00
G01 X39.2186 Y-15.5589 F100.00
G01 X39.2207 Y-15.5662 F100.00
G01 X39.2538 Y-15.6586 F100.00
G01 X39.2567 Y-15.6655 F100.00
G01 X39.3003 Y-15.7576 F100.00
G01 X39.3527 Y-15.8451 F100.00
G01 X39.3568 Y-15.8513 F100.00
G01 X39.4176 Y-15.9331 F100.00
G01 X39.4886 Y-16.0114 F100.00
G01 X39.5669 Y-16.0824 F100.00
G01 X39.6487 Y-16.1432 F100.00
G01 X39.6549 Y-16.1473 F100.00
G01 X39.7424 Y-16.1997 F100.00
G01 X39.8345 Y-16.2433 F100.00
G01 X39.8414 Y-16.2462 F100.00
G01 X39.9338 Y-16.2793 F100.00
G01 X39.9411 Y-16.2814 F100.00
G01 X40.0399 Y-16.3061 F100.00
G01 X40.1445 Y-16.3216 F100.00
G01 X40.2500 Y-16.3268 F100.00
G01 X40.3518 Y-16.3219 F100.00
G01 X40.3593 Y-16.3212 F100.00
G01 X40.4564 Y-16.3068 F100.00
G01 X40.4638 Y-16.3053 F100.00
G01 X40.5626 Y-16.2804 F100.00
G01 X40.6574 Y-16.2466 F100.00
G01 X40.6574 Y-17.5232 F100.00
G01 X40.5231 Y-17.5232 F100.00
G01 X40.4930 Y-17.5248 F100.00
G01 X40.4631 Y-17.5291 F100.00
G01 X40.4301 Y-17.5373 F100.00
G01 X40.3999 Y-17.5481 F100.00
G01 X40.3709 Y-17.5618 F100.00
G01 X40.3450 Y-17.5772 F100.00
G01 X40.3177 Y-17.5974 F100.00
G01 X40.2939 Y-17.6189 F100.00
G01 X40.2724 Y-17.6427 F100.00
G01 X40.2554 Y-17.6654 F100.00
G01 X40.2513 Y-17.6716 F100.00
G01 X40.2386 Y-17.6928 F100.00
G01 X40.2351 Y-17.6993 F100.00
G01 X40.2231 Y-17.7249 F100.00
G01 X40.2135 Y-17.7516 F100.00
G01 X40.2113 Y-17.7588 F100.00
G01 X40.2045 Y-17.7862 F100.00
G01 X40.2000 Y-17.8161 F100.00
G01 X40.1982 Y-17.8500 F100.00
G01 X40.1982 Y-19.1519 F100.00
G01 X40.1998 Y-19.1820 F100.00
G01 X40.2038 Y-19.2100 F100.00
G01 X40.2053 Y-19.2174 F100.00
G01 X40.2123 Y-19.2449 F100.00
G01 X40.2217 Y-19.2715 F100.00
G01 X40.2246 Y-19.2785 F100.00
G01 X40.2368 Y-19.3041 F100.00
G01 X40.2522 Y-19.3300 F100.00
G01 X40.2724 Y-19.3573 F100.00
G01 X40.2939 Y-19.3811 F100.00
G01 X40.3177 Y-19.4026 F100.00
G01 X40.3404 Y-19.4196 F100.00
G01 X40.3466 Y-19.4237 F100.00
G01 X40.3678 Y-19.4364 F100.00
G01 X40.3743 Y-19.4399 F100.00
G01 X40.3999 Y-19.4519 F100.00
G01 X40.4266 Y-19.4615 F100.00
G01 X40.4338 Y-19.4637 F100.00
G01 X40.4612 Y-19.4705 F100.00
G01 X40.4911 Y-19.4750 F100.00
G01 X40.5250 Y-19.4768 F100.00
G01 X41.3519 Y-19.4768 F100.00
G01 X41.3820 Y-19.4752 F100.00
G01 X41.4100 Y-19.4712 F100.00
G01 X41.4174 Y-19.4697 F100.00
G01 X41.4449 Y-19.4627 F100.00
G01 X41.4715 Y-19.4533 F100.00
G01 X41.4785 Y-19.4504 F100.00
G01 X41.5041 Y-19.4382 F100.00
G01 X41.5284 Y-19.4237 F100.00
G01 X41.5346 Y-19.4196 F100.00
G01 X41.5543 Y-19.4049 F100.00
G01 X41.5602 Y-19.4002 F100.00
G01 X41.5811 Y-19.3811 F100.00
G01 X41.6002 Y-19.3602 F100.00
G01 X41.6049 Y-19.3543 F100.00
G01 X41.6217 Y-19.3316 F100.00
G01 X41.6364 Y-19.3072 F100.00
G01 X41.6399 Y-19.3007 F100.00
G01 X41.6519 Y-19.2751 F100.00
G01 X41.6615 Y-19.2484 F100.00
G01 X41.6637 Y-19.2412 F100.00
G01 X41.6697 Y-19.2174 F100.00
G01 X41.6712 Y-19.2100 F100.00
G01 X41.6752 Y-19.1820 F100.00
G01 X41.6768 Y-19.1519 F100.00
G01 X41.6768 Y-17.8500 F100.00
G01 X41.6752 Y-17.8180 F100.00
G01 X41.6712 Y-17.7900 F100.00
G01 X41.6697 Y-17.7826 F100.00
G01 X41.6637 Y-17.7588 F100.00
G01 X41.6615 Y-17.7516 F100.00
G01 X41.6519 Y-17.7249 F100.00
G01 X41.6399 Y-17.6993 F100.00
G01 X41.6364 Y-17.6927 F100.00
G01 X41.6217 Y-17.6684 F100.00
G01 X41.6049 Y-17.6457 F100.00
G01 X41.6002 Y-17.6398 F100.00
G01 X41.5811 Y-17.6189 F100.00
G01 X41.5573 Y-17.5974 F100.00
G01 X41.5316 Y-17.5783 F100.00
G01 X41.5056 Y-17.5626 F100.00
G01 X41.4751 Y-17.5481 F100.00
G01 X41.4449 Y-17.5373 F100.00
G01 X41.4138 Y-17.5295 F100.00
G01 X41.3858 Y-17.5252 F100.00
G01 X41.3783 Y-17.5245 F100.00
G01 X41.3500 Y-17.5232 F100.00
G01 X41.2176 Y-17.5232 F100.00
G01 X41.2176 Y-15.9356 F100.00
G01 X41.2163 Y-15.9100 F100.00
G01 X41.2129 Y-15.8866 F100.00
G01 X41.2114 Y-15.8792 F100.00
G01 X41.2061 Y-15.8580 F100.00
G01 X41.1955 Y-15.8286 F100.00
G01 X41.1854 Y-15.8071 F100.00
G01 X41.1779 Y-15.7941 F100.00
G01 X41.2005 Y-15.7559 F100.00
G01 X41.2441 Y-15.6638 F100.00
G01 X41.2810 Y-15.5608 F100.00
G01 X41.3061 Y-15.4601 F100.00
G01 X41.3212 Y-15.3593 F100.00
G01 X41.3219 Y-15.3518 F100.00
G01 X41.3268 Y-15.2481 F100.00
G01 X41.3219 Y-15.1482 F100.00
G01 X41.3212 Y-15.1407 F100.00
G01 X41.3061 Y-15.0399 F100.00
G01 X41.2810 Y-14.9392 F100.00
G01 X41.2441 Y-14.8362 F100.00
G01 X41.2005 Y-14.7441 F100.00
G01 X41.1825 Y-14.7136 F100.00
G01 X41.4481 Y-14.4481 F100.00
G01 X41.4641 Y-14.4305 F100.00
G01 X41.4688 Y-14.4247 F100.00
G01 X41.4829 Y-14.4056 F100.00
G01 X41.4970 Y-14.3820 F100.00
G01 X41.5088 Y-14.3572 F100.00
G01 X41.5169 Y-14.3349 F100.00
G01 X41.5190 Y-14.3277 F100.00
G01 X41.5251 Y-14.3028 F100.00
G01 X41.5288 Y-14.2775 F100.00
G01 X41.5300 Y-14.2538 F100.00
G01 X41.5301 Y-9.7500 F100.00
G01 X41.5288 Y-9.7225 F100.00
G01 X41.5254 Y-9.6991 F100.00
G01 X41.5239 Y-9.6917 F100.00
G01 X41.5186 Y-9.6705 F100.00
G01 X41.5169 Y-9.6651 F100.00
G01 X41.5088 Y-9.6428 F100.00
G01 X41.4970 Y-9.6180 F100.00
G01 X41.4829 Y-9.5944 F100.00
G01 X41.4688 Y-9.5753 F100.00
G01 X41.4641 Y-9.5695 F100.00
G01 X41.4481 Y-9.5519 F100.00
G01 X41.1825 Y-9.2864 F100.00
G01 X41.2005 Y-9.2559 F100.00
G01 X41.2448 Y-9.1621 F100.00
G01 X41.2799 Y-9.0644 F100.00
G01 X41.2887 Y-9.0301 F100.00
G01 X42.2519 Y-9.0301 F100.00
G01 X42.2737 Y-9.0290 F100.00
G01 X42.2812 Y-9.0283 F100.00
G01 X42.3046 Y-9.0247 F100.00
G01 X42.3277 Y-9.0190 F100.00
G01 X42.3349 Y-9.0169 F100.00
G01 X42.3572 Y-9.0088 F100.00
G01 X42.3820 Y-8.9970 F100.00
G01 X42.4056 Y-8.9829 F100.00
G01 X42.4247 Y-8.9688 F100.00
G01 X42.4305 Y-8.9641 F100.00
G01 X42.4481 Y-8.9481 F100.00
G01 X43.1981 Y-8.1981 F100.00
G01 X43.2141 Y-8.1805 F100.00
G01 X43.2188 Y-8.1747 F100.00
G01 X43.2329 Y-8.1556 F100.00
G01 X43.2470 Y-8.1320 F100.00
G01 X43.2588 Y-8.1072 F100.00
G01 X43.2669 Y-8.0849 F100.00
G01 X43.2690 Y-8.0777 F100.00
G01 X43.2751 Y-8.0528 F100.00
G01 X43.2788 Y-8.0275 F100.00
G01 X43.2800 Y-8.0038 F100.00
G01 X43.2801 Y-6.7768 F100.00
G01 X43.6269 Y-6.7768 F100.00
G01 X43.6570 Y-6.7752 F100.00
G01 X43.6850 Y-6.7712 F100.00
G01 X43.6924 Y-6.7697 F100.00
G01 X43.7181 Y-6.7633 F100.00
G01 X43.7501 Y-6.7519 F100.00
G01 X43.7791 Y-6.7382 F100.00
G01 X43.8066 Y-6.7217 F100.00
G01 X43.8323 Y-6.7026 F100.00
G01 X43.8561 Y-6.6811 F100.00
G01 X43.8776 Y-6.6573 F100.00
G01 X43.8967 Y-6.6316 F100.00
G01 X43.9123 Y-6.6056 F100.00
G01 X43.9269 Y-6.5751 F100.00
G01 X43.9365 Y-6.5484 F100.00
G01 X43.9387 Y-6.5412 F100.00
G01 X43.9447 Y-6.5174 F100.00
G01 X43.9462 Y-6.5100 F100.00
G01 X43.9502 Y-6.4820 F100.00
G01 X43.9517 Y-6.4538 F100.00
G01 X43.9518 Y-5.6500 F100.00
G01 X43.9502 Y-5.6180 F100.00
G01 X43.9455 Y-5.5862 F100.00
G01 X43.9377 Y-5.5551 F100.00
G01 X43.9269 Y-5.5249 F100.00
G01 X43.9149 Y-5.4993 F100.00
G01 X43.9114 Y-5.4927 F100.00
G01 X43.8987 Y-5.4716 F100.00
G01 X43.8946 Y-5.4654 F100.00
G01 X43.8776 Y-5.4427 F100.00
G01 X43.8561 Y-5.4189 F100.00
G01 X43.8323 Y-5.3974 F100.00
G01 X43.8066 Y-5.3783 F100.00
G01 X43.7790 Y-5.3618 F100.00
G01 X43.7535 Y-5.3496 F100.00
G01 X43.7465 Y-5.3467 F100.00
G01 X43.7234 Y-5.3385 F100.00
G01 X43.7162 Y-5.3363 F100.00
G01 X43.6888 Y-5.3295 F100.00
G01 X43.6552 Y-5.3246 F100.00
G01 X43.6250 Y-5.3232 F100.00
G01 X42.3750 Y-5.3232 F100.00
G01 X42.3430 Y-5.3248 F100.00
G01 X42.3112 Y-5.3295 F100.00
G01 X42.2838 Y-5.3363 F100.00
G01 X42.2766 Y-5.3385 F100.00
G01 X42.2499 Y-5.3481 F100.00
G01 X42.2243 Y-5.3601 F100.00
G01 X42.2177 Y-5.3636 F100.00
G01 X42.1966 Y-5.3763 F100.00
G01 X42.1904 Y-5.3804 F100.00
G01 X42.1677 Y-5.3974 F100.00
G01 X42.1439 Y-5.4189 F100.00
G01 X42.1224 Y-5.4427 F100.00
G01 X42.1022 Y-5.4700 F100.00
G01 X42.0868 Y-5.4960 F100.00
G01 X42.0746 Y-5.5215 F100.00
G01 X42.0717 Y-5.5285 F100.00
G01 X42.0623 Y-5.5551 F100.00
G01 X42.0553 Y-5.5826 F100.00
G01 X42.0538 Y-5.5900 F100.00
G01 X42.0498 Y-5.6180 F100.00
G01 X42.0482 Y-5.6481 F100.00
G01 X42.0482 Y-6.4519 F100.00
G01 X42.0498 Y-6.4820 F100.00
G01 X42.0545 Y-6.5138 F100.00
G01 X42.0623 Y-6.5449 F100.00
G01 X42.0717 Y-6.5715 F100.00
G01 X42.0746 Y-6.5785 F100.00
G01 X42.0851 Y-6.6007 F100.00
G01 X42.0886 Y-6.6073 F100.00
G01 X42.1033 Y-6.6316 F100.00
G01 X42.1201 Y-6.6543 F100.00
G01 X42.1248 Y-6.6602 F100.00
G01 X42.1439 Y-6.6811 F100.00
G01 X42.1648 Y-6.7002 F100.00
G01 X42.1707 Y-6.7049 F100.00
G01 X42.1934 Y-6.7217 F100.00
G01 X42.2210 Y-6.7382 F100.00
G01 X42.2499 Y-6.7519 F100.00
G01 X42.2801 Y-6.7627 F100.00
G01 X42.3076 Y-6.7697 F100.00
G01 X42.3150 Y-6.7712 F100.00
G01 X42.3430 Y-6.7752 F100.00
G01 X42.3731 Y-6.7768 F100.00
G01 X42.7199 Y-6.7768 F100.00
G01 X42.7199 Y-7.8840 F100.00
G01 X42.1340 Y-8.4699 F100.00
G01 X41.2887 Y-8.4699 F100.00
G01 X41.2799 Y-8.4356 F100.00
G01 X41.2455 Y-8.3397 F100.00
G01 X41.1987 Y-8.2407 F100.00
G01 X41.1453 Y-8.1518 F100.00
G01 X41.0847 Y-8.0699 F100.00
G01 X41.0799 Y-8.0640 F100.00
G01 X41.0114 Y-7.9886 F100.00
G01 X40.9360 Y-7.9201 F100.00
G01 X40.9301 Y-7.9153 F100.00
G01 X40.8482 Y-7.8547 F100.00
G01 X40.7593 Y-7.8013 F100.00
G01 X40.6603 Y-7.7545 F100.00
G01 X40.5644 Y-7.7201 F100.00
G01 X40.5301 Y-7.7113 F100.00
G01 X40.5301 Y0.2500 F100.00
G01 X40.5288 Y0.2775 F100.00
G01 X40.5247 Y0.3046 F100.00
G01 X40.5190 Y0.3277 F100.00
G01 X40.5169 Y0.3349 F100.00
G01 X40.5095 Y0.3554 F100.00
G01 X40.5073 Y0.3606 F100.00
G01 X40.4970 Y0.3820 F100.00
G01 X40.4829 Y0.4056 F100.00
G01 X40.4665 Y0.4277 F100.00
G01 X40.4507 Y0.4453 F100.00
G01 X39.8317 Y1.0644 F100.00
G01 X39.8127 Y1.0815 F100.00
G01 X39.7937 Y1.0957 F100.00
G01 X39.7890 Y1.0989 F100.00
G01 X39.7703 Y1.1102 F100.00
G01 X39.7637 Y1.1137 F100.00
G01 X39.7422 Y1.1238 F100.00
G01 X39.7199 Y1.1319 F100.00
G01 X39.7145 Y1.1336 F100.00
G01 X39.6933 Y1.1389 F100.00
G01 X39.6859 Y1.1404 F100.00
G01 X39.6625 Y1.1438 F100.00
G01 X39.6350 Y1.1451 F100.00
G01 X2.7107 Y1.1451 F100.00
G01 X2.7003 Y1.1589 F100.00
G01 X2.6880 Y1.1726 F100.00
G01 X2.6840 Y1.1767 F100.00
G01 X2.6717 Y1.1879 F100.00
G01 X2.6674 Y1.1915 F100.00
G01 X2.6526 Y1.2025 F100.00
G01 X2.6336 Y1.2141 F100.00
G01 X2.6118 Y1.2245 F100.00
G01 X2.5908 Y1.2320 F100.00
G01 X2.5692 Y1.2374 F100.00
G01 X2.5510 Y1.2402 F100.00
G01 X2.5435 Y1.2410 F100.00
G01 X2.5250 Y1.2418 F100.00
G01 X0.7731 Y1.2418 F100.00
G01 X0.7528 Y1.2407 F100.00
G01 X0.7326 Y1.2378 F100.00
G01 X0.7128 Y1.2330 F100.00
G01 X0.7056 Y1.2309 F100.00
G01 X0.6882 Y1.2245 F100.00
G01 X0.6680 Y1.2150 F100.00
G01 X0.6490 Y1.2036 F100.00
G01 X0.6341 Y1.1926 F100.00
G01 X0.6283 Y1.1879 F100.00
G01 X0.6133 Y1.1740 F100.00
G01 X0.5997 Y1.1589 F100.00
G01 X0.5875 Y1.1426 F100.00
G01 X0.5768 Y1.1252 F100.00
G01 X0.5733 Y1.1185 F100.00
G01 X0.5655 Y1.1018 F100.00
G01 X0.5585 Y1.0826 F100.00
G01 X0.5534 Y1.0629 F100.00
G01 X0.5519 Y1.0555 F100.00
G01 X0.5493 Y1.0372 F100.00
G01 X0.5482 Y1.0169 F100.00
G01 X0.5482 Y0.7131 F100.00
G01 X0.5495 Y0.6909 F100.00
G01 X0.5522 Y0.6726 F100.00
G01 X0.5534 Y0.6671 F100.00
G01 X0.5580 Y0.6492 F100.00
G01 X0.5641 Y0.6317 F100.00
G01 X0.5662 Y0.6265 F100.00
G01 X0.5733 Y0.6115 F100.00
G00 Z2.0000
G00 X0.4483 Y1.8224
G01 F40.00
G01 Z-0.1000
G01 F100.00
G01 X0.4557 Y1.8081 F100.00
G01 X0.4715 Y1.7822 F100.00
G01 X0.4895 Y1.7575 F100.00
G01 X0.4997 Y1.7454 F100.00
G01 X0.5169 Y1.7269 F100.00
G01 X0.5394 Y1.7062 F100.00
G01 X0.5517 Y1.6963 F100.00
G01 X0.5678 Y1.6845 F100.00
G01 X0.5766 Y1.6786 F100.00
G01 X0.6029 Y1.6631 F100.00
G01 X0.6257 Y1.6520 F100.00
G01 X0.6402 Y1.6458 F100.00
G01 X0.6690 Y1.6357 F100.00
G01 X0.6986 Y1.6281 F100.00
G01 X0.7090 Y1.6260 F100.00
G01 X0.7287 Y1.6230 F100.00
G01 X0.7445 Y1.6213 F100.00
G01 X0.7750 Y1.6200 F100.00
G01 X2.5250 Y1.6200 F100.00
G01 X2.5356 Y1.6202 F100.00
G01 X2.5555 Y1.6213 F100.00
G01 X2.5660 Y1.6223 F100.00
G01 X2.5910 Y1.6260 F100.00
G01 X2.6014 Y1.6281 F100.00
G01 X2.6315 Y1.6358 F100.00
G01 X2.6548 Y1.6439 F100.00
G01 X2.6647 Y1.6477 F100.00
G01 X2.6877 Y1.6583 F100.00
G01 X2.6974 Y1.6632 F100.00
G01 X2.7234 Y1.6786 F100.00
G01 X2.7322 Y1.6845 F100.00
G01 X2.7525 Y1.6995 F100.00
G01 X2.7606 Y1.7062 F100.00
G01 X2.7722 Y1.7167 F100.00
G01 X32.1350 Y1.7167 F100.00
G01 X32.1655 Y1.7179 F100.00
G01 X32.1760 Y1.7187 F100.00
G01 X32.2062 Y1.7229 F100.00
G01 X32.2166 Y1.7247 F100.00
G01 X32.2269 Y1.7270 F100.00
G01 X32.2514 Y1.7332 F100.00
G01 X32.2615 Y1.7363 F100.00
G01 X32.2902 Y1.7465 F100.00
G01 X32.2999 Y1.7506 F100.00
G01 X32.3275 Y1.7636 F100.00
G01 X32.3414 Y1.7713 F100.00
G01 X32.3674 Y1.7872 F100.00
G01 X32.3921 Y1.8051 F100.00
G01 X32.4044 Y1.8150 F100.00
G01 X32.4270 Y1.8355 F100.00
G01 X33.2995 Y2.7080 F100.00
G01 X33.3234 Y2.7346 F100.00
G01 X33.3299 Y2.7429 F100.00
G01 X33.3478 Y2.7676 F100.00
G01 X33.3637 Y2.7936 F100.00
G01 X33.3689 Y2.8028 F100.00
G01 X33.3822 Y2.8303 F100.00
G01 X33.3865 Y2.8399 F100.00
G01 X33.3903 Y2.8498 F100.00
G01 X33.3987 Y2.8735 F100.00
G01 X33.4018 Y2.8836 F100.00
G01 X33.4103 Y2.9184 F100.00
G01 X33.4121 Y2.9288 F100.00
G01 X33.4163 Y2.9590 F100.00
G01 X33.4171 Y2.9695 F100.00
G01 X33.4183 Y3.0000 F100.00
G01 X33.4183 Y12.3267 F100.00
G01 X33.6733 Y12.5817 F100.00
G01 X34.4666 Y12.5817 F100.00
G01 X34.4741 Y12.5636 F100.00
G01 X34.5166 Y12.4744 F100.00
G01 X34.5218 Y12.4652 F100.00
G01 X34.5728 Y12.3806 F100.00
G01 X34.5790 Y12.3719 F100.00
G01 X34.6381 Y12.2926 F100.00
G01 X34.7043 Y12.2192 F100.00
G01 X34.7115 Y12.2115 F100.00
G01 X34.7192 Y12.2043 F100.00
G01 X34.7926 Y12.1381 F100.00
G01 X34.8719 Y12.0790 F100.00
G01 X34.8805 Y12.0729 F100.00
G01 X34.8894 Y12.0672 F100.00
G01 X34.9652 Y12.0218 F100.00
G01 X34.9744 Y12.0166 F100.00
G01 X34.9838 Y12.0119 F100.00
G01 X35.0733 Y11.9698 F100.00
G01 X35.0831 Y11.9660 F100.00
G01 X35.1763 Y11.9330 F100.00
G01 X35.2722 Y11.9087 F100.00
G01 X35.2825 Y11.9064 F100.00
G01 X35.2929 Y11.9046 F100.00
G01 X35.3907 Y11.8903 F100.00
G01 X35.4894 Y11.8852 F100.00
G01 X35.5000 Y11.8850 F100.00
G01 X35.5106 Y11.8852 F100.00
G01 X35.6093 Y11.8903 F100.00
G01 X35.7071 Y11.9046 F100.00
G01 X35.7175 Y11.9064 F100.00
G01 X35.8135 Y11.9302 F100.00
G01 X35.8287 Y11.9346 F100.00
G01 X35.9267 Y11.9698 F100.00
G01 X36.0162 Y12.0119 F100.00
G01 X36.0256 Y12.0166 F100.00
G01 X36.0348 Y12.0218 F100.00
G01 X36.1194 Y12.0728 F100.00
G01 X36.1281 Y12.0790 F100.00
G01 X36.2074 Y12.1381 F100.00
G01 X36.2808 Y12.2043 F100.00
G01 X36.2885 Y12.2115 F100.00
G01 X36.2957 Y12.2192 F100.00
G01 X36.3619 Y12.2926 F100.00
G01 X36.4210 Y12.3719 F100.00
G01 X36.4271 Y12.3805 F100.00
G01 X36.4782 Y12.4652 F100.00
G01 X36.4834 Y12.4744 F100.00
G01 X36.4881 Y12.4838 F100.00
G01 X36.5302 Y12.5733 F100.00
G01 X36.5340 Y12.5831 F100.00
G01 X36.5670 Y12.6763 F100.00
G01 X36.5913 Y12.7722 F100.00
G01 X36.5936 Y12.7825 F100.00
G01 X36.5954 Y12.7929 F100.00
G01 X36.6097 Y12.8907 F100.00
G01 X36.6148 Y12.9894 F100.00
G01 X36.6150 Y13.0000 F100.00
G01 X36.6148 Y13.0106 F100.00
G01 X36.6097 Y13.1093 F100.00
G01 X36.5954 Y13.2071 F100.00
G01 X36.5936 Y13.2175 F100.00
G01 X36.5698 Y13.3135 F100.00
G01 X36.5654 Y13.3287 F100.00
G01 X36.5302 Y13.4267 F100.00
G01 X36.4881 Y13.5162 F100.00
G01 X36.4834 Y13.5256 F100.00
G01 X36.4782 Y13.5348 F100.00
G01 X36.4272 Y13.6194 F100.00
G01 X36.4210 Y13.6281 F100.00
G01 X36.3619 Y13.7074 F100.00
G01 X36.2957 Y13.7808 F100.00
G01 X36.2885 Y13.7885 F100.00
G01 X36.2808 Y13.7957 F100.00
G01 X36.2074 Y13.8619 F100.00
G01 X36.1281 Y13.9210 F100.00
G01 X36.1195 Y13.9271 F100.00
G01 X36.0348 Y13.9782 F100.00
G01 X36.0256 Y13.9834 F100.00
G01 X36.0162 Y13.9881 F100.00
G01 X35.9364 Y14.0259 F100.00
G01 X35.9267 Y14.0302 F100.00
G01 X35.9169 Y14.0340 F100.00
G01 X35.8237 Y14.0670 F100.00
G01 X35.7278 Y14.0913 F100.00
G01 X35.7175 Y14.0936 F100.00
G01 X35.7071 Y14.0954 F100.00
G01 X35.6093 Y14.1097 F100.00
G01 X35.5106 Y14.1148 F100.00
G01 X35.5000 Y14.1150 F100.00
G01 X35.4894 Y14.1148 F100.00
G01 X35.3907 Y14.1097 F100.00
G01 X35.2877 Y14.0946 F100.00
G01 X35.2722 Y14.0913 F100.00
G01 X35.1763 Y14.0670 F100.00
G01 X35.0831 Y14.0340 F100.00
G01 X35.0733 Y14.0302 F100.00
G01 X35.0636 Y14.0259 F100.00
G01 X34.9744 Y13.9834 F100.00
G01 X34.8894 Y13.9328 F100.00
G01 X34.8806 Y13.9272 F100.00
G01 X34.8719 Y13.9210 F100.00
G01 X34.7926 Y13.8619 F100.00
G01 X34.7192 Y13.7957 F100.00
G01 X34.7115 Y13.7885 F100.00
G01 X34.7043 Y13.7808 F100.00
G01 X34.6381 Y13.7074 F100.00
G01 X34.5790 Y13.6281 F100.00
G01 X34.5729 Y13.6195 F100.00
G01 X34.5672 Y13.6106 F100.00
G01 X34.5166 Y13.5256 F100.00
G01 X34.4741 Y13.4364 F100.00
G01 X34.4666 Y13.4183 F100.00
G01 X33.5000 Y13.4183 F100.00
G01 X33.4894 Y13.4181 F100.00
G01 X33.4590 Y13.4163 F100.00
G01 X33.4288 Y13.4121 F100.00
G01 X33.4132 Y13.4092 F100.00
G01 X33.3887 Y13.4031 F100.00
G01 X33.3735 Y13.3987 F100.00
G01 X33.3448 Y13.3885 F100.00
G01 X33.3303 Y13.3822 F100.00
G01 X33.3028 Y13.3689 F100.00
G01 X33.2720 Y13.3507 F100.00
G01 X33.2590 Y13.3418 F100.00
G01 X33.2346 Y13.3234 F100.00
G01 X33.2080 Y13.2995 F100.00
G01 X32.7005 Y12.7920 F100.00
G01 X32.6766 Y12.7654 F100.00
G01 X32.6701 Y12.7571 F100.00
G01 X32.6522 Y12.7324 F100.00
G01 X32.6363 Y12.7064 F100.00
G01 X32.6311 Y12.6972 F100.00
G01 X32.6263 Y12.6878 F100.00
G01 X32.6135 Y12.6601 F100.00
G01 X32.6030 Y12.6315 F100.00
G01 X32.5997 Y12.6214 F100.00
G01 X32.5920 Y12.5919 F100.00
G01 X32.5897 Y12.5816 F100.00
G01 X32.5879 Y12.5712 F100.00
G01 X32.5837 Y12.5410 F100.00
G01 X32.5829 Y12.5305 F100.00
G01 X32.5817 Y12.5000 F100.00
G01 X32.5817 Y3.1733 F100.00
G01 X31.9617 Y2.5533 F100.00
G01 X2.7722 Y2.5533 F100.00
G01 X2.7606 Y2.5638 F100.00
G01 X2.7525 Y2.5705 F100.00
G01 X2.7322 Y2.5855 F100.00
G01 X2.7234 Y2.5914 F100.00
G01 X2.6971 Y2.6069 F100.00
G01 X2.6877 Y2.6117 F100.00
G01 X2.6647 Y2.6223 F100.00
G01 X2.6410 Y2.6310 F100.00
G01 X2.6310 Y2.6343 F100.00
G01 X2.6014 Y2.6419 F100.00
G01 X2.5910 Y2.6440 F100.00
G01 X2.5660 Y2.6477 F100.00
G01 X2.5555 Y2.6487 F100.00
G01 X2.5356 Y2.6498 F100.00
G01 X2.5250 Y2.6500 F100.00
G01 X0.7697 Y2.6500 F100.00
G01 X0.7392 Y2.6483 F100.00
G01 X0.7090 Y2.6440 F100.00
G01 X0.6986 Y2.6419 F100.00
G01 X0.6792 Y2.6371 F100.00
G01 X0.6640 Y2.6327 F100.00
G01 X0.6353 Y2.6223 F100.00
G01 X0.6117 Y2.6114 F100.00
G01 X0.5937 Y2.6017 F100.00
G01 X0.5766 Y2.5914 F100.00
G01 X0.5678 Y2.5855 F100.00
G01 X0.5434 Y2.5672 F100.00
G01 X0.5207 Y2.5468 F100.00
G01 X0.5132 Y2.5393 F100.00
G01 X0.4997 Y2.5246 F100.00
G01 X0.4895 Y2.5125 F100.00
G01 X0.4715 Y2.4878 F100.00
G01 X0.4556 Y2.4617 F100.00
G01 X0.4483 Y2.4477 F100.00
G01 X0.4398 Y2.4295 F100.00
G01 X0.4358 Y2.4198 F100.00
G01 X0.4257 Y2.3910 F100.00
G01 X0.4181 Y2.3614 F100.00
G01 X0.4160 Y2.3510 F100.00
G01 X0.4130 Y2.3313 F100.00
G01 X0.4117 Y2.3208 F100.00
G01 X0.4109 Y2.3103 F100.00
G01 X0.4100 Y2.2850 F100.00
G01 X0.4100 Y1.9797 F100.00
G01 X0.4113 Y1.9545 F100.00
G01 X0.4123 Y1.9440 F100.00
G01 X0.4160 Y1.9190 F100.00
G01 X0.4193 Y1.9035 F100.00
G01 X0.4257 Y1.8790 F100.00
G01 X0.4339 Y1.8552 F100.00
G01 X0.4398 Y1.8405 F100.00
G01 X0.4483 Y1.8224 F100.00
G00 Z2.0000
G00 X0.5733 Y1.8815
G01 F40.00
G01 Z-0.1000
G01 F100.00
G01 X0.5768 Y1.8748 F100.00
G01 X0.5864 Y1.8590 F100.00
G01 X0.5974 Y1.8441 F100.00
G01 X0.6021 Y1.8383 F100.00
G01 X0.6146 Y1.8246 F100.00
G01 X0.6297 Y1.8109 F100.00
G01 X0.6459 Y1.7986 F100.00
G01 X0.6522 Y1.7944 F100.00
G01 X0.6681 Y1.7850 F100.00
G01 X0.6848 Y1.7770 F100.00
G01 X0.6917 Y1.7741 F100.00
G01 X0.7092 Y1.7680 F100.00
G01 X0.7308 Y1.7626 F100.00
G01 X0.7490 Y1.7598 F100.00
G01 X0.7565 Y1.7590 F100.00
G01 X0.7750 Y1.7582 F100.00
G01 X2.5250 Y1.7582 F100.00
G01 X2.5435 Y1.7590 F100.00
G01 X2.5510 Y1.7598 F100.00
G01 X2.5692 Y1.7626 F100.00
G01 X2.5910 Y1.7680 F100.00
G01 X2.6118 Y1.7755 F100.00
G01 X2.6336 Y1.7859 F100.00
G01 X2.6526 Y1.7975 F100.00
G01 X2.6674 Y1.8085 F100.00
G01 X2.6717 Y1.8121 F100.00
G01 X2.6840 Y1.8233 F100.00
G01 X2.6880 Y1.8274 F100.00
G01 X2.7003 Y1.8411 F100.00
G01 X2.7107 Y1.8549 F100.00
G01 X32.1350 Y1.8549 F100.00
G01 X32.1625 Y1.8562 F100.00
G01 X32.1859 Y1.8596 F100.00
G01 X32.1933 Y1.8611 F100.00
G01 X32.2181 Y1.8675 F100.00
G01 X32.2422 Y1.8762 F100.00
G01 X32.2637 Y1.8863 F100.00
G01 X32.2703 Y1.8898 F100.00
G01 X32.2906 Y1.9021 F100.00
G01 X32.3097 Y1.9162 F100.00
G01 X32.3155 Y1.9209 F100.00
G01 X32.3317 Y1.9356 F100.00
G01 X33.1994 Y2.8033 F100.00
G01 X33.2165 Y2.8223 F100.00
G01 X33.2329 Y2.8444 F100.00
G01 X33.2470 Y2.8680 F100.00
G01 X33.2573 Y2.8894 F100.00
G01 X33.2595 Y2.8946 F100.00
G01 X33.2669 Y2.9151 F100.00
G01 X33.2690 Y2.9223 F100.00
G01 X33.2747 Y2.9454 F100.00
G01 X33.2788 Y2.9725 F100.00
G01 X33.2801 Y3.0000 F100.00
G01 X33.2801 Y12.3840 F100.00
G01 X33.6160 Y12.7199 F100.00
G01 X34.5643 Y12.7199 F100.00
G01 X34.5664 Y12.7129 F100.00
G01 X34.5976 Y12.6262 F100.00
G01 X34.6385 Y12.5395 F100.00
G01 X34.6878 Y12.4573 F100.00
G01 X34.7449 Y12.3803 F100.00
G01 X34.8093 Y12.3093 F100.00
G01 X34.8803 Y12.2449 F100.00
G01 X34.9573 Y12.1878 F100.00
G01 X35.0395 Y12.1385 F100.00
G01 X35.1262 Y12.0976 F100.00
G01 X35.2164 Y12.0653 F100.00
G01 X35.3094 Y12.0420 F100.00
G01 X35.4043 Y12.0279 F100.00
G01 X35.5000 Y12.0232 F100.00
G01 X35.5957 Y12.0279 F100.00
G01 X35.6906 Y12.0420 F100.00
G01 X35.7817 Y12.0647 F100.00
G01 X35.8738 Y12.0976 F100.00
G01 X35.9605 Y12.1385 F100.00
G01 X36.0427 Y12.1878 F100.00
G01 X36.1197 Y12.2449 F100.00
G01 X36.1907 Y12.3093 F100.00
G01 X36.2551 Y12.3803 F100.00
G01 X36.3122 Y12.4573 F100.00
G01 X36.3615 Y12.5395 F100.00
G01 X36.4024 Y12.6262 F100.00
G01 X36.4347 Y12.7164 F100.00
G01 X36.4580 Y12.8094 F100.00
G01 X36.4721 Y12.9043 F100.00
G01 X36.4768 Y13.0000 F100.00
G01 X36.4721 Y13.0957 F100.00
G01 X36.4580 Y13.1906 F100.00
G01 X36.4342 Y13.2853 F100.00
G01 X36.4024 Y13.3738 F100.00
G01 X36.3615 Y13.4605 F100.00
G01 X36.3122 Y13.5427 F100.00
G01 X36.2551 Y13.6197 F100.00
G01 X36.1907 Y13.6907 F100.00
G01 X36.1197 Y13.7551 F100.00
G01 X36.0427 Y13.8122 F100.00
G01 X35.9637 Y13.8596 F100.00
G01 X35.9571 Y13.8632 F100.00
G01 X35.8773 Y13.9009 F100.00
G01 X35.8703 Y13.9038 F100.00
G01 X35.7836 Y13.9347 F100.00
G01 X35.6942 Y13.9572 F100.00
G01 X35.6869 Y13.9587 F100.00
G01 X35.5957 Y13.9721 F100.00
G01 X35.5000 Y13.9768 F100.00
G01 X35.4043 Y13.9721 F100.00
G01 X35.3113 Y13.9584 F100.00
G01 X35.2201 Y13.9357 F100.00
G01 X35.2129 Y13.9336 F100.00
G01 X35.1262 Y13.9024 F100.00
G01 X35.0395 Y13.8615 F100.00
G01 X34.9605 Y13.8142 F100.00
G01 X34.9542 Y13.8100 F100.00
G01 X34.8803 Y13.7551 F100.00
G01 X34.8120 Y13.6933 F100.00
G01 X34.8067 Y13.6880 F100.00
G01 X34.7449 Y13.6197 F100.00
G01 X34.6900 Y13.5458 F100.00
G01 X34.6858 Y13.5395 F100.00
G01 X34.6385 Y13.4605 F100.00
G01 X34.5991 Y13.3773 F100.00
G01 X34.5962 Y13.3703 F100.00
G01 X34.5664 Y13.2871 F100.00
G01 X34.5643 Y13.2801 F100.00
G01 X33.4981 Y13.2801 F100.00
G01 X33.4763 Y13.2790 F100.00
G01 X33.4688 Y13.2783 F100.00
G01 X33.4454 Y13.2747 F100.00
G01 X33.4223 Y13.2690 F100.00
G01 X33.4151 Y13.2669 F100.00
G01 X33.3928 Y13.2588 F100.00
G01 X33.3680 Y13.2470 F100.00
G01 X33.3476 Y13.2349 F100.00
G01 X33.3413 Y13.2307 F100.00
G01 X33.3223 Y13.2165 F100.00
G01 X33.3033 Y13.1994 F100.00
G01 X32.8019 Y12.6981 F100.00
G01 X32.7835 Y12.6777 F100.00
G01 X32.7671 Y12.6556 F100.00
G01 X32.7530 Y12.6320 F100.00
G01 X32.7412 Y12.6072 F100.00
G01 X32.7320 Y12.5813 F100.00
G01 X32.7253 Y12.5546 F100.00
G01 X32.7212 Y12.5275 F100.00
G01 X32.7199 Y12.5000 F100.00
G01 X32.7199 Y3.1160 F100.00
G01 X32.0190 Y2.4151 F100.00
G01 X2.7107 Y2.4151 F100.00
G01 X2.7003 Y2.4289 F100.00
G01 X2.6880 Y2.4426 F100.00
G01 X2.6840 Y2.4467 F100.00
G01 X2.6717 Y2.4579 F100.00
G01 X2.6674 Y2.4615 F100.00
G01 X2.6526 Y2.4725 F100.00
G01 X2.6336 Y2.4841 F100.00
G01 X2.6118 Y2.4945 F100.00
G01 X2.5908 Y2.5020 F100.00
G01 X2.5692 Y2.5074 F100.00
G01 X2.5510 Y2.5102 F100.00
G01 X2.5435 Y2.5110 F100.00
G01 X2.5250 Y2.5118 F100.00
G01 X0.7731 Y2.5118 F100.00
G01 X0.7528 Y2.5107 F100.00
G01 X0.7326 Y2.5078 F100.00
G01 X0.7128 Y2.5030 F100.00
G01 X0.7056 Y2.5009 F100.00
G01 X0.6882 Y2.4945 F100.00
G01 X0.6680 Y2.4850 F100.00
G01 X0.6490 Y2.4736 F100.00
G01 X0.6341 Y2.4626 F100.00
G01 X0.6283 Y2.4579 F100.00
G01 X0.6133 Y2.4440 F100.00
G01 X0.5997 Y2.4289 F100.00
G01 X0.5875 Y2.4126 F100.00
G01 X0.5768 Y2.3952 F100.00
G01 X0.5733 Y2.3885 F100.00
G01 X0.5655 Y2.3718 F100.00
G01 X0.5585 Y2.3526 F100.00
G01 X0.5534 Y2.3329 F100.00
G01 X0.5519 Y2.3255 F100.00
G01 X0.5493 Y2.3072 F100.00
G01 X0.5482 Y2.2869 F100.00
G01 X0.5482 Y1.9831 F100.00
G01 X0.5495 Y1.9609 F100.00
G01 X0.5522 Y1.9426 F100.00
G01 X0.5534 Y1.9371 F100.00
G01 X0.5580 Y1.9192 F100.00
G01 X0.5641 Y1.9017 F100.00
G01 X0.5662 Y1.8965 F100.00
G01 X0.5733 Y1.8815 F100.00
G00 Z2.0000
G00 X0.4483 Y3.0924
G01 F40.00
G01 Z-0.1000
G01 F100.00
G01 X0.4557 Y3.0781 F100.00
G01 X0.4715 Y3.0522 F100.00
G01 X0.4895 Y3.0275 F100.00
G01 X0.4997 Y3.0154 F100.00
G01 X0.5169 Y2.9969 F100.00
G01 X0.5394 Y2.9762 F100.00
G01 X0.5517 Y2.9663 F100.00
G01 X0.5678 Y2.9545 F100.00
G01 X0.5766 Y2.9486 F100.00
G01 X0.6029 Y2.9331 F100.00
G01 X0.6257 Y2.9220 F100.00
G01 X0.6402 Y2.9158 F100.00
G01 X0.6690 Y2.9057 F100.00
G01 X0.6986 Y2.8981 F100.00
G01 X0.7142 Y2.8952 F100.00
G01 X0.7392 Y2.8917 F100.00
G01 X0.7697 Y2.8900 F100.00
G01 X2.5303 Y2.8900 F100.00
G01 X2.5608 Y2.8917 F100.00
G01 X2.5713 Y2.8930 F100.00
G01 X2.5962 Y2.8970 F100.00
G01 X2.6208 Y2.9029 F100.00
G01 X2.6315 Y2.9058 F100.00
G01 X2.6598 Y2.9158 F100.00
G01 X2.6695 Y2.9198 F100.00
G01 X2.6929 Y2.9309 F100.00
G01 X2.7019 Y2.9357 F100.00
G01 X2.7234 Y2.9486 F100.00
G01 X2.7322 Y2.9545 F100.00
G01 X2.7525 Y2.9695 F100.00
G01 X2.7606 Y2.9762 F100.00
G01 X2.7722 Y2.9867 F100.00
G01 X3.9050 Y2.9867 F100.00
G01 X3.9355 Y2.9879 F100.00
G01 X3.9460 Y2.9887 F100.00
G01 X3.9762 Y2.9929 F100.00
G01 X3.9866 Y2.9947 F100.00
G01 X3.9969 Y2.9970 F100.00
G01 X4.0214 Y3.0032 F100.00
G01 X4.0315 Y3.0063 F100.00
G01 X4.0651 Y3.0185 F100.00
G01 X4.0928 Y3.0313 F100.00
G01 X4.1068 Y3.0386 F100.00
G01 X4.1374 Y3.0572 F100.00
G01 X4.1663 Y3.0783 F100.00
G01 X4.1784 Y3.0885 F100.00
G01 X4.2008 Y3.1092 F100.00
G01 X4.7958 Y3.7042 F100.00
G01 X4.8165 Y3.7266 F100.00
G01 X4.8267 Y3.7387 F100.00
G01 X4.8449 Y3.7632 F100.00
G01 X4.8535 Y3.7765 F100.00
G01 X4.8689 Y3.8028 F100.00
G01 X4.8822 Y3.8303 F100.00
G01 X4.8885 Y3.8448 F100.00
G01 X4.9003 Y3.8786 F100.00
G01 X4.9092 Y3.9132 F100.00
G01 X4.9121 Y3.9288 F100.00
G01 X4.9163 Y3.9590 F100.00
G01 X4.9171 Y3.9695 F100.00
G01 X4.9183 Y4.0000 F100.00
G01 X4.9183 Y12.3267 F100.00
G01 X5.1733 Y12.5817 F100.00
G01 X5.4166 Y12.5817 F100.00
G01 X5.4241 Y12.5636 F100.00
G01 X5.4619 Y12.4838 F100.00
G01 X5.4666 Y12.4744 F100.00
G01 X5.4718 Y12.4652 F100.00
G01 X5.5228 Y12.3806 F100.00
G01 X5.5816 Y12.3009 F100.00
G01 X5.5881 Y12.2926 F100.00
G01 X5.5950 Y12.2846 F100.00
G01 X5.6615 Y12.2115 F100.00
G01 X5.7346 Y12.1450 F100.00
G01 X5.7426 Y12.1381 F100.00
G01 X5.7509 Y12.1316 F100.00
G01 X5.8305 Y12.0729 F100.00
G01 X5.9152 Y12.0218 F100.00
G01 X5.9244 Y12.0166 F100.00
G01 X5.9338 Y12.0119 F100.00
G01 X6.0233 Y11.9698 F100.00
G01 X6.0331 Y11.9660 F100.00
G01 X6.1263 Y11.9330 F100.00
G01 X6.2222 Y11.9087 F100.00
G01 X6.2325 Y11.9064 F100.00
G01 X6.2429 Y11.9046 F100.00
G01 X6.3407 Y11.8903 F100.00
G01 X6.4394 Y11.8852 F100.00
G01 X6.4500 Y11.8850 F100.00
G01 X6.4606 Y11.8852 F100.00
G01 X6.5593 Y11.8903 F100.00
G01 X6.6571 Y11.9046 F100.00
G01 X6.6675 Y11.9064 F100.00
G01 X6.6778 Y11.9087 F100.00
G01 X6.7737 Y11.9330 F100.00
G01 X6.8669 Y11.9660 F100.00
G01 X6.8767 Y11.9698 F100.00
G01 X6.9662 Y12.0119 F100.00
G01 X6.9756 Y12.0166 F100.00
G01 X6.9848 Y12.0218 F100.00
G01 X7.0694 Y12.0728 F100.00
G01 X7.1491 Y12.1316 F100.00
G01 X7.1574 Y12.1381 F100.00
G01 X7.1654 Y12.1450 F100.00
G01 X7.2385 Y12.2115 F100.00
G01 X7.2457 Y12.2192 F100.00
G01 X7.3119 Y12.2926 F100.00
G01 X7.3710 Y12.3719 F100.00
G01 X7.3771 Y12.3805 F100.00
G01 X7.4282 Y12.4652 F100.00
G01 X7.4334 Y12.4744 F100.00
G01 X7.4381 Y12.4838 F100.00
G01 X7.4759 Y12.5636 F100.00
G01 X7.4802 Y12.5733 F100.00
G01 X7.4840 Y12.5831 F100.00
G01 X7.5170 Y12.6763 F100.00
G01 X7.5413 Y12.7722 F100.00
G01 X7.5436 Y12.7825 F100.00
G01 X7.5454 Y12.7929 F100.00
G01 X7.5597 Y12.8907 F100.00
G01 X7.5648 Y12.9894 F100.00
G01 X7.5650 Y13.0000 F100.00
G01 X7.5648 Y13.0106 F100.00
G01 X7.5597 Y13.1093 F100.00
G01 X7.5454 Y13.2071 F100.00
G01 X7.5436 Y13.2175 F100.00
G01 X7.5413 Y13.2278 F100.00
G01 X7.5198 Y13.3135 F100.00
G01 X7.5170 Y13.3237 F100.00
G01 X7.5137 Y13.3337 F100.00
G01 X7.4802 Y13.4267 F100.00
G01 X7.4381 Y13.5162 F100.00
G01 X7.4334 Y13.5256 F100.00
G01 X7.3828 Y13.6106 F100.00
G01 X7.3772 Y13.6194 F100.00
G01 X7.3710 Y13.6281 F100.00
G01 X7.3119 Y13.7074 F100.00
G01 X7.2457 Y13.7808 F100.00
G01 X7.2385 Y13.7885 F100.00
G01 X7.2308 Y13.7957 F100.00
G01 X7.1574 Y13.8619 F100.00
G01 X7.0781 Y13.9210 F100.00
G01 X7.0695 Y13.9271 F100.00
G01 X7.0606 Y13.9328 F100.00
G01 X6.9848 Y13.9782 F100.00
G01 X6.9756 Y13.9834 F100.00
G01 X6.9662 Y13.9881 F100.00
G01 X6.8767 Y14.0302 F100.00
G01 X6.7837 Y14.0637 F100.00
G01 X6.7737 Y14.0670 F100.00
G01 X6.7635 Y14.0698 F100.00
G01 X6.6675 Y14.0936 F100.00
G01 X6.6571 Y14.0954 F100.00
G01 X6.5593 Y14.1097 F100.00
G01 X6.4606 Y14.1148 F100.00
G01 X6.4500 Y14.1150 F100.00
G01 X6.4394 Y14.1148 F100.00
G01 X6.3407 Y14.1097 F100.00
G01 X6.2429 Y14.0954 F100.00
G01 X6.2325 Y14.0936 F100.00
G01 X6.2222 Y14.0913 F100.00
G01 X6.1263 Y14.0670 F100.00
G01 X6.0331 Y14.0340 F100.00
G01 X6.0184 Y14.0281 F100.00
G01 X5.9244 Y13.9834 F100.00
G01 X5.9152 Y13.9782 F100.00
G01 X5.8306 Y13.9272 F100.00
G01 X5.8219 Y13.9210 F100.00
G01 X5.7426 Y13.8619 F100.00
G01 X5.6692 Y13.7957 F100.00
G01 X5.6615 Y13.7885 F100.00
G01 X5.6543 Y13.7808 F100.00
G01 X5.5881 Y13.7074 F100.00
G01 X5.5290 Y13.6281 F100.00
G01 X5.5229 Y13.6195 F100.00
G01 X5.4718 Y13.5348 F100.00
G01 X5.4666 Y13.5256 F100.00
G01 X5.4241 Y13.4364 F100.00
G01 X5.4166 Y13.4183 F100.00
G01 X5.0000 Y13.4183 F100.00
G01 X4.9695 Y13.4171 F100.00
G01 X4.9537 Y13.4157 F100.00
G01 X4.9236 Y13.4113 F100.00
G01 X4.9081 Y13.4080 F100.00
G01 X4.8786 Y13.4003 F100.00
G01 X4.8448 Y13.3885 F100.00
G01 X4.8303 Y13.3822 F100.00
G01 X4.8028 Y13.3689 F100.00
G01 X4.7720 Y13.3507 F100.00
G01 X4.7590 Y13.3418 F100.00
G01 X4.7346 Y13.3234 F100.00
G01 X4.7266 Y13.3165 F100.00
G01 X4.7042 Y13.2958 F100.00
G01 X4.2042 Y12.7958 F100.00
G01 X4.1969 Y12.7882 F100.00
G01 X4.1800 Y12.7694 F100.00
G01 X4.1701 Y12.7571 F100.00
G01 X4.1522 Y12.7324 F100.00
G01 X4.1363 Y12.7064 F100.00
G01 X4.1286 Y12.6925 F100.00
G01 X4.1156 Y12.6649 F100.00
G01 X4.1097 Y12.6502 F100.00
G01 X4.0997 Y12.6214 F100.00
G01 X4.0908 Y12.5868 F100.00
G01 X4.0879 Y12.5712 F100.00
G01 X4.0837 Y12.5410 F100.00
G01 X4.0829 Y12.5305 F100.00
G01 X4.0817 Y12.5000 F100.00
G01 X4.0817 Y4.1733 F100.00
G01 X3.7317 Y3.8233 F100.00
G01 X2.7722 Y3.8233 F100.00
G01 X2.7606 Y3.8338 F100.00
G01 X2.7525 Y3.8405 F100.00
G01 X2.7322 Y3.8555 F100.00
G01 X2.7234 Y3.8614 F100.00
G01 X2.7017 Y3.8744 F100.00
G01 X2.6924 Y3.8794 F100.00
G01 X2.6695 Y3.8902 F100.00
G01 X2.6598 Y3.8942 F100.00
G01 X2.6310 Y3.9043 F100.00
G01 X2.6208 Y3.9071 F100.00
G01 X2.5962 Y3.9130 F100.00
G01 X2.5713 Y3.9170 F100.00
G01 X2.5608 Y3.9183 F100.00
G01 X2.5303 Y3.9200 F100.00
G01 X0.7750 Y3.9200 F100.00
G01 X0.7445 Y3.9187 F100.00
G01 X0.7287 Y3.9170 F100.00
G01 X0.7090 Y3.9140 F100.00
G01 X0.6986 Y3.9119 F100.00
G01 X0.6690 Y3.9043 F100.00
G01 X0.6452 Y3.8961 F100.00
G01 X0.6305 Y3.8902 F100.00
G01 X0.6071 Y3.8791 F100.00
G01 X0.5937 Y3.8717 F100.00
G01 X0.5722 Y3.8585 F100.00
G01 X0.5475 Y3.8405 F100.00
G01 X0.5354 Y3.8303 F100.00
G01 X0.5169 Y3.8131 F100.00
G01 X0.4997 Y3.7946 F100.00
G01 X0.4895 Y3.7825 F100.00
G01 X0.4715 Y3.7578 F100.00
G01 X0.4583 Y3.7363 F100.00
G01 X0.4506 Y3.7224 F100.00
G01 X0.4377 Y3.6947 F100.00
G01 X0.4290 Y3.6710 F100.00
G01 X0.4242 Y3.6559 F100.00
G01 X0.4170 Y3.6262 F100.00
G01 X0.4130 Y3.6013 F100.00
G01 X0.4113 Y3.5855 F100.00
G01 X0.4100 Y3.5603 F100.00
G01 X0.4100 Y3.2550 F100.00
G01 X0.4102 Y3.2444 F100.00
G01 X0.4113 Y3.2245 F100.00
G01 X0.4130 Y3.2087 F100.00
G01 X0.4170 Y3.1838 F100.00
G01 X0.4229 Y3.1592 F100.00
G01 X0.4273 Y3.1440 F100.00
G01 X0.4358 Y3.1202 F100.00
G01 X0.4398 Y3.1105 F100.00
G01 X0.4483 Y3.0924 F100.00
G00 Z2.0000
G00 X0.5733 Y3.1515
G01 F40.00
G01 Z-0.1000
G01 F100.00
G01 X0.5768 Y3.1448 F100.00
G01 X0.5864 Y3.1290 F100.00
G01 X0.5974 Y3.1141 F100.00
G01 X0.6021 Y3.1083 F100.00
G01 X0.6146 Y3.0946 F100.00
G01 X0.6297 Y3.0809 F100.00
G01 X0.6459 Y3.0686 F100.00
G01 X0.6522 Y3.0644 F100.00
G01 X0.6681 Y3.0550 F100.00
G01 X0.6848 Y3.0470 F100.00
G01 X0.6917 Y3.0441 F100.00
G01 X0.7092 Y3.0380 F100.00
G01 X0.7308 Y3.0326 F100.00
G01 X0.7490 Y3.0298 F100.00
G01 X0.7565 Y3.0290 F100.00
G01 X0.7750 Y3.0282 F100.00
G01 X2.5269 Y3.0282 F100.00
G01 X2.5454 Y3.0291 F100.00
G01 X2.5510 Y3.0298 F100.00
G01 X2.5692 Y3.0326 F100.00
G01 X2.5876 Y3.0371 F100.00
G01 X2.5944 Y3.0391 F100.00
G01 X2.6118 Y3.0455 F100.00
G01 X2.6320 Y3.0550 F100.00
G01 X2.6510 Y3.0664 F100.00
G01 X2.6659 Y3.0774 F100.00
G01 X2.6717 Y3.0821 F100.00
G01 X2.6840 Y3.0933 F100.00
G01 X2.6880 Y3.0974 F100.00
G01 X2.7003 Y3.1111 F100.00
G01 X2.7107 Y3.1249 F100.00
G01 X3.9050 Y3.1249 F100.00
G01 X3.9325 Y3.1262 F100.00
G01 X3.9578 Y3.1299 F100.00
G01 X3.9827 Y3.1360 F100.00
G01 X3.9899 Y3.1381 F100.00
G01 X4.0122 Y3.1462 F100.00
G01 X4.0370 Y3.1580 F100.00
G01 X4.0574 Y3.1701 F100.00
G01 X4.0637 Y3.1743 F100.00
G01 X4.0827 Y3.1885 F100.00
G01 X4.1017 Y3.2056 F100.00
G01 X4.6981 Y3.8019 F100.00
G01 X4.7141 Y3.8195 F100.00
G01 X4.7188 Y3.8253 F100.00
G01 X4.7329 Y3.8444 F100.00
G01 X4.7452 Y3.8647 F100.00
G01 X4.7487 Y3.8713 F100.00
G01 X4.7588 Y3.8928 F100.00
G01 X4.7669 Y3.9151 F100.00
G01 X4.7690 Y3.9223 F100.00
G01 X4.7747 Y3.9454 F100.00
G01 X4.7783 Y3.9688 F100.00
G01 X4.7790 Y3.9763 F100.00
G01 X4.7801 Y4.0000 F100.00
G01 X4.7801 Y12.3840 F100.00
G01 X5.1160 Y12.7199 F100.00
G01 X5.5143 Y12.7199 F100.00
G01 X5.5164 Y12.7129 F100.00
G01 X5.5476 Y12.6262 F100.00
G01 X5.5868 Y12.5429 F100.00
G01 X5.5904 Y12.5363 F100.00
G01 X5.6358 Y12.4605 F100.00
G01 X5.6400 Y12.4542 F100.00
G01 X5.6949 Y12.3803 F100.00
G01 X5.7567 Y12.3120 F100.00
G01 X5.7620 Y12.3067 F100.00
G01 X5.8303 Y12.2449 F100.00
G01 X5.9073 Y12.1878 F100.00
G01 X5.9895 Y12.1385 F100.00
G01 X6.0727 Y12.0991 F100.00
G01 X6.0797 Y12.0962 F100.00
G01 X6.1664 Y12.0653 F100.00
G01 X6.2558 Y12.0428 F100.00
G01 X6.2631 Y12.0413 F100.00
G01 X6.3505 Y12.0284 F100.00
G01 X6.3580 Y12.0276 F100.00
G01 X6.4500 Y12.0232 F100.00
G01 X6.5457 Y12.0279 F100.00
G01 X6.6369 Y12.0413 F100.00
G01 X6.6442 Y12.0428 F100.00
G01 X6.7336 Y12.0653 F100.00
G01 X6.8203 Y12.0962 F100.00
G01 X6.8273 Y12.0991 F100.00
G01 X6.9105 Y12.1385 F100.00
G01 X6.9942 Y12.1889 F100.00
G01 X7.0667 Y12.2426 F100.00
G01 X7.0725 Y12.2474 F100.00
G01 X7.1407 Y12.3093 F100.00
G01 X7.2026 Y12.3775 F100.00
G01 X7.2074 Y12.3833 F100.00
G01 X7.2622 Y12.4573 F100.00
G01 X7.3115 Y12.5395 F100.00
G01 X7.3509 Y12.6227 F100.00
G01 X7.3538 Y12.6297 F100.00
G01 X7.3847 Y12.7164 F100.00
G01 X7.4072 Y12.8058 F100.00
G01 X7.4087 Y12.8131 F100.00
G01 X7.4221 Y12.9043 F100.00
G01 X7.4267 Y12.9962 F100.00
G01 X7.4267 Y13.0038 F100.00
G01 X7.4221 Y13.0957 F100.00
G01 X7.4087 Y13.1869 F100.00
G01 X7.4072 Y13.1942 F100.00
G01 X7.3857 Y13.2799 F100.00
G01 X7.3836 Y13.2871 F100.00
G01 X7.3524 Y13.3738 F100.00
G01 X7.3132 Y13.4571 F100.00
G01 X7.3096 Y13.4637 F100.00
G01 X7.2622 Y13.5427 F100.00
G01 X7.2074 Y13.6167 F100.00
G01 X7.2026 Y13.6225 F100.00
G01 X7.1407 Y13.6907 F100.00
G01 X7.0725 Y13.7526 F100.00
G01 X7.0667 Y13.7574 F100.00
G01 X6.9927 Y13.8122 F100.00
G01 X6.9137 Y13.8596 F100.00
G01 X6.9071 Y13.8632 F100.00
G01 X6.8238 Y13.9024 F100.00
G01 X6.7371 Y13.9336 F100.00
G01 X6.7299 Y13.9357 F100.00
G01 X6.6406 Y13.9580 F100.00
G01 X6.5495 Y13.9716 F100.00
G01 X6.5420 Y13.9724 F100.00
G01 X6.4500 Y13.9768 F100.00
G01 X6.3543 Y13.9721 F100.00
G01 X6.2631 Y13.9587 F100.00
G01 X6.2558 Y13.9572 F100.00
G01 X6.1664 Y13.9347 F100.00
G01 X6.0797 Y13.9038 F100.00
G01 X6.0727 Y13.9009 F100.00
G01 X5.9929 Y13.8632 F100.00
G01 X5.9863 Y13.8596 F100.00
G01 X5.9073 Y13.8122 F100.00
G01 X5.8303 Y13.7551 F100.00
G01 X5.7593 Y13.6907 F100.00
G01 X5.6949 Y13.6197 F100.00
G01 X5.6378 Y13.5427 F100.00
G01 X5.5885 Y13.4605 F100.00
G01 X5.5476 Y13.3738 F100.00
G01 X5.5164 Y13.2871 F100.00
G01 X5.5143 Y13.2801 F100.00
G01 X5.0000 Y13.2801 F100.00
G01 X4.9763 Y13.2790 F100.00
G01 X4.9688 Y13.2783 F100.00
G01 X4.9454 Y13.2747 F100.00
G01 X4.9187 Y13.2680 F100.00
G01 X4.8928 Y13.2588 F100.00
G01 X4.8680 Y13.2470 F100.00
G01 X4.8476 Y13.2349 F100.00
G01 X4.8413 Y13.2307 F100.00
G01 X4.8223 Y13.2165 F100.00
G01 X4.8033 Y13.1994 F100.00
G01 X4.3006 Y12.6967 F100.00
G01 X4.2859 Y12.6805 F100.00
G01 X4.2812 Y12.6747 F100.00
G01 X4.2671 Y12.6556 F100.00
G01 X4.2548 Y12.6353 F100.00
G01 X4.2513 Y12.6287 F100.00
G01 X4.2412 Y12.6072 F100.00
G01 X4.2314 Y12.5795 F100.00
G01 X4.2253 Y12.5546 F100.00
G01 X4.2217 Y12.5312 F100.00
G01 X4.2210 Y12.5237 F100.00
G01 X4.2199 Y12.5000 F100.00
G01 X4.2199 Y4.1160 F100.00
G01 X3.7890 Y3.6851 F100.00
G01 X2.7107 Y3.6851 F100.00
G01 X2.7003 Y3.6989 F100.00
G01 X2.6880 Y3.7126 F100.00
G01 X2.6840 Y3.7167 F100.00
G01 X2.6717 Y3.7279 F100.00
G01 X2.6659 Y3.7326 F100.00
G01 X2.6510 Y3.7436 F100.00
G01 X2.6319 Y3.7550 F100.00
G01 X2.6118 Y3.7645 F100.00
G01 X2.5944 Y3.7709 F100.00
G01 X2.5872 Y3.7730 F100.00
G01 X2.5692 Y3.7774 F100.00
G01 X2.5510 Y3.7802 F100.00
G01 X2.5454 Y3.7809 F100.00
G01 X2.5269 Y3.7818 F100.00
G01 X0.7750 Y3.7818 F100.00
G01 X0.7565 Y3.7810 F100.00
G01 X0.7490 Y3.7802 F100.00
G01 X0.7308 Y3.7774 F100.00
G01 X0.7110 Y3.7726 F100.00
G01 X0.6917 Y3.7659 F100.00
G01 X0.6848 Y3.7630 F100.00
G01 X0.6680 Y3.7550 F100.00
G01 X0.6522 Y3.7456 F100.00
G01 X0.6459 Y3.7414 F100.00
G01 X0.6311 Y3.7303 F100.00
G01 X0.6174 Y3.7180 F100.00
G01 X0.6120 Y3.7126 F100.00
G01 X0.5997 Y3.6989 F100.00
G01 X0.5886 Y3.6841 F100.00
G01 X0.5844 Y3.6778 F100.00
G01 X0.5750 Y3.6619 F100.00
G01 X0.5670 Y3.6452 F100.00
G01 X0.5641 Y3.6383 F100.00
G01 X0.5580 Y3.6208 F100.00
G01 X0.5529 Y3.6011 F100.00
G01 X0.5493 Y3.5772 F100.00
G01 X0.5482 Y3.5569 F100.00
G01 X0.5483 Y3.2512 F100.00
G01 X0.5491 Y3.2346 F100.00
G01 X0.5498 Y3.2290 F100.00
G01 X0.5526 Y3.2108 F100.00
G01 X0.5570 Y3.1928 F100.00
G01 X0.5585 Y3.1874 F100.00
G01 X0.5648 Y3.1700 F100.00
G01 X0.5733 Y3.1515 F100.00
G00 Z2.0000
G00 X0.4483 Y4.3624
G01 F40.00
G01 Z-0.1000
G01 F100.00
G01 X0.4557 Y4.3481 F100.00
G01 X0.4715 Y4.3222 F100.00
G01 X0.4863 Y4.3017 F100.00
G01 X0.4962 Y4.2894 F100.00
G01 X0.5169 Y4.2669 F100.00
G01 X0.5354 Y4.2497 F100.00
G01 X0.5475 Y4.2395 F100.00
G01 X0.5678 Y4.2245 F100.00
G01 X0.5811 Y4.2158 F100.00
G01 X0.6029 Y4.2031 F100.00
G01 X0.6305 Y4.1898 F100.00
G01 X0.6452 Y4.1839 F100.00
G01 X0.6690 Y4.1757 F100.00
G01 X0.6986 Y4.1681 F100.00
G01 X0.7142 Y4.1652 F100.00
G01 X0.7392 Y4.1617 F100.00
G01 X0.7497 Y4.1609 F100.00
G01 X0.7750 Y4.1600 F100.00
G01 X2.5250 Y4.1600 F100.00
G01 X2.5503 Y4.1609 F100.00
G01 X2.5608 Y4.1617 F100.00
G01 X2.5858 Y4.1652 F100.00
G01 X2.6014 Y4.1681 F100.00
G01 X2.6267 Y4.1744 F100.00
G01 X2.6410 Y4.1790 F100.00
G01 X2.6647 Y4.1877 F100.00
G01 X2.6883 Y4.1986 F100.00
G01 X2.7019 Y4.2057 F100.00
G01 X2.7278 Y4.2215 F100.00
G01 X2.7483 Y4.2363 F100.00
G01 X2.7606 Y4.2462 F100.00
G01 X2.7831 Y4.2669 F100.00
G01 X2.8003 Y4.2854 F100.00
G01 X2.8105 Y4.2975 F100.00
G01 X2.8255 Y4.3178 F100.00
G01 X2.8342 Y4.3311 F100.00
G01 X2.8469 Y4.3529 F100.00
G01 X2.8580 Y4.3757 F100.00
G01 X2.8642 Y4.3902 F100.00
G01 X2.8743 Y4.4190 F100.00
G01 X2.8771 Y4.4292 F100.00
G01 X2.8830 Y4.4538 F100.00
G01 X2.8870 Y4.4787 F100.00
G01 X2.8883 Y4.4892 F100.00
G01 X2.8900 Y4.5197 F100.00
G01 X2.8900 Y4.8303 F100.00
G01 X2.8887 Y4.8555 F100.00
G01 X2.8877 Y4.8660 F100.00
G01 X2.8840 Y4.8910 F100.00
G01 X2.8819 Y4.9014 F100.00
G01 X2.8742 Y4.9315 F100.00
G01 X2.8642 Y4.9598 F100.00
G01 X2.8602 Y4.9695 F100.00
G01 X2.8514 Y4.9883 F100.00
G01 X2.8417 Y5.0063 F100.00
G01 X2.8314 Y5.0234 F100.00
G01 X2.8255 Y5.0322 F100.00
G01 X2.8072 Y5.0566 F100.00
G01 X2.7868 Y5.0793 F100.00
G01 X2.7793 Y5.0868 F100.00
G01 X2.7646 Y5.1003 F100.00
G01 X2.7566 Y5.1072 F100.00
G01 X2.7483 Y5.1137 F100.00
G01 X2.7322 Y5.1255 F100.00
G01 X2.7234 Y5.1314 F100.00
G01 X2.6971 Y5.1469 F100.00
G01 X2.6695 Y5.1602 F100.00
G01 X2.6598 Y5.1642 F100.00
G01 X2.6410 Y5.1710 F100.00
G01 X2.6259 Y5.1758 F100.00
G01 X2.5962 Y5.1830 F100.00
G01 X2.5660 Y5.1877 F100.00
G01 X2.5503 Y5.1891 F100.00
G01 X2.5250 Y5.1900 F100.00
G01 X0.7750 Y5.1900 F100.00
G01 X0.7497 Y5.1891 F100.00
G01 X0.7392 Y5.1883 F100.00
G01 X0.7142 Y5.1848 F100.00
G01 X0.6986 Y5.1819 F100.00
G01 X0.6690 Y5.1743 F100.00
G01 X0.6452 Y5.1661 F100.00
G01 X0.6305 Y5.1602 F100.00
G01 X0.6026 Y5.1468 F100.00
G01 X0.5811 Y5.1342 F100.00
G01 X0.5678 Y5.1255 F100.00
G01 X0.5434 Y5.1072 F100.00
G01 X0.5245 Y5.0904 F100.00
G01 X0.5132 Y5.0793 F100.00
G01 X0.4928 Y5.0566 F100.00
G01 X0.4776 Y5.0364 F100.00
G01 X0.4686 Y5.0234 F100.00
G01 X0.4531 Y4.9971 F100.00
G01 X0.4420 Y4.9743 F100.00
G01 X0.4358 Y4.9598 F100.00
G01 X0.4257 Y4.9310 F100.00
G01 X0.4193 Y4.9065 F100.00
G01 X0.4160 Y4.8910 F100.00
G01 X0.4117 Y4.8608 F100.00
G01 X0.4102 Y4.8356 F100.00
G01 X0.4100 Y4.8250 F100.00
G01 X0.4100 Y4.5250 F100.00
G01 X0.4102 Y4.5144 F100.00
G01 X0.4113 Y4.4945 F100.00
G01 X0.4130 Y4.4787 F100.00
G01 X0.4170 Y4.4538 F100.00
G01 X0.4229 Y4.4292 F100.00
G01 X0.4273 Y4.4140 F100.00
G01 X0.4358 Y4.3902 F100.00
G01 X0.4398 Y4.3805 F100.00
G01 X0.4483 Y4.3624 F100.00
G00 Z2.0000
G00 X0.5733 Y4.4215
G01 F40.00
G01 Z-0.1000
G01 F100.00
G01 X0.5768 Y4.4148 F100.00
G01 X0.5864 Y4.3990 F100.00
G01 X0.5974 Y4.3841 F100.00
G01 X0.6021 Y4.3783 F100.00
G01 X0.6146 Y4.3646 F100.00
G01 X0.6283 Y4.3521 F100.00
G01 X0.6341 Y4.3474 F100.00
G01 X0.6490 Y4.3364 F100.00
G01 X0.6648 Y4.3268 F100.00
G01 X0.6715 Y4.3233 F100.00
G01 X0.6882 Y4.3155 F100.00
G01 X0.7056 Y4.3091 F100.00
G01 X0.7128 Y4.3070 F100.00
G01 X0.7308 Y4.3026 F100.00
G01 X0.7490 Y4.2998 F100.00
G01 X0.7565 Y4.2990 F100.00
G01 X0.7750 Y4.2982 F100.00
G01 X2.5250 Y4.2982 F100.00
G01 X2.5472 Y4.2993 F100.00
G01 X2.5692 Y4.3026 F100.00
G01 X2.5876 Y4.3071 F100.00
G01 X2.5944 Y4.3091 F100.00
G01 X2.6118 Y4.3155 F100.00
G01 X2.6288 Y4.3234 F100.00
G01 X2.6352 Y4.3268 F100.00
G01 X2.6510 Y4.3364 F100.00
G01 X2.6659 Y4.3474 F100.00
G01 X2.6717 Y4.3521 F100.00
G01 X2.6854 Y4.3646 F100.00
G01 X2.6979 Y4.3783 F100.00
G01 X2.7026 Y4.3841 F100.00
G01 X2.7136 Y4.3990 F100.00
G01 X2.7232 Y4.4148 F100.00
G01 X2.7267 Y4.4215 F100.00
G01 X2.7345 Y4.4382 F100.00
G01 X2.7420 Y4.4592 F100.00
G01 X2.7466 Y4.4771 F100.00
G01 X2.7481 Y4.4845 F100.00
G01 X2.7507 Y4.5028 F100.00
G01 X2.7518 Y4.5231 F100.00
G01 X2.7518 Y4.8269 F100.00
G01 X2.7507 Y4.8472 F100.00
G01 X2.7474 Y4.8692 F100.00
G01 X2.7420 Y4.8910 F100.00
G01 X2.7359 Y4.9083 F100.00
G01 X2.7338 Y4.9135 F100.00
G01 X2.7267 Y4.9285 F100.00
G01 X2.7232 Y4.9352 F100.00
G01 X2.7136 Y4.9510 F100.00
G01 X2.7003 Y4.9689 F100.00
G01 X2.6854 Y4.9854 F100.00
G01 X2.6717 Y4.9979 F100.00
G01 X2.6659 Y5.0026 F100.00
G01 X2.6526 Y5.0125 F100.00
G01 X2.6478 Y5.0156 F100.00
G01 X2.6319 Y5.0250 F100.00
G01 X2.6118 Y5.0345 F100.00
G01 X2.5944 Y5.0409 F100.00
G01 X2.5872 Y5.0430 F100.00
G01 X2.5692 Y5.0474 F100.00
G01 X2.5472 Y5.0507 F100.00
G01 X2.5250 Y5.0518 F100.00
G01 X0.7750 Y5.0518 F100.00
G01 X0.7528 Y5.0507 F100.00
G01 X0.7308 Y5.0474 F100.00
G01 X0.7092 Y5.0420 F100.00
G01 X0.6917 Y5.0359 F100.00
G01 X0.6848 Y5.0330 F100.00
G01 X0.6680 Y5.0250 F100.00
G01 X0.6522 Y5.0156 F100.00
G01 X0.6459 Y5.0114 F100.00
G01 X0.6311 Y5.0003 F100.00
G01 X0.6174 Y4.9880 F100.00
G01 X0.6120 Y4.9826 F100.00
G01 X0.5985 Y4.9674 F100.00
G01 X0.5864 Y4.9510 F100.00
G01 X0.5768 Y4.9352 F100.00
G01 X0.5733 Y4.9285 F100.00
G01 X0.5655 Y4.9118 F100.00
G01 X0.5591 Y4.8944 F100.00
G01 X0.5570 Y4.8872 F100.00
G01 X0.5526 Y4.8692 F100.00
G01 X0.5498 Y4.8510 F100.00
G01 X0.5491 Y4.8454 F100.00
G01 X0.5482 Y4.8269 F100.00
G01 X0.5482 Y4.5231 F100.00
G01 X0.5495 Y4.5009 F100.00
G01 X0.5522 Y4.4826 F100.00
G01 X0.5534 Y4.4771 F100.00
G01 X0.5580 Y4.4592 F100.00
G01 X0.5641 Y4.4417 F100.00
G01 X0.5662 Y4.4365 F100.00
G01 X0.5733 Y4.4215 F100.00
G00 Z2.0000
G00 X0.4483 Y5.6324
G01 F40.00
G01 Z-0.1000
G01 F100.00
G01 X0.4557 Y5.6181 F100.00
G01 X0.4715 Y5.5922 F100.00
G01 X0.4863 Y5.5717 F100.00
G01 X0.4962 Y5.5594 F100.00
G01 X0.5169 Y5.5369 F100.00
G01 X0.5354 Y5.5197 F100.00
G01 X0.5475 Y5.5095 F100.00
G01 X0.5678 Y5.4945 F100.00
G01 X0.5811 Y5.4858 F100.00
G01 X0.6029 Y5.4731 F100.00
G01 X0.6305 Y5.4598 F100.00
G01 X0.6452 Y5.4539 F100.00
G01 X0.6690 Y5.4457 F100.00
G01 X0.6986 Y5.4381 F100.00
G01 X0.7142 Y5.4352 F100.00
G01 X0.7392 Y5.4317 F100.00
G01 X0.7497 Y5.4309 F100.00
G01 X0.7750 Y5.4300 F100.00
G01 X2.5250 Y5.4300 F100.00
G01 X2.5503 Y5.4309 F100.00
G01 X2.5608 Y5.4317 F100.00
G01 X2.5858 Y5.4352 F100.00
G01 X2.6014 Y5.4381 F100.00
G01 X2.6315 Y5.4458 F100.00
G01 X2.6548 Y5.4539 F100.00
G01 X2.6695 Y5.4598 F100.00
G01 X2.6929 Y5.4709 F100.00
G01 X2.7019 Y5.4757 F100.00
G01 X2.7189 Y5.4858 F100.00
G01 X2.7322 Y5.4945 F100.00
G01 X2.7566 Y5.5128 F100.00
G01 X2.7722 Y5.5267 F100.00
G01 X2.9503 Y5.5267 F100.00
G01 X2.9860 Y5.5287 F100.00
G01 X3.0162 Y5.5329 F100.00
G01 X3.0266 Y5.5347 F100.00
G01 X3.0563 Y5.5419 F100.00
G01 X3.0715 Y5.5463 F100.00
G01 X3.1002 Y5.5565 F100.00
G01 X3.1147 Y5.5628 F100.00
G01 X3.1375 Y5.5736 F100.00
G01 X3.1514 Y5.5813 F100.00
G01 X3.1774 Y5.5972 F100.00
G01 X3.2021 Y5.6151 F100.00
G01 X3.2144 Y5.6250 F100.00
G01 X3.2408 Y5.6492 F100.00
G01 X3.7958 Y6.2042 F100.00
G01 X3.8165 Y6.2266 F100.00
G01 X3.8267 Y6.2387 F100.00
G01 X3.8478 Y6.2676 F100.00
G01 X3.8637 Y6.2936 F100.00
G01 X3.8714 Y6.3075 F100.00
G01 X3.8865 Y6.3399 F100.00
G01 X3.8970 Y6.3685 F100.00
G01 X3.9018 Y6.3836 F100.00
G01 X3.9092 Y6.4132 F100.00
G01 X3.9121 Y6.4288 F100.00
G01 X3.9163 Y6.4590 F100.00
G01 X3.9171 Y6.4695 F100.00
G01 X3.9183 Y6.5000 F100.00
G01 X3.9183 Y15.0053 F100.00
G01 X3.9163 Y15.0410 F100.00
G01 X3.9113 Y15.0764 F100.00
G01 X3.9080 Y15.0919 F100.00
G01 X3.9018 Y15.1164 F100.00
G01 X3.8987 Y15.1265 F100.00
G01 X3.8865 Y15.1601 F100.00
G01 X3.8714 Y15.1925 F100.00
G01 X3.8664 Y15.2018 F100.00
G01 X3.8535 Y15.2235 F100.00
G01 X3.8478 Y15.2324 F100.00
G01 X3.8418 Y15.2410 F100.00
G01 X3.8234 Y15.2654 F100.00
G01 X3.8165 Y15.2734 F100.00
G01 X3.7958 Y15.2958 F100.00
G01 X3.4683 Y15.6233 F100.00
G01 X3.4683 Y18.4600 F100.00
G01 X3.9053 Y18.4600 F100.00
G01 X3.9158 Y18.4605 F100.00
G01 X3.9263 Y18.4616 F100.00
G01 X3.9420 Y18.4641 F100.00
G01 X3.9523 Y18.4664 F100.00
G01 X3.9675 Y18.4708 F100.00
G01 X3.9823 Y18.4763 F100.00
G01 X3.9919 Y18.4806 F100.00
G01 X4.0060 Y18.4879 F100.00
G01 X4.0195 Y18.4962 F100.00
G01 X4.0323 Y18.5055 F100.00
G01 X4.0444 Y18.5157 F100.00
G01 X4.0557 Y18.5267 F100.00
G01 X4.0662 Y18.5386 F100.00
G01 X4.0758 Y18.5512 F100.00
G01 X4.0817 Y18.5600 F100.00
G01 X4.0896 Y18.5736 F100.00
G01 X4.0944 Y18.5831 F100.00
G01 X4.1006 Y18.5976 F100.00
G01 X4.1058 Y18.6126 F100.00
G01 X4.1098 Y18.6279 F100.00
G01 X4.1119 Y18.6382 F100.00
G01 X4.1134 Y18.6487 F100.00
G01 X4.1145 Y18.6592 F100.00
G01 X4.1150 Y18.6750 F100.00
G01 X4.1150 Y20.3750 F100.00
G01 X4.1145 Y20.3908 F100.00
G01 X4.1127 Y20.4066 F100.00
G01 X4.1098 Y20.4221 F100.00
G01 X4.1058 Y20.4374 F100.00
G01 X4.1025 Y20.4474 F100.00
G01 X4.0987 Y20.4573 F100.00
G01 X4.0921 Y20.4717 F100.00
G01 X4.0844 Y20.4856 F100.00
G01 X4.0788 Y20.4945 F100.00
G01 X4.0727 Y20.5031 F100.00
G01 X4.0628 Y20.5155 F100.00
G01 X4.0557 Y20.5233 F100.00
G01 X4.0483 Y20.5307 F100.00
G01 X4.0364 Y20.5412 F100.00
G01 X4.0238 Y20.5508 F100.00
G01 X4.0106 Y20.5594 F100.00
G01 X3.9967 Y20.5671 F100.00
G01 X3.9823 Y20.5737 F100.00
G01 X3.9724 Y20.5775 F100.00
G01 X3.9624 Y20.5808 F100.00
G01 X3.9471 Y20.5848 F100.00
G01 X3.9368 Y20.5869 F100.00
G01 X3.9211 Y20.5890 F100.00
G01 X3.9106 Y20.5898 F100.00
G01 X3.9000 Y20.5900 F100.00
G01 X2.2000 Y20.5900 F100.00
G01 X2.1894 Y20.5898 F100.00
G01 X2.1789 Y20.5890 F100.00
G01 X2.1632 Y20.5869 F100.00
G01 X2.1529 Y20.5848 F100.00
G01 X2.1426 Y20.5823 F100.00
G01 X2.1276 Y20.5775 F100.00
G01 X2.1177 Y20.5737 F100.00
G01 X2.1081 Y20.5694 F100.00
G01 X2.0986 Y20.5646 F100.00
G01 X2.0894 Y20.5594 F100.00
G01 X2.0762 Y20.5508 F100.00
G01 X2.0636 Y20.5412 F100.00
G01 X2.0556 Y20.5343 F100.00
G01 X2.0479 Y20.5271 F100.00
G01 X2.0372 Y20.5155 F100.00
G01 X2.0305 Y20.5073 F100.00
G01 X2.0242 Y20.4988 F100.00
G01 X2.0183 Y20.4900 F100.00
G01 X2.0129 Y20.4810 F100.00
G01 X2.0079 Y20.4717 F100.00
G01 X2.0034 Y20.4621 F100.00
G01 X1.9975 Y20.4474 F100.00
G01 X1.9942 Y20.4374 F100.00
G01 X1.9914 Y20.4273 F100.00
G01 X1.9891 Y20.4170 F100.00
G01 X1.9873 Y20.4066 F100.00
G01 X1.9855 Y20.3908 F100.00
G01 X1.9850 Y20.3750 F100.00
G01 X1.9850 Y18.6750 F100.00
G01 X1.9852 Y18.6644 F100.00
G01 X1.9860 Y18.6539 F100.00
G01 X1.9873 Y18.6434 F100.00
G01 X1.9891 Y18.6330 F100.00
G01 X1.9914 Y18.6227 F100.00
G01 X1.9958 Y18.6075 F100.00
G01 X2.0013 Y18.5927 F100.00
G01 X2.0079 Y18.5783 F100.00
G01 X2.0156 Y18.5644 F100.00
G01 X2.0242 Y18.5512 F100.00
G01 X2.0305 Y18.5427 F100.00
G01 X2.0407 Y18.5306 F100.00
G01 X2.0517 Y18.5193 F100.00
G01 X2.0636 Y18.5088 F100.00
G01 X2.0762 Y18.4992 F100.00
G01 X2.0894 Y18.4906 F100.00
G01 X2.0986 Y18.4854 F100.00
G01 X2.1129 Y18.4784 F100.00
G01 X2.1276 Y18.4725 F100.00
G01 X2.1426 Y18.4677 F100.00
G01 X2.1580 Y18.4641 F100.00
G01 X2.1684 Y18.4623 F100.00
G01 X2.1842 Y18.4605 F100.00
G01 X2.1947 Y18.4600 F100.00
G01 X2.6317 Y18.4600 F100.00
G01 X2.6317 Y15.4500 F100.00
G01 X2.6329 Y15.4195 F100.00
G01 X2.6343 Y15.4037 F100.00
G01 X2.6397 Y15.3684 F100.00
G01 X2.6469 Y15.3387 F100.00
G01 X2.6513 Y15.3235 F100.00
G01 X2.6635 Y15.2899 F100.00
G01 X2.6786 Y15.2575 F100.00
G01 X2.6863 Y15.2436 F100.00
G01 X2.7022 Y15.2176 F100.00
G01 X2.7233 Y15.1887 F100.00
G01 X2.7335 Y15.1766 F100.00
G01 X2.7542 Y15.1542 F100.00
G01 X3.0817 Y14.8267 F100.00
G01 X3.0817 Y6.6733 F100.00
G01 X2.7720 Y6.3636 F100.00
G01 X2.7606 Y6.3738 F100.00
G01 X2.7525 Y6.3805 F100.00
G01 X2.7322 Y6.3955 F100.00
G01 X2.7234 Y6.4014 F100.00
G01 X2.7017 Y6.4144 F100.00
G01 X2.6924 Y6.4194 F100.00
G01 X2.6695 Y6.4302 F100.00
G01 X2.6598 Y6.4342 F100.00
G01 X2.6310 Y6.4443 F100.00
G01 X2.6208 Y6.4471 F100.00
G01 X2.5962 Y6.4530 F100.00
G01 X2.5713 Y6.4570 F100.00
G01 X2.5608 Y6.4583 F100.00
G01 X2.5303 Y6.4600 F100.00
G01 X0.7697 Y6.4600 F100.00
G01 X0.7392 Y6.4583 F100.00
G01 X0.7287 Y6.4570 F100.00
G01 X0.7038 Y6.4530 F100.00
G01 X0.6792 Y6.4471 F100.00
G01 X0.6690 Y6.4443 F100.00
G01 X0.6402 Y6.4342 F100.00
G01 X0.6257 Y6.4280 F100.00
G01 X0.6026 Y6.4168 F100.00
G01 X0.5811 Y6.4042 F100.00
G01 X0.5678 Y6.3955 F100.00
G01 X0.5475 Y6.3805 F100.00
G01 X0.5354 Y6.3703 F100.00
G01 X0.5169 Y6.3531 F100.00
G01 X0.4962 Y6.3306 F100.00
G01 X0.4863 Y6.3183 F100.00
G01 X0.4715 Y6.2978 F100.00
G01 X0.4583 Y6.2763 F100.00
G01 X0.4506 Y6.2624 F100.00
G01 X0.4398 Y6.2395 F100.00
G01 X0.4339 Y6.2248 F100.00
G01 X0.4257 Y6.2010 F100.00
G01 X0.4193 Y6.1765 F100.00
G01 X0.4160 Y6.1610 F100.00
G01 X0.4123 Y6.1360 F100.00
G01 X0.4113 Y6.1255 F100.00
G01 X0.4100 Y6.1003 F100.00
G01 X0.4100 Y5.7950 F100.00
G01 X0.4109 Y5.7697 F100.00
G01 X0.4123 Y5.7540 F100.00
G01 X0.4160 Y5.7290 F100.00
G01 X0.4181 Y5.7186 F100.00
G01 X0.4242 Y5.6941 F100.00
G01 X0.4273 Y5.6840 F100.00
G01 X0.4358 Y5.6602 F100.00
G01 X0.4398 Y5.6505 F100.00
G01 X0.4483 Y5.6324 F100.00
G00 Z2.0000
G00 X0.5733 Y5.6915
G01 F40.00
G01 Z-0.1000
G01 F100.00
G01 X0.5768 Y5.6848 F100.00
G01 X0.5864 Y5.6690 F100.00
G01 X0.5974 Y5.6541 F100.00
G01 X0.6021 Y5.6483 F100.00
G01 X0.6146 Y5.6346 F100.00
G01 X0.6297 Y5.6209 F100.00
G01 X0.6459 Y5.6086 F100.00
G01 X0.6522 Y5.6044 F100.00
G01 X0.6681 Y5.5950 F100.00
G01 X0.6848 Y5.5870 F100.00
G01 X0.6917 Y5.5841 F100.00
G01 X0.7092 Y5.5780 F100.00
G01 X0.7308 Y5.5726 F100.00
G01 X0.7490 Y5.5698 F100.00
G01 X0.7565 Y5.5690 F100.00
G01 X0.7750 Y5.5682 F100.00
G01 X2.5288 Y5.5683 F100.00
G01 X2.5472 Y5.5693 F100.00
G01 X2.5655 Y5.5719 F100.00
G01 X2.5711 Y5.5729 F100.00
G01 X2.5876 Y5.5771 F100.00
G01 X2.5944 Y5.5791 F100.00
G01 X2.6118 Y5.5855 F100.00
G01 X2.6320 Y5.5950 F100.00
G01 X2.6510 Y5.6064 F100.00
G01 X2.6659 Y5.6174 F100.00
G01 X2.6717 Y5.6221 F100.00
G01 X2.6840 Y5.6333 F100.00
G01 X2.6880 Y5.6374 F100.00
G01 X2.7003 Y5.6511 F100.00
G01 X2.7107 Y5.6649 F100.00
G01 X2.9469 Y5.6649 F100.00
G01 X2.9725 Y5.6662 F100.00
G01 X3.0015 Y5.6707 F100.00
G01 X3.0227 Y5.6760 F100.00
G01 X3.0299 Y5.6781 F100.00
G01 X3.0522 Y5.6862 F100.00
G01 X3.0737 Y5.6963 F100.00
G01 X3.0803 Y5.6998 F100.00
G01 X3.1006 Y5.7121 F100.00
G01 X3.1197 Y5.7262 F100.00
G01 X3.1255 Y5.7309 F100.00
G01 X3.1431 Y5.7469 F100.00
G01 X3.6981 Y6.3019 F100.00
G01 X3.7141 Y6.3195 F100.00
G01 X3.7188 Y6.3253 F100.00
G01 X3.7329 Y6.3444 F100.00
G01 X3.7470 Y6.3680 F100.00
G01 X3.7573 Y6.3894 F100.00
G01 X3.7601 Y6.3963 F100.00
G01 X3.7680 Y6.4187 F100.00
G01 X3.7743 Y6.4435 F100.00
G01 X3.7788 Y6.4725 F100.00
G01 X3.7801 Y6.5000 F100.00
G01 X3.7801 Y15.0019 F100.00
G01 X3.7788 Y15.0275 F100.00
G01 X3.7754 Y15.0509 F100.00
G01 X3.7739 Y15.0583 F100.00
G01 X3.7686 Y15.0795 F100.00
G01 X3.7669 Y15.0849 F100.00
G01 X3.7588 Y15.1072 F100.00
G01 X3.7470 Y15.1320 F100.00
G01 X3.7329 Y15.1556 F100.00
G01 X3.7177 Y15.1762 F100.00
G01 X3.6981 Y15.1981 F100.00
G01 X3.3301 Y15.5660 F100.00
G01 X3.3301 Y18.5982 F100.00
G01 X3.9056 Y18.5984 F100.00
G01 X3.9168 Y18.6001 F100.00
G01 X3.9276 Y18.6033 F100.00
G01 X3.9379 Y18.6082 F100.00
G01 X3.9472 Y18.6145 F100.00
G01 X3.9556 Y18.6220 F100.00
G01 X3.9628 Y18.6308 F100.00
G01 X3.9686 Y18.6405 F100.00
G01 X3.9729 Y18.6509 F100.00
G01 X3.9757 Y18.6619 F100.00
G01 X3.9766 Y18.6694 F100.00
G01 X3.9768 Y18.6750 F100.00
G01 X3.9768 Y20.3769 F100.00
G01 X3.9757 Y20.3881 F100.00
G01 X3.9740 Y20.3955 F100.00
G01 X3.9723 Y20.4009 F100.00
G01 X3.9702 Y20.4061 F100.00
G01 X3.9668 Y20.4129 F100.00
G01 X3.9628 Y20.4192 F100.00
G01 X3.9594 Y20.4237 F100.00
G01 X3.9543 Y20.4293 F100.00
G01 X3.9502 Y20.4332 F100.00
G01 X3.9457 Y20.4367 F100.00
G01 X3.9395 Y20.4409 F100.00
G01 X3.9294 Y20.4460 F100.00
G01 X3.9223 Y20.4485 F100.00
G01 X3.9168 Y20.4499 F100.00
G01 X3.9075 Y20.4514 F100.00
G01 X3.9000 Y20.4518 F100.00
G01 X2.1962 Y20.4517 F100.00
G01 X2.1887 Y20.4510 F100.00
G01 X2.1813 Y20.4495 F100.00
G01 X2.1741 Y20.4473 F100.00
G01 X2.1689 Y20.4452 F100.00
G01 X2.1621 Y20.4418 F100.00
G01 X2.1573 Y20.4389 F100.00
G01 X2.1513 Y20.4344 F100.00
G01 X2.1457 Y20.4293 F100.00
G01 X2.1406 Y20.4237 F100.00
G01 X2.1372 Y20.4192 F100.00
G01 X2.1332 Y20.4129 F100.00
G01 X2.1298 Y20.4061 F100.00
G01 X2.1277 Y20.4009 F100.00
G01 X2.1255 Y20.3937 F100.00
G01 X2.1240 Y20.3863 F100.00
G01 X2.1233 Y20.3788 F100.00
G01 X2.1232 Y18.6750 F100.00
G01 X2.1234 Y18.6694 F100.00
G01 X2.1243 Y18.6619 F100.00
G01 X2.1260 Y18.6545 F100.00
G01 X2.1277 Y18.6491 F100.00
G01 X2.1323 Y18.6388 F100.00
G01 X2.1383 Y18.6293 F100.00
G01 X2.1457 Y18.6207 F100.00
G01 X2.1543 Y18.6133 F100.00
G01 X2.1638 Y18.6073 F100.00
G01 X2.1741 Y18.6027 F100.00
G01 X2.1850 Y18.5997 F100.00
G01 X2.1944 Y18.5984 F100.00
G01 X2.7699 Y18.5982 F100.00
G01 X2.7699 Y15.4500 F100.00
G01 X2.7712 Y15.4225 F100.00
G01 X2.7753 Y15.3954 F100.00
G01 X2.7810 Y15.3723 F100.00
G01 X2.7831 Y15.3651 F100.00
G01 X2.7912 Y15.3428 F100.00
G01 X2.8013 Y15.3213 F100.00
G01 X2.8048 Y15.3147 F100.00
G01 X2.8171 Y15.2944 F100.00
G01 X2.8347 Y15.2709 F100.00
G01 X2.8519 Y15.2519 F100.00
G01 X3.2199 Y14.8840 F100.00
G01 X3.2199 Y6.6160 F100.00
G01 X2.8290 Y6.2251 F100.00
G01 X2.7107 Y6.2251 F100.00
G01 X2.7003 Y6.2389 F100.00
G01 X2.6880 Y6.2526 F100.00
G01 X2.6840 Y6.2567 F100.00
G01 X2.6717 Y6.2679 F100.00
G01 X2.6659 Y6.2726 F100.00
G01 X2.6510 Y6.2836 F100.00
G01 X2.6319 Y6.2950 F100.00
G01 X2.6118 Y6.3045 F100.00
G01 X2.5944 Y6.3109 F100.00
G01 X2.5872 Y6.3130 F100.00
G01 X2.5692 Y6.3174 F100.00
G01 X2.5510 Y6.3202 F100.00
G01 X2.5454 Y6.3209 F100.00
G01 X2.5288 Y6.3217 F100.00
G01 X0.7750 Y6.3218 F100.00
G01 X0.7528 Y6.3207 F100.00
G01 X0.7345 Y6.3181 F100.00
G01 X0.7289 Y6.3171 F100.00
G01 X0.7128 Y6.3130 F100.00
G01 X0.7056 Y6.3109 F100.00
G01 X0.6882 Y6.3045 F100.00
G01 X0.6712 Y6.2966 F100.00
G01 X0.6648 Y6.2932 F100.00
G01 X0.6490 Y6.2836 F100.00
G01 X0.6341 Y6.2726 F100.00
G01 X0.6283 Y6.2679 F100.00
G01 X0.6146 Y6.2554 F100.00
G01 X0.6021 Y6.2417 F100.00
G01 X0.5974 Y6.2359 F100.00
G01 X0.5864 Y6.2210 F100.00
G01 X0.5741 Y6.2002 F100.00
G01 X0.5655 Y6.1818 F100.00
G01 X0.5591 Y6.1644 F100.00
G01 X0.5574 Y6.1590 F100.00
G01 X0.5529 Y6.1411 F100.00
G01 X0.5493 Y6.1172 F100.00
G01 X0.5482 Y6.0969 F100.00
G01 X0.5483 Y5.7912 F100.00
G01 X0.5491 Y5.7746 F100.00
G01 X0.5498 Y5.7690 F100.00
G01 X0.5526 Y5.7508 F100.00
G01 X0.5570 Y5.7328 F100.00
G01 X0.5585 Y5.7274 F100.00
G01 X0.5648 Y5.7100 F100.00
G01 X0.5733 Y5.6915 F100.00
G00 Z2.0000
G00 X0.4483 Y8.1724
G01 F40.00
G01 Z-0.1000
G01 F100.00
G01 X0.4557 Y8.1581 F100.00
G01 X0.4715 Y8.1322 F100.00
G01 X0.4863 Y8.1117 F100.00
G01 X0.4962 Y8.0994 F100.00
G01 X0.5169 Y8.0769 F100.00
G01 X0.5354 Y8.0597 F100.00
G01 X0.5475 Y8.0495 F100.00
G01 X0.5722 Y8.0315 F100.00
G01 X0.5937 Y8.0183 F100.00
G01 X0.6076 Y8.0106 F100.00
G01 X0.6353 Y7.9977 F100.00
G01 X0.6590 Y7.9890 F100.00
G01 X0.6741 Y7.9842 F100.00
G01 X0.7038 Y7.9770 F100.00
G01 X0.7287 Y7.9730 F100.00
G01 X0.7445 Y7.9713 F100.00
G01 X0.7750 Y7.9700 F100.00
G01 X2.5303 Y7.9700 F100.00
G01 X2.5555 Y7.9713 F100.00
G01 X2.5660 Y7.9723 F100.00
G01 X2.5910 Y7.9760 F100.00
G01 X2.6014 Y7.9781 F100.00
G01 X2.6219 Y7.9831 F100.00
G01 X2.6363 Y7.9874 F100.00
G01 X2.6598 Y7.9958 F100.00
G01 X2.6743 Y8.0020 F100.00
G01 X2.6974 Y8.0132 F100.00
G01 X2.7189 Y8.0258 F100.00
G01 X2.7322 Y8.0345 F100.00
G01 X2.7525 Y8.0495 F100.00
G01 X2.7646 Y8.0597 F100.00
G01 X2.7831 Y8.0769 F100.00
G01 X2.8003 Y8.0954 F100.00
G01 X2.8072 Y8.1034 F100.00
G01 X2.8224 Y8.1236 F100.00
G01 X2.8314 Y8.1366 F100.00
G01 X2.8444 Y8.1583 F100.00
G01 X2.8517 Y8.1723 F100.00
G01 X2.8623 Y8.1953 F100.00
G01 X2.8710 Y8.2190 F100.00
G01 X2.8758 Y8.2341 F100.00
G01 X2.8819 Y8.2586 F100.00
G01 X2.8840 Y8.2690 F100.00
G01 X2.8877 Y8.2940 F100.00
G01 X2.8887 Y8.3045 F100.00
G01 X2.8900 Y8.3297 F100.00
G01 X2.8900 Y8.6350 F100.00
G01 X2.8887 Y8.6655 F100.00
G01 X2.8870 Y8.6813 F100.00
G01 X2.8830 Y8.7062 F100.00
G01 X2.8771 Y8.7308 F100.00
G01 X2.8742 Y8.7415 F100.00
G01 X2.8661 Y8.7648 F100.00
G01 X2.8623 Y8.7747 F100.00
G01 X2.8517 Y8.7977 F100.00
G01 X2.8468 Y8.8074 F100.00
G01 X2.8342 Y8.8289 F100.00
G01 X2.8285 Y8.8378 F100.00
G01 X2.8137 Y8.8583 F100.00
G01 X2.8072 Y8.8666 F100.00
G01 X2.8003 Y8.8746 F100.00
G01 X2.7831 Y8.8931 F100.00
G01 X2.7606 Y8.9138 F100.00
G01 X2.7525 Y8.9205 F100.00
G01 X2.7322 Y8.9355 F100.00
G01 X2.7234 Y8.9414 F100.00
G01 X2.7063 Y8.9517 F100.00
G01 X2.6971 Y8.9569 F100.00
G01 X2.6877 Y8.9617 F100.00
G01 X2.6695 Y8.9702 F100.00
G01 X2.6548 Y8.9761 F100.00
G01 X2.6360 Y8.9827 F100.00
G01 X2.6259 Y8.9858 F100.00
G01 X2.5962 Y8.9930 F100.00
G01 X2.5660 Y8.9977 F100.00
G01 X2.5555 Y8.9987 F100.00
G01 X2.5356 Y8.9998 F100.00
G01 X2.5250 Y9.0000 F100.00
G01 X2.1150 Y9.0000 F100.00
G01 X2.1150 Y9.0700 F100.00
G01 X2.5822 Y9.0700 F100.00
G01 X2.5908 Y9.0693 F100.00
G01 X2.6027 Y9.0670 F100.00
G01 X2.6128 Y9.0655 F100.00
G01 X2.6281 Y9.0643 F100.00
G01 X2.7082 Y9.0643 F100.00
G01 X2.7242 Y9.0649 F100.00
G01 X2.7401 Y9.0668 F100.00
G01 X2.7558 Y9.0698 F100.00
G01 X2.7713 Y9.0740 F100.00
G01 X2.7814 Y9.0774 F100.00
G01 X2.7914 Y9.0813 F100.00
G01 X2.8011 Y9.0857 F100.00
G01 X2.8106 Y9.0906 F100.00
G01 X2.8244 Y9.0988 F100.00
G01 X2.8830 Y9.1367 F100.00
G01 X2.8961 Y9.1459 F100.00
G01 X2.9085 Y9.1560 F100.00
G01 X2.9201 Y9.1671 F100.00
G01 X2.9309 Y9.1790 F100.00
G01 X2.9376 Y9.1873 F100.00
G01 X2.9438 Y9.1960 F100.00
G01 X2.9496 Y9.2049 F100.00
G01 X2.9550 Y9.2142 F100.00
G01 X2.9621 Y9.2285 F100.00
G01 X2.9910 Y9.2921 F100.00
G01 X2.9971 Y9.3073 F100.00
G01 X3.0022 Y9.3229 F100.00
G01 X3.0060 Y9.3388 F100.00
G01 X3.0086 Y9.3550 F100.00
G01 X3.0108 Y9.3832 F100.00
G01 X3.0113 Y9.3982 F100.00
G01 X3.0111 Y14.6674 F100.00
G01 X3.0092 Y14.6878 F100.00
G01 X3.0053 Y14.7079 F100.00
G01 X2.9814 Y14.7898 F100.00
G01 X2.9760 Y14.8047 F100.00
G01 X2.9718 Y14.8144 F100.00
G01 X2.9672 Y14.8239 F100.00
G01 X2.9593 Y14.8376 F100.00
G01 X2.9505 Y14.8507 F100.00
G01 X2.9274 Y14.8798 F100.00
G01 X2.9161 Y14.8928 F100.00
G01 X2.6704 Y15.1385 F100.00
G01 X2.6170 Y15.2185 F100.00
G01 X2.5801 Y15.3075 F100.00
G01 X2.5613 Y15.4019 F100.00
G01 X2.5613 Y18.0505 F100.00
G01 X2.5608 Y18.0658 F100.00
G01 X2.5592 Y18.0811 F100.00
G01 X2.5575 Y18.0912 F100.00
G01 X2.5540 Y18.1062 F100.00
G01 X2.5314 Y18.1832 F100.00
G01 X2.5279 Y18.1933 F100.00
G01 X2.5239 Y18.2032 F100.00
G01 X2.5194 Y18.2129 F100.00
G01 X2.5117 Y18.2270 F100.00
G01 X2.5061 Y18.2360 F100.00
G01 X2.4967 Y18.2491 F100.00
G01 X2.4900 Y18.2573 F100.00
G01 X2.4791 Y18.2691 F100.00
G01 X2.4674 Y18.2801 F100.00
G01 X2.4105 Y18.3293 F100.00
G01 X2.3977 Y18.3391 F100.00
G01 X2.3888 Y18.3450 F100.00
G01 X2.3796 Y18.3505 F100.00
G01 X2.3701 Y18.3556 F100.00
G01 X2.3603 Y18.3602 F100.00
G01 X2.3504 Y18.3642 F100.00
G01 X2.3403 Y18.3678 F100.00
G01 X2.3300 Y18.3709 F100.00
G01 X2.2680 Y18.3846 F100.00
G01 X2.2478 Y18.3880 F100.00
G01 X2.2274 Y18.3895 F100.00
G01 X2.1636 Y18.3895 F100.00
G01 X2.1424 Y18.3918 F100.00
G01 X2.0618 Y18.4219 F100.00
G01 X1.9961 Y18.4711 F100.00
G01 X1.9469 Y18.5368 F100.00
G01 X1.9082 Y18.6405 F100.00
G01 X1.9018 Y18.6556 F100.00
G01 X1.8943 Y18.6701 F100.00
G01 X1.8887 Y18.6795 F100.00
G01 X1.8826 Y18.6885 F100.00
G01 X1.8375 Y18.7489 F100.00
G01 X1.8274 Y18.7613 F100.00
G01 X1.8164 Y18.7730 F100.00
G01 X1.8086 Y18.7803 F100.00
G01 X1.8005 Y18.7872 F100.00
G01 X1.7920 Y18.7937 F100.00
G01 X1.7833 Y18.7998 F100.00
G01 X1.7695 Y18.8081 F100.00
G01 X1.7601 Y18.8131 F100.00
G01 X1.7504 Y18.8175 F100.00
G01 X1.7405 Y18.8215 F100.00
G01 X1.6649 Y18.8494 F100.00
G01 X1.6547 Y18.8524 F100.00
G01 X1.6443 Y18.8548 F100.00
G01 X1.6338 Y18.8568 F100.00
G01 X1.6232 Y18.8582 F100.00
G01 X1.6072 Y18.8593 F100.00
G01 X1.5965 Y18.8594 F100.00
G01 X1.5805 Y18.8586 F100.00
G01 X1.5699 Y18.8574 F100.00
G01 X1.5541 Y18.8546 F100.00
G01 X1.4806 Y18.8385 F100.00
G01 X1.4650 Y18.8340 F100.00
G01 X1.4547 Y18.8304 F100.00
G01 X1.4447 Y18.8263 F100.00
G01 X1.4301 Y18.8192 F100.00
G01 X1.4207 Y18.8138 F100.00
G01 X1.4116 Y18.8080 F100.00
G01 X1.3745 Y18.7806 F100.00
G01 X1.3587 Y18.7676 F100.00
G01 X1.2426 Y18.6519 F100.00
G01 X1.1391 Y18.5793 F100.00
G01 X1.1271 Y18.5697 F100.00
G01 X1.1194 Y18.5629 F100.00
G01 X1.1086 Y18.5520 F100.00
G01 X1.0986 Y18.5404 F100.00
G01 X1.0518 Y18.4817 F100.00
G01 X1.0401 Y18.4647 F100.00
G01 X1.0324 Y18.4513 F100.00
G01 X1.0258 Y18.4373 F100.00
G01 X1.0201 Y18.4229 F100.00
G01 X1.0155 Y18.4081 F100.00
G01 X1.0120 Y18.3931 F100.00
G01 X1.0018 Y18.3409 F100.00
G01 X1.0002 Y18.3306 F100.00
G01 X0.9989 Y18.3150 F100.00
G01 X0.9987 Y18.3045 F100.00
G01 X0.9987 Y17.4619 F100.00
G01 X0.9799 Y17.3675 F100.00
G01 X0.9430 Y17.2785 F100.00
G01 X0.8896 Y17.1985 F100.00
G01 X0.0880 Y16.3969 F100.00
G01 X0.0775 Y16.3857 F100.00
G01 X0.0649 Y16.3696 F100.00
G01 X0.0564 Y16.3568 F100.00
G01 X0.0178 Y16.2866 F100.00
G01 X0.0130 Y16.2772 F100.00
G01 X0.0066 Y16.2627 F100.00
G01 X0.0030 Y16.2528 F100.00
G01 X-0.0002 Y16.2427 F100.00
G01 X-0.0040 Y16.2273 F100.00
G01 X-0.0059 Y16.2170 F100.00
G01 X-0.0073 Y16.2065 F100.00
G01 X-0.0106 Y16.1744 F100.00
G01 X-0.0113 Y16.1572 F100.00
G01 X-0.0113 Y9.2697 F100.00
G01 X-0.0104 Y9.2493 F100.00
G01 X-0.0084 Y9.2340 F100.00
G01 X-0.0040 Y9.2140 F100.00
G01 X0.0171 Y9.1421 F100.00
G01 X0.0221 Y9.1269 F100.00
G01 X0.0283 Y9.1121 F100.00
G01 X0.0331 Y9.1025 F100.00
G01 X0.0383 Y9.0932 F100.00
G01 X0.0439 Y9.0842 F100.00
G01 X0.0500 Y9.0754 F100.00
G01 X0.0566 Y9.0669 F100.00
G01 X0.0635 Y9.0588 F100.00
G01 X0.0709 Y9.0511 F100.00
G01 X0.0786 Y9.0437 F100.00
G01 X0.1436 Y8.9876 F100.00
G01 X0.1566 Y8.9782 F100.00
G01 X0.1656 Y8.9725 F100.00
G01 X0.1749 Y8.9672 F100.00
G01 X0.1844 Y8.9624 F100.00
G01 X0.1942 Y8.9581 F100.00
G01 X0.2042 Y8.9543 F100.00
G01 X0.2143 Y8.9509 F100.00
G01 X0.2298 Y8.9469 F100.00
G01 X0.2456 Y8.9440 F100.00
G01 X0.3147 Y8.9341 F100.00
G01 X0.3302 Y8.9325 F100.00
G01 X0.3405 Y8.9320 F100.00
G01 X0.3560 Y8.9322 F100.00
G01 X0.3663 Y8.9329 F100.00
G01 X0.3766 Y8.9342 F100.00
G01 X0.3919 Y8.9370 F100.00
G01 X0.4069 Y8.9409 F100.00
G01 X0.4167 Y8.9441 F100.00
G01 X0.4681 Y8.9623 F100.00
G01 X0.4868 Y8.9705 F100.00
G01 X0.5003 Y8.9779 F100.00
G01 X0.6009 Y9.0374 F100.00
G01 X0.7113 Y9.0695 F100.00
G01 X0.7178 Y9.0700 F100.00
G01 X1.1850 Y9.0700 F100.00
G01 X1.1850 Y9.0000 F100.00
G01 X0.7697 Y9.0000 F100.00
G01 X0.7392 Y8.9983 F100.00
G01 X0.7287 Y8.9970 F100.00
G01 X0.7038 Y8.9930 F100.00
G01 X0.6792 Y8.9871 F100.00
G01 X0.6690 Y8.9843 F100.00
G01 X0.6402 Y8.9742 F100.00
G01 X0.6305 Y8.9702 F100.00
G01 X0.6117 Y8.9614 F100.00
G01 X0.5937 Y8.9517 F100.00
G01 X0.5766 Y8.9414 F100.00
G01 X0.5678 Y8.9355 F100.00
G01 X0.5475 Y8.9205 F100.00
G01 X0.5394 Y8.9138 F100.00
G01 X0.5169 Y8.8931 F100.00
G01 X0.4997 Y8.8746 F100.00
G01 X0.4928 Y8.8666 F100.00
G01 X0.4745 Y8.8422 F100.00
G01 X0.4686 Y8.8334 F100.00
G01 X0.4583 Y8.8163 F100.00
G01 X0.4506 Y8.8024 F100.00
G01 X0.4377 Y8.7747 F100.00
G01 X0.4273 Y8.7460 F100.00
G01 X0.4242 Y8.7359 F100.00
G01 X0.4193 Y8.7165 F100.00
G01 X0.4170 Y8.7062 F100.00
G01 X0.4152 Y8.6958 F100.00
G01 X0.4123 Y8.6760 F100.00
G01 X0.4113 Y8.6655 F100.00
G01 X0.4100 Y8.6350 F100.00
G01 X0.4100 Y8.3350 F100.00
G01 X0.4113 Y8.3045 F100.00
G01 X0.4123 Y8.2940 F100.00
G01 X0.4160 Y8.2690 F100.00
G01 X0.4181 Y8.2586 F100.00
G01 X0.4242 Y8.2341 F100.00
G01 X0.4273 Y8.2240 F100.00
G01 X0.4358 Y8.2002 F100.00
G01 X0.4398 Y8.1905 F100.00
G01 X0.4483 Y8.1724 F100.00
G00 Z2.0000
G00 X0.4163 Y9.0905
G01 F40.00
G01 Z-0.1000
G01 F100.00
G01 X0.4235 Y9.0934 F100.00
G01 X0.4299 Y9.0969 F100.00
G01 X0.5455 Y9.1652 F100.00
G01 X0.6864 Y9.2062 F100.00
G01 X0.7124 Y9.2082 F100.00
G01 X1.3232 Y9.2082 F100.00
G01 X1.3232 Y8.8618 F100.00
G01 X0.7750 Y8.8618 F100.00
G01 X0.7528 Y8.8607 F100.00
G01 X0.7345 Y8.8581 F100.00
G01 X0.7271 Y8.8566 F100.00
G01 X0.7092 Y8.8520 F100.00
G01 X0.6882 Y8.8445 F100.00
G01 X0.6680 Y8.8350 F100.00
G01 X0.6474 Y8.8225 F100.00
G01 X0.6326 Y8.8115 F100.00
G01 X0.6283 Y8.8079 F100.00
G01 X0.6146 Y8.7954 F100.00
G01 X0.6021 Y8.7817 F100.00
G01 X0.5985 Y8.7774 F100.00
G01 X0.5875 Y8.7626 F100.00
G01 X0.5759 Y8.7436 F100.00
G01 X0.5655 Y8.7218 F100.00
G01 X0.5580 Y8.7008 F100.00
G01 X0.5526 Y8.6792 F100.00
G01 X0.5498 Y8.6610 F100.00
G01 X0.5490 Y8.6535 F100.00
G01 X0.5482 Y8.6350 F100.00
G01 X0.5482 Y8.3350 F100.00
G01 X0.5493 Y8.3128 F100.00
G01 X0.5526 Y8.2908 F100.00
G01 X0.5580 Y8.2692 F100.00
G01 X0.5641 Y8.2517 F100.00
G01 X0.5670 Y8.2448 F100.00
G01 X0.5750 Y8.2280 F100.00
G01 X0.5844 Y8.2122 F100.00
G01 X0.5886 Y8.2059 F100.00
G01 X0.5997 Y8.1911 F100.00
G01 X0.6120 Y8.1774 F100.00
G01 X0.6174 Y8.1720 F100.00
G01 X0.6311 Y8.1597 F100.00
G01 X0.6459 Y8.1486 F100.00
G01 X0.6522 Y8.1444 F100.00
G01 X0.6681 Y8.1350 F100.00
G01 X0.6848 Y8.1270 F100.00
G01 X0.6917 Y8.1241 F100.00
G01 X0.7092 Y8.1180 F100.00
G01 X0.7308 Y8.1126 F100.00
G01 X0.7528 Y8.1093 F100.00
G01 X0.7750 Y8.1082 F100.00
G01 X2.5250 Y8.1082 F100.00
G01 X2.5454 Y8.1091 F100.00
G01 X2.5655 Y8.1119 F100.00
G01 X2.5729 Y8.1134 F100.00
G01 X2.5910 Y8.1180 F100.00
G01 X2.6118 Y8.1255 F100.00
G01 X2.6288 Y8.1334 F100.00
G01 X2.6352 Y8.1368 F100.00
G01 X2.6510 Y8.1464 F100.00
G01 X2.6659 Y8.1574 F100.00
G01 X2.6717 Y8.1621 F100.00
G01 X2.6854 Y8.1746 F100.00
G01 X2.6979 Y8.1883 F100.00
G01 X2.7026 Y8.1941 F100.00
G01 X2.7136 Y8.2090 F100.00
G01 X2.7241 Y8.2264 F100.00
G01 X2.7330 Y8.2448 F100.00
G01 X2.7359 Y8.2517 F100.00
G01 X2.7420 Y8.2692 F100.00
G01 X2.7474 Y8.2908 F100.00
G01 X2.7507 Y8.3128 F100.00
G01 X2.7517 Y8.3312 F100.00
G01 X2.7518 Y8.6350 F100.00
G01 X2.7509 Y8.6554 F100.00
G01 X2.7481 Y8.6755 F100.00
G01 X2.7466 Y8.6829 F100.00
G01 X2.7420 Y8.7010 F100.00
G01 X2.7345 Y8.7218 F100.00
G01 X2.7266 Y8.7388 F100.00
G01 X2.7232 Y8.7452 F100.00
G01 X2.7136 Y8.7610 F100.00
G01 X2.7015 Y8.7774 F100.00
G01 X2.6854 Y8.7954 F100.00
G01 X2.6689 Y8.8103 F100.00
G01 X2.6510 Y8.8236 F100.00
G01 X2.6319 Y8.8350 F100.00
G01 X2.6118 Y8.8445 F100.00
G01 X2.5908 Y8.8520 F100.00
G01 X2.5692 Y8.8574 F100.00
G01 X2.5491 Y8.8605 F100.00
G01 X2.5250 Y8.8618 F100.00
G01 X1.9768 Y8.8618 F100.00
G01 X1.9768 Y9.2082 F100.00
G01 X2.5876 Y9.2082 F100.00
G01 X2.6136 Y9.2062 F100.00
G01 X2.6234 Y9.2037 F100.00
G01 X2.6343 Y9.2024 F100.00
G01 X2.7078 Y9.2025 F100.00
G01 X2.7154 Y9.2029 F100.00
G01 X2.7211 Y9.2037 F100.00
G01 X2.7285 Y9.2054 F100.00
G01 X2.7339 Y9.2072 F100.00
G01 X2.7410 Y9.2102 F100.00
G01 X2.7477 Y9.2138 F100.00
G01 X2.8095 Y9.2538 F100.00
G01 X2.8156 Y9.2584 F100.00
G01 X2.8225 Y9.2650 F100.00
G01 X2.8297 Y9.2739 F100.00
G01 X2.8354 Y9.2838 F100.00
G01 X2.8658 Y9.3510 F100.00
G01 X2.8690 Y9.3602 F100.00
G01 X2.8708 Y9.3678 F100.00
G01 X2.8717 Y9.3755 F100.00
G01 X2.8731 Y9.3982 F100.00
G01 X2.8731 Y14.6572 F100.00
G01 X2.8726 Y14.6663 F100.00
G01 X2.8717 Y14.6717 F100.00
G01 X2.8700 Y14.6788 F100.00
G01 X2.8492 Y14.7494 F100.00
G01 X2.8447 Y14.7598 F100.00
G01 X2.8409 Y14.7663 F100.00
G01 X2.8376 Y14.7709 F100.00
G01 X2.8198 Y14.7930 F100.00
G01 X2.8143 Y14.7991 F100.00
G01 X2.5631 Y15.0504 F100.00
G01 X2.4944 Y15.1531 F100.00
G01 X2.4472 Y15.2671 F100.00
G01 X2.4231 Y15.3883 F100.00
G01 X2.4231 Y18.0505 F100.00
G01 X2.4223 Y18.0614 F100.00
G01 X2.4205 Y18.0704 F100.00
G01 X2.3997 Y18.1410 F100.00
G01 X2.3963 Y18.1499 F100.00
G01 X2.3917 Y18.1583 F100.00
G01 X2.3862 Y18.1660 F100.00
G01 X2.3797 Y18.1730 F100.00
G01 X2.3211 Y18.2238 F100.00
G01 X2.3116 Y18.2302 F100.00
G01 X2.3012 Y18.2351 F100.00
G01 X2.2901 Y18.2383 F100.00
G01 X2.2386 Y18.2495 F100.00
G01 X2.2314 Y18.2508 F100.00
G01 X2.2223 Y18.2513 F100.00
G01 X2.1562 Y18.2513 F100.00
G01 X2.1103 Y18.2562 F100.00
G01 X1.9949 Y18.2993 F100.00
G01 X1.8973 Y18.3723 F100.00
G01 X1.8243 Y18.4698 F100.00
G01 X1.7790 Y18.5914 F100.00
G01 X1.7758 Y18.5985 F100.00
G01 X1.7730 Y18.6036 F100.00
G01 X1.7687 Y18.6101 F100.00
G01 X1.7268 Y18.6660 F100.00
G01 X1.7219 Y18.6719 F100.00
G01 X1.7165 Y18.6773 F100.00
G01 X1.7106 Y18.6821 F100.00
G01 X1.7025 Y18.6872 F100.00
G01 X1.6957 Y18.6906 F100.00
G01 X1.6249 Y18.7170 F100.00
G01 X1.6176 Y18.7192 F100.00
G01 X1.6101 Y18.7205 F100.00
G01 X1.5987 Y18.7212 F100.00
G01 X1.5873 Y18.7202 F100.00
G01 X1.5134 Y18.7042 F100.00
G01 X1.5060 Y18.7020 F100.00
G01 X1.4988 Y18.6990 F100.00
G01 X1.4920 Y18.6954 F100.00
G01 X1.4856 Y18.6911 F100.00
G01 X1.4559 Y18.6688 F100.00
G01 X1.4503 Y18.6640 F100.00
G01 X1.3318 Y18.5456 F100.00
G01 X1.2225 Y18.4690 F100.00
G01 X1.2140 Y18.4621 F100.00
G01 X1.2066 Y18.4541 F100.00
G01 X1.1618 Y18.3980 F100.00
G01 X1.1558 Y18.3888 F100.00
G01 X1.1533 Y18.3838 F100.00
G01 X1.1505 Y18.3770 F100.00
G01 X1.1480 Y18.3682 F100.00
G01 X1.1383 Y18.3194 F100.00
G01 X1.1373 Y18.3120 F100.00
G01 X1.1369 Y18.3064 F100.00
G01 X1.1369 Y17.4483 F100.00
G01 X1.1128 Y17.3271 F100.00
G01 X1.0656 Y17.2131 F100.00
G01 X0.9969 Y17.1104 F100.00
G01 X0.1832 Y16.2965 F100.00
G01 X0.1775 Y16.2894 F100.00
G01 X0.1735 Y16.2832 F100.00
G01 X0.1382 Y16.2187 F100.00
G01 X0.1358 Y16.2135 F100.00
G01 X0.1332 Y16.2065 F100.00
G01 X0.1318 Y16.2010 F100.00
G01 X0.1304 Y16.1936 F100.00
G01 X0.1273 Y16.1654 F100.00
G01 X0.1269 Y16.1572 F100.00
G01 X0.1270 Y9.2660 F100.00
G01 X0.1277 Y9.2588 F100.00
G01 X0.1295 Y9.2498 F100.00
G01 X0.1497 Y9.1810 F100.00
G01 X0.1537 Y9.1703 F100.00
G01 X0.1583 Y9.1619 F100.00
G01 X0.1638 Y9.1542 F100.00
G01 X0.1717 Y9.1459 F100.00
G01 X0.2274 Y9.0976 F100.00
G01 X0.2367 Y9.0910 F100.00
G01 X0.2434 Y9.0874 F100.00
G01 X0.2487 Y9.0852 F100.00
G01 X0.2559 Y9.0828 F100.00
G01 X0.2615 Y9.0815 F100.00
G01 X0.3344 Y9.0709 F100.00
G01 X0.3455 Y9.0702 F100.00
G01 X0.3565 Y9.0710 F100.00
G01 X0.3673 Y9.0734 F100.00
G01 X0.4163 Y9.0905 F100.00
G00 Z2.0000
G00 X5.2446 Y9.7567
G01 F40.00
G01 Z-0.1000
G01 F100.00
G01 X5.2358 Y9.7534 F100.00
G01 X5.2290 Y9.7500 F100.00
G01 X5.2226 Y9.7458 F100.00
G01 X5.2166 Y9.7411 F100.00
G01 X5.1622 Y9.6860 F100.00
G01 X5.1574 Y9.6803 F100.00
G01 X5.1542 Y9.6758 F100.00
G01 X5.1488 Y9.6661 F100.00
G01 X5.1460 Y9.6592 F100.00
G01 X5.1443 Y9.6539 F100.00
G01 X5.1288 Y9.5919 F100.00
G01 X5.1275 Y9.5845 F100.00
G01 X5.1269 Y9.5770 F100.00
G01 X5.1269 Y3.9383 F100.00
G01 X5.1028 Y3.8171 F100.00
G01 X5.0556 Y3.7031 F100.00
G01 X4.9869 Y3.6004 F100.00
G01 X4.4900 Y3.1034 F100.00
G01 X4.4841 Y3.0964 F100.00
G01 X4.4791 Y3.0888 F100.00
G01 X4.4421 Y3.0207 F100.00
G01 X4.4393 Y3.0137 F100.00
G01 X4.4372 Y3.0063 F100.00
G01 X4.4359 Y2.9988 F100.00
G01 X4.4353 Y2.9912 F100.00
G01 X4.4355 Y2.9836 F100.00
G01 X4.4405 Y2.9139 F100.00
G01 X4.4417 Y2.9044 F100.00
G01 X4.4442 Y2.8952 F100.00
G01 X4.4477 Y2.8864 F100.00
G01 X4.4523 Y2.8780 F100.00
G01 X4.4986 Y2.8159 F100.00
G01 X4.5050 Y2.8088 F100.00
G01 X4.5137 Y2.8014 F100.00
G01 X4.5217 Y2.7963 F100.00
G01 X4.5303 Y2.7922 F100.00
G01 X4.5976 Y2.7671 F100.00
G01 X4.6048 Y2.7648 F100.00
G01 X4.6160 Y2.7627 F100.00
G01 X4.6332 Y2.7619 F100.00
G01 X31.7922 Y2.7619 F100.00
G01 X31.8031 Y2.7627 F100.00
G01 X31.8138 Y2.7650 F100.00
G01 X31.8808 Y2.7847 F100.00
G01 X31.8897 Y2.7879 F100.00
G01 X31.8965 Y2.7912 F100.00
G01 X31.9044 Y2.7963 F100.00
G01 X31.9296 Y2.8165 F100.00
G01 X32.3143 Y3.2009 F100.00
G01 X32.3215 Y3.2091 F100.00
G01 X32.3265 Y3.2168 F100.00
G01 X32.3609 Y3.2797 F100.00
G01 X32.3642 Y3.2865 F100.00
G01 X32.3673 Y3.2953 F100.00
G01 X32.3693 Y3.3045 F100.00
G01 X32.3730 Y3.3387 F100.00
G01 X32.3731 Y12.5617 F100.00
G01 X32.3972 Y12.6829 F100.00
G01 X32.4444 Y12.7969 F100.00
G01 X32.5131 Y12.8996 F100.00
G01 X33.1004 Y13.4869 F100.00
G01 X33.2031 Y13.5556 F100.00
G01 X33.3171 Y13.6028 F100.00
G01 X33.4383 Y13.6269 F100.00
G01 X34.2163 Y13.6269 F100.00
G01 X34.2254 Y13.6277 F100.00
G01 X34.2344 Y13.6295 F100.00
G01 X34.3032 Y13.6497 F100.00
G01 X34.3137 Y13.6536 F100.00
G01 X34.3187 Y13.6562 F100.00
G01 X34.3251 Y13.6601 F100.00
G01 X34.3339 Y13.6672 F100.00
G01 X34.3685 Y13.7042 F100.00
G01 X34.3742 Y13.7093 F100.00
G01 X34.3794 Y13.7148 F100.00
G01 X34.3861 Y13.7239 F100.00
G01 X34.5228 Y13.8996 F100.00
G01 X34.6842 Y14.0482 F100.00
G01 X34.7373 Y14.0829 F100.00
G01 X34.7459 Y14.0898 F100.00
G01 X34.7522 Y14.0963 F100.00
G01 X34.7988 Y14.1509 F100.00
G01 X34.8043 Y14.1587 F100.00
G01 X34.8089 Y14.1671 F100.00
G01 X34.8123 Y14.1760 F100.00
G01 X34.8147 Y14.1852 F100.00
G01 X34.8249 Y14.2601 F100.00
G01 X34.8254 Y14.2696 F100.00
G01 X34.8244 Y14.2810 F100.00
G01 X34.8222 Y14.2903 F100.00
G01 X34.8190 Y14.2993 F100.00
G01 X34.7887 Y14.3643 F100.00
G01 X34.7831 Y14.3743 F100.00
G01 X34.7762 Y14.3833 F100.00
G01 X34.7694 Y14.3899 F100.00
G01 X34.7401 Y14.4151 F100.00
G01 X34.6842 Y14.4518 F100.00
G01 X34.5228 Y14.6004 F100.00
G01 X34.3861 Y14.7760 F100.00
G01 X34.3818 Y14.7823 F100.00
G01 X34.3742 Y14.7907 F100.00
G01 X34.3656 Y14.7980 F100.00
G01 X34.3262 Y14.8376 F100.00
G01 X34.3189 Y14.8435 F100.00
G01 X34.3109 Y14.8484 F100.00
G01 X34.3024 Y14.8524 F100.00
G01 X34.2935 Y14.8553 F100.00
G01 X34.2318 Y14.8711 F100.00
G01 X34.2203 Y14.8729 F100.00
G01 X28.3025 Y14.8731 F100.00
G01 X28.2916 Y14.8723 F100.00
G01 X28.2826 Y14.8705 F100.00
G01 X28.2138 Y14.8503 F100.00
G01 X28.2066 Y14.8478 F100.00
G01 X28.1997 Y14.8446 F100.00
G01 X28.1931 Y14.8407 F100.00
G01 X28.1870 Y14.8362 F100.00
G01 X28.1813 Y14.8311 F100.00
G01 X28.1317 Y14.7741 F100.00
G01 X28.1259 Y14.7665 F100.00
G01 X28.1211 Y14.7583 F100.00
G01 X28.1173 Y14.7495 F100.00
G01 X28.1147 Y14.7404 F100.00
G01 X28.1035 Y14.6637 F100.00
G01 X28.1030 Y14.6523 F100.00
G01 X28.1039 Y14.6428 F100.00
G01 X28.1059 Y14.6335 F100.00
G01 X28.1091 Y14.6245 F100.00
G01 X28.1389 Y14.5592 F100.00
G01 X28.1425 Y14.5523 F100.00
G01 X28.1478 Y14.5443 F100.00
G01 X28.1556 Y14.5357 F100.00
G01 X28.1930 Y14.5045 F100.00
G01 X28.2005 Y14.4993 F100.00
G01 X28.2375 Y14.4779 F100.00
G01 X28.4220 Y14.3364 F100.00
G01 X28.5864 Y14.1720 F100.00
G01 X28.7279 Y13.9875 F100.00
G01 X28.8442 Y13.7862 F100.00
G01 X28.9332 Y13.5714 F100.00
G01 X28.9934 Y13.3468 F100.00
G01 X29.0237 Y13.1163 F100.00
G01 X29.0237 Y12.8837 F100.00
G01 X28.9934 Y12.6532 F100.00
G01 X28.9332 Y12.4286 F100.00
G01 X28.8442 Y12.2138 F100.00
G01 X28.7279 Y12.0125 F100.00
G01 X28.5864 Y11.8280 F100.00
G01 X28.4220 Y11.6636 F100.00
G01 X28.2375 Y11.5221 F100.00
G01 X28.0362 Y11.4058 F100.00
G01 X27.8214 Y11.3168 F100.00
G01 X27.5968 Y11.2566 F100.00
G01 X27.3663 Y11.2263 F100.00
G01 X27.1337 Y11.2263 F100.00
G01 X26.9032 Y11.2566 F100.00
G01 X26.6786 Y11.3168 F100.00
G01 X26.4638 Y11.4058 F100.00
G01 X26.2625 Y11.5221 F100.00
G01 X26.0780 Y11.6636 F100.00
G01 X25.9136 Y11.8280 F100.00
G01 X25.7721 Y12.0125 F100.00
G01 X25.6558 Y12.2138 F100.00
G01 X25.5668 Y12.4286 F100.00
G01 X25.5066 Y12.6532 F100.00
G01 X25.4763 Y12.8837 F100.00
G01 X25.4763 Y13.1163 F100.00
G01 X25.5066 Y13.3468 F100.00
G01 X25.5668 Y13.5714 F100.00
G01 X25.6558 Y13.7862 F100.00
G01 X25.7721 Y13.9875 F100.00
G01 X25.9136 Y14.1720 F100.00
G01 X26.0780 Y14.3364 F100.00
G01 X26.2625 Y14.4779 F100.00
G01 X26.2995 Y14.4993 F100.00
G01 X26.3084 Y14.5057 F100.00
G01 X26.3151 Y14.5119 F100.00
G01 X26.3646 Y14.5639 F100.00
G01 X26.3706 Y14.5713 F100.00
G01 X26.3755 Y14.5794 F100.00
G01 X26.3801 Y14.5899 F100.00
