(G-CODE GENERATED BY FLATCAM v8.994 - www.flatcam.org - Version Date: 2020/11/7)

(Name: Encoders-LCD.drl_cnc)
(Type: G-code from Geometry)
(Units: MM)

(Created on Tuesday, 11 February 2025 at 21:28)

(This preprocessor is used with a motion controller loaded with GRBL firmware.)
(It is configured to be compatible with almost any version of GRBL firmware.)


(TOOLS DIAMETER: )
(Tool: 1 -> Dia: 0.5)
(Tool: 2 -> Dia: 0.6)
(Tool: 3 -> Dia: 1.0)
(Tool: 4 -> Dia: 1.1)
(Tool: 5 -> Dia: 2.6)
(Tool: 6 -> Dia: 3.2)

(FEEDRATE Z: )
(Tool: 1 -> Feedrate: 300)
(Tool: 2 -> Feedrate: 300)
(Tool: 3 -> Feedrate: 300)
(Tool: 4 -> Feedrate: 300)
(Tool: 5 -> Feedrate: 300)
(Tool: 6 -> Feedrate: 300)

(FEEDRATE RAPIDS: )
(Tool: 1 -> Feedrate Rapids: 1500)
(Tool: 2 -> Feedrate Rapids: 1500)
(Tool: 3 -> Feedrate Rapids: 1500)
(Tool: 4 -> Feedrate Rapids: 1500)
(Tool: 5 -> Feedrate Rapids: 1500)
(Tool: 6 -> Feedrate Rapids: 1500)

(Z_CUT: )
(Tool: 1 -> Z_Cut: -1.7)
(Tool: 2 -> Z_Cut: -1.7)
(Tool: 3 -> Z_Cut: -1.7)
(Tool: 4 -> Z_Cut: -1.7)
(Tool: 5 -> Z_Cut: -1.7)
(Tool: 6 -> Z_Cut: -1.7)

(Tools Offset: )
(Tool: 1 -> Offset Z: 0.0)

(Z_MOVE: )
(Tool: 1 -> Z_Move: 2)
(Tool: 2 -> Z_Move: 2)
(Tool: 3 -> Z_Move: 2)
(Tool: 4 -> Z_Move: 2)
(Tool: 5 -> Z_Move: 2)
(Tool: 6 -> Z_Move: 2)

(Z Toolchange: 15 mm)
(X,Y Toolchange: 0.0000, 0.0000 mm)
(Z Start: None mm)
(Z End: 4.999999999999998 mm)
(X,Y End: None mm)
(Steps per circle: 64)
(Steps per circle: 64)
(Preprocessor Excellon: GRBL_11_no_M6)

(X range:  -45.6000 ...   45.6000  mm)
(Y range:  -33.6000 ...   33.6000  mm)

(Spindle Speed: 900 RPM)
G21
G90
G17
G94


G01 F300.00

M5             
G00 Z15.0000
G00 X0.0000 Y0.0000                
T1
(MSG, Change to Tool Dia = 0.5000 ||| Total drills for tool T1 = 41)
M0
G00 Z15.0000
        
G01 F300.00
M03 S900
G00 X39.3270 Y-13.2250
G01 Z-1.7000
G01 Z0
G00 Z2.0000
G00 X34.5260 Y-13.2250
G01 Z-1.7000
G01 Z0
G00 Z2.0000
G00 X21.0640 Y-10.5830
G01 Z-1.7000
G01 Z0
G00 Z2.0000
G00 X15.2220 Y-18.1780
G01 Z-1.7000
G01 Z0
G00 Z2.0000
G00 X8.0340 Y-18.2030
G01 Z-1.7000
G01 Z0
G00 Z2.0000
G00 X8.6180 Y-14.4180
G01 Z-1.7000
G01 Z0
G00 Z2.0000
G00 X7.2470 Y-10.7350
G01 Z-1.7000
G01 Z0
G00 Z2.0000
G00 X3.0300 Y-13.4020
G01 Z-1.7000
G01 Z0
G00 Z2.0000
G00 X-2.9390 Y-13.4020
G01 Z-1.7000
G01 Z0
G00 Z2.0000
G00 X-4.2340 Y-14.6720
G01 Z-1.7000
G01 Z0
G00 Z2.0000
G00 X-5.8600 Y-18.2280
G01 Z-1.7000
G01 Z0
G00 Z2.0000
G00 X-5.8600 Y-9.8720
G01 Z-1.7000
G01 Z0
G00 Z2.0000
G00 X-5.8600 Y-6.3920
G01 Z-1.7000
G01 Z0
G00 Z2.0000
G00 X-16.9340 Y-2.8360
G01 Z-1.7000
G01 Z0
G00 Z2.0000
G00 X-18.4580 Y-2.8360
G01 Z-1.7000
G01 Z0
G00 Z2.0000
G00 X-29.1260 Y-2.8360
G01 Z-1.7000
G01 Z0
G00 Z2.0000
G00 X-27.6530 Y2.7010
G01 Z-1.7000
G01 Z0
G00 Z2.0000
G00 X-27.5770 Y6.6890
G01 Z-1.7000
G01 Z0
G00 Z2.0000
G00 X-26.6370 Y17.4590
G01 Z-1.7000
G01 Z0
G00 Z2.0000
G00 X-20.9980 Y29.6760
G01 Z-1.7000
G01 Z0
G00 Z2.0000
G00 X-14.3940 Y29.6760
G01 Z-1.7000
G01 Z0
G00 Z2.0000
G00 X-8.5770 Y27.5680
G01 Z-1.7000
G01 Z0
G00 Z2.0000
G00 X-15.3340 Y18.7030
G01 Z-1.7000
G01 Z0
G00 Z2.0000
G00 X-4.9200 Y13.3950
G01 Z-1.7000
G01 Z0
G00 Z2.0000
G00 X-9.6190 Y11.0830
G01 Z-1.7000
G01 Z0
G00 Z2.0000
G00 X-15.0540 Y11.0580
G01 Z-1.7000
G01 Z0
G00 Z2.0000
G00 X-11.3970 Y3.9710
G01 Z-1.7000
G01 Z0
G00 Z2.0000
G00 X-11.4480 Y1.7110
G01 Z-1.7000
G01 Z0
G00 Z2.0000
G00 X-8.1710 Y3.9710
G01 Z-1.7000
G01 Z0
G00 Z2.0000
G00 X-8.2470 Y1.7110
G01 Z-1.7000
G01 Z0
G00 Z2.0000
G00 X-2.3290 Y-0.2450
G01 Z-1.7000
G01 Z0
G00 Z2.0000
G00 X-2.3540 Y-2.6070
G01 Z-1.7000
G01 Z0
G00 Z2.0000
G00 X10.9040 Y0.7450
G01 Z-1.7000
G01 Z0
G00 Z2.0000
G00 X14.4600 Y13.3690
G01 Z-1.7000
G01 Z0
G00 Z2.0000
G00 X16.7210 Y17.4840
G01 Z-1.7000
G01 Z0
G00 Z2.0000
G00 X15.1970 Y18.7290
G01 Z-1.7000
G01 Z0
G00 Z2.0000
G00 X14.2060 Y20.6840
G01 Z-1.7000
G01 Z0
G00 Z2.0000
G00 X9.6600 Y19.4650
G01 Z-1.7000
G01 Z0
G00 Z2.0000
G00 X9.2030 Y20.6340
G01 Z-1.7000
G01 Z0
G00 Z2.0000
G00 X12.5810 Y28.3810
G01 Z-1.7000
G01 Z0
G00 Z2.0000
G00 X24.1890 Y19.4400
G01 Z-1.7000
G01 Z0
G00 Z2.0000
M05
G00 Z5.00


