(G-CODE GENERATED BY FLATCAM v8.994 - www.flatcam.org - Version Date: 2020/11/7)

(Name: Encoders-LCD-PTH.drl_cnc)
(Type: G-code from Geometry)
(Units: MM)

(Created on Monday, 09 September 2024 at 15:46)

(This preprocessor is used with a motion controller loaded with GRBL firmware.)
(It is configured to be compatible with almost any version of GRBL firmware.)


(TOOLS DIAMETER: )
(Tool: 1 -> Dia: 0.5)
(Tool: 2 -> Dia: 0.8)
(Tool: 3 -> Dia: 1.0)
(Tool: 4 -> Dia: 1.19)
(Tool: 5 -> Dia: 2.6)

(FEEDRATE Z: )
(Tool: 1 -> Feedrate: 300)
(Tool: 2 -> Feedrate: 300)
(Tool: 3 -> Feedrate: 300)
(Tool: 4 -> Feedrate: 300)
(Tool: 5 -> Feedrate: 300)

(FEEDRATE RAPIDS: )
(Tool: 1 -> Feedrate Rapids: 1500)
(Tool: 2 -> Feedrate Rapids: 1500)
(Tool: 3 -> Feedrate Rapids: 1500)
(Tool: 4 -> Feedrate Rapids: 1500)
(Tool: 5 -> Feedrate Rapids: 1500)

(Z_CUT: )
(Tool: 1 -> Z_Cut: -1.8)
(Tool: 2 -> Z_Cut: -1.7999999999999998)
(Tool: 3 -> Z_Cut: -1.7999999999999998)
(Tool: 4 -> Z_Cut: -1.7999999999999998)
(Tool: 5 -> Z_Cut: -1.7999999999999998)

(Tools Offset: )
(Tool: 1 -> Offset Z: 0.0)

(DEPTH_PER_CUT: )
(Tool: 1 -> DeptPerCut: 0.2)
(Tool: 2 -> DeptPerCut: 0.2)
(Tool: 3 -> DeptPerCut: 0.2)
(Tool: 4 -> DeptPerCut: 0.2)
(Tool: 5 -> DeptPerCut: 0.2)

(Z_MOVE: )
(Tool: 1 -> Z_Move: 2.0)
(Tool: 2 -> Z_Move: 2.0)
(Tool: 3 -> Z_Move: 2.0)
(Tool: 4 -> Z_Move: 2.0)
(Tool: 5 -> Z_Move: 2.0)

(Z Toolchange: 5.0 mm)
(X,Y Toolchange: 0.0000, 0.0000 mm)
(Z Start: None mm)
(Z End: 5.0 mm)
(X,Y End: None mm)
(Steps per circle: 64)
(Steps per circle: 64)
(Preprocessor Excellon: GRBL_11_no_M6)

(X range:  -41.4000 ...   43.7500  mm)
(Y range:  -32.6350 ...   27.2500  mm)

(Spindle Speed: 900 RPM)
G21
G90
G17
G94


G01 F300.00

M5             
G00 Z5.0000
G00 X0.0000 Y0.0000                
T1
(MSG, Change to Tool Dia = 0.5000 ||| Total drills for tool T1 = 22)
M0
G00 Z5.0000
        
G01 F300.00
M03 S900
G00 X43.5000 Y11.7500
G01 Z-0.2000
G01 Z0
G00 Z2.0000
G01 Z-0.4000
G01 Z0
G00 Z2.0000
G01 Z-0.6000
G01 Z0
G00 Z2.0000
G01 Z-0.8000
G01 Z0
G00 Z2.0000
G01 Z-1.0000
G01 Z0
G00 Z2.0000
G01 Z-1.2000
G01 Z0
G00 Z2.0000
G01 Z-1.4000
G01 Z0
G00 Z2.0000
G01 Z-1.6000
G01 Z0
G00 Z2.0000
G01 Z-1.8000
G01 Z0
G00 Z2.0000
G01 Z-1.8000
G01 Z0
G00 Z2.0000
G00 X39.2500 Y11.7500
G01 Z-0.2000
G01 Z0
G00 Z2.0000
G01 Z-0.4000
G01 Z0
G00 Z2.0000
G01 Z-0.6000
G01 Z0
G00 Z2.0000
G01 Z-0.8000
G01 Z0
G00 Z2.0000
G01 Z-1.0000
G01 Z0
G00 Z2.0000
G01 Z-1.2000
G01 Z0
G00 Z2.0000
G01 Z-1.4000
G01 Z0
G00 Z2.0000
G01 Z-1.6000
G01 Z0
G00 Z2.0000
G01 Z-1.8000
G01 Z0
G00 Z2.0000
G01 Z-1.8000
G01 Z0
G00 Z2.0000
G00 X33.9000 Y6.7000
G01 Z-0.2000
G01 Z0
G00 Z2.0000
G01 Z-0.4000
G01 Z0
G00 Z2.0000
G01 Z-0.6000
G01 Z0
G00 Z2.0000
G01 Z-0.8000
G01 Z0
G00 Z2.0000
G01 Z-1.0000
G01 Z0
G00 Z2.0000
G01 Z-1.2000
G01 Z0
G00 Z2.0000
G01 Z-1.4000
G01 Z0
G00 Z2.0000
G01 Z-1.6000
G01 Z0
G00 Z2.0000
G01 Z-1.8000
G01 Z0
G00 Z2.0000
G01 Z-1.8000
G01 Z0
G00 Z2.0000
G00 X30.0000 Y4.5000
G01 Z-0.2000
G01 Z0
G00 Z2.0000
G01 Z-0.4000
G01 Z0
G00 Z2.0000
G01 Z-0.6000
G01 Z0
G00 Z2.0000
G01 Z-0.8000
G01 Z0
G00 Z2.0000
G01 Z-1.0000
G01 Z0
G00 Z2.0000
G01 Z-1.2000
G01 Z0
G00 Z2.0000
G01 Z-1.4000
G01 Z0
G00 Z2.0000
G01 Z-1.6000
G01 Z0
G00 Z2.0000
G01 Z-1.8000
G01 Z0
G00 Z2.0000
G01 Z-1.8000
G01 Z0
G00 Z2.0000
G00 X22.2500 Y4.5000
G01 Z-0.2000
G01 Z0
G00 Z2.0000
G01 Z-0.4000
G01 Z0
G00 Z2.0000
G01 Z-0.6000
G01 Z0
G00 Z2.0000
G01 Z-0.8000
G01 Z0
G00 Z2.0000
G01 Z-1.0000
G01 Z0
G00 Z2.0000
G01 Z-1.2000
G01 Z0
G00 Z2.0000
G01 Z-1.4000
G01 Z0
G00 Z2.0000
G01 Z-1.6000
G01 Z0
G00 Z2.0000
G01 Z-1.8000
G01 Z0
G00 Z2.0000
G01 Z-1.8000
G01 Z0
G00 Z2.0000
G00 X19.9000 Y6.9000
G01 Z-0.2000
G01 Z0
G00 Z2.0000
G01 Z-0.4000
G01 Z0
G00 Z2.0000
G01 Z-0.6000
G01 Z0
G00 Z2.0000
G01 Z-0.8000
G01 Z0
G00 Z2.0000
G01 Z-1.0000
G01 Z0
G00 Z2.0000
G01 Z-1.2000
G01 Z0
G00 Z2.0000
G01 Z-1.4000
G01 Z0
G00 Z2.0000
G01 Z-1.6000
G01 Z0
G00 Z2.0000
G01 Z-1.8000
G01 Z0
G00 Z2.0000
G01 Z-1.8000
G01 Z0
G00 Z2.0000
G00 X25.3000 Y-12.5000
G01 Z-0.2000
G01 Z0
G00 Z2.0000
G01 Z-0.4000
G01 Z0
G00 Z2.0000
G01 Z-0.6000
G01 Z0
G00 Z2.0000
G01 Z-0.8000
G01 Z0
G00 Z2.0000
G01 Z-1.0000
G01 Z0
G00 Z2.0000
G01 Z-1.2000
G01 Z0
G00 Z2.0000
G01 Z-1.4000
G01 Z0
G00 Z2.0000
G01 Z-1.6000
G01 Z0
G00 Z2.0000
G01 Z-1.8000
G01 Z0
G00 Z2.0000
G01 Z-1.8000
G01 Z0
G00 Z2.0000
G00 X22.7000 Y-17.3000
G01 Z-0.2000
G01 Z0
G00 Z2.0000
G01 Z-0.4000
G01 Z0
G00 Z2.0000
G01 Z-0.6000
G01 Z0
G00 Z2.0000
G01 Z-0.8000
G01 Z0
G00 Z2.0000
G01 Z-1.0000
G01 Z0
G00 Z2.0000
G01 Z-1.2000
G01 Z0
G00 Z2.0000
G01 Z-1.4000
G01 Z0
G00 Z2.0000
G01 Z-1.6000
G01 Z0
G00 Z2.0000
G01 Z-1.8000
G01 Z0
G00 Z2.0000
G01 Z-1.8000
G01 Z0
G00 Z2.0000
G00 X-20.0000 Y-16.7500
G01 Z-0.2000
G01 Z0
G00 Z2.0000
G01 Z-0.4000
G01 Z0
G00 Z2.0000
G01 Z-0.6000
G01 Z0
G00 Z2.0000
G01 Z-0.8000
G01 Z0
G00 Z2.0000
G01 Z-1.0000
G01 Z0
G00 Z2.0000
G01 Z-1.2000
G01 Z0
G00 Z2.0000
G01 Z-1.4000
G01 Z0
G00 Z2.0000
G01 Z-1.6000
G01 Z0
G00 Z2.0000
G01 Z-1.8000
G01 Z0
G00 Z2.0000
G01 Z-1.8000
G01 Z0
G00 Z2.0000
G00 X-24.5000 Y-14.7500
G01 Z-0.2000
G01 Z0
G00 Z2.0000
G01 Z-0.4000
G01 Z0
G00 Z2.0000
G01 Z-0.6000
G01 Z0
G00 Z2.0000
G01 Z-0.8000
G01 Z0
G00 Z2.0000
G01 Z-1.0000
G01 Z0
G00 Z2.0000
G01 Z-1.2000
G01 Z0
G00 Z2.0000
G01 Z-1.4000
G01 Z0
G00 Z2.0000
G01 Z-1.6000
G01 Z0
G00 Z2.0000
G01 Z-1.8000
G01 Z0
G00 Z2.0000
G01 Z-1.8000
G01 Z0
G00 Z2.0000
G00 X-24.5000 Y-8.2500
G01 Z-0.2000
G01 Z0
G00 Z2.0000
G01 Z-0.4000
G01 Z0
G00 Z2.0000
G01 Z-0.6000
G01 Z0
G00 Z2.0000
G01 Z-0.8000
G01 Z0
G00 Z2.0000
G01 Z-1.0000
G01 Z0
G00 Z2.0000
G01 Z-1.2000
G01 Z0
G00 Z2.0000
G01 Z-1.4000
G01 Z0
G00 Z2.0000
G01 Z-1.6000
G01 Z0
G00 Z2.0000
G01 Z-1.8000
G01 Z0
G00 Z2.0000
G01 Z-1.8000
G01 Z0
G00 Z2.0000
G00 X-20.0000 Y-8.7500
G01 Z-0.2000
G01 Z0
G00 Z2.0000
G01 Z-0.4000
G01 Z0
G00 Z2.0000
G01 Z-0.6000
G01 Z0
G00 Z2.0000
G01 Z-0.8000
G01 Z0
G00 Z2.0000
G01 Z-1.0000
G01 Z0
G00 Z2.0000
G01 Z-1.2000
G01 Z0
G00 Z2.0000
G01 Z-1.4000
G01 Z0
G00 Z2.0000
G01 Z-1.6000
G01 Z0
G00 Z2.0000
G01 Z-1.8000
G01 Z0
G00 Z2.0000
G01 Z-1.8000
G01 Z0
G00 Z2.0000
G00 X-20.0000 Y6.2500
G01 Z-0.2000
G01 Z0
G00 Z2.0000
G01 Z-0.4000
G01 Z0
G00 Z2.0000
G01 Z-0.6000
G01 Z0
G00 Z2.0000
G01 Z-0.8000
G01 Z0
G00 Z2.0000
G01 Z-1.0000
G01 Z0
G00 Z2.0000
G01 Z-1.2000
G01 Z0
G00 Z2.0000
G01 Z-1.4000
G01 Z0
G00 Z2.0000
G01 Z-1.6000
G01 Z0
G00 Z2.0000
G01 Z-1.8000
G01 Z0
G00 Z2.0000
G01 Z-1.8000
G01 Z0
G00 Z2.0000
G00 X-26.2500 Y6.2500
G01 Z-0.2000
G01 Z0
G00 Z2.0000
G01 Z-0.4000
G01 Z0
G00 Z2.0000
G01 Z-0.6000
G01 Z0
G00 Z2.0000
G01 Z-0.8000
G01 Z0
G00 Z2.0000
G01 Z-1.0000
G01 Z0
G00 Z2.0000
G01 Z-1.2000
G01 Z0
G00 Z2.0000
G01 Z-1.4000
G01 Z0
G00 Z2.0000
G01 Z-1.6000
G01 Z0
G00 Z2.0000
G01 Z-1.8000
G01 Z0
G00 Z2.0000
G01 Z-1.8000
G01 Z0
G00 Z2.0000
G00 X-41.0000 Y10.5000
G01 Z-0.2000
G01 Z0
G00 Z2.0000
G01 Z-0.4000
G01 Z0
G00 Z2.0000
G01 Z-0.6000
G01 Z0
G00 Z2.0000
G01 Z-0.8000
G01 Z0
G00 Z2.0000
G01 Z-1.0000
G01 Z0
G00 Z2.0000
G01 Z-1.2000
G01 Z0
G00 Z2.0000
G01 Z-1.4000
G01 Z0
G00 Z2.0000
G01 Z-1.6000
G01 Z0
G00 Z2.0000
G01 Z-1.8000
G01 Z0
G00 Z2.0000
G01 Z-1.8000
G01 Z0
G00 Z2.0000
G00 X-41.0000 Y16.7500
G01 Z-0.2000
G01 Z0
G00 Z2.0000
G01 Z-0.4000
G01 Z0
G00 Z2.0000
G01 Z-0.6000
G01 Z0
G00 Z2.0000
G01 Z-0.8000
G01 Z0
G00 Z2.0000
G01 Z-1.0000
G01 Z0
G00 Z2.0000
G01 Z-1.2000
G01 Z0
G00 Z2.0000
G01 Z-1.4000
G01 Z0
G00 Z2.0000
G01 Z-1.6000
G01 Z0
G00 Z2.0000
G01 Z-1.8000
G01 Z0
G00 Z2.0000
G01 Z-1.8000
G01 Z0
G00 Z2.0000
G00 X-31.7500 Y18.2500
G01 Z-0.2000
G01 Z0
G00 Z2.0000
G01 Z-0.4000
G01 Z0
G00 Z2.0000
G01 Z-0.6000
G01 Z0
G00 Z2.0000
G01 Z-0.8000
G01 Z0
G00 Z2.0000
G01 Z-1.0000
G01 Z0
G00 Z2.0000
G01 Z-1.2000
G01 Z0
G00 Z2.0000
G01 Z-1.4000
G01 Z0
G00 Z2.0000
G01 Z-1.6000
G01 Z0
G00 Z2.0000
G01 Z-1.8000
G01 Z0
G00 Z2.0000
G01 Z-1.8000
G01 Z0
G00 Z2.0000
G00 X-23.2500 Y18.2500
G01 Z-0.2000
G01 Z0
G00 Z2.0000
G01 Z-0.4000
G01 Z0
G00 Z2.0000
G01 Z-0.6000
G01 Z0
G00 Z2.0000
G01 Z-0.8000
G01 Z0
G00 Z2.0000
G01 Z-1.0000
G01 Z0
G00 Z2.0000
G01 Z-1.2000
G01 Z0
G00 Z2.0000
G01 Z-1.4000
G01 Z0
G00 Z2.0000
G01 Z-1.6000
G01 Z0
G00 Z2.0000
G01 Z-1.8000
G01 Z0
G00 Z2.0000
G01 Z-1.8000
G01 Z0
G00 Z2.0000
G00 X20.2500 Y18.7500
G01 Z-0.2000
G01 Z0
G00 Z2.0000
G01 Z-0.4000
G01 Z0
G00 Z2.0000
G01 Z-0.6000
G01 Z0
G00 Z2.0000
G01 Z-0.8000
G01 Z0
G00 Z2.0000
G01 Z-1.0000
G01 Z0
G00 Z2.0000
G01 Z-1.2000
G01 Z0
G00 Z2.0000
G01 Z-1.4000
G01 Z0
G00 Z2.0000
G01 Z-1.6000
G01 Z0
G00 Z2.0000
G01 Z-1.8000
G01 Z0
G00 Z2.0000
G01 Z-1.8000
G01 Z0
G00 Z2.0000
G00 X30.2500 Y18.7500
G01 Z-0.2000
G01 Z0
G00 Z2.0000
G01 Z-0.4000
G01 Z0
G00 Z2.0000
G01 Z-0.6000
G01 Z0
G00 Z2.0000
G01 Z-0.8000
G01 Z0
G00 Z2.0000
G01 Z-1.0000
G01 Z0
G00 Z2.0000
G01 Z-1.2000
G01 Z0
G00 Z2.0000
G01 Z-1.4000
G01 Z0
G00 Z2.0000
G01 Z-1.6000
G01 Z0
G00 Z2.0000
G01 Z-1.8000
G01 Z0
G00 Z2.0000
G01 Z-1.8000
G01 Z0
G00 Z2.0000
G00 X29.5000 Y26.7500
G01 Z-0.2000
G01 Z0
G00 Z2.0000
G01 Z-0.4000
G01 Z0
G00 Z2.0000
G01 Z-0.6000
G01 Z0
G00 Z2.0000
G01 Z-0.8000
G01 Z0
G00 Z2.0000
G01 Z-1.0000
G01 Z0
G00 Z2.0000
G01 Z-1.2000
G01 Z0
G00 Z2.0000
G01 Z-1.4000
G01 Z0
G00 Z2.0000
G01 Z-1.6000
G01 Z0
G00 Z2.0000
G01 Z-1.8000
G01 Z0
G00 Z2.0000
G01 Z-1.8000
G01 Z0
G00 Z2.0000
G00 X42.7500 Y27.0000
G01 Z-0.2000
G01 Z0
G00 Z2.0000
G01 Z-0.4000
G01 Z0
G00 Z2.0000
G01 Z-0.6000
G01 Z0
G00 Z2.0000
G01 Z-0.8000
G01 Z0
G00 Z2.0000
G01 Z-1.0000
G01 Z0
G00 Z2.0000
G01 Z-1.2000
G01 Z0
G00 Z2.0000
G01 Z-1.4000
G01 Z0
G00 Z2.0000
G01 Z-1.6000
G01 Z0
G00 Z2.0000
G01 Z-1.8000
G01 Z0
G00 Z2.0000
G01 Z-1.8000
G01 Z0
G00 Z2.0000
M05
G00 Z5.00


