(G-CODE GENERATED BY FLATCAM v8.994 - www.flatcam.org - Version Date: 2020/11/7)

(Name: Encoders-LCD-PTH.drl_cnc)
(Type: G-code from Geometry)
(Units: MM)

(Created on Wednesday, 04 September 2024 at 14:28)

(This preprocessor is used with a motion controller loaded with GRBL firmware.)
(It is configured to be compatible with almost any version of GRBL firmware.)


(TOOLS DIAMETER: )
(Tool: 1 -> Dia: 0.3)
(Tool: 2 -> Dia: 0.762)
(Tool: 3 -> Dia: 1.0)
(Tool: 4 -> Dia: 1.1)
(Tool: 5 -> Dia: 2.6)

(FEEDRATE Z: )
(Tool: 1 -> Feedrate: 30.0)
(Tool: 2 -> Feedrate: 30.0)
(Tool: 3 -> Feedrate: 30.0)
(Tool: 4 -> Feedrate: 30.0)
(Tool: 5 -> Feedrate: 30.0)

(FEEDRATE RAPIDS: )
(Tool: 1 -> Feedrate Rapids: 1500)
(Tool: 2 -> Feedrate Rapids: 1500)
(Tool: 3 -> Feedrate Rapids: 1500)
(Tool: 4 -> Feedrate Rapids: 1500)
(Tool: 5 -> Feedrate Rapids: 1500)

(Z_CUT: )
(Tool: 1 -> Z_Cut: -2.3000000000000003)
(Tool: 2 -> Z_Cut: -2.3000000000000003)
(Tool: 3 -> Z_Cut: -2.3000000000000003)
(Tool: 4 -> Z_Cut: -2.3000000000000003)
(Tool: 5 -> Z_Cut: -2.3000000000000003)

(Tools Offset: )
(Tool: 2 -> Offset Z: 0.0)

(DEPTH_PER_CUT: )
(Tool: 1 -> DeptPerCut: 0.6)
(Tool: 2 -> DeptPerCut: 0.6)
(Tool: 3 -> DeptPerCut: 0.6)
(Tool: 4 -> DeptPerCut: 0.6)
(Tool: 5 -> DeptPerCut: 0.6)

(Z_MOVE: )
(Tool: 1 -> Z_Move: 2.0)
(Tool: 2 -> Z_Move: 2.0)
(Tool: 3 -> Z_Move: 2.0)
(Tool: 4 -> Z_Move: 2.0)
(Tool: 5 -> Z_Move: 2.0)

(Z Toolchange: 7.0 mm)
(X,Y Toolchange: 0.0000, 0.0000 mm)
(Z Start: None mm)
(Z End: 5.5 mm)
(X,Y End: None mm)
(Steps per circle: 64)
(Steps per circle: 64)
(Preprocessor Excellon: GRBL_11_no_M6)

(X range:    7.8500 ...  103.1500  mm)
(Y range:    6.2500 ...   71.5000  mm)

(Spindle Speed: 900 RPM)
G21
G90
G17
G94


G01 F30.00

M5             
G00 Z7.0000
G00 X0.0000 Y0.0000                
T2
(MSG, Change to Tool Dia = 0.7620 ||| Total drills for tool T2 = 16)
M0
G00 Z7.0000
        
G01 F30.00
M03 S900
G00 X11.1100 Y61.9400
G01 Z-0.6000
G01 Z0
G00 Z2.0000
G01 Z-1.2000
G01 Z0
G00 Z2.0000
G01 Z-1.8000
G01 Z0
G00 Z2.0000
G01 Z-2.3000
G01 Z0
G00 Z2.0000
G00 X13.6500 Y61.9400
G01 Z-0.6000
G01 Z0
G00 Z2.0000
G01 Z-1.2000
G01 Z0
G00 Z2.0000
G01 Z-1.8000
G01 Z0
G00 Z2.0000
G01 Z-2.3000
G01 Z0
G00 Z2.0000
G00 X16.1900 Y61.9400
G01 Z-0.6000
G01 Z0
G00 Z2.0000
G01 Z-1.2000
G01 Z0
G00 Z2.0000
G01 Z-1.8000
G01 Z0
G00 Z2.0000
G01 Z-2.3000
G01 Z0
G00 Z2.0000
G00 X18.7300 Y61.9400
G01 Z-0.6000
G01 Z0
G00 Z2.0000
G01 Z-1.2000
G01 Z0
G00 Z2.0000
G01 Z-1.8000
G01 Z0
G00 Z2.0000
G01 Z-2.3000
G01 Z0
G00 Z2.0000
G00 X21.2700 Y61.9400
G01 Z-0.6000
G01 Z0
G00 Z2.0000
G01 Z-1.2000
G01 Z0
G00 Z2.0000
G01 Z-1.8000
G01 Z0
G00 Z2.0000
G01 Z-2.3000
G01 Z0
G00 Z2.0000
G00 X23.8100 Y61.9400
G01 Z-0.6000
G01 Z0
G00 Z2.0000
G01 Z-1.2000
G01 Z0
G00 Z2.0000
G01 Z-1.8000
G01 Z0
G00 Z2.0000
G01 Z-2.3000
G01 Z0
G00 Z2.0000
G00 X26.3500 Y61.9400
G01 Z-0.6000
G01 Z0
G00 Z2.0000
G01 Z-1.2000
G01 Z0
G00 Z2.0000
G01 Z-1.8000
G01 Z0
G00 Z2.0000
G01 Z-2.3000
G01 Z0
G00 Z2.0000
G00 X28.8900 Y61.9400
G01 Z-0.6000
G01 Z0
G00 Z2.0000
G01 Z-1.2000
G01 Z0
G00 Z2.0000
G01 Z-1.8000
G01 Z0
G00 Z2.0000
G01 Z-2.3000
G01 Z0
G00 Z2.0000
G00 X81.1550 Y61.8540
G01 Z-0.6000
G01 Z0
G00 Z2.0000
G01 Z-1.2000
G01 Z0
G00 Z2.0000
G01 Z-1.8000
G01 Z0
G00 Z2.0000
G01 Z-2.3000
G01 Z0
G00 Z2.0000
G00 X83.6950 Y61.8540
G01 Z-0.6000
G01 Z0
G00 Z2.0000
G01 Z-1.2000
G01 Z0
G00 Z2.0000
G01 Z-1.8000
G01 Z0
G00 Z2.0000
G01 Z-2.3000
G01 Z0
G00 Z2.0000
G00 X86.2350 Y61.8540
G01 Z-0.6000
G01 Z0
G00 Z2.0000
G01 Z-1.2000
G01 Z0
G00 Z2.0000
G01 Z-1.8000
G01 Z0
G00 Z2.0000
G01 Z-2.3000
G01 Z0
G00 Z2.0000
G00 X88.7750 Y61.8540
G01 Z-0.6000
G01 Z0
G00 Z2.0000
G01 Z-1.2000
G01 Z0
G00 Z2.0000
G01 Z-1.8000
G01 Z0
G00 Z2.0000
G01 Z-2.3000
G01 Z0
G00 Z2.0000
G00 X91.3150 Y61.8540
G01 Z-0.6000
G01 Z0
G00 Z2.0000
G01 Z-1.2000
G01 Z0
G00 Z2.0000
G01 Z-1.8000
G01 Z0
G00 Z2.0000
G01 Z-2.3000
G01 Z0
G00 Z2.0000
G00 X93.8550 Y61.8540
G01 Z-0.6000
G01 Z0
G00 Z2.0000
G01 Z-1.2000
G01 Z0
G00 Z2.0000
G01 Z-1.8000
G01 Z0
G00 Z2.0000
G01 Z-2.3000
G01 Z0
G00 Z2.0000
G00 X96.3950 Y61.8540
G01 Z-0.6000
G01 Z0
G00 Z2.0000
G01 Z-1.2000
G01 Z0
G00 Z2.0000
G01 Z-1.8000
G01 Z0
G00 Z2.0000
G01 Z-2.3000
G01 Z0
G00 Z2.0000
G00 X98.9350 Y61.8540
G01 Z-0.6000
G01 Z0
G00 Z2.0000
G01 Z-1.2000
G01 Z0
G00 Z2.0000
G01 Z-1.8000
G01 Z0
G00 Z2.0000
G01 Z-2.3000
G01 Z0
G00 Z2.0000
M05
G00 Z5.50


