(G-CODE GENERATED BY FLATCAM v8.994 - www.flatcam.org - Version Date: 2020/11/7)

(Name: Encoders-LCD-PTH.drl_mill_cnc)
(Type: G-code from Geometry)
(Units: MM)

(Created on Wednesday, 04 September 2024 at 14:31)

(This preprocessor is used with a motion controller loaded with GRBL firmware.)
(It is configured to be compatible with almost any version of GRBL firmware.)

(TOOL DIAMETER: 1.0 mm)
(Feedrate_XY: 120.0 mm/min)
(Feedrate_Z: 60.0 mm/min)
(Feedrate rapids 1500.0 mm/min)

(Z_Cut: -2.4 mm)
(DepthPerCut: 0.4 mm <=>6 passes)
(Z_Move: 2.0 mm)
(Z Start: None mm)
(Z End: 7.0 mm)
(X,Y End: None mm)
(Steps per circle: 64)
(Steps per circle: 64)
(Preprocessor Geometry: GRBL_11_no_M6)

(X range:    8.3500 ...  102.6500  mm)
(Y range:   12.9500 ...   58.5500  mm)

(Spindle Speed: 900.0 RPM)
G21
G90
G17
G94


G01 F120.00

M5             
G00 Z7.0000
G00 X0.0000 Y0.0000                
T1
(MSG, Change to Tool Dia = 1.0000)
M0
G00 Z7.0000
        
M03 S900.0
G01 F120.00
G00 X9.9500 Y13.7500
G01 F60.00
G01 Z-0.4000
G01 F120.00
G01 X9.9461 Y13.6716 F120.00
G01 X9.9346 Y13.5939 F120.00
G01 X9.9156 Y13.5178 F120.00
G01 X9.8891 Y13.4439 F120.00
G01 X9.8555 Y13.3729 F120.00
G01 X9.8152 Y13.3055 F120.00
G01 X9.7684 Y13.2425 F120.00
G01 X9.7157 Y13.1843 F120.00
G01 X9.6575 Y13.1316 F120.00
G01 X9.5945 Y13.0848 F120.00
G01 X9.5271 Y13.0445 F120.00
G01 X9.4561 Y13.0109 F120.00
G01 X9.3822 Y12.9844 F120.00
G01 X9.3061 Y12.9654 F120.00
G01 X9.2284 Y12.9539 F120.00
G01 X9.1500 Y12.9500 F120.00
G01 X9.0716 Y12.9539 F120.00
G01 X8.9939 Y12.9654 F120.00
G01 X8.9178 Y12.9844 F120.00
G01 X8.8439 Y13.0109 F120.00
G01 X8.7729 Y13.0445 F120.00
G01 X8.7055 Y13.0848 F120.00
G01 X8.6425 Y13.1316 F120.00
G01 X8.5843 Y13.1843 F120.00
G01 X8.5316 Y13.2425 F120.00
G01 X8.4848 Y13.3055 F120.00
G01 X8.4445 Y13.3729 F120.00
G01 X8.4109 Y13.4439 F120.00
G01 X8.3844 Y13.5178 F120.00
G01 X8.3654 Y13.5939 F120.00
G01 X8.3539 Y13.6716 F120.00
G01 X8.3500 Y13.7500 F120.00
G01 X8.3539 Y13.8284 F120.00
G01 X8.3654 Y13.9061 F120.00
G01 X8.3844 Y13.9822 F120.00
G01 X8.4109 Y14.0561 F120.00
G01 X8.4445 Y14.1271 F120.00
G01 X8.4848 Y14.1945 F120.00
G01 X8.5316 Y14.2575 F120.00
G01 X8.5843 Y14.3157 F120.00
G01 X8.6425 Y14.3684 F120.00
G01 X8.7055 Y14.4152 F120.00
G01 X8.7729 Y14.4555 F120.00
G01 X8.8439 Y14.4891 F120.00
G01 X8.9178 Y14.5156 F120.00
G01 X8.9939 Y14.5346 F120.00
G01 X9.0716 Y14.5461 F120.00
G01 X9.1500 Y14.5500 F120.00
G01 X9.2284 Y14.5461 F120.00
G01 X9.3061 Y14.5346 F120.00
G01 X9.3822 Y14.5156 F120.00
G01 X9.4561 Y14.4891 F120.00
G01 X9.5271 Y14.4555 F120.00
G01 X9.5945 Y14.4152 F120.00
G01 X9.6575 Y14.3684 F120.00
G01 X9.7157 Y14.3157 F120.00
G01 X9.7684 Y14.2575 F120.00
G01 X9.8152 Y14.1945 F120.00
G01 X9.8555 Y14.1271 F120.00
G01 X9.8891 Y14.0561 F120.00
G01 X9.9156 Y13.9822 F120.00
G01 X9.9346 Y13.9061 F120.00
G01 X9.9461 Y13.8284 F120.00
G01 X9.9500 Y13.7500 F120.00
G00 X9.9500 Y13.7500
G01 F60.00
G01 Z-0.8000
G01 F120.00
G01 X9.9461 Y13.6716 F120.00
G01 X9.9346 Y13.5939 F120.00
G01 X9.9156 Y13.5178 F120.00
G01 X9.8891 Y13.4439 F120.00
G01 X9.8555 Y13.3729 F120.00
G01 X9.8152 Y13.3055 F120.00
G01 X9.7684 Y13.2425 F120.00
G01 X9.7157 Y13.1843 F120.00
G01 X9.6575 Y13.1316 F120.00
G01 X9.5945 Y13.0848 F120.00
G01 X9.5271 Y13.0445 F120.00
G01 X9.4561 Y13.0109 F120.00
G01 X9.3822 Y12.9844 F120.00
G01 X9.3061 Y12.9654 F120.00
G01 X9.2284 Y12.9539 F120.00
G01 X9.1500 Y12.9500 F120.00
G01 X9.0716 Y12.9539 F120.00
G01 X8.9939 Y12.9654 F120.00
G01 X8.9178 Y12.9844 F120.00
G01 X8.8439 Y13.0109 F120.00
G01 X8.7729 Y13.0445 F120.00
G01 X8.7055 Y13.0848 F120.00
G01 X8.6425 Y13.1316 F120.00
G01 X8.5843 Y13.1843 F120.00
G01 X8.5316 Y13.2425 F120.00
G01 X8.4848 Y13.3055 F120.00
G01 X8.4445 Y13.3729 F120.00
G01 X8.4109 Y13.4439 F120.00
G01 X8.3844 Y13.5178 F120.00
G01 X8.3654 Y13.5939 F120.00
G01 X8.3539 Y13.6716 F120.00
G01 X8.3500 Y13.7500 F120.00
G01 X8.3539 Y13.8284 F120.00
G01 X8.3654 Y13.9061 F120.00
G01 X8.3844 Y13.9822 F120.00
G01 X8.4109 Y14.0561 F120.00
G01 X8.4445 Y14.1271 F120.00
G01 X8.4848 Y14.1945 F120.00
G01 X8.5316 Y14.2575 F120.00
G01 X8.5843 Y14.3157 F120.00
G01 X8.6425 Y14.3684 F120.00
G01 X8.7055 Y14.4152 F120.00
G01 X8.7729 Y14.4555 F120.00
G01 X8.8439 Y14.4891 F120.00
G01 X8.9178 Y14.5156 F120.00
G01 X8.9939 Y14.5346 F120.00
G01 X9.0716 Y14.5461 F120.00
G01 X9.1500 Y14.5500 F120.00
G01 X9.2284 Y14.5461 F120.00
G01 X9.3061 Y14.5346 F120.00
G01 X9.3822 Y14.5156 F120.00
G01 X9.4561 Y14.4891 F120.00
G01 X9.5271 Y14.4555 F120.00
G01 X9.5945 Y14.4152 F120.00
G01 X9.6575 Y14.3684 F120.00
G01 X9.7157 Y14.3157 F120.00
G01 X9.7684 Y14.2575 F120.00
G01 X9.8152 Y14.1945 F120.00
G01 X9.8555 Y14.1271 F120.00
G01 X9.8891 Y14.0561 F120.00
G01 X9.9156 Y13.9822 F120.00
G01 X9.9346 Y13.9061 F120.00
G01 X9.9461 Y13.8284 F120.00
G01 X9.9500 Y13.7500 F120.00
G00 X9.9500 Y13.7500
G01 F60.00
G01 Z-1.2000
G01 F120.00
G01 X9.9461 Y13.6716 F120.00
G01 X9.9346 Y13.5939 F120.00
G01 X9.9156 Y13.5178 F120.00
G01 X9.8891 Y13.4439 F120.00
G01 X9.8555 Y13.3729 F120.00
G01 X9.8152 Y13.3055 F120.00
G01 X9.7684 Y13.2425 F120.00
G01 X9.7157 Y13.1843 F120.00
G01 X9.6575 Y13.1316 F120.00
G01 X9.5945 Y13.0848 F120.00
G01 X9.5271 Y13.0445 F120.00
G01 X9.4561 Y13.0109 F120.00
G01 X9.3822 Y12.9844 F120.00
G01 X9.3061 Y12.9654 F120.00
G01 X9.2284 Y12.9539 F120.00
G01 X9.1500 Y12.9500 F120.00
G01 X9.0716 Y12.9539 F120.00
G01 X8.9939 Y12.9654 F120.00
G01 X8.9178 Y12.9844 F120.00
G01 X8.8439 Y13.0109 F120.00
G01 X8.7729 Y13.0445 F120.00
G01 X8.7055 Y13.0848 F120.00
G01 X8.6425 Y13.1316 F120.00
G01 X8.5843 Y13.1843 F120.00
G01 X8.5316 Y13.2425 F120.00
G01 X8.4848 Y13.3055 F120.00
G01 X8.4445 Y13.3729 F120.00
G01 X8.4109 Y13.4439 F120.00
G01 X8.3844 Y13.5178 F120.00
G01 X8.3654 Y13.5939 F120.00
G01 X8.3539 Y13.6716 F120.00
G01 X8.3500 Y13.7500 F120.00
G01 X8.3539 Y13.8284 F120.00
G01 X8.3654 Y13.9061 F120.00
G01 X8.3844 Y13.9822 F120.00
G01 X8.4109 Y14.0561 F120.00
G01 X8.4445 Y14.1271 F120.00
G01 X8.4848 Y14.1945 F120.00
G01 X8.5316 Y14.2575 F120.00
G01 X8.5843 Y14.3157 F120.00
G01 X8.6425 Y14.3684 F120.00
G01 X8.7055 Y14.4152 F120.00
G01 X8.7729 Y14.4555 F120.00
G01 X8.8439 Y14.4891 F120.00
G01 X8.9178 Y14.5156 F120.00
G01 X8.9939 Y14.5346 F120.00
G01 X9.0716 Y14.5461 F120.00
G01 X9.1500 Y14.5500 F120.00
G01 X9.2284 Y14.5461 F120.00
G01 X9.3061 Y14.5346 F120.00
G01 X9.3822 Y14.5156 F120.00
G01 X9.4561 Y14.4891 F120.00
G01 X9.5271 Y14.4555 F120.00
G01 X9.5945 Y14.4152 F120.00
G01 X9.6575 Y14.3684 F120.00
G01 X9.7157 Y14.3157 F120.00
G01 X9.7684 Y14.2575 F120.00
G01 X9.8152 Y14.1945 F120.00
G01 X9.8555 Y14.1271 F120.00
G01 X9.8891 Y14.0561 F120.00
G01 X9.9156 Y13.9822 F120.00
G01 X9.9346 Y13.9061 F120.00
G01 X9.9461 Y13.8284 F120.00
G01 X9.9500 Y13.7500 F120.00
G00 X9.9500 Y13.7500
G01 F60.00
G01 Z-1.6000
G01 F120.00
G01 X9.9461 Y13.6716 F120.00
G01 X9.9346 Y13.5939 F120.00
G01 X9.9156 Y13.5178 F120.00
G01 X9.8891 Y13.4439 F120.00
G01 X9.8555 Y13.3729 F120.00
G01 X9.8152 Y13.3055 F120.00
G01 X9.7684 Y13.2425 F120.00
G01 X9.7157 Y13.1843 F120.00
G01 X9.6575 Y13.1316 F120.00
G01 X9.5945 Y13.0848 F120.00
G01 X9.5271 Y13.0445 F120.00
G01 X9.4561 Y13.0109 F120.00
G01 X9.3822 Y12.9844 F120.00
G01 X9.3061 Y12.9654 F120.00
G01 X9.2284 Y12.9539 F120.00
G01 X9.1500 Y12.9500 F120.00
G01 X9.0716 Y12.9539 F120.00
G01 X8.9939 Y12.9654 F120.00
G01 X8.9178 Y12.9844 F120.00
G01 X8.8439 Y13.0109 F120.00
G01 X8.7729 Y13.0445 F120.00
G01 X8.7055 Y13.0848 F120.00
G01 X8.6425 Y13.1316 F120.00
G01 X8.5843 Y13.1843 F120.00
G01 X8.5316 Y13.2425 F120.00
G01 X8.4848 Y13.3055 F120.00
G01 X8.4445 Y13.3729 F120.00
G01 X8.4109 Y13.4439 F120.00
G01 X8.3844 Y13.5178 F120.00
G01 X8.3654 Y13.5939 F120.00
G01 X8.3539 Y13.6716 F120.00
G01 X8.3500 Y13.7500 F120.00
G01 X8.3539 Y13.8284 F120.00
G01 X8.3654 Y13.9061 F120.00
G01 X8.3844 Y13.9822 F120.00
G01 X8.4109 Y14.0561 F120.00
G01 X8.4445 Y14.1271 F120.00
G01 X8.4848 Y14.1945 F120.00
G01 X8.5316 Y14.2575 F120.00
G01 X8.5843 Y14.3157 F120.00
G01 X8.6425 Y14.3684 F120.00
G01 X8.7055 Y14.4152 F120.00
G01 X8.7729 Y14.4555 F120.00
G01 X8.8439 Y14.4891 F120.00
G01 X8.9178 Y14.5156 F120.00
G01 X8.9939 Y14.5346 F120.00
G01 X9.0716 Y14.5461 F120.00
G01 X9.1500 Y14.5500 F120.00
G01 X9.2284 Y14.5461 F120.00
G01 X9.3061 Y14.5346 F120.00
G01 X9.3822 Y14.5156 F120.00
G01 X9.4561 Y14.4891 F120.00
G01 X9.5271 Y14.4555 F120.00
G01 X9.5945 Y14.4152 F120.00
G01 X9.6575 Y14.3684 F120.00
G01 X9.7157 Y14.3157 F120.00
G01 X9.7684 Y14.2575 F120.00
G01 X9.8152 Y14.1945 F120.00
G01 X9.8555 Y14.1271 F120.00
G01 X9.8891 Y14.0561 F120.00
G01 X9.9156 Y13.9822 F120.00
G01 X9.9346 Y13.9061 F120.00
G01 X9.9461 Y13.8284 F120.00
G01 X9.9500 Y13.7500 F120.00
G00 X9.9500 Y13.7500
G01 F60.00
G01 Z-2.0000
G01 F120.00
G01 X9.9461 Y13.6716 F120.00
G01 X9.9346 Y13.5939 F120.00
G01 X9.9156 Y13.5178 F120.00
G01 X9.8891 Y13.4439 F120.00
G01 X9.8555 Y13.3729 F120.00
G01 X9.8152 Y13.3055 F120.00
G01 X9.7684 Y13.2425 F120.00
G01 X9.7157 Y13.1843 F120.00
G01 X9.6575 Y13.1316 F120.00
G01 X9.5945 Y13.0848 F120.00
G01 X9.5271 Y13.0445 F120.00
G01 X9.4561 Y13.0109 F120.00
G01 X9.3822 Y12.9844 F120.00
G01 X9.3061 Y12.9654 F120.00
G01 X9.2284 Y12.9539 F120.00
G01 X9.1500 Y12.9500 F120.00
G01 X9.0716 Y12.9539 F120.00
G01 X8.9939 Y12.9654 F120.00
G01 X8.9178 Y12.9844 F120.00
G01 X8.8439 Y13.0109 F120.00
G01 X8.7729 Y13.0445 F120.00
G01 X8.7055 Y13.0848 F120.00
G01 X8.6425 Y13.1316 F120.00
G01 X8.5843 Y13.1843 F120.00
G01 X8.5316 Y13.2425 F120.00
G01 X8.4848 Y13.3055 F120.00
G01 X8.4445 Y13.3729 F120.00
G01 X8.4109 Y13.4439 F120.00
G01 X8.3844 Y13.5178 F120.00
G01 X8.3654 Y13.5939 F120.00
G01 X8.3539 Y13.6716 F120.00
G01 X8.3500 Y13.7500 F120.00
G01 X8.3539 Y13.8284 F120.00
G01 X8.3654 Y13.9061 F120.00
G01 X8.3844 Y13.9822 F120.00
G01 X8.4109 Y14.0561 F120.00
G01 X8.4445 Y14.1271 F120.00
G01 X8.4848 Y14.1945 F120.00
G01 X8.5316 Y14.2575 F120.00
G01 X8.5843 Y14.3157 F120.00
G01 X8.6425 Y14.3684 F120.00
G01 X8.7055 Y14.4152 F120.00
G01 X8.7729 Y14.4555 F120.00
G01 X8.8439 Y14.4891 F120.00
G01 X8.9178 Y14.5156 F120.00
G01 X8.9939 Y14.5346 F120.00
G01 X9.0716 Y14.5461 F120.00
G01 X9.1500 Y14.5500 F120.00
G01 X9.2284 Y14.5461 F120.00
G01 X9.3061 Y14.5346 F120.00
G01 X9.3822 Y14.5156 F120.00
G01 X9.4561 Y14.4891 F120.00
G01 X9.5271 Y14.4555 F120.00
G01 X9.5945 Y14.4152 F120.00
G01 X9.6575 Y14.3684 F120.00
G01 X9.7157 Y14.3157 F120.00
G01 X9.7684 Y14.2575 F120.00
G01 X9.8152 Y14.1945 F120.00
G01 X9.8555 Y14.1271 F120.00
G01 X9.8891 Y14.0561 F120.00
G01 X9.9156 Y13.9822 F120.00
G01 X9.9346 Y13.9061 F120.00
G01 X9.9461 Y13.8284 F120.00
G01 X9.9500 Y13.7500 F120.00
G00 X9.9500 Y13.7500
G01 F60.00
G01 Z-2.4000
G01 F120.00
G01 X9.9461 Y13.6716 F120.00
G01 X9.9346 Y13.5939 F120.00
G01 X9.9156 Y13.5178 F120.00
G01 X9.8891 Y13.4439 F120.00
G01 X9.8555 Y13.3729 F120.00
G01 X9.8152 Y13.3055 F120.00
G01 X9.7684 Y13.2425 F120.00
G01 X9.7157 Y13.1843 F120.00
G01 X9.6575 Y13.1316 F120.00
G01 X9.5945 Y13.0848 F120.00
G01 X9.5271 Y13.0445 F120.00
G01 X9.4561 Y13.0109 F120.00
G01 X9.3822 Y12.9844 F120.00
G01 X9.3061 Y12.9654 F120.00
G01 X9.2284 Y12.9539 F120.00
G01 X9.1500 Y12.9500 F120.00
G01 X9.0716 Y12.9539 F120.00
G01 X8.9939 Y12.9654 F120.00
G01 X8.9178 Y12.9844 F120.00
G01 X8.8439 Y13.0109 F120.00
G01 X8.7729 Y13.0445 F120.00
G01 X8.7055 Y13.0848 F120.00
G01 X8.6425 Y13.1316 F120.00
G01 X8.5843 Y13.1843 F120.00
G01 X8.5316 Y13.2425 F120.00
G01 X8.4848 Y13.3055 F120.00
G01 X8.4445 Y13.3729 F120.00
G01 X8.4109 Y13.4439 F120.00
G01 X8.3844 Y13.5178 F120.00
G01 X8.3654 Y13.5939 F120.00
G01 X8.3539 Y13.6716 F120.00
G01 X8.3500 Y13.7500 F120.00
G01 X8.3539 Y13.8284 F120.00
G01 X8.3654 Y13.9061 F120.00
G01 X8.3844 Y13.9822 F120.00
G01 X8.4109 Y14.0561 F120.00
G01 X8.4445 Y14.1271 F120.00
G01 X8.4848 Y14.1945 F120.00
G01 X8.5316 Y14.2575 F120.00
G01 X8.5843 Y14.3157 F120.00
G01 X8.6425 Y14.3684 F120.00
G01 X8.7055 Y14.4152 F120.00
G01 X8.7729 Y14.4555 F120.00
G01 X8.8439 Y14.4891 F120.00
G01 X8.9178 Y14.5156 F120.00
G01 X8.9939 Y14.5346 F120.00
G01 X9.0716 Y14.5461 F120.00
G01 X9.1500 Y14.5500 F120.00
G01 X9.2284 Y14.5461 F120.00
G01 X9.3061 Y14.5346 F120.00
G01 X9.3822 Y14.5156 F120.00
G01 X9.4561 Y14.4891 F120.00
G01 X9.5271 Y14.4555 F120.00
G01 X9.5945 Y14.4152 F120.00
G01 X9.6575 Y14.3684 F120.00
G01 X9.7157 Y14.3157 F120.00
G01 X9.7684 Y14.2575 F120.00
G01 X9.8152 Y14.1945 F120.00
G01 X9.8555 Y14.1271 F120.00
G01 X9.8891 Y14.0561 F120.00
G01 X9.9156 Y13.9822 F120.00
G01 X9.9346 Y13.9061 F120.00
G01 X9.9461 Y13.8284 F120.00
G01 X9.9500 Y13.7500 F120.00
G00 Z2.0000
G00 X21.1500 Y13.7500
G01 F60.00
G01 Z-0.4000
G01 F120.00
G01 X21.1461 Y13.6716 F120.00
G01 X21.1346 Y13.5939 F120.00
G01 X21.1156 Y13.5178 F120.00
G01 X21.0891 Y13.4439 F120.00
G01 X21.0555 Y13.3729 F120.00
G01 X21.0152 Y13.3055 F120.00
G01 X20.9684 Y13.2425 F120.00
G01 X20.9157 Y13.1843 F120.00
G01 X20.8575 Y13.1316 F120.00
G01 X20.7945 Y13.0848 F120.00
G01 X20.7271 Y13.0445 F120.00
G01 X20.6561 Y13.0109 F120.00
G01 X20.5822 Y12.9844 F120.00
G01 X20.5061 Y12.9654 F120.00
G01 X20.4284 Y12.9539 F120.00
G01 X20.3500 Y12.9500 F120.00
G01 X20.2716 Y12.9539 F120.00
G01 X20.1939 Y12.9654 F120.00
G01 X20.1178 Y12.9844 F120.00
G01 X20.0439 Y13.0109 F120.00
G01 X19.9729 Y13.0445 F120.00
G01 X19.9055 Y13.0848 F120.00
G01 X19.8425 Y13.1316 F120.00
G01 X19.7843 Y13.1843 F120.00
G01 X19.7316 Y13.2425 F120.00
G01 X19.6848 Y13.3055 F120.00
G01 X19.6445 Y13.3729 F120.00
G01 X19.6109 Y13.4439 F120.00
G01 X19.5844 Y13.5178 F120.00
G01 X19.5654 Y13.5939 F120.00
G01 X19.5539 Y13.6716 F120.00
G01 X19.5500 Y13.7500 F120.00
G01 X19.5539 Y13.8284 F120.00
G01 X19.5654 Y13.9061 F120.00
G01 X19.5844 Y13.9822 F120.00
G01 X19.6109 Y14.0561 F120.00
G01 X19.6445 Y14.1271 F120.00
G01 X19.6848 Y14.1945 F120.00
G01 X19.7316 Y14.2575 F120.00
G01 X19.7843 Y14.3157 F120.00
G01 X19.8425 Y14.3684 F120.00
G01 X19.9055 Y14.4152 F120.00
G01 X19.9729 Y14.4555 F120.00
G01 X20.0439 Y14.4891 F120.00
G01 X20.1178 Y14.5156 F120.00
G01 X20.1939 Y14.5346 F120.00
G01 X20.2716 Y14.5461 F120.00
G01 X20.3500 Y14.5500 F120.00
G01 X20.4284 Y14.5461 F120.00
G01 X20.5061 Y14.5346 F120.00
G01 X20.5822 Y14.5156 F120.00
G01 X20.6561 Y14.4891 F120.00
G01 X20.7271 Y14.4555 F120.00
G01 X20.7945 Y14.4152 F120.00
G01 X20.8575 Y14.3684 F120.00
G01 X20.9157 Y14.3157 F120.00
G01 X20.9684 Y14.2575 F120.00
G01 X21.0152 Y14.1945 F120.00
G01 X21.0555 Y14.1271 F120.00
G01 X21.0891 Y14.0561 F120.00
G01 X21.1156 Y13.9822 F120.00
G01 X21.1346 Y13.9061 F120.00
G01 X21.1461 Y13.8284 F120.00
G01 X21.1500 Y13.7500 F120.00
G00 X21.1500 Y13.7500
G01 F60.00
G01 Z-0.8000
G01 F120.00
G01 X21.1461 Y13.6716 F120.00
G01 X21.1346 Y13.5939 F120.00
G01 X21.1156 Y13.5178 F120.00
G01 X21.0891 Y13.4439 F120.00
G01 X21.0555 Y13.3729 F120.00
G01 X21.0152 Y13.3055 F120.00
G01 X20.9684 Y13.2425 F120.00
G01 X20.9157 Y13.1843 F120.00
G01 X20.8575 Y13.1316 F120.00
G01 X20.7945 Y13.0848 F120.00
G01 X20.7271 Y13.0445 F120.00
G01 X20.6561 Y13.0109 F120.00
G01 X20.5822 Y12.9844 F120.00
G01 X20.5061 Y12.9654 F120.00
G01 X20.4284 Y12.9539 F120.00
G01 X20.3500 Y12.9500 F120.00
G01 X20.2716 Y12.9539 F120.00
G01 X20.1939 Y12.9654 F120.00
G01 X20.1178 Y12.9844 F120.00
G01 X20.0439 Y13.0109 F120.00
G01 X19.9729 Y13.0445 F120.00
G01 X19.9055 Y13.0848 F120.00
G01 X19.8425 Y13.1316 F120.00
G01 X19.7843 Y13.1843 F120.00
G01 X19.7316 Y13.2425 F120.00
G01 X19.6848 Y13.3055 F120.00
G01 X19.6445 Y13.3729 F120.00
G01 X19.6109 Y13.4439 F120.00
G01 X19.5844 Y13.5178 F120.00
G01 X19.5654 Y13.5939 F120.00
G01 X19.5539 Y13.6716 F120.00
G01 X19.5500 Y13.7500 F120.00
G01 X19.5539 Y13.8284 F120.00
G01 X19.5654 Y13.9061 F120.00
G01 X19.5844 Y13.9822 F120.00
G01 X19.6109 Y14.0561 F120.00
G01 X19.6445 Y14.1271 F120.00
G01 X19.6848 Y14.1945 F120.00
G01 X19.7316 Y14.2575 F120.00
G01 X19.7843 Y14.3157 F120.00
G01 X19.8425 Y14.3684 F120.00
G01 X19.9055 Y14.4152 F120.00
G01 X19.9729 Y14.4555 F120.00
G01 X20.0439 Y14.4891 F120.00
G01 X20.1178 Y14.5156 F120.00
G01 X20.1939 Y14.5346 F120.00
G01 X20.2716 Y14.5461 F120.00
G01 X20.3500 Y14.5500 F120.00
G01 X20.4284 Y14.5461 F120.00
G01 X20.5061 Y14.5346 F120.00
G01 X20.5822 Y14.5156 F120.00
G01 X20.6561 Y14.4891 F120.00
G01 X20.7271 Y14.4555 F120.00
G01 X20.7945 Y14.4152 F120.00
G01 X20.8575 Y14.3684 F120.00
G01 X20.9157 Y14.3157 F120.00
G01 X20.9684 Y14.2575 F120.00
G01 X21.0152 Y14.1945 F120.00
G01 X21.0555 Y14.1271 F120.00
G01 X21.0891 Y14.0561 F120.00
G01 X21.1156 Y13.9822 F120.00
G01 X21.1346 Y13.9061 F120.00
G01 X21.1461 Y13.8284 F120.00
G01 X21.1500 Y13.7500 F120.00
G00 X21.1500 Y13.7500
G01 F60.00
G01 Z-1.2000
G01 F120.00
G01 X21.1461 Y13.6716 F120.00
G01 X21.1346 Y13.5939 F120.00
G01 X21.1156 Y13.5178 F120.00
G01 X21.0891 Y13.4439 F120.00
G01 X21.0555 Y13.3729 F120.00
G01 X21.0152 Y13.3055 F120.00
G01 X20.9684 Y13.2425 F120.00
G01 X20.9157 Y13.1843 F120.00
G01 X20.8575 Y13.1316 F120.00
G01 X20.7945 Y13.0848 F120.00
G01 X20.7271 Y13.0445 F120.00
G01 X20.6561 Y13.0109 F120.00
G01 X20.5822 Y12.9844 F120.00
G01 X20.5061 Y12.9654 F120.00
G01 X20.4284 Y12.9539 F120.00
G01 X20.3500 Y12.9500 F120.00
G01 X20.2716 Y12.9539 F120.00
G01 X20.1939 Y12.9654 F120.00
G01 X20.1178 Y12.9844 F120.00
G01 X20.0439 Y13.0109 F120.00
G01 X19.9729 Y13.0445 F120.00
G01 X19.9055 Y13.0848 F120.00
G01 X19.8425 Y13.1316 F120.00
G01 X19.7843 Y13.1843 F120.00
G01 X19.7316 Y13.2425 F120.00
G01 X19.6848 Y13.3055 F120.00
G01 X19.6445 Y13.3729 F120.00
G01 X19.6109 Y13.4439 F120.00
G01 X19.5844 Y13.5178 F120.00
G01 X19.5654 Y13.5939 F120.00
G01 X19.5539 Y13.6716 F120.00
G01 X19.5500 Y13.7500 F120.00
G01 X19.5539 Y13.8284 F120.00
G01 X19.5654 Y13.9061 F120.00
G01 X19.5844 Y13.9822 F120.00
G01 X19.6109 Y14.0561 F120.00
G01 X19.6445 Y14.1271 F120.00
G01 X19.6848 Y14.1945 F120.00
G01 X19.7316 Y14.2575 F120.00
G01 X19.7843 Y14.3157 F120.00
G01 X19.8425 Y14.3684 F120.00
G01 X19.9055 Y14.4152 F120.00
G01 X19.9729 Y14.4555 F120.00
G01 X20.0439 Y14.4891 F120.00
G01 X20.1178 Y14.5156 F120.00
G01 X20.1939 Y14.5346 F120.00
G01 X20.2716 Y14.5461 F120.00
G01 X20.3500 Y14.5500 F120.00
G01 X20.4284 Y14.5461 F120.00
G01 X20.5061 Y14.5346 F120.00
G01 X20.5822 Y14.5156 F120.00
G01 X20.6561 Y14.4891 F120.00
G01 X20.7271 Y14.4555 F120.00
G01 X20.7945 Y14.4152 F120.00
G01 X20.8575 Y14.3684 F120.00
G01 X20.9157 Y14.3157 F120.00
G01 X20.9684 Y14.2575 F120.00
G01 X21.0152 Y14.1945 F120.00
G01 X21.0555 Y14.1271 F120.00
G01 X21.0891 Y14.0561 F120.00
G01 X21.1156 Y13.9822 F120.00
G01 X21.1346 Y13.9061 F120.00
G01 X21.1461 Y13.8284 F120.00
G01 X21.1500 Y13.7500 F120.00
G00 X21.1500 Y13.7500
G01 F60.00
G01 Z-1.6000
G01 F120.00
G01 X21.1461 Y13.6716 F120.00
G01 X21.1346 Y13.5939 F120.00
G01 X21.1156 Y13.5178 F120.00
G01 X21.0891 Y13.4439 F120.00
G01 X21.0555 Y13.3729 F120.00
G01 X21.0152 Y13.3055 F120.00
G01 X20.9684 Y13.2425 F120.00
G01 X20.9157 Y13.1843 F120.00
G01 X20.8575 Y13.1316 F120.00
G01 X20.7945 Y13.0848 F120.00
G01 X20.7271 Y13.0445 F120.00
G01 X20.6561 Y13.0109 F120.00
G01 X20.5822 Y12.9844 F120.00
G01 X20.5061 Y12.9654 F120.00
G01 X20.4284 Y12.9539 F120.00
G01 X20.3500 Y12.9500 F120.00
G01 X20.2716 Y12.9539 F120.00
G01 X20.1939 Y12.9654 F120.00
G01 X20.1178 Y12.9844 F120.00
G01 X20.0439 Y13.0109 F120.00
G01 X19.9729 Y13.0445 F120.00
G01 X19.9055 Y13.0848 F120.00
G01 X19.8425 Y13.1316 F120.00
G01 X19.7843 Y13.1843 F120.00
G01 X19.7316 Y13.2425 F120.00
G01 X19.6848 Y13.3055 F120.00
G01 X19.6445 Y13.3729 F120.00
G01 X19.6109 Y13.4439 F120.00
G01 X19.5844 Y13.5178 F120.00
G01 X19.5654 Y13.5939 F120.00
G01 X19.5539 Y13.6716 F120.00
G01 X19.5500 Y13.7500 F120.00
G01 X19.5539 Y13.8284 F120.00
G01 X19.5654 Y13.9061 F120.00
G01 X19.5844 Y13.9822 F120.00
G01 X19.6109 Y14.0561 F120.00
G01 X19.6445 Y14.1271 F120.00
G01 X19.6848 Y14.1945 F120.00
G01 X19.7316 Y14.2575 F120.00
G01 X19.7843 Y14.3157 F120.00
G01 X19.8425 Y14.3684 F120.00
G01 X19.9055 Y14.4152 F120.00
G01 X19.9729 Y14.4555 F120.00
G01 X20.0439 Y14.4891 F120.00
G01 X20.1178 Y14.5156 F120.00
G01 X20.1939 Y14.5346 F120.00
G01 X20.2716 Y14.5461 F120.00
G01 X20.3500 Y14.5500 F120.00
G01 X20.4284 Y14.5461 F120.00
G01 X20.5061 Y14.5346 F120.00
G01 X20.5822 Y14.5156 F120.00
G01 X20.6561 Y14.4891 F120.00
G01 X20.7271 Y14.4555 F120.00
G01 X20.7945 Y14.4152 F120.00
G01 X20.8575 Y14.3684 F120.00
G01 X20.9157 Y14.3157 F120.00
G01 X20.9684 Y14.2575 F120.00
G01 X21.0152 Y14.1945 F120.00
G01 X21.0555 Y14.1271 F120.00
G01 X21.0891 Y14.0561 F120.00
G01 X21.1156 Y13.9822 F120.00
G01 X21.1346 Y13.9061 F120.00
G01 X21.1461 Y13.8284 F120.00
G01 X21.1500 Y13.7500 F120.00
G00 X21.1500 Y13.7500
G01 F60.00
G01 Z-2.0000
G01 F120.00
G01 X21.1461 Y13.6716 F120.00
G01 X21.1346 Y13.5939 F120.00
G01 X21.1156 Y13.5178 F120.00
G01 X21.0891 Y13.4439 F120.00
G01 X21.0555 Y13.3729 F120.00
G01 X21.0152 Y13.3055 F120.00
G01 X20.9684 Y13.2425 F120.00
G01 X20.9157 Y13.1843 F120.00
G01 X20.8575 Y13.1316 F120.00
G01 X20.7945 Y13.0848 F120.00
G01 X20.7271 Y13.0445 F120.00
G01 X20.6561 Y13.0109 F120.00
G01 X20.5822 Y12.9844 F120.00
G01 X20.5061 Y12.9654 F120.00
G01 X20.4284 Y12.9539 F120.00
G01 X20.3500 Y12.9500 F120.00
G01 X20.2716 Y12.9539 F120.00
G01 X20.1939 Y12.9654 F120.00
G01 X20.1178 Y12.9844 F120.00
G01 X20.0439 Y13.0109 F120.00
G01 X19.9729 Y13.0445 F120.00
G01 X19.9055 Y13.0848 F120.00
G01 X19.8425 Y13.1316 F120.00
G01 X19.7843 Y13.1843 F120.00
G01 X19.7316 Y13.2425 F120.00
G01 X19.6848 Y13.3055 F120.00
G01 X19.6445 Y13.3729 F120.00
G01 X19.6109 Y13.4439 F120.00
G01 X19.5844 Y13.5178 F120.00
G01 X19.5654 Y13.5939 F120.00
G01 X19.5539 Y13.6716 F120.00
G01 X19.5500 Y13.7500 F120.00
G01 X19.5539 Y13.8284 F120.00
G01 X19.5654 Y13.9061 F120.00
G01 X19.5844 Y13.9822 F120.00
G01 X19.6109 Y14.0561 F120.00
G01 X19.6445 Y14.1271 F120.00
G01 X19.6848 Y14.1945 F120.00
G01 X19.7316 Y14.2575 F120.00
G01 X19.7843 Y14.3157 F120.00
G01 X19.8425 Y14.3684 F120.00
G01 X19.9055 Y14.4152 F120.00
G01 X19.9729 Y14.4555 F120.00
G01 X20.0439 Y14.4891 F120.00
G01 X20.1178 Y14.5156 F120.00
G01 X20.1939 Y14.5346 F120.00
G01 X20.2716 Y14.5461 F120.00
G01 X20.3500 Y14.5500 F120.00
G01 X20.4284 Y14.5461 F120.00
G01 X20.5061 Y14.5346 F120.00
G01 X20.5822 Y14.5156 F120.00
G01 X20.6561 Y14.4891 F120.00
G01 X20.7271 Y14.4555 F120.00
G01 X20.7945 Y14.4152 F120.00
G01 X20.8575 Y14.3684 F120.00
G01 X20.9157 Y14.3157 F120.00
G01 X20.9684 Y14.2575 F120.00
G01 X21.0152 Y14.1945 F120.00
G01 X21.0555 Y14.1271 F120.00
G01 X21.0891 Y14.0561 F120.00
G01 X21.1156 Y13.9822 F120.00
G01 X21.1346 Y13.9061 F120.00
G01 X21.1461 Y13.8284 F120.00
G01 X21.1500 Y13.7500 F120.00
G00 X21.1500 Y13.7500
G01 F60.00
G01 Z-2.4000
G01 F120.00
G01 X21.1461 Y13.6716 F120.00
G01 X21.1346 Y13.5939 F120.00
G01 X21.1156 Y13.5178 F120.00
G01 X21.0891 Y13.4439 F120.00
G01 X21.0555 Y13.3729 F120.00
G01 X21.0152 Y13.3055 F120.00
G01 X20.9684 Y13.2425 F120.00
G01 X20.9157 Y13.1843 F120.00
G01 X20.8575 Y13.1316 F120.00
G01 X20.7945 Y13.0848 F120.00
G01 X20.7271 Y13.0445 F120.00
G01 X20.6561 Y13.0109 F120.00
G01 X20.5822 Y12.9844 F120.00
G01 X20.5061 Y12.9654 F120.00
G01 X20.4284 Y12.9539 F120.00
G01 X20.3500 Y12.9500 F120.00
G01 X20.2716 Y12.9539 F120.00
G01 X20.1939 Y12.9654 F120.00
G01 X20.1178 Y12.9844 F120.00
G01 X20.0439 Y13.0109 F120.00
G01 X19.9729 Y13.0445 F120.00
G01 X19.9055 Y13.0848 F120.00
G01 X19.8425 Y13.1316 F120.00
G01 X19.7843 Y13.1843 F120.00
G01 X19.7316 Y13.2425 F120.00
G01 X19.6848 Y13.3055 F120.00
G01 X19.6445 Y13.3729 F120.00
G01 X19.6109 Y13.4439 F120.00
G01 X19.5844 Y13.5178 F120.00
G01 X19.5654 Y13.5939 F120.00
G01 X19.5539 Y13.6716 F120.00
G01 X19.5500 Y13.7500 F120.00
G01 X19.5539 Y13.8284 F120.00
G01 X19.5654 Y13.9061 F120.00
G01 X19.5844 Y13.9822 F120.00
G01 X19.6109 Y14.0561 F120.00
G01 X19.6445 Y14.1271 F120.00
G01 X19.6848 Y14.1945 F120.00
G01 X19.7316 Y14.2575 F120.00
G01 X19.7843 Y14.3157 F120.00
G01 X19.8425 Y14.3684 F120.00
G01 X19.9055 Y14.4152 F120.00
G01 X19.9729 Y14.4555 F120.00
G01 X20.0439 Y14.4891 F120.00
G01 X20.1178 Y14.5156 F120.00
G01 X20.1939 Y14.5346 F120.00
G01 X20.2716 Y14.5461 F120.00
G01 X20.3500 Y14.5500 F120.00
G01 X20.4284 Y14.5461 F120.00
G01 X20.5061 Y14.5346 F120.00
G01 X20.5822 Y14.5156 F120.00
G01 X20.6561 Y14.4891 F120.00
G01 X20.7271 Y14.4555 F120.00
G01 X20.7945 Y14.4152 F120.00
G01 X20.8575 Y14.3684 F120.00
G01 X20.9157 Y14.3157 F120.00
G01 X20.9684 Y14.2575 F120.00
G01 X21.0152 Y14.1945 F120.00
G01 X21.0555 Y14.1271 F120.00
G01 X21.0891 Y14.0561 F120.00
G01 X21.1156 Y13.9822 F120.00
G01 X21.1346 Y13.9061 F120.00
G01 X21.1461 Y13.8284 F120.00
G01 X21.1500 Y13.7500 F120.00
G00 Z2.0000
G00 X50.1000 Y57.7500
G01 F60.00
G01 Z-0.4000
G01 F120.00
G01 X50.0961 Y57.6716 F120.00
G01 X50.0846 Y57.5939 F120.00
G01 X50.0656 Y57.5178 F120.00
G01 X50.0391 Y57.4439 F120.00
G01 X50.0055 Y57.3729 F120.00
G01 X49.9652 Y57.3055 F120.00
G01 X49.9184 Y57.2425 F120.00
G01 X49.8657 Y57.1843 F120.00
G01 X49.8075 Y57.1316 F120.00
G01 X49.7445 Y57.0848 F120.00
G01 X49.6771 Y57.0445 F120.00
G01 X49.6061 Y57.0109 F120.00
G01 X49.5322 Y56.9844 F120.00
G01 X49.4561 Y56.9654 F120.00
G01 X49.3784 Y56.9539 F120.00
G01 X49.3000 Y56.9500 F120.00
G01 X49.2216 Y56.9539 F120.00
G01 X49.1439 Y56.9654 F120.00
G01 X49.0678 Y56.9844 F120.00
G01 X48.9939 Y57.0109 F120.00
G01 X48.9229 Y57.0445 F120.00
G01 X48.8555 Y57.0848 F120.00
G01 X48.7925 Y57.1316 F120.00
G01 X48.7343 Y57.1843 F120.00
G01 X48.6816 Y57.2425 F120.00
G01 X48.6348 Y57.3055 F120.00
G01 X48.5945 Y57.3729 F120.00
G01 X48.5609 Y57.4439 F120.00
G01 X48.5344 Y57.5178 F120.00
G01 X48.5154 Y57.5939 F120.00
G01 X48.5039 Y57.6716 F120.00
G01 X48.5000 Y57.7500 F120.00
G01 X48.5039 Y57.8284 F120.00
G01 X48.5154 Y57.9061 F120.00
G01 X48.5344 Y57.9822 F120.00
G01 X48.5609 Y58.0561 F120.00
G01 X48.5945 Y58.1271 F120.00
G01 X48.6348 Y58.1945 F120.00
G01 X48.6816 Y58.2575 F120.00
G01 X48.7343 Y58.3157 F120.00
G01 X48.7925 Y58.3684 F120.00
G01 X48.8555 Y58.4152 F120.00
G01 X48.9229 Y58.4555 F120.00
G01 X48.9939 Y58.4891 F120.00
G01 X49.0678 Y58.5156 F120.00
G01 X49.1439 Y58.5346 F120.00
G01 X49.2216 Y58.5461 F120.00
G01 X49.3000 Y58.5500 F120.00
G01 X49.3784 Y58.5461 F120.00
G01 X49.4561 Y58.5346 F120.00
G01 X49.5322 Y58.5156 F120.00
G01 X49.6061 Y58.4891 F120.00
G01 X49.6771 Y58.4555 F120.00
G01 X49.7445 Y58.4152 F120.00
G01 X49.8075 Y58.3684 F120.00
G01 X49.8657 Y58.3157 F120.00
G01 X49.9184 Y58.2575 F120.00
G01 X49.9652 Y58.1945 F120.00
G01 X50.0055 Y58.1271 F120.00
G01 X50.0391 Y58.0561 F120.00
G01 X50.0656 Y57.9822 F120.00
G01 X50.0846 Y57.9061 F120.00
G01 X50.0961 Y57.8284 F120.00
G01 X50.1000 Y57.7500 F120.00
G00 X50.1000 Y57.7500
G01 F60.00
G01 Z-0.8000
G01 F120.00
G01 X50.0961 Y57.6716 F120.00
G01 X50.0846 Y57.5939 F120.00
G01 X50.0656 Y57.5178 F120.00
G01 X50.0391 Y57.4439 F120.00
G01 X50.0055 Y57.3729 F120.00
G01 X49.9652 Y57.3055 F120.00
G01 X49.9184 Y57.2425 F120.00
G01 X49.8657 Y57.1843 F120.00
G01 X49.8075 Y57.1316 F120.00
G01 X49.7445 Y57.0848 F120.00
G01 X49.6771 Y57.0445 F120.00
G01 X49.6061 Y57.0109 F120.00
G01 X49.5322 Y56.9844 F120.00
G01 X49.4561 Y56.9654 F120.00
G01 X49.3784 Y56.9539 F120.00
G01 X49.3000 Y56.9500 F120.00
G01 X49.2216 Y56.9539 F120.00
G01 X49.1439 Y56.9654 F120.00
G01 X49.0678 Y56.9844 F120.00
G01 X48.9939 Y57.0109 F120.00
G01 X48.9229 Y57.0445 F120.00
G01 X48.8555 Y57.0848 F120.00
G01 X48.7925 Y57.1316 F120.00
G01 X48.7343 Y57.1843 F120.00
G01 X48.6816 Y57.2425 F120.00
G01 X48.6348 Y57.3055 F120.00
G01 X48.5945 Y57.3729 F120.00
G01 X48.5609 Y57.4439 F120.00
G01 X48.5344 Y57.5178 F120.00
G01 X48.5154 Y57.5939 F120.00
G01 X48.5039 Y57.6716 F120.00
G01 X48.5000 Y57.7500 F120.00
G01 X48.5039 Y57.8284 F120.00
G01 X48.5154 Y57.9061 F120.00
G01 X48.5344 Y57.9822 F120.00
G01 X48.5609 Y58.0561 F120.00
G01 X48.5945 Y58.1271 F120.00
G01 X48.6348 Y58.1945 F120.00
G01 X48.6816 Y58.2575 F120.00
G01 X48.7343 Y58.3157 F120.00
G01 X48.7925 Y58.3684 F120.00
G01 X48.8555 Y58.4152 F120.00
G01 X48.9229 Y58.4555 F120.00
G01 X48.9939 Y58.4891 F120.00
G01 X49.0678 Y58.5156 F120.00
G01 X49.1439 Y58.5346 F120.00
G01 X49.2216 Y58.5461 F120.00
G01 X49.3000 Y58.5500 F120.00
G01 X49.3784 Y58.5461 F120.00
G01 X49.4561 Y58.5346 F120.00
G01 X49.5322 Y58.5156 F120.00
G01 X49.6061 Y58.4891 F120.00
G01 X49.6771 Y58.4555 F120.00
G01 X49.7445 Y58.4152 F120.00
G01 X49.8075 Y58.3684 F120.00
G01 X49.8657 Y58.3157 F120.00
G01 X49.9184 Y58.2575 F120.00
G01 X49.9652 Y58.1945 F120.00
G01 X50.0055 Y58.1271 F120.00
G01 X50.0391 Y58.0561 F120.00
G01 X50.0656 Y57.9822 F120.00
G01 X50.0846 Y57.9061 F120.00
G01 X50.0961 Y57.8284 F120.00
G01 X50.1000 Y57.7500 F120.00
G00 X50.1000 Y57.7500
G01 F60.00
G01 Z-1.2000
G01 F120.00
G01 X50.0961 Y57.6716 F120.00
G01 X50.0846 Y57.5939 F120.00
G01 X50.0656 Y57.5178 F120.00
G01 X50.0391 Y57.4439 F120.00
G01 X50.0055 Y57.3729 F120.00
G01 X49.9652 Y57.3055 F120.00
G01 X49.9184 Y57.2425 F120.00
G01 X49.8657 Y57.1843 F120.00
G01 X49.8075 Y57.1316 F120.00
G01 X49.7445 Y57.0848 F120.00
G01 X49.6771 Y57.0445 F120.00
G01 X49.6061 Y57.0109 F120.00
G01 X49.5322 Y56.9844 F120.00
G01 X49.4561 Y56.9654 F120.00
G01 X49.3784 Y56.9539 F120.00
G01 X49.3000 Y56.9500 F120.00
G01 X49.2216 Y56.9539 F120.00
G01 X49.1439 Y56.9654 F120.00
G01 X49.0678 Y56.9844 F120.00
G01 X48.9939 Y57.0109 F120.00
G01 X48.9229 Y57.0445 F120.00
G01 X48.8555 Y57.0848 F120.00
G01 X48.7925 Y57.1316 F120.00
G01 X48.7343 Y57.1843 F120.00
G01 X48.6816 Y57.2425 F120.00
G01 X48.6348 Y57.3055 F120.00
G01 X48.5945 Y57.3729 F120.00
G01 X48.5609 Y57.4439 F120.00
G01 X48.5344 Y57.5178 F120.00
G01 X48.5154 Y57.5939 F120.00
G01 X48.5039 Y57.6716 F120.00
G01 X48.5000 Y57.7500 F120.00
G01 X48.5039 Y57.8284 F120.00
G01 X48.5154 Y57.9061 F120.00
G01 X48.5344 Y57.9822 F120.00
G01 X48.5609 Y58.0561 F120.00
G01 X48.5945 Y58.1271 F120.00
G01 X48.6348 Y58.1945 F120.00
G01 X48.6816 Y58.2575 F120.00
G01 X48.7343 Y58.3157 F120.00
G01 X48.7925 Y58.3684 F120.00
G01 X48.8555 Y58.4152 F120.00
G01 X48.9229 Y58.4555 F120.00
G01 X48.9939 Y58.4891 F120.00
G01 X49.0678 Y58.5156 F120.00
G01 X49.1439 Y58.5346 F120.00
G01 X49.2216 Y58.5461 F120.00
G01 X49.3000 Y58.5500 F120.00
G01 X49.3784 Y58.5461 F120.00
G01 X49.4561 Y58.5346 F120.00
G01 X49.5322 Y58.5156 F120.00
G01 X49.6061 Y58.4891 F120.00
G01 X49.6771 Y58.4555 F120.00
G01 X49.7445 Y58.4152 F120.00
G01 X49.8075 Y58.3684 F120.00
G01 X49.8657 Y58.3157 F120.00
G01 X49.9184 Y58.2575 F120.00
G01 X49.9652 Y58.1945 F120.00
G01 X50.0055 Y58.1271 F120.00
G01 X50.0391 Y58.0561 F120.00
G01 X50.0656 Y57.9822 F120.00
G01 X50.0846 Y57.9061 F120.00
G01 X50.0961 Y57.8284 F120.00
G01 X50.1000 Y57.7500 F120.00
G00 X50.1000 Y57.7500
G01 F60.00
G01 Z-1.6000
G01 F120.00
G01 X50.0961 Y57.6716 F120.00
G01 X50.0846 Y57.5939 F120.00
G01 X50.0656 Y57.5178 F120.00
G01 X50.0391 Y57.4439 F120.00
G01 X50.0055 Y57.3729 F120.00
G01 X49.9652 Y57.3055 F120.00
G01 X49.9184 Y57.2425 F120.00
G01 X49.8657 Y57.1843 F120.00
G01 X49.8075 Y57.1316 F120.00
G01 X49.7445 Y57.0848 F120.00
G01 X49.6771 Y57.0445 F120.00
G01 X49.6061 Y57.0109 F120.00
G01 X49.5322 Y56.9844 F120.00
G01 X49.4561 Y56.9654 F120.00
G01 X49.3784 Y56.9539 F120.00
G01 X49.3000 Y56.9500 F120.00
G01 X49.2216 Y56.9539 F120.00
G01 X49.1439 Y56.9654 F120.00
G01 X49.0678 Y56.9844 F120.00
G01 X48.9939 Y57.0109 F120.00
G01 X48.9229 Y57.0445 F120.00
G01 X48.8555 Y57.0848 F120.00
G01 X48.7925 Y57.1316 F120.00
G01 X48.7343 Y57.1843 F120.00
G01 X48.6816 Y57.2425 F120.00
G01 X48.6348 Y57.3055 F120.00
G01 X48.5945 Y57.3729 F120.00
G01 X48.5609 Y57.4439 F120.00
G01 X48.5344 Y57.5178 F120.00
G01 X48.5154 Y57.5939 F120.00
G01 X48.5039 Y57.6716 F120.00
G01 X48.5000 Y57.7500 F120.00
G01 X48.5039 Y57.8284 F120.00
G01 X48.5154 Y57.9061 F120.00
G01 X48.5344 Y57.9822 F120.00
G01 X48.5609 Y58.0561 F120.00
G01 X48.5945 Y58.1271 F120.00
G01 X48.6348 Y58.1945 F120.00
G01 X48.6816 Y58.2575 F120.00
G01 X48.7343 Y58.3157 F120.00
G01 X48.7925 Y58.3684 F120.00
G01 X48.8555 Y58.4152 F120.00
G01 X48.9229 Y58.4555 F120.00
G01 X48.9939 Y58.4891 F120.00
G01 X49.0678 Y58.5156 F120.00
G01 X49.1439 Y58.5346 F120.00
G01 X49.2216 Y58.5461 F120.00
G01 X49.3000 Y58.5500 F120.00
G01 X49.3784 Y58.5461 F120.00
G01 X49.4561 Y58.5346 F120.00
G01 X49.5322 Y58.5156 F120.00
G01 X49.6061 Y58.4891 F120.00
G01 X49.6771 Y58.4555 F120.00
G01 X49.7445 Y58.4152 F120.00
G01 X49.8075 Y58.3684 F120.00
G01 X49.8657 Y58.3157 F120.00
G01 X49.9184 Y58.2575 F120.00
G01 X49.9652 Y58.1945 F120.00
G01 X50.0055 Y58.1271 F120.00
G01 X50.0391 Y58.0561 F120.00
G01 X50.0656 Y57.9822 F120.00
G01 X50.0846 Y57.9061 F120.00
G01 X50.0961 Y57.8284 F120.00
G01 X50.1000 Y57.7500 F120.00
G00 X50.1000 Y57.7500
G01 F60.00
G01 Z-2.0000
G01 F120.00
G01 X50.0961 Y57.6716 F120.00
G01 X50.0846 Y57.5939 F120.00
G01 X50.0656 Y57.5178 F120.00
G01 X50.0391 Y57.4439 F120.00
G01 X50.0055 Y57.3729 F120.00
G01 X49.9652 Y57.3055 F120.00
G01 X49.9184 Y57.2425 F120.00
G01 X49.8657 Y57.1843 F120.00
G01 X49.8075 Y57.1316 F120.00
G01 X49.7445 Y57.0848 F120.00
G01 X49.6771 Y57.0445 F120.00
G01 X49.6061 Y57.0109 F120.00
G01 X49.5322 Y56.9844 F120.00
G01 X49.4561 Y56.9654 F120.00
G01 X49.3784 Y56.9539 F120.00
G01 X49.3000 Y56.9500 F120.00
G01 X49.2216 Y56.9539 F120.00
G01 X49.1439 Y56.9654 F120.00
G01 X49.0678 Y56.9844 F120.00
G01 X48.9939 Y57.0109 F120.00
G01 X48.9229 Y57.0445 F120.00
G01 X48.8555 Y57.0848 F120.00
G01 X48.7925 Y57.1316 F120.00
G01 X48.7343 Y57.1843 F120.00
G01 X48.6816 Y57.2425 F120.00
G01 X48.6348 Y57.3055 F120.00
G01 X48.5945 Y57.3729 F120.00
G01 X48.5609 Y57.4439 F120.00
G01 X48.5344 Y57.5178 F120.00
G01 X48.5154 Y57.5939 F120.00
G01 X48.5039 Y57.6716 F120.00
G01 X48.5000 Y57.7500 F120.00
G01 X48.5039 Y57.8284 F120.00
G01 X48.5154 Y57.9061 F120.00
G01 X48.5344 Y57.9822 F120.00
G01 X48.5609 Y58.0561 F120.00
G01 X48.5945 Y58.1271 F120.00
G01 X48.6348 Y58.1945 F120.00
G01 X48.6816 Y58.2575 F120.00
G01 X48.7343 Y58.3157 F120.00
G01 X48.7925 Y58.3684 F120.00
G01 X48.8555 Y58.4152 F120.00
G01 X48.9229 Y58.4555 F120.00
G01 X48.9939 Y58.4891 F120.00
G01 X49.0678 Y58.5156 F120.00
G01 X49.1439 Y58.5346 F120.00
G01 X49.2216 Y58.5461 F120.00
G01 X49.3000 Y58.5500 F120.00
G01 X49.3784 Y58.5461 F120.00
G01 X49.4561 Y58.5346 F120.00
G01 X49.5322 Y58.5156 F120.00
G01 X49.6061 Y58.4891 F120.00
G01 X49.6771 Y58.4555 F120.00
G01 X49.7445 Y58.4152 F120.00
G01 X49.8075 Y58.3684 F120.00
G01 X49.8657 Y58.3157 F120.00
G01 X49.9184 Y58.2575 F120.00
G01 X49.9652 Y58.1945 F120.00
G01 X50.0055 Y58.1271 F120.00
G01 X50.0391 Y58.0561 F120.00
G01 X50.0656 Y57.9822 F120.00
G01 X50.0846 Y57.9061 F120.00
G01 X50.0961 Y57.8284 F120.00
G01 X50.1000 Y57.7500 F120.00
G00 X50.1000 Y57.7500
G01 F60.00
G01 Z-2.4000
G01 F120.00
G01 X50.0961 Y57.6716 F120.00
G01 X50.0846 Y57.5939 F120.00
G01 X50.0656 Y57.5178 F120.00
G01 X50.0391 Y57.4439 F120.00
G01 X50.0055 Y57.3729 F120.00
G01 X49.9652 Y57.3055 F120.00
G01 X49.9184 Y57.2425 F120.00
G01 X49.8657 Y57.1843 F120.00
G01 X49.8075 Y57.1316 F120.00
G01 X49.7445 Y57.0848 F120.00
G01 X49.6771 Y57.0445 F120.00
G01 X49.6061 Y57.0109 F120.00
G01 X49.5322 Y56.9844 F120.00
G01 X49.4561 Y56.9654 F120.00
G01 X49.3784 Y56.9539 F120.00
G01 X49.3000 Y56.9500 F120.00
G01 X49.2216 Y56.9539 F120.00
G01 X49.1439 Y56.9654 F120.00
G01 X49.0678 Y56.9844 F120.00
G01 X48.9939 Y57.0109 F120.00
G01 X48.9229 Y57.0445 F120.00
G01 X48.8555 Y57.0848 F120.00
G01 X48.7925 Y57.1316 F120.00
G01 X48.7343 Y57.1843 F120.00
G01 X48.6816 Y57.2425 F120.00
G01 X48.6348 Y57.3055 F120.00
G01 X48.5945 Y57.3729 F120.00
G01 X48.5609 Y57.4439 F120.00
G01 X48.5344 Y57.5178 F120.00
G01 X48.5154 Y57.5939 F120.00
G01 X48.5039 Y57.6716 F120.00
G01 X48.5000 Y57.7500 F120.00
G01 X48.5039 Y57.8284 F120.00
G01 X48.5154 Y57.9061 F120.00
G01 X48.5344 Y57.9822 F120.00
G01 X48.5609 Y58.0561 F120.00
G01 X48.5945 Y58.1271 F120.00
G01 X48.6348 Y58.1945 F120.00
G01 X48.6816 Y58.2575 F120.00
G01 X48.7343 Y58.3157 F120.00
G01 X48.7925 Y58.3684 F120.00
G01 X48.8555 Y58.4152 F120.00
G01 X48.9229 Y58.4555 F120.00
G01 X48.9939 Y58.4891 F120.00
G01 X49.0678 Y58.5156 F120.00
G01 X49.1439 Y58.5346 F120.00
G01 X49.2216 Y58.5461 F120.00
G01 X49.3000 Y58.5500 F120.00
G01 X49.3784 Y58.5461 F120.00
G01 X49.4561 Y58.5346 F120.00
G01 X49.5322 Y58.5156 F120.00
G01 X49.6061 Y58.4891 F120.00
G01 X49.6771 Y58.4555 F120.00
G01 X49.7445 Y58.4152 F120.00
G01 X49.8075 Y58.3684 F120.00
G01 X49.8657 Y58.3157 F120.00
G01 X49.9184 Y58.2575 F120.00
G01 X49.9652 Y58.1945 F120.00
G01 X50.0055 Y58.1271 F120.00
G01 X50.0391 Y58.0561 F120.00
G01 X50.0656 Y57.9822 F120.00
G01 X50.0846 Y57.9061 F120.00
G01 X50.0961 Y57.8284 F120.00
G01 X50.1000 Y57.7500 F120.00
G00 Z2.0000
G00 X61.3000 Y57.7500
G01 F60.00
G01 Z-0.4000
G01 F120.00
G01 X61.2961 Y57.6716 F120.00
G01 X61.2846 Y57.5939 F120.00
G01 X61.2656 Y57.5178 F120.00
G01 X61.2391 Y57.4439 F120.00
G01 X61.2055 Y57.3729 F120.00
G01 X61.1652 Y57.3055 F120.00
G01 X61.1184 Y57.2425 F120.00
G01 X61.0657 Y57.1843 F120.00
G01 X61.0075 Y57.1316 F120.00
G01 X60.9445 Y57.0848 F120.00
G01 X60.8771 Y57.0445 F120.00
G01 X60.8061 Y57.0109 F120.00
G01 X60.7322 Y56.9844 F120.00
G01 X60.6561 Y56.9654 F120.00
G01 X60.5784 Y56.9539 F120.00
G01 X60.5000 Y56.9500 F120.00
G01 X60.4216 Y56.9539 F120.00
G01 X60.3439 Y56.9654 F120.00
G01 X60.2678 Y56.9844 F120.00
G01 X60.1939 Y57.0109 F120.00
G01 X60.1229 Y57.0445 F120.00
G01 X60.0555 Y57.0848 F120.00
G01 X59.9925 Y57.1316 F120.00
G01 X59.9343 Y57.1843 F120.00
G01 X59.8816 Y57.2425 F120.00
G01 X59.8348 Y57.3055 F120.00
G01 X59.7945 Y57.3729 F120.00
G01 X59.7609 Y57.4439 F120.00
G01 X59.7344 Y57.5178 F120.00
G01 X59.7154 Y57.5939 F120.00
G01 X59.7039 Y57.6716 F120.00
G01 X59.7000 Y57.7500 F120.00
G01 X59.7039 Y57.8284 F120.00
G01 X59.7154 Y57.9061 F120.00
G01 X59.7344 Y57.9822 F120.00
G01 X59.7609 Y58.0561 F120.00
G01 X59.7945 Y58.1271 F120.00
G01 X59.8348 Y58.1945 F120.00
G01 X59.8816 Y58.2575 F120.00
G01 X59.9343 Y58.3157 F120.00
G01 X59.9925 Y58.3684 F120.00
G01 X60.0555 Y58.4152 F120.00
G01 X60.1229 Y58.4555 F120.00
G01 X60.1939 Y58.4891 F120.00
G01 X60.2678 Y58.5156 F120.00
G01 X60.3439 Y58.5346 F120.00
G01 X60.4216 Y58.5461 F120.00
G01 X60.5000 Y58.5500 F120.00
G01 X60.5784 Y58.5461 F120.00
G01 X60.6561 Y58.5346 F120.00
G01 X60.7322 Y58.5156 F120.00
G01 X60.8061 Y58.4891 F120.00
G01 X60.8771 Y58.4555 F120.00
G01 X60.9445 Y58.4152 F120.00
G01 X61.0075 Y58.3684 F120.00
G01 X61.0657 Y58.3157 F120.00
G01 X61.1184 Y58.2575 F120.00
G01 X61.1652 Y58.1945 F120.00
G01 X61.2055 Y58.1271 F120.00
G01 X61.2391 Y58.0561 F120.00
G01 X61.2656 Y57.9822 F120.00
G01 X61.2846 Y57.9061 F120.00
G01 X61.2961 Y57.8284 F120.00
G01 X61.3000 Y57.7500 F120.00
G00 X61.3000 Y57.7500
G01 F60.00
G01 Z-0.8000
G01 F120.00
G01 X61.2961 Y57.6716 F120.00
G01 X61.2846 Y57.5939 F120.00
G01 X61.2656 Y57.5178 F120.00
G01 X61.2391 Y57.4439 F120.00
G01 X61.2055 Y57.3729 F120.00
G01 X61.1652 Y57.3055 F120.00
G01 X61.1184 Y57.2425 F120.00
G01 X61.0657 Y57.1843 F120.00
G01 X61.0075 Y57.1316 F120.00
G01 X60.9445 Y57.0848 F120.00
G01 X60.8771 Y57.0445 F120.00
G01 X60.8061 Y57.0109 F120.00
G01 X60.7322 Y56.9844 F120.00
G01 X60.6561 Y56.9654 F120.00
G01 X60.5784 Y56.9539 F120.00
G01 X60.5000 Y56.9500 F120.00
G01 X60.4216 Y56.9539 F120.00
G01 X60.3439 Y56.9654 F120.00
G01 X60.2678 Y56.9844 F120.00
G01 X60.1939 Y57.0109 F120.00
G01 X60.1229 Y57.0445 F120.00
G01 X60.0555 Y57.0848 F120.00
G01 X59.9925 Y57.1316 F120.00
G01 X59.9343 Y57.1843 F120.00
G01 X59.8816 Y57.2425 F120.00
G01 X59.8348 Y57.3055 F120.00
G01 X59.7945 Y57.3729 F120.00
G01 X59.7609 Y57.4439 F120.00
G01 X59.7344 Y57.5178 F120.00
G01 X59.7154 Y57.5939 F120.00
G01 X59.7039 Y57.6716 F120.00
G01 X59.7000 Y57.7500 F120.00
G01 X59.7039 Y57.8284 F120.00
G01 X59.7154 Y57.9061 F120.00
G01 X59.7344 Y57.9822 F120.00
G01 X59.7609 Y58.0561 F120.00
G01 X59.7945 Y58.1271 F120.00
G01 X59.8348 Y58.1945 F120.00
G01 X59.8816 Y58.2575 F120.00
G01 X59.9343 Y58.3157 F120.00
G01 X59.9925 Y58.3684 F120.00
G01 X60.0555 Y58.4152 F120.00
G01 X60.1229 Y58.4555 F120.00
G01 X60.1939 Y58.4891 F120.00
G01 X60.2678 Y58.5156 F120.00
G01 X60.3439 Y58.5346 F120.00
G01 X60.4216 Y58.5461 F120.00
G01 X60.5000 Y58.5500 F120.00
G01 X60.5784 Y58.5461 F120.00
G01 X60.6561 Y58.5346 F120.00
G01 X60.7322 Y58.5156 F120.00
G01 X60.8061 Y58.4891 F120.00
G01 X60.8771 Y58.4555 F120.00
G01 X60.9445 Y58.4152 F120.00
G01 X61.0075 Y58.3684 F120.00
G01 X61.0657 Y58.3157 F120.00
G01 X61.1184 Y58.2575 F120.00
G01 X61.1652 Y58.1945 F120.00
G01 X61.2055 Y58.1271 F120.00
G01 X61.2391 Y58.0561 F120.00
G01 X61.2656 Y57.9822 F120.00
G01 X61.2846 Y57.9061 F120.00
G01 X61.2961 Y57.8284 F120.00
G01 X61.3000 Y57.7500 F120.00
G00 X61.3000 Y57.7500
G01 F60.00
G01 Z-1.2000
G01 F120.00
G01 X61.2961 Y57.6716 F120.00
G01 X61.2846 Y57.5939 F120.00
G01 X61.2656 Y57.5178 F120.00
G01 X61.2391 Y57.4439 F120.00
G01 X61.2055 Y57.3729 F120.00
G01 X61.1652 Y57.3055 F120.00
G01 X61.1184 Y57.2425 F120.00
G01 X61.0657 Y57.1843 F120.00
G01 X61.0075 Y57.1316 F120.00
G01 X60.9445 Y57.0848 F120.00
G01 X60.8771 Y57.0445 F120.00
G01 X60.8061 Y57.0109 F120.00
G01 X60.7322 Y56.9844 F120.00
G01 X60.6561 Y56.9654 F120.00
G01 X60.5784 Y56.9539 F120.00
G01 X60.5000 Y56.9500 F120.00
G01 X60.4216 Y56.9539 F120.00
G01 X60.3439 Y56.9654 F120.00
G01 X60.2678 Y56.9844 F120.00
G01 X60.1939 Y57.0109 F120.00
G01 X60.1229 Y57.0445 F120.00
G01 X60.0555 Y57.0848 F120.00
G01 X59.9925 Y57.1316 F120.00
G01 X59.9343 Y57.1843 F120.00
G01 X59.8816 Y57.2425 F120.00
G01 X59.8348 Y57.3055 F120.00
G01 X59.7945 Y57.3729 F120.00
G01 X59.7609 Y57.4439 F120.00
G01 X59.7344 Y57.5178 F120.00
G01 X59.7154 Y57.5939 F120.00
G01 X59.7039 Y57.6716 F120.00
G01 X59.7000 Y57.7500 F120.00
G01 X59.7039 Y57.8284 F120.00
G01 X59.7154 Y57.9061 F120.00
G01 X59.7344 Y57.9822 F120.00
G01 X59.7609 Y58.0561 F120.00
G01 X59.7945 Y58.1271 F120.00
G01 X59.8348 Y58.1945 F120.00
G01 X59.8816 Y58.2575 F120.00
G01 X59.9343 Y58.3157 F120.00
G01 X59.9925 Y58.3684 F120.00
G01 X60.0555 Y58.4152 F120.00
G01 X60.1229 Y58.4555 F120.00
G01 X60.1939 Y58.4891 F120.00
G01 X60.2678 Y58.5156 F120.00
G01 X60.3439 Y58.5346 F120.00
G01 X60.4216 Y58.5461 F120.00
G01 X60.5000 Y58.5500 F120.00
G01 X60.5784 Y58.5461 F120.00
G01 X60.6561 Y58.5346 F120.00
G01 X60.7322 Y58.5156 F120.00
G01 X60.8061 Y58.4891 F120.00
G01 X60.8771 Y58.4555 F120.00
G01 X60.9445 Y58.4152 F120.00
G01 X61.0075 Y58.3684 F120.00
G01 X61.0657 Y58.3157 F120.00
G01 X61.1184 Y58.2575 F120.00
G01 X61.1652 Y58.1945 F120.00
G01 X61.2055 Y58.1271 F120.00
G01 X61.2391 Y58.0561 F120.00
G01 X61.2656 Y57.9822 F120.00
G01 X61.2846 Y57.9061 F120.00
G01 X61.2961 Y57.8284 F120.00
G01 X61.3000 Y57.7500 F120.00
G00 X61.3000 Y57.7500
G01 F60.00
G01 Z-1.6000
G01 F120.00
G01 X61.2961 Y57.6716 F120.00
G01 X61.2846 Y57.5939 F120.00
G01 X61.2656 Y57.5178 F120.00
G01 X61.2391 Y57.4439 F120.00
G01 X61.2055 Y57.3729 F120.00
G01 X61.1652 Y57.3055 F120.00
G01 X61.1184 Y57.2425 F120.00
G01 X61.0657 Y57.1843 F120.00
G01 X61.0075 Y57.1316 F120.00
G01 X60.9445 Y57.0848 F120.00
G01 X60.8771 Y57.0445 F120.00
G01 X60.8061 Y57.0109 F120.00
G01 X60.7322 Y56.9844 F120.00
G01 X60.6561 Y56.9654 F120.00
G01 X60.5784 Y56.9539 F120.00
G01 X60.5000 Y56.9500 F120.00
G01 X60.4216 Y56.9539 F120.00
G01 X60.3439 Y56.9654 F120.00
G01 X60.2678 Y56.9844 F120.00
G01 X60.1939 Y57.0109 F120.00
G01 X60.1229 Y57.0445 F120.00
G01 X60.0555 Y57.0848 F120.00
G01 X59.9925 Y57.1316 F120.00
G01 X59.9343 Y57.1843 F120.00
G01 X59.8816 Y57.2425 F120.00
G01 X59.8348 Y57.3055 F120.00
G01 X59.7945 Y57.3729 F120.00
G01 X59.7609 Y57.4439 F120.00
G01 X59.7344 Y57.5178 F120.00
G01 X59.7154 Y57.5939 F120.00
G01 X59.7039 Y57.6716 F120.00
G01 X59.7000 Y57.7500 F120.00
G01 X59.7039 Y57.8284 F120.00
G01 X59.7154 Y57.9061 F120.00
G01 X59.7344 Y57.9822 F120.00
G01 X59.7609 Y58.0561 F120.00
G01 X59.7945 Y58.1271 F120.00
G01 X59.8348 Y58.1945 F120.00
G01 X59.8816 Y58.2575 F120.00
G01 X59.9343 Y58.3157 F120.00
G01 X59.9925 Y58.3684 F120.00
G01 X60.0555 Y58.4152 F120.00
G01 X60.1229 Y58.4555 F120.00
G01 X60.1939 Y58.4891 F120.00
G01 X60.2678 Y58.5156 F120.00
G01 X60.3439 Y58.5346 F120.00
G01 X60.4216 Y58.5461 F120.00
G01 X60.5000 Y58.5500 F120.00
G01 X60.5784 Y58.5461 F120.00
G01 X60.6561 Y58.5346 F120.00
G01 X60.7322 Y58.5156 F120.00
G01 X60.8061 Y58.4891 F120.00
G01 X60.8771 Y58.4555 F120.00
G01 X60.9445 Y58.4152 F120.00
G01 X61.0075 Y58.3684 F120.00
G01 X61.0657 Y58.3157 F120.00
G01 X61.1184 Y58.2575 F120.00
G01 X61.1652 Y58.1945 F120.00
G01 X61.2055 Y58.1271 F120.00
G01 X61.2391 Y58.0561 F120.00
G01 X61.2656 Y57.9822 F120.00
G01 X61.2846 Y57.9061 F120.00
G01 X61.2961 Y57.8284 F120.00
G01 X61.3000 Y57.7500 F120.00
G00 X61.3000 Y57.7500
G01 F60.00
G01 Z-2.0000
G01 F120.00
G01 X61.2961 Y57.6716 F120.00
G01 X61.2846 Y57.5939 F120.00
G01 X61.2656 Y57.5178 F120.00
G01 X61.2391 Y57.4439 F120.00
G01 X61.2055 Y57.3729 F120.00
G01 X61.1652 Y57.3055 F120.00
G01 X61.1184 Y57.2425 F120.00
G01 X61.0657 Y57.1843 F120.00
G01 X61.0075 Y57.1316 F120.00
G01 X60.9445 Y57.0848 F120.00
G01 X60.8771 Y57.0445 F120.00
G01 X60.8061 Y57.0109 F120.00
G01 X60.7322 Y56.9844 F120.00
G01 X60.6561 Y56.9654 F120.00
G01 X60.5784 Y56.9539 F120.00
G01 X60.5000 Y56.9500 F120.00
G01 X60.4216 Y56.9539 F120.00
G01 X60.3439 Y56.9654 F120.00
G01 X60.2678 Y56.9844 F120.00
G01 X60.1939 Y57.0109 F120.00
G01 X60.1229 Y57.0445 F120.00
G01 X60.0555 Y57.0848 F120.00
G01 X59.9925 Y57.1316 F120.00
G01 X59.9343 Y57.1843 F120.00
G01 X59.8816 Y57.2425 F120.00
G01 X59.8348 Y57.3055 F120.00
G01 X59.7945 Y57.3729 F120.00
G01 X59.7609 Y57.4439 F120.00
G01 X59.7344 Y57.5178 F120.00
G01 X59.7154 Y57.5939 F120.00
G01 X59.7039 Y57.6716 F120.00
G01 X59.7000 Y57.7500 F120.00
G01 X59.7039 Y57.8284 F120.00
G01 X59.7154 Y57.9061 F120.00
G01 X59.7344 Y57.9822 F120.00
G01 X59.7609 Y58.0561 F120.00
G01 X59.7945 Y58.1271 F120.00
G01 X59.8348 Y58.1945 F120.00
G01 X59.8816 Y58.2575 F120.00
G01 X59.9343 Y58.3157 F120.00
G01 X59.9925 Y58.3684 F120.00
G01 X60.0555 Y58.4152 F120.00
G01 X60.1229 Y58.4555 F120.00
G01 X60.1939 Y58.4891 F120.00
G01 X60.2678 Y58.5156 F120.00
G01 X60.3439 Y58.5346 F120.00
G01 X60.4216 Y58.5461 F120.00
G01 X60.5000 Y58.5500 F120.00
G01 X60.5784 Y58.5461 F120.00
G01 X60.6561 Y58.5346 F120.00
G01 X60.7322 Y58.5156 F120.00
G01 X60.8061 Y58.4891 F120.00
G01 X60.8771 Y58.4555 F120.00
G01 X60.9445 Y58.4152 F120.00
G01 X61.0075 Y58.3684 F120.00
G01 X61.0657 Y58.3157 F120.00
G01 X61.1184 Y58.2575 F120.00
G01 X61.1652 Y58.1945 F120.00
G01 X61.2055 Y58.1271 F120.00
G01 X61.2391 Y58.0561 F120.00
G01 X61.2656 Y57.9822 F120.00
G01 X61.2846 Y57.9061 F120.00
G01 X61.2961 Y57.8284 F120.00
G01 X61.3000 Y57.7500 F120.00
G00 X61.3000 Y57.7500
G01 F60.00
G01 Z-2.4000
G01 F120.00
G01 X61.2961 Y57.6716 F120.00
G01 X61.2846 Y57.5939 F120.00
G01 X61.2656 Y57.5178 F120.00
G01 X61.2391 Y57.4439 F120.00
G01 X61.2055 Y57.3729 F120.00
G01 X61.1652 Y57.3055 F120.00
G01 X61.1184 Y57.2425 F120.00
G01 X61.0657 Y57.1843 F120.00
G01 X61.0075 Y57.1316 F120.00
G01 X60.9445 Y57.0848 F120.00
G01 X60.8771 Y57.0445 F120.00
G01 X60.8061 Y57.0109 F120.00
G01 X60.7322 Y56.9844 F120.00
G01 X60.6561 Y56.9654 F120.00
G01 X60.5784 Y56.9539 F120.00
G01 X60.5000 Y56.9500 F120.00
G01 X60.4216 Y56.9539 F120.00
G01 X60.3439 Y56.9654 F120.00
G01 X60.2678 Y56.9844 F120.00
G01 X60.1939 Y57.0109 F120.00
G01 X60.1229 Y57.0445 F120.00
G01 X60.0555 Y57.0848 F120.00
G01 X59.9925 Y57.1316 F120.00
G01 X59.9343 Y57.1843 F120.00
G01 X59.8816 Y57.2425 F120.00
G01 X59.8348 Y57.3055 F120.00
G01 X59.7945 Y57.3729 F120.00
G01 X59.7609 Y57.4439 F120.00
G01 X59.7344 Y57.5178 F120.00
G01 X59.7154 Y57.5939 F120.00
G01 X59.7039 Y57.6716 F120.00
G01 X59.7000 Y57.7500 F120.00
G01 X59.7039 Y57.8284 F120.00
G01 X59.7154 Y57.9061 F120.00
G01 X59.7344 Y57.9822 F120.00
G01 X59.7609 Y58.0561 F120.00
G01 X59.7945 Y58.1271 F120.00
G01 X59.8348 Y58.1945 F120.00
G01 X59.8816 Y58.2575 F120.00
G01 X59.9343 Y58.3157 F120.00
G01 X59.9925 Y58.3684 F120.00
G01 X60.0555 Y58.4152 F120.00
G01 X60.1229 Y58.4555 F120.00
G01 X60.1939 Y58.4891 F120.00
G01 X60.2678 Y58.5156 F120.00
G01 X60.3439 Y58.5346 F120.00
G01 X60.4216 Y58.5461 F120.00
G01 X60.5000 Y58.5500 F120.00
G01 X60.5784 Y58.5461 F120.00
G01 X60.6561 Y58.5346 F120.00
G01 X60.7322 Y58.5156 F120.00
G01 X60.8061 Y58.4891 F120.00
G01 X60.8771 Y58.4555 F120.00
G01 X60.9445 Y58.4152 F120.00
G01 X61.0075 Y58.3684 F120.00
G01 X61.0657 Y58.3157 F120.00
G01 X61.1184 Y58.2575 F120.00
G01 X61.1652 Y58.1945 F120.00
G01 X61.2055 Y58.1271 F120.00
G01 X61.2391 Y58.0561 F120.00
G01 X61.2656 Y57.9822 F120.00
G01 X61.2846 Y57.9061 F120.00
G01 X61.2961 Y57.8284 F120.00
G01 X61.3000 Y57.7500 F120.00
G00 Z2.0000
G00 X91.4500 Y13.7500
G01 F60.00
G01 Z-0.4000
G01 F120.00
G01 X91.4461 Y13.6716 F120.00
G01 X91.4346 Y13.5939 F120.00
G01 X91.4156 Y13.5178 F120.00
G01 X91.3891 Y13.4439 F120.00
G01 X91.3555 Y13.3729 F120.00
G01 X91.3152 Y13.3055 F120.00
G01 X91.2684 Y13.2425 F120.00
G01 X91.2157 Y13.1843 F120.00
G01 X91.1575 Y13.1316 F120.00
G01 X91.0945 Y13.0848 F120.00
G01 X91.0271 Y13.0445 F120.00
G01 X90.9561 Y13.0109 F120.00
G01 X90.8822 Y12.9844 F120.00
G01 X90.8061 Y12.9654 F120.00
G01 X90.7284 Y12.9539 F120.00
G01 X90.6500 Y12.9500 F120.00
G01 X90.5716 Y12.9539 F120.00
G01 X90.4939 Y12.9654 F120.00
G01 X90.4178 Y12.9844 F120.00
G01 X90.3439 Y13.0109 F120.00
G01 X90.2729 Y13.0445 F120.00
G01 X90.2055 Y13.0848 F120.00
G01 X90.1425 Y13.1316 F120.00
G01 X90.0843 Y13.1843 F120.00
G01 X90.0316 Y13.2425 F120.00
G01 X89.9848 Y13.3055 F120.00
G01 X89.9445 Y13.3729 F120.00
G01 X89.9109 Y13.4439 F120.00
G01 X89.8844 Y13.5178 F120.00
G01 X89.8654 Y13.5939 F120.00
G01 X89.8539 Y13.6716 F120.00
G01 X89.8500 Y13.7500 F120.00
G01 X89.8539 Y13.8284 F120.00
G01 X89.8654 Y13.9061 F120.00
G01 X89.8844 Y13.9822 F120.00
G01 X89.9109 Y14.0561 F120.00
G01 X89.9445 Y14.1271 F120.00
G01 X89.9848 Y14.1945 F120.00
G01 X90.0316 Y14.2575 F120.00
G01 X90.0843 Y14.3157 F120.00
G01 X90.1425 Y14.3684 F120.00
G01 X90.2055 Y14.4152 F120.00
G01 X90.2729 Y14.4555 F120.00
G01 X90.3439 Y14.4891 F120.00
G01 X90.4178 Y14.5156 F120.00
G01 X90.4939 Y14.5346 F120.00
G01 X90.5716 Y14.5461 F120.00
G01 X90.6500 Y14.5500 F120.00
G01 X90.7284 Y14.5461 F120.00
G01 X90.8061 Y14.5346 F120.00
G01 X90.8822 Y14.5156 F120.00
G01 X90.9561 Y14.4891 F120.00
G01 X91.0271 Y14.4555 F120.00
G01 X91.0945 Y14.4152 F120.00
G01 X91.1575 Y14.3684 F120.00
G01 X91.2157 Y14.3157 F120.00
G01 X91.2684 Y14.2575 F120.00
G01 X91.3152 Y14.1945 F120.00
G01 X91.3555 Y14.1271 F120.00
G01 X91.3891 Y14.0561 F120.00
G01 X91.4156 Y13.9822 F120.00
G01 X91.4346 Y13.9061 F120.00
G01 X91.4461 Y13.8284 F120.00
G01 X91.4500 Y13.7500 F120.00
G00 X91.4500 Y13.7500
G01 F60.00
G01 Z-0.8000
G01 F120.00
G01 X91.4461 Y13.6716 F120.00
G01 X91.4346 Y13.5939 F120.00
G01 X91.4156 Y13.5178 F120.00
G01 X91.3891 Y13.4439 F120.00
G01 X91.3555 Y13.3729 F120.00
G01 X91.3152 Y13.3055 F120.00
G01 X91.2684 Y13.2425 F120.00
G01 X91.2157 Y13.1843 F120.00
G01 X91.1575 Y13.1316 F120.00
G01 X91.0945 Y13.0848 F120.00
G01 X91.0271 Y13.0445 F120.00
G01 X90.9561 Y13.0109 F120.00
G01 X90.8822 Y12.9844 F120.00
G01 X90.8061 Y12.9654 F120.00
G01 X90.7284 Y12.9539 F120.00
G01 X90.6500 Y12.9500 F120.00
G01 X90.5716 Y12.9539 F120.00
G01 X90.4939 Y12.9654 F120.00
G01 X90.4178 Y12.9844 F120.00
G01 X90.3439 Y13.0109 F120.00
G01 X90.2729 Y13.0445 F120.00
G01 X90.2055 Y13.0848 F120.00
G01 X90.1425 Y13.1316 F120.00
G01 X90.0843 Y13.1843 F120.00
G01 X90.0316 Y13.2425 F120.00
G01 X89.9848 Y13.3055 F120.00
G01 X89.9445 Y13.3729 F120.00
G01 X89.9109 Y13.4439 F120.00
G01 X89.8844 Y13.5178 F120.00
G01 X89.8654 Y13.5939 F120.00
G01 X89.8539 Y13.6716 F120.00
G01 X89.8500 Y13.7500 F120.00
G01 X89.8539 Y13.8284 F120.00
G01 X89.8654 Y13.9061 F120.00
G01 X89.8844 Y13.9822 F120.00
G01 X89.9109 Y14.0561 F120.00
G01 X89.9445 Y14.1271 F120.00
G01 X89.9848 Y14.1945 F120.00
G01 X90.0316 Y14.2575 F120.00
G01 X90.0843 Y14.3157 F120.00
G01 X90.1425 Y14.3684 F120.00
G01 X90.2055 Y14.4152 F120.00
G01 X90.2729 Y14.4555 F120.00
G01 X90.3439 Y14.4891 F120.00
G01 X90.4178 Y14.5156 F120.00
G01 X90.4939 Y14.5346 F120.00
G01 X90.5716 Y14.5461 F120.00
G01 X90.6500 Y14.5500 F120.00
G01 X90.7284 Y14.5461 F120.00
G01 X90.8061 Y14.5346 F120.00
G01 X90.8822 Y14.5156 F120.00
G01 X90.9561 Y14.4891 F120.00
G01 X91.0271 Y14.4555 F120.00
G01 X91.0945 Y14.4152 F120.00
G01 X91.1575 Y14.3684 F120.00
G01 X91.2157 Y14.3157 F120.00
G01 X91.2684 Y14.2575 F120.00
G01 X91.3152 Y14.1945 F120.00
G01 X91.3555 Y14.1271 F120.00
G01 X91.3891 Y14.0561 F120.00
G01 X91.4156 Y13.9822 F120.00
G01 X91.4346 Y13.9061 F120.00
G01 X91.4461 Y13.8284 F120.00
G01 X91.4500 Y13.7500 F120.00
G00 X91.4500 Y13.7500
G01 F60.00
G01 Z-1.2000
G01 F120.00
G01 X91.4461 Y13.6716 F120.00
G01 X91.4346 Y13.5939 F120.00
G01 X91.4156 Y13.5178 F120.00
G01 X91.3891 Y13.4439 F120.00
G01 X91.3555 Y13.3729 F120.00
G01 X91.3152 Y13.3055 F120.00
G01 X91.2684 Y13.2425 F120.00
G01 X91.2157 Y13.1843 F120.00
G01 X91.1575 Y13.1316 F120.00
G01 X91.0945 Y13.0848 F120.00
G01 X91.0271 Y13.0445 F120.00
G01 X90.9561 Y13.0109 F120.00
G01 X90.8822 Y12.9844 F120.00
G01 X90.8061 Y12.9654 F120.00
G01 X90.7284 Y12.9539 F120.00
G01 X90.6500 Y12.9500 F120.00
G01 X90.5716 Y12.9539 F120.00
G01 X90.4939 Y12.9654 F120.00
G01 X90.4178 Y12.9844 F120.00
G01 X90.3439 Y13.0109 F120.00
G01 X90.2729 Y13.0445 F120.00
G01 X90.2055 Y13.0848 F120.00
G01 X90.1425 Y13.1316 F120.00
G01 X90.0843 Y13.1843 F120.00
G01 X90.0316 Y13.2425 F120.00
G01 X89.9848 Y13.3055 F120.00
G01 X89.9445 Y13.3729 F120.00
G01 X89.9109 Y13.4439 F120.00
G01 X89.8844 Y13.5178 F120.00
G01 X89.8654 Y13.5939 F120.00
G01 X89.8539 Y13.6716 F120.00
G01 X89.8500 Y13.7500 F120.00
G01 X89.8539 Y13.8284 F120.00
G01 X89.8654 Y13.9061 F120.00
G01 X89.8844 Y13.9822 F120.00
G01 X89.9109 Y14.0561 F120.00
G01 X89.9445 Y14.1271 F120.00
G01 X89.9848 Y14.1945 F120.00
G01 X90.0316 Y14.2575 F120.00
G01 X90.0843 Y14.3157 F120.00
G01 X90.1425 Y14.3684 F120.00
G01 X90.2055 Y14.4152 F120.00
G01 X90.2729 Y14.4555 F120.00
G01 X90.3439 Y14.4891 F120.00
G01 X90.4178 Y14.5156 F120.00
G01 X90.4939 Y14.5346 F120.00
G01 X90.5716 Y14.5461 F120.00
G01 X90.6500 Y14.5500 F120.00
G01 X90.7284 Y14.5461 F120.00
G01 X90.8061 Y14.5346 F120.00
G01 X90.8822 Y14.5156 F120.00
G01 X90.9561 Y14.4891 F120.00
G01 X91.0271 Y14.4555 F120.00
G01 X91.0945 Y14.4152 F120.00
G01 X91.1575 Y14.3684 F120.00
G01 X91.2157 Y14.3157 F120.00
G01 X91.2684 Y14.2575 F120.00
G01 X91.3152 Y14.1945 F120.00
G01 X91.3555 Y14.1271 F120.00
G01 X91.3891 Y14.0561 F120.00
G01 X91.4156 Y13.9822 F120.00
G01 X91.4346 Y13.9061 F120.00
G01 X91.4461 Y13.8284 F120.00
G01 X91.4500 Y13.7500 F120.00
G00 X91.4500 Y13.7500
G01 F60.00
G01 Z-1.6000
G01 F120.00
G01 X91.4461 Y13.6716 F120.00
G01 X91.4346 Y13.5939 F120.00
G01 X91.4156 Y13.5178 F120.00
G01 X91.3891 Y13.4439 F120.00
G01 X91.3555 Y13.3729 F120.00
G01 X91.3152 Y13.3055 F120.00
G01 X91.2684 Y13.2425 F120.00
G01 X91.2157 Y13.1843 F120.00
G01 X91.1575 Y13.1316 F120.00
G01 X91.0945 Y13.0848 F120.00
G01 X91.0271 Y13.0445 F120.00
G01 X90.9561 Y13.0109 F120.00
G01 X90.8822 Y12.9844 F120.00
G01 X90.8061 Y12.9654 F120.00
G01 X90.7284 Y12.9539 F120.00
G01 X90.6500 Y12.9500 F120.00
G01 X90.5716 Y12.9539 F120.00
G01 X90.4939 Y12.9654 F120.00
G01 X90.4178 Y12.9844 F120.00
G01 X90.3439 Y13.0109 F120.00
G01 X90.2729 Y13.0445 F120.00
G01 X90.2055 Y13.0848 F120.00
G01 X90.1425 Y13.1316 F120.00
G01 X90.0843 Y13.1843 F120.00
G01 X90.0316 Y13.2425 F120.00
G01 X89.9848 Y13.3055 F120.00
G01 X89.9445 Y13.3729 F120.00
G01 X89.9109 Y13.4439 F120.00
G01 X89.8844 Y13.5178 F120.00
G01 X89.8654 Y13.5939 F120.00
G01 X89.8539 Y13.6716 F120.00
G01 X89.8500 Y13.7500 F120.00
G01 X89.8539 Y13.8284 F120.00
G01 X89.8654 Y13.9061 F120.00
G01 X89.8844 Y13.9822 F120.00
G01 X89.9109 Y14.0561 F120.00
G01 X89.9445 Y14.1271 F120.00
G01 X89.9848 Y14.1945 F120.00
G01 X90.0316 Y14.2575 F120.00
G01 X90.0843 Y14.3157 F120.00
G01 X90.1425 Y14.3684 F120.00
G01 X90.2055 Y14.4152 F120.00
G01 X90.2729 Y14.4555 F120.00
G01 X90.3439 Y14.4891 F120.00
G01 X90.4178 Y14.5156 F120.00
G01 X90.4939 Y14.5346 F120.00
G01 X90.5716 Y14.5461 F120.00
G01 X90.6500 Y14.5500 F120.00
G01 X90.7284 Y14.5461 F120.00
G01 X90.8061 Y14.5346 F120.00
G01 X90.8822 Y14.5156 F120.00
G01 X90.9561 Y14.4891 F120.00
G01 X91.0271 Y14.4555 F120.00
G01 X91.0945 Y14.4152 F120.00
G01 X91.1575 Y14.3684 F120.00
G01 X91.2157 Y14.3157 F120.00
G01 X91.2684 Y14.2575 F120.00
G01 X91.3152 Y14.1945 F120.00
G01 X91.3555 Y14.1271 F120.00
G01 X91.3891 Y14.0561 F120.00
G01 X91.4156 Y13.9822 F120.00
G01 X91.4346 Y13.9061 F120.00
G01 X91.4461 Y13.8284 F120.00
G01 X91.4500 Y13.7500 F120.00
G00 X91.4500 Y13.7500
G01 F60.00
G01 Z-2.0000
G01 F120.00
G01 X91.4461 Y13.6716 F120.00
G01 X91.4346 Y13.5939 F120.00
G01 X91.4156 Y13.5178 F120.00
G01 X91.3891 Y13.4439 F120.00
G01 X91.3555 Y13.3729 F120.00
G01 X91.3152 Y13.3055 F120.00
G01 X91.2684 Y13.2425 F120.00
G01 X91.2157 Y13.1843 F120.00
G01 X91.1575 Y13.1316 F120.00
G01 X91.0945 Y13.0848 F120.00
G01 X91.0271 Y13.0445 F120.00
G01 X90.9561 Y13.0109 F120.00
G01 X90.8822 Y12.9844 F120.00
G01 X90.8061 Y12.9654 F120.00
G01 X90.7284 Y12.9539 F120.00
G01 X90.6500 Y12.9500 F120.00
G01 X90.5716 Y12.9539 F120.00
G01 X90.4939 Y12.9654 F120.00
G01 X90.4178 Y12.9844 F120.00
G01 X90.3439 Y13.0109 F120.00
G01 X90.2729 Y13.0445 F120.00
G01 X90.2055 Y13.0848 F120.00
G01 X90.1425 Y13.1316 F120.00
G01 X90.0843 Y13.1843 F120.00
G01 X90.0316 Y13.2425 F120.00
G01 X89.9848 Y13.3055 F120.00
G01 X89.9445 Y13.3729 F120.00
G01 X89.9109 Y13.4439 F120.00
G01 X89.8844 Y13.5178 F120.00
G01 X89.8654 Y13.5939 F120.00
G01 X89.8539 Y13.6716 F120.00
G01 X89.8500 Y13.7500 F120.00
G01 X89.8539 Y13.8284 F120.00
G01 X89.8654 Y13.9061 F120.00
G01 X89.8844 Y13.9822 F120.00
G01 X89.9109 Y14.0561 F120.00
G01 X89.9445 Y14.1271 F120.00
G01 X89.9848 Y14.1945 F120.00
G01 X90.0316 Y14.2575 F120.00
G01 X90.0843 Y14.3157 F120.00
G01 X90.1425 Y14.3684 F120.00
G01 X90.2055 Y14.4152 F120.00
G01 X90.2729 Y14.4555 F120.00
G01 X90.3439 Y14.4891 F120.00
G01 X90.4178 Y14.5156 F120.00
G01 X90.4939 Y14.5346 F120.00
G01 X90.5716 Y14.5461 F120.00
G01 X90.6500 Y14.5500 F120.00
G01 X90.7284 Y14.5461 F120.00
G01 X90.8061 Y14.5346 F120.00
G01 X90.8822 Y14.5156 F120.00
G01 X90.9561 Y14.4891 F120.00
G01 X91.0271 Y14.4555 F120.00
G01 X91.0945 Y14.4152 F120.00
G01 X91.1575 Y14.3684 F120.00
G01 X91.2157 Y14.3157 F120.00
G01 X91.2684 Y14.2575 F120.00
G01 X91.3152 Y14.1945 F120.00
G01 X91.3555 Y14.1271 F120.00
G01 X91.3891 Y14.0561 F120.00
G01 X91.4156 Y13.9822 F120.00
G01 X91.4346 Y13.9061 F120.00
G01 X91.4461 Y13.8284 F120.00
G01 X91.4500 Y13.7500 F120.00
G00 X91.4500 Y13.7500
G01 F60.00
G01 Z-2.4000
G01 F120.00
G01 X91.4461 Y13.6716 F120.00
G01 X91.4346 Y13.5939 F120.00
G01 X91.4156 Y13.5178 F120.00
G01 X91.3891 Y13.4439 F120.00
G01 X91.3555 Y13.3729 F120.00
G01 X91.3152 Y13.3055 F120.00
G01 X91.2684 Y13.2425 F120.00
G01 X91.2157 Y13.1843 F120.00
G01 X91.1575 Y13.1316 F120.00
G01 X91.0945 Y13.0848 F120.00
G01 X91.0271 Y13.0445 F120.00
G01 X90.9561 Y13.0109 F120.00
G01 X90.8822 Y12.9844 F120.00
G01 X90.8061 Y12.9654 F120.00
G01 X90.7284 Y12.9539 F120.00
G01 X90.6500 Y12.9500 F120.00
G01 X90.5716 Y12.9539 F120.00
G01 X90.4939 Y12.9654 F120.00
G01 X90.4178 Y12.9844 F120.00
G01 X90.3439 Y13.0109 F120.00
G01 X90.2729 Y13.0445 F120.00
G01 X90.2055 Y13.0848 F120.00
G01 X90.1425 Y13.1316 F120.00
G01 X90.0843 Y13.1843 F120.00
G01 X90.0316 Y13.2425 F120.00
G01 X89.9848 Y13.3055 F120.00
G01 X89.9445 Y13.3729 F120.00
G01 X89.9109 Y13.4439 F120.00
G01 X89.8844 Y13.5178 F120.00
G01 X89.8654 Y13.5939 F120.00
G01 X89.8539 Y13.6716 F120.00
G01 X89.8500 Y13.7500 F120.00
G01 X89.8539 Y13.8284 F120.00
G01 X89.8654 Y13.9061 F120.00
G01 X89.8844 Y13.9822 F120.00
G01 X89.9109 Y14.0561 F120.00
G01 X89.9445 Y14.1271 F120.00
G01 X89.9848 Y14.1945 F120.00
G01 X90.0316 Y14.2575 F120.00
G01 X90.0843 Y14.3157 F120.00
G01 X90.1425 Y14.3684 F120.00
G01 X90.2055 Y14.4152 F120.00
G01 X90.2729 Y14.4555 F120.00
G01 X90.3439 Y14.4891 F120.00
G01 X90.4178 Y14.5156 F120.00
G01 X90.4939 Y14.5346 F120.00
G01 X90.5716 Y14.5461 F120.00
G01 X90.6500 Y14.5500 F120.00
G01 X90.7284 Y14.5461 F120.00
G01 X90.8061 Y14.5346 F120.00
G01 X90.8822 Y14.5156 F120.00
G01 X90.9561 Y14.4891 F120.00
G01 X91.0271 Y14.4555 F120.00
G01 X91.0945 Y14.4152 F120.00
G01 X91.1575 Y14.3684 F120.00
G01 X91.2157 Y14.3157 F120.00
G01 X91.2684 Y14.2575 F120.00
G01 X91.3152 Y14.1945 F120.00
G01 X91.3555 Y14.1271 F120.00
G01 X91.3891 Y14.0561 F120.00
G01 X91.4156 Y13.9822 F120.00
G01 X91.4346 Y13.9061 F120.00
G01 X91.4461 Y13.8284 F120.00
G01 X91.4500 Y13.7500 F120.00
G00 Z2.0000
G00 X102.6500 Y13.7500
G01 F60.00
G01 Z-0.4000
G01 F120.00
G01 X102.6461 Y13.6716 F120.00
G01 X102.6346 Y13.5939 F120.00
G01 X102.6156 Y13.5178 F120.00
G01 X102.5891 Y13.4439 F120.00
G01 X102.5555 Y13.3729 F120.00
G01 X102.5152 Y13.3055 F120.00
G01 X102.4684 Y13.2425 F120.00
G01 X102.4157 Y13.1843 F120.00
G01 X102.3575 Y13.1316 F120.00
G01 X102.2945 Y13.0848 F120.00
G01 X102.2271 Y13.0445 F120.00
G01 X102.1561 Y13.0109 F120.00
G01 X102.0822 Y12.9844 F120.00
G01 X102.0061 Y12.9654 F120.00
G01 X101.9284 Y12.9539 F120.00
G01 X101.8500 Y12.9500 F120.00
G01 X101.7716 Y12.9539 F120.00
G01 X101.6939 Y12.9654 F120.00
G01 X101.6178 Y12.9844 F120.00
G01 X101.5439 Y13.0109 F120.00
G01 X101.4729 Y13.0445 F120.00
G01 X101.4055 Y13.0848 F120.00
G01 X101.3425 Y13.1316 F120.00
G01 X101.2843 Y13.1843 F120.00
G01 X101.2316 Y13.2425 F120.00
G01 X101.1848 Y13.3055 F120.00
G01 X101.1445 Y13.3729 F120.00
G01 X101.1109 Y13.4439 F120.00
G01 X101.0844 Y13.5178 F120.00
G01 X101.0654 Y13.5939 F120.00
G01 X101.0539 Y13.6716 F120.00
G01 X101.0500 Y13.7500 F120.00
G01 X101.0539 Y13.8284 F120.00
G01 X101.0654 Y13.9061 F120.00
G01 X101.0844 Y13.9822 F120.00
G01 X101.1109 Y14.0561 F120.00
G01 X101.1445 Y14.1271 F120.00
G01 X101.1848 Y14.1945 F120.00
G01 X101.2316 Y14.2575 F120.00
G01 X101.2843 Y14.3157 F120.00
G01 X101.3425 Y14.3684 F120.00
G01 X101.4055 Y14.4152 F120.00
G01 X101.4729 Y14.4555 F120.00
G01 X101.5439 Y14.4891 F120.00
G01 X101.6178 Y14.5156 F120.00
G01 X101.6939 Y14.5346 F120.00
G01 X101.7716 Y14.5461 F120.00
G01 X101.8500 Y14.5500 F120.00
G01 X101.9284 Y14.5461 F120.00
G01 X102.0061 Y14.5346 F120.00
G01 X102.0822 Y14.5156 F120.00
G01 X102.1561 Y14.4891 F120.00
G01 X102.2271 Y14.4555 F120.00
G01 X102.2945 Y14.4152 F120.00
G01 X102.3575 Y14.3684 F120.00
G01 X102.4157 Y14.3157 F120.00
G01 X102.4684 Y14.2575 F120.00
G01 X102.5152 Y14.1945 F120.00
G01 X102.5555 Y14.1271 F120.00
G01 X102.5891 Y14.0561 F120.00
G01 X102.6156 Y13.9822 F120.00
G01 X102.6346 Y13.9061 F120.00
G01 X102.6461 Y13.8284 F120.00
G01 X102.6500 Y13.7500 F120.00
G00 X102.6500 Y13.7500
G01 F60.00
G01 Z-0.8000
G01 F120.00
G01 X102.6461 Y13.6716 F120.00
G01 X102.6346 Y13.5939 F120.00
G01 X102.6156 Y13.5178 F120.00
G01 X102.5891 Y13.4439 F120.00
G01 X102.5555 Y13.3729 F120.00
G01 X102.5152 Y13.3055 F120.00
G01 X102.4684 Y13.2425 F120.00
G01 X102.4157 Y13.1843 F120.00
G01 X102.3575 Y13.1316 F120.00
G01 X102.2945 Y13.0848 F120.00
G01 X102.2271 Y13.0445 F120.00
G01 X102.1561 Y13.0109 F120.00
G01 X102.0822 Y12.9844 F120.00
G01 X102.0061 Y12.9654 F120.00
G01 X101.9284 Y12.9539 F120.00
G01 X101.8500 Y12.9500 F120.00
G01 X101.7716 Y12.9539 F120.00
G01 X101.6939 Y12.9654 F120.00
G01 X101.6178 Y12.9844 F120.00
G01 X101.5439 Y13.0109 F120.00
G01 X101.4729 Y13.0445 F120.00
G01 X101.4055 Y13.0848 F120.00
G01 X101.3425 Y13.1316 F120.00
G01 X101.2843 Y13.1843 F120.00
G01 X101.2316 Y13.2425 F120.00
G01 X101.1848 Y13.3055 F120.00
G01 X101.1445 Y13.3729 F120.00
G01 X101.1109 Y13.4439 F120.00
G01 X101.0844 Y13.5178 F120.00
G01 X101.0654 Y13.5939 F120.00
G01 X101.0539 Y13.6716 F120.00
G01 X101.0500 Y13.7500 F120.00
G01 X101.0539 Y13.8284 F120.00
G01 X101.0654 Y13.9061 F120.00
G01 X101.0844 Y13.9822 F120.00
G01 X101.1109 Y14.0561 F120.00
G01 X101.1445 Y14.1271 F120.00
G01 X101.1848 Y14.1945 F120.00
G01 X101.2316 Y14.2575 F120.00
G01 X101.2843 Y14.3157 F120.00
G01 X101.3425 Y14.3684 F120.00
G01 X101.4055 Y14.4152 F120.00
G01 X101.4729 Y14.4555 F120.00
G01 X101.5439 Y14.4891 F120.00
G01 X101.6178 Y14.5156 F120.00
G01 X101.6939 Y14.5346 F120.00
G01 X101.7716 Y14.5461 F120.00
G01 X101.8500 Y14.5500 F120.00
G01 X101.9284 Y14.5461 F120.00
G01 X102.0061 Y14.5346 F120.00
G01 X102.0822 Y14.5156 F120.00
G01 X102.1561 Y14.4891 F120.00
G01 X102.2271 Y14.4555 F120.00
G01 X102.2945 Y14.4152 F120.00
G01 X102.3575 Y14.3684 F120.00
G01 X102.4157 Y14.3157 F120.00
G01 X102.4684 Y14.2575 F120.00
G01 X102.5152 Y14.1945 F120.00
G01 X102.5555 Y14.1271 F120.00
G01 X102.5891 Y14.0561 F120.00
G01 X102.6156 Y13.9822 F120.00
G01 X102.6346 Y13.9061 F120.00
G01 X102.6461 Y13.8284 F120.00
G01 X102.6500 Y13.7500 F120.00
G00 X102.6500 Y13.7500
G01 F60.00
G01 Z-1.2000
G01 F120.00
G01 X102.6461 Y13.6716 F120.00
G01 X102.6346 Y13.5939 F120.00
G01 X102.6156 Y13.5178 F120.00
G01 X102.5891 Y13.4439 F120.00
G01 X102.5555 Y13.3729 F120.00
G01 X102.5152 Y13.3055 F120.00
G01 X102.4684 Y13.2425 F120.00
G01 X102.4157 Y13.1843 F120.00
G01 X102.3575 Y13.1316 F120.00
G01 X102.2945 Y13.0848 F120.00
G01 X102.2271 Y13.0445 F120.00
G01 X102.1561 Y13.0109 F120.00
G01 X102.0822 Y12.9844 F120.00
G01 X102.0061 Y12.9654 F120.00
G01 X101.9284 Y12.9539 F120.00
G01 X101.8500 Y12.9500 F120.00
G01 X101.7716 Y12.9539 F120.00
G01 X101.6939 Y12.9654 F120.00
G01 X101.6178 Y12.9844 F120.00
G01 X101.5439 Y13.0109 F120.00
G01 X101.4729 Y13.0445 F120.00
G01 X101.4055 Y13.0848 F120.00
G01 X101.3425 Y13.1316 F120.00
G01 X101.2843 Y13.1843 F120.00
G01 X101.2316 Y13.2425 F120.00
G01 X101.1848 Y13.3055 F120.00
G01 X101.1445 Y13.3729 F120.00
G01 X101.1109 Y13.4439 F120.00
G01 X101.0844 Y13.5178 F120.00
G01 X101.0654 Y13.5939 F120.00
G01 X101.0539 Y13.6716 F120.00
G01 X101.0500 Y13.7500 F120.00
G01 X101.0539 Y13.8284 F120.00
G01 X101.0654 Y13.9061 F120.00
G01 X101.0844 Y13.9822 F120.00
G01 X101.1109 Y14.0561 F120.00
G01 X101.1445 Y14.1271 F120.00
G01 X101.1848 Y14.1945 F120.00
G01 X101.2316 Y14.2575 F120.00
G01 X101.2843 Y14.3157 F120.00
G01 X101.3425 Y14.3684 F120.00
G01 X101.4055 Y14.4152 F120.00
G01 X101.4729 Y14.4555 F120.00
G01 X101.5439 Y14.4891 F120.00
G01 X101.6178 Y14.5156 F120.00
G01 X101.6939 Y14.5346 F120.00
G01 X101.7716 Y14.5461 F120.00
G01 X101.8500 Y14.5500 F120.00
G01 X101.9284 Y14.5461 F120.00
G01 X102.0061 Y14.5346 F120.00
G01 X102.0822 Y14.5156 F120.00
G01 X102.1561 Y14.4891 F120.00
G01 X102.2271 Y14.4555 F120.00
G01 X102.2945 Y14.4152 F120.00
G01 X102.3575 Y14.3684 F120.00
G01 X102.4157 Y14.3157 F120.00
G01 X102.4684 Y14.2575 F120.00
G01 X102.5152 Y14.1945 F120.00
G01 X102.5555 Y14.1271 F120.00
G01 X102.5891 Y14.0561 F120.00
G01 X102.6156 Y13.9822 F120.00
G01 X102.6346 Y13.9061 F120.00
G01 X102.6461 Y13.8284 F120.00
G01 X102.6500 Y13.7500 F120.00
G00 X102.6500 Y13.7500
G01 F60.00
G01 Z-1.6000
G01 F120.00
G01 X102.6461 Y13.6716 F120.00
G01 X102.6346 Y13.5939 F120.00
G01 X102.6156 Y13.5178 F120.00
G01 X102.5891 Y13.4439 F120.00
G01 X102.5555 Y13.3729 F120.00
G01 X102.5152 Y13.3055 F120.00
G01 X102.4684 Y13.2425 F120.00
G01 X102.4157 Y13.1843 F120.00
G01 X102.3575 Y13.1316 F120.00
G01 X102.2945 Y13.0848 F120.00
G01 X102.2271 Y13.0445 F120.00
G01 X102.1561 Y13.0109 F120.00
G01 X102.0822 Y12.9844 F120.00
G01 X102.0061 Y12.9654 F120.00
G01 X101.9284 Y12.9539 F120.00
G01 X101.8500 Y12.9500 F120.00
G01 X101.7716 Y12.9539 F120.00
G01 X101.6939 Y12.9654 F120.00
G01 X101.6178 Y12.9844 F120.00
G01 X101.5439 Y13.0109 F120.00
G01 X101.4729 Y13.0445 F120.00
G01 X101.4055 Y13.0848 F120.00
G01 X101.3425 Y13.1316 F120.00
G01 X101.2843 Y13.1843 F120.00
G01 X101.2316 Y13.2425 F120.00
G01 X101.1848 Y13.3055 F120.00
G01 X101.1445 Y13.3729 F120.00
G01 X101.1109 Y13.4439 F120.00
G01 X101.0844 Y13.5178 F120.00
G01 X101.0654 Y13.5939 F120.00
G01 X101.0539 Y13.6716 F120.00
G01 X101.0500 Y13.7500 F120.00
G01 X101.0539 Y13.8284 F120.00
G01 X101.0654 Y13.9061 F120.00
G01 X101.0844 Y13.9822 F120.00
G01 X101.1109 Y14.0561 F120.00
G01 X101.1445 Y14.1271 F120.00
G01 X101.1848 Y14.1945 F120.00
G01 X101.2316 Y14.2575 F120.00
G01 X101.2843 Y14.3157 F120.00
G01 X101.3425 Y14.3684 F120.00
G01 X101.4055 Y14.4152 F120.00
G01 X101.4729 Y14.4555 F120.00
G01 X101.5439 Y14.4891 F120.00
G01 X101.6178 Y14.5156 F120.00
G01 X101.6939 Y14.5346 F120.00
G01 X101.7716 Y14.5461 F120.00
G01 X101.8500 Y14.5500 F120.00
G01 X101.9284 Y14.5461 F120.00
G01 X102.0061 Y14.5346 F120.00
G01 X102.0822 Y14.5156 F120.00
G01 X102.1561 Y14.4891 F120.00
G01 X102.2271 Y14.4555 F120.00
G01 X102.2945 Y14.4152 F120.00
G01 X102.3575 Y14.3684 F120.00
G01 X102.4157 Y14.3157 F120.00
G01 X102.4684 Y14.2575 F120.00
G01 X102.5152 Y14.1945 F120.00
G01 X102.5555 Y14.1271 F120.00
G01 X102.5891 Y14.0561 F120.00
G01 X102.6156 Y13.9822 F120.00
G01 X102.6346 Y13.9061 F120.00
G01 X102.6461 Y13.8284 F120.00
G01 X102.6500 Y13.7500 F120.00
G00 X102.6500 Y13.7500
G01 F60.00
G01 Z-2.0000
G01 F120.00
G01 X102.6461 Y13.6716 F120.00
G01 X102.6346 Y13.5939 F120.00
G01 X102.6156 Y13.5178 F120.00
G01 X102.5891 Y13.4439 F120.00
G01 X102.5555 Y13.3729 F120.00
G01 X102.5152 Y13.3055 F120.00
G01 X102.4684 Y13.2425 F120.00
G01 X102.4157 Y13.1843 F120.00
G01 X102.3575 Y13.1316 F120.00
G01 X102.2945 Y13.0848 F120.00
G01 X102.2271 Y13.0445 F120.00
G01 X102.1561 Y13.0109 F120.00
G01 X102.0822 Y12.9844 F120.00
G01 X102.0061 Y12.9654 F120.00
G01 X101.9284 Y12.9539 F120.00
G01 X101.8500 Y12.9500 F120.00
G01 X101.7716 Y12.9539 F120.00
G01 X101.6939 Y12.9654 F120.00
G01 X101.6178 Y12.9844 F120.00
G01 X101.5439 Y13.0109 F120.00
G01 X101.4729 Y13.0445 F120.00
G01 X101.4055 Y13.0848 F120.00
G01 X101.3425 Y13.1316 F120.00
G01 X101.2843 Y13.1843 F120.00
G01 X101.2316 Y13.2425 F120.00
G01 X101.1848 Y13.3055 F120.00
G01 X101.1445 Y13.3729 F120.00
G01 X101.1109 Y13.4439 F120.00
G01 X101.0844 Y13.5178 F120.00
G01 X101.0654 Y13.5939 F120.00
G01 X101.0539 Y13.6716 F120.00
G01 X101.0500 Y13.7500 F120.00
G01 X101.0539 Y13.8284 F120.00
G01 X101.0654 Y13.9061 F120.00
G01 X101.0844 Y13.9822 F120.00
G01 X101.1109 Y14.0561 F120.00
G01 X101.1445 Y14.1271 F120.00
G01 X101.1848 Y14.1945 F120.00
G01 X101.2316 Y14.2575 F120.00
G01 X101.2843 Y14.3157 F120.00
G01 X101.3425 Y14.3684 F120.00
G01 X101.4055 Y14.4152 F120.00
G01 X101.4729 Y14.4555 F120.00
G01 X101.5439 Y14.4891 F120.00
G01 X101.6178 Y14.5156 F120.00
G01 X101.6939 Y14.5346 F120.00
G01 X101.7716 Y14.5461 F120.00
G01 X101.8500 Y14.5500 F120.00
G01 X101.9284 Y14.5461 F120.00
G01 X102.0061 Y14.5346 F120.00
G01 X102.0822 Y14.5156 F120.00
G01 X102.1561 Y14.4891 F120.00
G01 X102.2271 Y14.4555 F120.00
G01 X102.2945 Y14.4152 F120.00
G01 X102.3575 Y14.3684 F120.00
G01 X102.4157 Y14.3157 F120.00
G01 X102.4684 Y14.2575 F120.00
G01 X102.5152 Y14.1945 F120.00
G01 X102.5555 Y14.1271 F120.00
G01 X102.5891 Y14.0561 F120.00
G01 X102.6156 Y13.9822 F120.00
G01 X102.6346 Y13.9061 F120.00
G01 X102.6461 Y13.8284 F120.00
G01 X102.6500 Y13.7500 F120.00
G00 X102.6500 Y13.7500
G01 F60.00
G01 Z-2.4000
G01 F120.00
G01 X102.6461 Y13.6716 F120.00
G01 X102.6346 Y13.5939 F120.00
G01 X102.6156 Y13.5178 F120.00
G01 X102.5891 Y13.4439 F120.00
G01 X102.5555 Y13.3729 F120.00
G01 X102.5152 Y13.3055 F120.00
G01 X102.4684 Y13.2425 F120.00
G01 X102.4157 Y13.1843 F120.00
G01 X102.3575 Y13.1316 F120.00
G01 X102.2945 Y13.0848 F120.00
G01 X102.2271 Y13.0445 F120.00
G01 X102.1561 Y13.0109 F120.00
G01 X102.0822 Y12.9844 F120.00
G01 X102.0061 Y12.9654 F120.00
G01 X101.9284 Y12.9539 F120.00
G01 X101.8500 Y12.9500 F120.00
G01 X101.7716 Y12.9539 F120.00
G01 X101.6939 Y12.9654 F120.00
G01 X101.6178 Y12.9844 F120.00
G01 X101.5439 Y13.0109 F120.00
G01 X101.4729 Y13.0445 F120.00
G01 X101.4055 Y13.0848 F120.00
G01 X101.3425 Y13.1316 F120.00
G01 X101.2843 Y13.1843 F120.00
G01 X101.2316 Y13.2425 F120.00
G01 X101.1848 Y13.3055 F120.00
G01 X101.1445 Y13.3729 F120.00
G01 X101.1109 Y13.4439 F120.00
G01 X101.0844 Y13.5178 F120.00
G01 X101.0654 Y13.5939 F120.00
G01 X101.0539 Y13.6716 F120.00
G01 X101.0500 Y13.7500 F120.00
G01 X101.0539 Y13.8284 F120.00
G01 X101.0654 Y13.9061 F120.00
G01 X101.0844 Y13.9822 F120.00
G01 X101.1109 Y14.0561 F120.00
G01 X101.1445 Y14.1271 F120.00
G01 X101.1848 Y14.1945 F120.00
G01 X101.2316 Y14.2575 F120.00
G01 X101.2843 Y14.3157 F120.00
G01 X101.3425 Y14.3684 F120.00
G01 X101.4055 Y14.4152 F120.00
G01 X101.4729 Y14.4555 F120.00
G01 X101.5439 Y14.4891 F120.00
G01 X101.6178 Y14.5156 F120.00
G01 X101.6939 Y14.5346 F120.00
G01 X101.7716 Y14.5461 F120.00
G01 X101.8500 Y14.5500 F120.00
G01 X101.9284 Y14.5461 F120.00
G01 X102.0061 Y14.5346 F120.00
G01 X102.0822 Y14.5156 F120.00
G01 X102.1561 Y14.4891 F120.00
G01 X102.2271 Y14.4555 F120.00
G01 X102.2945 Y14.4152 F120.00
G01 X102.3575 Y14.3684 F120.00
G01 X102.4157 Y14.3157 F120.00
G01 X102.4684 Y14.2575 F120.00
G01 X102.5152 Y14.1945 F120.00
G01 X102.5555 Y14.1271 F120.00
G01 X102.5891 Y14.0561 F120.00
G01 X102.6156 Y13.9822 F120.00
G01 X102.6346 Y13.9061 F120.00
G01 X102.6461 Y13.8284 F120.00
G01 X102.6500 Y13.7500 F120.00
G00 Z2.0000
M05
G00 Z2.0000
G00 Z7.00


