(G-CODE GENERATED BY FLATCAM v8.994 - www.flatcam.org - Version Date: 2020/11/7)

(Name: Encoders-LCD.drl_edit_mill_cnc)
(Type: G-code from Geometry)
(Units: MM)

(Created on Tuesday, 11 February 2025 at 21:39)

(This preprocessor is used with a motion controller loaded with GRBL firmware.)
(It is configured to be compatible with almost any version of GRBL firmware.)

(TOOL DIAMETER: 1.0 mm)
(Feedrate_XY: 120.0 mm/min)
(Feedrate_Z: 60.0 mm/min)
(Feedrate rapids 1500.0 mm/min)

(Z_Cut: -1.7999999999999994 mm)
(DepthPerCut: 0.10000000000000014 mm <=>18 passes)
(Z_Move: 2.0 mm)
(Z Start: None mm)
(Z End: 15.0 mm)
(X,Y End: None mm)
(Steps per circle: 64)
(Steps per circle: 64)
(Preprocessor Geometry: GRBL_11_no_M6)

(X range:  -45.1000 ...   45.1000  mm)
(Y range:  -33.1000 ...   33.1000  mm)

(Spindle Speed: 900.0 RPM)
G21
G90
G17
G94


G01 F120.00

M5             
G00 Z15.0000
G00 X0.0000 Y0.0000                
T1
(MSG, Change to Tool Dia = 1.0000)
M0
G00 Z15.0000
        
M03 S900.0
G01 F120.00
G00 X-4.7500 Y23.1000
G01 F60.00
G01 Z-0.1000
G01 F120.00
G01 X-4.7539 Y23.0216 F120.00
G01 X-4.7654 Y22.9439 F120.00
G01 X-4.7844 Y22.8678 F120.00
G01 X-4.8109 Y22.7939 F120.00
G01 X-4.8445 Y22.7229 F120.00
G01 X-4.8848 Y22.6555 F120.00
G01 X-4.9316 Y22.5925 F120.00
G01 X-4.9843 Y22.5343 F120.00
G01 X-5.0425 Y22.4816 F120.00
G01 X-5.1055 Y22.4348 F120.00
G01 X-5.1729 Y22.3945 F120.00
G01 X-5.2439 Y22.3609 F120.00
G01 X-5.3178 Y22.3344 F120.00
G01 X-5.3939 Y22.3154 F120.00
G01 X-5.4716 Y22.3039 F120.00
G01 X-5.5500 Y22.3000 F120.00
G01 X-5.6284 Y22.3039 F120.00
G01 X-5.7061 Y22.3154 F120.00
G01 X-5.7822 Y22.3344 F120.00
G01 X-5.8561 Y22.3609 F120.00
G01 X-5.9271 Y22.3945 F120.00
G01 X-5.9945 Y22.4348 F120.00
G01 X-6.0575 Y22.4816 F120.00
G01 X-6.1157 Y22.5343 F120.00
G01 X-6.1684 Y22.5925 F120.00
G01 X-6.2152 Y22.6555 F120.00
G01 X-6.2555 Y22.7229 F120.00
G01 X-6.2891 Y22.7939 F120.00
G01 X-6.3156 Y22.8678 F120.00
G01 X-6.3346 Y22.9439 F120.00
G01 X-6.3461 Y23.0216 F120.00
G01 X-6.3500 Y23.1000 F120.00
G01 X-6.3461 Y23.1784 F120.00
G01 X-6.3346 Y23.2561 F120.00
G01 X-6.3156 Y23.3322 F120.00
G01 X-6.2891 Y23.4061 F120.00
G01 X-6.2555 Y23.4771 F120.00
G01 X-6.2152 Y23.5445 F120.00
G01 X-6.1684 Y23.6075 F120.00
G01 X-6.1157 Y23.6657 F120.00
G01 X-6.0575 Y23.7184 F120.00
G01 X-5.9945 Y23.7652 F120.00
G01 X-5.9271 Y23.8055 F120.00
G01 X-5.8561 Y23.8391 F120.00
G01 X-5.7822 Y23.8656 F120.00
G01 X-5.7061 Y23.8846 F120.00
G01 X-5.6284 Y23.8961 F120.00
G01 X-5.5500 Y23.9000 F120.00
G01 X-5.4716 Y23.8961 F120.00
G01 X-5.3939 Y23.8846 F120.00
G01 X-5.3178 Y23.8656 F120.00
G01 X-5.2439 Y23.8391 F120.00
G01 X-5.1729 Y23.8055 F120.00
G01 X-5.1055 Y23.7652 F120.00
G01 X-5.0425 Y23.7184 F120.00
G01 X-4.9843 Y23.6657 F120.00
G01 X-4.9316 Y23.6075 F120.00
G01 X-4.8848 Y23.5445 F120.00
G01 X-4.8445 Y23.4771 F120.00
G01 X-4.8109 Y23.4061 F120.00
G01 X-4.7844 Y23.3322 F120.00
G01 X-4.7654 Y23.2561 F120.00
G01 X-4.7539 Y23.1784 F120.00
G01 X-4.7500 Y23.1000 F120.00
G00 X-4.7500 Y23.1000
G01 F60.00
G01 Z-0.2000
G01 F120.00
G01 X-4.7539 Y23.0216 F120.00
G01 X-4.7654 Y22.9439 F120.00
G01 X-4.7844 Y22.8678 F120.00
G01 X-4.8109 Y22.7939 F120.00
G01 X-4.8445 Y22.7229 F120.00
G01 X-4.8848 Y22.6555 F120.00
G01 X-4.9316 Y22.5925 F120.00
G01 X-4.9843 Y22.5343 F120.00
G01 X-5.0425 Y22.4816 F120.00
G01 X-5.1055 Y22.4348 F120.00
G01 X-5.1729 Y22.3945 F120.00
G01 X-5.2439 Y22.3609 F120.00
G01 X-5.3178 Y22.3344 F120.00
G01 X-5.3939 Y22.3154 F120.00
G01 X-5.4716 Y22.3039 F120.00
G01 X-5.5500 Y22.3000 F120.00
G01 X-5.6284 Y22.3039 F120.00
G01 X-5.7061 Y22.3154 F120.00
G01 X-5.7822 Y22.3344 F120.00
G01 X-5.8561 Y22.3609 F120.00
G01 X-5.9271 Y22.3945 F120.00
G01 X-5.9945 Y22.4348 F120.00
G01 X-6.0575 Y22.4816 F120.00
G01 X-6.1157 Y22.5343 F120.00
G01 X-6.1684 Y22.5925 F120.00
G01 X-6.2152 Y22.6555 F120.00
G01 X-6.2555 Y22.7229 F120.00
G01 X-6.2891 Y22.7939 F120.00
G01 X-6.3156 Y22.8678 F120.00
G01 X-6.3346 Y22.9439 F120.00
G01 X-6.3461 Y23.0216 F120.00
G01 X-6.3500 Y23.1000 F120.00
G01 X-6.3461 Y23.1784 F120.00
G01 X-6.3346 Y23.2561 F120.00
G01 X-6.3156 Y23.3322 F120.00
G01 X-6.2891 Y23.4061 F120.00
G01 X-6.2555 Y23.4771 F120.00
G01 X-6.2152 Y23.5445 F120.00
G01 X-6.1684 Y23.6075 F120.00
G01 X-6.1157 Y23.6657 F120.00
G01 X-6.0575 Y23.7184 F120.00
G01 X-5.9945 Y23.7652 F120.00
G01 X-5.9271 Y23.8055 F120.00
G01 X-5.8561 Y23.8391 F120.00
G01 X-5.7822 Y23.8656 F120.00
G01 X-5.7061 Y23.8846 F120.00
G01 X-5.6284 Y23.8961 F120.00
G01 X-5.5500 Y23.9000 F120.00
G01 X-5.4716 Y23.8961 F120.00
G01 X-5.3939 Y23.8846 F120.00
G01 X-5.3178 Y23.8656 F120.00
G01 X-5.2439 Y23.8391 F120.00
G01 X-5.1729 Y23.8055 F120.00
G01 X-5.1055 Y23.7652 F120.00
G01 X-5.0425 Y23.7184 F120.00
G01 X-4.9843 Y23.6657 F120.00
G01 X-4.9316 Y23.6075 F120.00
G01 X-4.8848 Y23.5445 F120.00
G01 X-4.8445 Y23.4771 F120.00
G01 X-4.8109 Y23.4061 F120.00
G01 X-4.7844 Y23.3322 F120.00
G01 X-4.7654 Y23.2561 F120.00
G01 X-4.7539 Y23.1784 F120.00
G01 X-4.7500 Y23.1000 F120.00
G00 X-4.7500 Y23.1000
G01 F60.00
G01 Z-0.3000
G01 F120.00
G01 X-4.7539 Y23.0216 F120.00
G01 X-4.7654 Y22.9439 F120.00
G01 X-4.7844 Y22.8678 F120.00
G01 X-4.8109 Y22.7939 F120.00
G01 X-4.8445 Y22.7229 F120.00
G01 X-4.8848 Y22.6555 F120.00
G01 X-4.9316 Y22.5925 F120.00
G01 X-4.9843 Y22.5343 F120.00
G01 X-5.0425 Y22.4816 F120.00
G01 X-5.1055 Y22.4348 F120.00
G01 X-5.1729 Y22.3945 F120.00
G01 X-5.2439 Y22.3609 F120.00
G01 X-5.3178 Y22.3344 F120.00
G01 X-5.3939 Y22.3154 F120.00
G01 X-5.4716 Y22.3039 F120.00
G01 X-5.5500 Y22.3000 F120.00
G01 X-5.6284 Y22.3039 F120.00
G01 X-5.7061 Y22.3154 F120.00
G01 X-5.7822 Y22.3344 F120.00
G01 X-5.8561 Y22.3609 F120.00
G01 X-5.9271 Y22.3945 F120.00
G01 X-5.9945 Y22.4348 F120.00
G01 X-6.0575 Y22.4816 F120.00
G01 X-6.1157 Y22.5343 F120.00
G01 X-6.1684 Y22.5925 F120.00
G01 X-6.2152 Y22.6555 F120.00
G01 X-6.2555 Y22.7229 F120.00
G01 X-6.2891 Y22.7939 F120.00
G01 X-6.3156 Y22.8678 F120.00
G01 X-6.3346 Y22.9439 F120.00
G01 X-6.3461 Y23.0216 F120.00
G01 X-6.3500 Y23.1000 F120.00
G01 X-6.3461 Y23.1784 F120.00
G01 X-6.3346 Y23.2561 F120.00
G01 X-6.3156 Y23.3322 F120.00
G01 X-6.2891 Y23.4061 F120.00
G01 X-6.2555 Y23.4771 F120.00
G01 X-6.2152 Y23.5445 F120.00
G01 X-6.1684 Y23.6075 F120.00
G01 X-6.1157 Y23.6657 F120.00
G01 X-6.0575 Y23.7184 F120.00
G01 X-5.9945 Y23.7652 F120.00
G01 X-5.9271 Y23.8055 F120.00
G01 X-5.8561 Y23.8391 F120.00
G01 X-5.7822 Y23.8656 F120.00
G01 X-5.7061 Y23.8846 F120.00
G01 X-5.6284 Y23.8961 F120.00
G01 X-5.5500 Y23.9000 F120.00
G01 X-5.4716 Y23.8961 F120.00
G01 X-5.3939 Y23.8846 F120.00
G01 X-5.3178 Y23.8656 F120.00
G01 X-5.2439 Y23.8391 F120.00
G01 X-5.1729 Y23.8055 F120.00
G01 X-5.1055 Y23.7652 F120.00
G01 X-5.0425 Y23.7184 F120.00
G01 X-4.9843 Y23.6657 F120.00
G01 X-4.9316 Y23.6075 F120.00
G01 X-4.8848 Y23.5445 F120.00
G01 X-4.8445 Y23.4771 F120.00
G01 X-4.8109 Y23.4061 F120.00
G01 X-4.7844 Y23.3322 F120.00
G01 X-4.7654 Y23.2561 F120.00
G01 X-4.7539 Y23.1784 F120.00
G01 X-4.7500 Y23.1000 F120.00
G00 X-4.7500 Y23.1000
G01 F60.00
G01 Z-0.4000
G01 F120.00
G01 X-4.7539 Y23.0216 F120.00
G01 X-4.7654 Y22.9439 F120.00
G01 X-4.7844 Y22.8678 F120.00
G01 X-4.8109 Y22.7939 F120.00
G01 X-4.8445 Y22.7229 F120.00
G01 X-4.8848 Y22.6555 F120.00
G01 X-4.9316 Y22.5925 F120.00
G01 X-4.9843 Y22.5343 F120.00
G01 X-5.0425 Y22.4816 F120.00
G01 X-5.1055 Y22.4348 F120.00
G01 X-5.1729 Y22.3945 F120.00
G01 X-5.2439 Y22.3609 F120.00
G01 X-5.3178 Y22.3344 F120.00
G01 X-5.3939 Y22.3154 F120.00
G01 X-5.4716 Y22.3039 F120.00
G01 X-5.5500 Y22.3000 F120.00
G01 X-5.6284 Y22.3039 F120.00
G01 X-5.7061 Y22.3154 F120.00
G01 X-5.7822 Y22.3344 F120.00
G01 X-5.8561 Y22.3609 F120.00
G01 X-5.9271 Y22.3945 F120.00
G01 X-5.9945 Y22.4348 F120.00
G01 X-6.0575 Y22.4816 F120.00
G01 X-6.1157 Y22.5343 F120.00
G01 X-6.1684 Y22.5925 F120.00
G01 X-6.2152 Y22.6555 F120.00
G01 X-6.2555 Y22.7229 F120.00
G01 X-6.2891 Y22.7939 F120.00
G01 X-6.3156 Y22.8678 F120.00
G01 X-6.3346 Y22.9439 F120.00
G01 X-6.3461 Y23.0216 F120.00
G01 X-6.3500 Y23.1000 F120.00
G01 X-6.3461 Y23.1784 F120.00
G01 X-6.3346 Y23.2561 F120.00
G01 X-6.3156 Y23.3322 F120.00
G01 X-6.2891 Y23.4061 F120.00
G01 X-6.2555 Y23.4771 F120.00
G01 X-6.2152 Y23.5445 F120.00
G01 X-6.1684 Y23.6075 F120.00
G01 X-6.1157 Y23.6657 F120.00
G01 X-6.0575 Y23.7184 F120.00
G01 X-5.9945 Y23.7652 F120.00
G01 X-5.9271 Y23.8055 F120.00
G01 X-5.8561 Y23.8391 F120.00
G01 X-5.7822 Y23.8656 F120.00
G01 X-5.7061 Y23.8846 F120.00
G01 X-5.6284 Y23.8961 F120.00
G01 X-5.5500 Y23.9000 F120.00
G01 X-5.4716 Y23.8961 F120.00
G01 X-5.3939 Y23.8846 F120.00
G01 X-5.3178 Y23.8656 F120.00
G01 X-5.2439 Y23.8391 F120.00
G01 X-5.1729 Y23.8055 F120.00
G01 X-5.1055 Y23.7652 F120.00
G01 X-5.0425 Y23.7184 F120.00
G01 X-4.9843 Y23.6657 F120.00
G01 X-4.9316 Y23.6075 F120.00
G01 X-4.8848 Y23.5445 F120.00
G01 X-4.8445 Y23.4771 F120.00
G01 X-4.8109 Y23.4061 F120.00
G01 X-4.7844 Y23.3322 F120.00
G01 X-4.7654 Y23.2561 F120.00
G01 X-4.7539 Y23.1784 F120.00
G01 X-4.7500 Y23.1000 F120.00
G00 X-4.7500 Y23.1000
G01 F60.00
G01 Z-0.5000
G01 F120.00
G01 X-4.7539 Y23.0216 F120.00
G01 X-4.7654 Y22.9439 F120.00
G01 X-4.7844 Y22.8678 F120.00
G01 X-4.8109 Y22.7939 F120.00
G01 X-4.8445 Y22.7229 F120.00
G01 X-4.8848 Y22.6555 F120.00
G01 X-4.9316 Y22.5925 F120.00
G01 X-4.9843 Y22.5343 F120.00
G01 X-5.0425 Y22.4816 F120.00
G01 X-5.1055 Y22.4348 F120.00
G01 X-5.1729 Y22.3945 F120.00
G01 X-5.2439 Y22.3609 F120.00
G01 X-5.3178 Y22.3344 F120.00
G01 X-5.3939 Y22.3154 F120.00
G01 X-5.4716 Y22.3039 F120.00
G01 X-5.5500 Y22.3000 F120.00
G01 X-5.6284 Y22.3039 F120.00
G01 X-5.7061 Y22.3154 F120.00
G01 X-5.7822 Y22.3344 F120.00
G01 X-5.8561 Y22.3609 F120.00
G01 X-5.9271 Y22.3945 F120.00
G01 X-5.9945 Y22.4348 F120.00
G01 X-6.0575 Y22.4816 F120.00
G01 X-6.1157 Y22.5343 F120.00
G01 X-6.1684 Y22.5925 F120.00
G01 X-6.2152 Y22.6555 F120.00
G01 X-6.2555 Y22.7229 F120.00
G01 X-6.2891 Y22.7939 F120.00
G01 X-6.3156 Y22.8678 F120.00
G01 X-6.3346 Y22.9439 F120.00
G01 X-6.3461 Y23.0216 F120.00
G01 X-6.3500 Y23.1000 F120.00
G01 X-6.3461 Y23.1784 F120.00
G01 X-6.3346 Y23.2561 F120.00
G01 X-6.3156 Y23.3322 F120.00
G01 X-6.2891 Y23.4061 F120.00
G01 X-6.2555 Y23.4771 F120.00
G01 X-6.2152 Y23.5445 F120.00
G01 X-6.1684 Y23.6075 F120.00
G01 X-6.1157 Y23.6657 F120.00
G01 X-6.0575 Y23.7184 F120.00
G01 X-5.9945 Y23.7652 F120.00
G01 X-5.9271 Y23.8055 F120.00
G01 X-5.8561 Y23.8391 F120.00
G01 X-5.7822 Y23.8656 F120.00
G01 X-5.7061 Y23.8846 F120.00
G01 X-5.6284 Y23.8961 F120.00
G01 X-5.5500 Y23.9000 F120.00
G01 X-5.4716 Y23.8961 F120.00
G01 X-5.3939 Y23.8846 F120.00
G01 X-5.3178 Y23.8656 F120.00
G01 X-5.2439 Y23.8391 F120.00
G01 X-5.1729 Y23.8055 F120.00
G01 X-5.1055 Y23.7652 F120.00
G01 X-5.0425 Y23.7184 F120.00
G01 X-4.9843 Y23.6657 F120.00
G01 X-4.9316 Y23.6075 F120.00
G01 X-4.8848 Y23.5445 F120.00
G01 X-4.8445 Y23.4771 F120.00
G01 X-4.8109 Y23.4061 F120.00
G01 X-4.7844 Y23.3322 F120.00
G01 X-4.7654 Y23.2561 F120.00
G01 X-4.7539 Y23.1784 F120.00
G01 X-4.7500 Y23.1000 F120.00
G00 X-4.7500 Y23.1000
G01 F60.00
G01 Z-0.6000
G01 F120.00
G01 X-4.7539 Y23.0216 F120.00
G01 X-4.7654 Y22.9439 F120.00
G01 X-4.7844 Y22.8678 F120.00
G01 X-4.8109 Y22.7939 F120.00
G01 X-4.8445 Y22.7229 F120.00
G01 X-4.8848 Y22.6555 F120.00
G01 X-4.9316 Y22.5925 F120.00
G01 X-4.9843 Y22.5343 F120.00
G01 X-5.0425 Y22.4816 F120.00
G01 X-5.1055 Y22.4348 F120.00
G01 X-5.1729 Y22.3945 F120.00
G01 X-5.2439 Y22.3609 F120.00
G01 X-5.3178 Y22.3344 F120.00
G01 X-5.3939 Y22.3154 F120.00
G01 X-5.4716 Y22.3039 F120.00
G01 X-5.5500 Y22.3000 F120.00
G01 X-5.6284 Y22.3039 F120.00
G01 X-5.7061 Y22.3154 F120.00
G01 X-5.7822 Y22.3344 F120.00
G01 X-5.8561 Y22.3609 F120.00
G01 X-5.9271 Y22.3945 F120.00
G01 X-5.9945 Y22.4348 F120.00
G01 X-6.0575 Y22.4816 F120.00
G01 X-6.1157 Y22.5343 F120.00
G01 X-6.1684 Y22.5925 F120.00
G01 X-6.2152 Y22.6555 F120.00
G01 X-6.2555 Y22.7229 F120.00
G01 X-6.2891 Y22.7939 F120.00
G01 X-6.3156 Y22.8678 F120.00
G01 X-6.3346 Y22.9439 F120.00
G01 X-6.3461 Y23.0216 F120.00
G01 X-6.3500 Y23.1000 F120.00
G01 X-6.3461 Y23.1784 F120.00
G01 X-6.3346 Y23.2561 F120.00
G01 X-6.3156 Y23.3322 F120.00
G01 X-6.2891 Y23.4061 F120.00
G01 X-6.2555 Y23.4771 F120.00
G01 X-6.2152 Y23.5445 F120.00
G01 X-6.1684 Y23.6075 F120.00
G01 X-6.1157 Y23.6657 F120.00
G01 X-6.0575 Y23.7184 F120.00
G01 X-5.9945 Y23.7652 F120.00
G01 X-5.9271 Y23.8055 F120.00
G01 X-5.8561 Y23.8391 F120.00
G01 X-5.7822 Y23.8656 F120.00
G01 X-5.7061 Y23.8846 F120.00
G01 X-5.6284 Y23.8961 F120.00
G01 X-5.5500 Y23.9000 F120.00
G01 X-5.4716 Y23.8961 F120.00
G01 X-5.3939 Y23.8846 F120.00
G01 X-5.3178 Y23.8656 F120.00
G01 X-5.2439 Y23.8391 F120.00
G01 X-5.1729 Y23.8055 F120.00
G01 X-5.1055 Y23.7652 F120.00
G01 X-5.0425 Y23.7184 F120.00
G01 X-4.9843 Y23.6657 F120.00
G01 X-4.9316 Y23.6075 F120.00
G01 X-4.8848 Y23.5445 F120.00
G01 X-4.8445 Y23.4771 F120.00
G01 X-4.8109 Y23.4061 F120.00
G01 X-4.7844 Y23.3322 F120.00
G01 X-4.7654 Y23.2561 F120.00
G01 X-4.7539 Y23.1784 F120.00
G01 X-4.7500 Y23.1000 F120.00
G00 X-4.7500 Y23.1000
G01 F60.00
G01 Z-0.7000
G01 F120.00
G01 X-4.7539 Y23.0216 F120.00
G01 X-4.7654 Y22.9439 F120.00
G01 X-4.7844 Y22.8678 F120.00
G01 X-4.8109 Y22.7939 F120.00
G01 X-4.8445 Y22.7229 F120.00
G01 X-4.8848 Y22.6555 F120.00
G01 X-4.9316 Y22.5925 F120.00
G01 X-4.9843 Y22.5343 F120.00
G01 X-5.0425 Y22.4816 F120.00
G01 X-5.1055 Y22.4348 F120.00
G01 X-5.1729 Y22.3945 F120.00
G01 X-5.2439 Y22.3609 F120.00
G01 X-5.3178 Y22.3344 F120.00
G01 X-5.3939 Y22.3154 F120.00
G01 X-5.4716 Y22.3039 F120.00
G01 X-5.5500 Y22.3000 F120.00
G01 X-5.6284 Y22.3039 F120.00
G01 X-5.7061 Y22.3154 F120.00
G01 X-5.7822 Y22.3344 F120.00
G01 X-5.8561 Y22.3609 F120.00
G01 X-5.9271 Y22.3945 F120.00
G01 X-5.9945 Y22.4348 F120.00
G01 X-6.0575 Y22.4816 F120.00
G01 X-6.1157 Y22.5343 F120.00
G01 X-6.1684 Y22.5925 F120.00
G01 X-6.2152 Y22.6555 F120.00
G01 X-6.2555 Y22.7229 F120.00
G01 X-6.2891 Y22.7939 F120.00
G01 X-6.3156 Y22.8678 F120.00
G01 X-6.3346 Y22.9439 F120.00
G01 X-6.3461 Y23.0216 F120.00
G01 X-6.3500 Y23.1000 F120.00
G01 X-6.3461 Y23.1784 F120.00
G01 X-6.3346 Y23.2561 F120.00
G01 X-6.3156 Y23.3322 F120.00
G01 X-6.2891 Y23.4061 F120.00
G01 X-6.2555 Y23.4771 F120.00
G01 X-6.2152 Y23.5445 F120.00
G01 X-6.1684 Y23.6075 F120.00
G01 X-6.1157 Y23.6657 F120.00
G01 X-6.0575 Y23.7184 F120.00
G01 X-5.9945 Y23.7652 F120.00
G01 X-5.9271 Y23.8055 F120.00
G01 X-5.8561 Y23.8391 F120.00
G01 X-5.7822 Y23.8656 F120.00
G01 X-5.7061 Y23.8846 F120.00
G01 X-5.6284 Y23.8961 F120.00
G01 X-5.5500 Y23.9000 F120.00
G01 X-5.4716 Y23.8961 F120.00
G01 X-5.3939 Y23.8846 F120.00
G01 X-5.3178 Y23.8656 F120.00
G01 X-5.2439 Y23.8391 F120.00
G01 X-5.1729 Y23.8055 F120.00
G01 X-5.1055 Y23.7652 F120.00
G01 X-5.0425 Y23.7184 F120.00
G01 X-4.9843 Y23.6657 F120.00
G01 X-4.9316 Y23.6075 F120.00
G01 X-4.8848 Y23.5445 F120.00
G01 X-4.8445 Y23.4771 F120.00
G01 X-4.8109 Y23.4061 F120.00
G01 X-4.7844 Y23.3322 F120.00
G01 X-4.7654 Y23.2561 F120.00
G01 X-4.7539 Y23.1784 F120.00
G01 X-4.7500 Y23.1000 F120.00
G00 X-4.7500 Y23.1000
G01 F60.00
G01 Z-0.8000
G01 F120.00
G01 X-4.7539 Y23.0216 F120.00
G01 X-4.7654 Y22.9439 F120.00
G01 X-4.7844 Y22.8678 F120.00
G01 X-4.8109 Y22.7939 F120.00
G01 X-4.8445 Y22.7229 F120.00
G01 X-4.8848 Y22.6555 F120.00
G01 X-4.9316 Y22.5925 F120.00
G01 X-4.9843 Y22.5343 F120.00
G01 X-5.0425 Y22.4816 F120.00
G01 X-5.1055 Y22.4348 F120.00
G01 X-5.1729 Y22.3945 F120.00
G01 X-5.2439 Y22.3609 F120.00
G01 X-5.3178 Y22.3344 F120.00
G01 X-5.3939 Y22.3154 F120.00
G01 X-5.4716 Y22.3039 F120.00
G01 X-5.5500 Y22.3000 F120.00
G01 X-5.6284 Y22.3039 F120.00
G01 X-5.7061 Y22.3154 F120.00
G01 X-5.7822 Y22.3344 F120.00
G01 X-5.8561 Y22.3609 F120.00
G01 X-5.9271 Y22.3945 F120.00
G01 X-5.9945 Y22.4348 F120.00
G01 X-6.0575 Y22.4816 F120.00
G01 X-6.1157 Y22.5343 F120.00
G01 X-6.1684 Y22.5925 F120.00
G01 X-6.2152 Y22.6555 F120.00
G01 X-6.2555 Y22.7229 F120.00
G01 X-6.2891 Y22.7939 F120.00
G01 X-6.3156 Y22.8678 F120.00
G01 X-6.3346 Y22.9439 F120.00
G01 X-6.3461 Y23.0216 F120.00
G01 X-6.3500 Y23.1000 F120.00
G01 X-6.3461 Y23.1784 F120.00
G01 X-6.3346 Y23.2561 F120.00
G01 X-6.3156 Y23.3322 F120.00
G01 X-6.2891 Y23.4061 F120.00
G01 X-6.2555 Y23.4771 F120.00
G01 X-6.2152 Y23.5445 F120.00
G01 X-6.1684 Y23.6075 F120.00
G01 X-6.1157 Y23.6657 F120.00
G01 X-6.0575 Y23.7184 F120.00
G01 X-5.9945 Y23.7652 F120.00
G01 X-5.9271 Y23.8055 F120.00
G01 X-5.8561 Y23.8391 F120.00
G01 X-5.7822 Y23.8656 F120.00
G01 X-5.7061 Y23.8846 F120.00
G01 X-5.6284 Y23.8961 F120.00
G01 X-5.5500 Y23.9000 F120.00
G01 X-5.4716 Y23.8961 F120.00
G01 X-5.3939 Y23.8846 F120.00
G01 X-5.3178 Y23.8656 F120.00
G01 X-5.2439 Y23.8391 F120.00
G01 X-5.1729 Y23.8055 F120.00
G01 X-5.1055 Y23.7652 F120.00
G01 X-5.0425 Y23.7184 F120.00
G01 X-4.9843 Y23.6657 F120.00
G01 X-4.9316 Y23.6075 F120.00
G01 X-4.8848 Y23.5445 F120.00
G01 X-4.8445 Y23.4771 F120.00
G01 X-4.8109 Y23.4061 F120.00
G01 X-4.7844 Y23.3322 F120.00
G01 X-4.7654 Y23.2561 F120.00
G01 X-4.7539 Y23.1784 F120.00
G01 X-4.7500 Y23.1000 F120.00
G00 X-4.7500 Y23.1000
G01 F60.00
G01 Z-0.9000
G01 F120.00
G01 X-4.7539 Y23.0216 F120.00
G01 X-4.7654 Y22.9439 F120.00
G01 X-4.7844 Y22.8678 F120.00
G01 X-4.8109 Y22.7939 F120.00
G01 X-4.8445 Y22.7229 F120.00
G01 X-4.8848 Y22.6555 F120.00
G01 X-4.9316 Y22.5925 F120.00
G01 X-4.9843 Y22.5343 F120.00
G01 X-5.0425 Y22.4816 F120.00
G01 X-5.1055 Y22.4348 F120.00
G01 X-5.1729 Y22.3945 F120.00
G01 X-5.2439 Y22.3609 F120.00
G01 X-5.3178 Y22.3344 F120.00
G01 X-5.3939 Y22.3154 F120.00
G01 X-5.4716 Y22.3039 F120.00
G01 X-5.5500 Y22.3000 F120.00
G01 X-5.6284 Y22.3039 F120.00
G01 X-5.7061 Y22.3154 F120.00
G01 X-5.7822 Y22.3344 F120.00
G01 X-5.8561 Y22.3609 F120.00
G01 X-5.9271 Y22.3945 F120.00
G01 X-5.9945 Y22.4348 F120.00
G01 X-6.0575 Y22.4816 F120.00
G01 X-6.1157 Y22.5343 F120.00
G01 X-6.1684 Y22.5925 F120.00
G01 X-6.2152 Y22.6555 F120.00
G01 X-6.2555 Y22.7229 F120.00
G01 X-6.2891 Y22.7939 F120.00
G01 X-6.3156 Y22.8678 F120.00
G01 X-6.3346 Y22.9439 F120.00
G01 X-6.3461 Y23.0216 F120.00
G01 X-6.3500 Y23.1000 F120.00
G01 X-6.3461 Y23.1784 F120.00
G01 X-6.3346 Y23.2561 F120.00
G01 X-6.3156 Y23.3322 F120.00
G01 X-6.2891 Y23.4061 F120.00
G01 X-6.2555 Y23.4771 F120.00
G01 X-6.2152 Y23.5445 F120.00
G01 X-6.1684 Y23.6075 F120.00
G01 X-6.1157 Y23.6657 F120.00
G01 X-6.0575 Y23.7184 F120.00
G01 X-5.9945 Y23.7652 F120.00
G01 X-5.9271 Y23.8055 F120.00
G01 X-5.8561 Y23.8391 F120.00
G01 X-5.7822 Y23.8656 F120.00
G01 X-5.7061 Y23.8846 F120.00
G01 X-5.6284 Y23.8961 F120.00
G01 X-5.5500 Y23.9000 F120.00
G01 X-5.4716 Y23.8961 F120.00
G01 X-5.3939 Y23.8846 F120.00
G01 X-5.3178 Y23.8656 F120.00
G01 X-5.2439 Y23.8391 F120.00
G01 X-5.1729 Y23.8055 F120.00
G01 X-5.1055 Y23.7652 F120.00
G01 X-5.0425 Y23.7184 F120.00
G01 X-4.9843 Y23.6657 F120.00
G01 X-4.9316 Y23.6075 F120.00
G01 X-4.8848 Y23.5445 F120.00
G01 X-4.8445 Y23.4771 F120.00
G01 X-4.8109 Y23.4061 F120.00
G01 X-4.7844 Y23.3322 F120.00
G01 X-4.7654 Y23.2561 F120.00
G01 X-4.7539 Y23.1784 F120.00
G01 X-4.7500 Y23.1000 F120.00
G00 X-4.7500 Y23.1000
G01 F60.00
G01 Z-1.0000
G01 F120.00
G01 X-4.7539 Y23.0216 F120.00
G01 X-4.7654 Y22.9439 F120.00
G01 X-4.7844 Y22.8678 F120.00
G01 X-4.8109 Y22.7939 F120.00
G01 X-4.8445 Y22.7229 F120.00
G01 X-4.8848 Y22.6555 F120.00
G01 X-4.9316 Y22.5925 F120.00
G01 X-4.9843 Y22.5343 F120.00
G01 X-5.0425 Y22.4816 F120.00
G01 X-5.1055 Y22.4348 F120.00
G01 X-5.1729 Y22.3945 F120.00
G01 X-5.2439 Y22.3609 F120.00
G01 X-5.3178 Y22.3344 F120.00
G01 X-5.3939 Y22.3154 F120.00
G01 X-5.4716 Y22.3039 F120.00
G01 X-5.5500 Y22.3000 F120.00
G01 X-5.6284 Y22.3039 F120.00
G01 X-5.7061 Y22.3154 F120.00
G01 X-5.7822 Y22.3344 F120.00
G01 X-5.8561 Y22.3609 F120.00
G01 X-5.9271 Y22.3945 F120.00
G01 X-5.9945 Y22.4348 F120.00
G01 X-6.0575 Y22.4816 F120.00
G01 X-6.1157 Y22.5343 F120.00
G01 X-6.1684 Y22.5925 F120.00
G01 X-6.2152 Y22.6555 F120.00
G01 X-6.2555 Y22.7229 F120.00
G01 X-6.2891 Y22.7939 F120.00
G01 X-6.3156 Y22.8678 F120.00
G01 X-6.3346 Y22.9439 F120.00
G01 X-6.3461 Y23.0216 F120.00
G01 X-6.3500 Y23.1000 F120.00
G01 X-6.3461 Y23.1784 F120.00
G01 X-6.3346 Y23.2561 F120.00
G01 X-6.3156 Y23.3322 F120.00
G01 X-6.2891 Y23.4061 F120.00
G01 X-6.2555 Y23.4771 F120.00
G01 X-6.2152 Y23.5445 F120.00
G01 X-6.1684 Y23.6075 F120.00
G01 X-6.1157 Y23.6657 F120.00
G01 X-6.0575 Y23.7184 F120.00
G01 X-5.9945 Y23.7652 F120.00
G01 X-5.9271 Y23.8055 F120.00
G01 X-5.8561 Y23.8391 F120.00
G01 X-5.7822 Y23.8656 F120.00
G01 X-5.7061 Y23.8846 F120.00
G01 X-5.6284 Y23.8961 F120.00
G01 X-5.5500 Y23.9000 F120.00
G01 X-5.4716 Y23.8961 F120.00
G01 X-5.3939 Y23.8846 F120.00
G01 X-5.3178 Y23.8656 F120.00
G01 X-5.2439 Y23.8391 F120.00
G01 X-5.1729 Y23.8055 F120.00
G01 X-5.1055 Y23.7652 F120.00
G01 X-5.0425 Y23.7184 F120.00
G01 X-4.9843 Y23.6657 F120.00
G01 X-4.9316 Y23.6075 F120.00
G01 X-4.8848 Y23.5445 F120.00
G01 X-4.8445 Y23.4771 F120.00
G01 X-4.8109 Y23.4061 F120.00
G01 X-4.7844 Y23.3322 F120.00
G01 X-4.7654 Y23.2561 F120.00
G01 X-4.7539 Y23.1784 F120.00
G01 X-4.7500 Y23.1000 F120.00
G00 X-4.7500 Y23.1000
G01 F60.00
G01 Z-1.1000
G01 F120.00
G01 X-4.7539 Y23.0216 F120.00
G01 X-4.7654 Y22.9439 F120.00
G01 X-4.7844 Y22.8678 F120.00
G01 X-4.8109 Y22.7939 F120.00
G01 X-4.8445 Y22.7229 F120.00
G01 X-4.8848 Y22.6555 F120.00
G01 X-4.9316 Y22.5925 F120.00
G01 X-4.9843 Y22.5343 F120.00
G01 X-5.0425 Y22.4816 F120.00
G01 X-5.1055 Y22.4348 F120.00
G01 X-5.1729 Y22.3945 F120.00
G01 X-5.2439 Y22.3609 F120.00
G01 X-5.3178 Y22.3344 F120.00
G01 X-5.3939 Y22.3154 F120.00
G01 X-5.4716 Y22.3039 F120.00
G01 X-5.5500 Y22.3000 F120.00
G01 X-5.6284 Y22.3039 F120.00
G01 X-5.7061 Y22.3154 F120.00
G01 X-5.7822 Y22.3344 F120.00
G01 X-5.8561 Y22.3609 F120.00
G01 X-5.9271 Y22.3945 F120.00
G01 X-5.9945 Y22.4348 F120.00
G01 X-6.0575 Y22.4816 F120.00
G01 X-6.1157 Y22.5343 F120.00
G01 X-6.1684 Y22.5925 F120.00
G01 X-6.2152 Y22.6555 F120.00
G01 X-6.2555 Y22.7229 F120.00
G01 X-6.2891 Y22.7939 F120.00
G01 X-6.3156 Y22.8678 F120.00
G01 X-6.3346 Y22.9439 F120.00
G01 X-6.3461 Y23.0216 F120.00
G01 X-6.3500 Y23.1000 F120.00
G01 X-6.3461 Y23.1784 F120.00
G01 X-6.3346 Y23.2561 F120.00
G01 X-6.3156 Y23.3322 F120.00
G01 X-6.2891 Y23.4061 F120.00
G01 X-6.2555 Y23.4771 F120.00
G01 X-6.2152 Y23.5445 F120.00
G01 X-6.1684 Y23.6075 F120.00
G01 X-6.1157 Y23.6657 F120.00
G01 X-6.0575 Y23.7184 F120.00
G01 X-5.9945 Y23.7652 F120.00
G01 X-5.9271 Y23.8055 F120.00
G01 X-5.8561 Y23.8391 F120.00
G01 X-5.7822 Y23.8656 F120.00
G01 X-5.7061 Y23.8846 F120.00
G01 X-5.6284 Y23.8961 F120.00
G01 X-5.5500 Y23.9000 F120.00
G01 X-5.4716 Y23.8961 F120.00
G01 X-5.3939 Y23.8846 F120.00
G01 X-5.3178 Y23.8656 F120.00
G01 X-5.2439 Y23.8391 F120.00
G01 X-5.1729 Y23.8055 F120.00
G01 X-5.1055 Y23.7652 F120.00
G01 X-5.0425 Y23.7184 F120.00
G01 X-4.9843 Y23.6657 F120.00
G01 X-4.9316 Y23.6075 F120.00
G01 X-4.8848 Y23.5445 F120.00
G01 X-4.8445 Y23.4771 F120.00
G01 X-4.8109 Y23.4061 F120.00
G01 X-4.7844 Y23.3322 F120.00
G01 X-4.7654 Y23.2561 F120.00
G01 X-4.7539 Y23.1784 F120.00
G01 X-4.7500 Y23.1000 F120.00
G00 X-4.7500 Y23.1000
G01 F60.00
G01 Z-1.2000
G01 F120.00
G01 X-4.7539 Y23.0216 F120.00
G01 X-4.7654 Y22.9439 F120.00
G01 X-4.7844 Y22.8678 F120.00
G01 X-4.8109 Y22.7939 F120.00
G01 X-4.8445 Y22.7229 F120.00
G01 X-4.8848 Y22.6555 F120.00
G01 X-4.9316 Y22.5925 F120.00
G01 X-4.9843 Y22.5343 F120.00
G01 X-5.0425 Y22.4816 F120.00
G01 X-5.1055 Y22.4348 F120.00
G01 X-5.1729 Y22.3945 F120.00
G01 X-5.2439 Y22.3609 F120.00
G01 X-5.3178 Y22.3344 F120.00
G01 X-5.3939 Y22.3154 F120.00
G01 X-5.4716 Y22.3039 F120.00
G01 X-5.5500 Y22.3000 F120.00
G01 X-5.6284 Y22.3039 F120.00
G01 X-5.7061 Y22.3154 F120.00
G01 X-5.7822 Y22.3344 F120.00
G01 X-5.8561 Y22.3609 F120.00
G01 X-5.9271 Y22.3945 F120.00
G01 X-5.9945 Y22.4348 F120.00
G01 X-6.0575 Y22.4816 F120.00
G01 X-6.1157 Y22.5343 F120.00
G01 X-6.1684 Y22.5925 F120.00
G01 X-6.2152 Y22.6555 F120.00
G01 X-6.2555 Y22.7229 F120.00
G01 X-6.2891 Y22.7939 F120.00
G01 X-6.3156 Y22.8678 F120.00
G01 X-6.3346 Y22.9439 F120.00
G01 X-6.3461 Y23.0216 F120.00
G01 X-6.3500 Y23.1000 F120.00
G01 X-6.3461 Y23.1784 F120.00
G01 X-6.3346 Y23.2561 F120.00
G01 X-6.3156 Y23.3322 F120.00
G01 X-6.2891 Y23.4061 F120.00
G01 X-6.2555 Y23.4771 F120.00
G01 X-6.2152 Y23.5445 F120.00
G01 X-6.1684 Y23.6075 F120.00
G01 X-6.1157 Y23.6657 F120.00
G01 X-6.0575 Y23.7184 F120.00
G01 X-5.9945 Y23.7652 F120.00
G01 X-5.9271 Y23.8055 F120.00
G01 X-5.8561 Y23.8391 F120.00
G01 X-5.7822 Y23.8656 F120.00
G01 X-5.7061 Y23.8846 F120.00
G01 X-5.6284 Y23.8961 F120.00
G01 X-5.5500 Y23.9000 F120.00
G01 X-5.4716 Y23.8961 F120.00
G01 X-5.3939 Y23.8846 F120.00
G01 X-5.3178 Y23.8656 F120.00
G01 X-5.2439 Y23.8391 F120.00
G01 X-5.1729 Y23.8055 F120.00
G01 X-5.1055 Y23.7652 F120.00
G01 X-5.0425 Y23.7184 F120.00
G01 X-4.9843 Y23.6657 F120.00
G01 X-4.9316 Y23.6075 F120.00
G01 X-4.8848 Y23.5445 F120.00
G01 X-4.8445 Y23.4771 F120.00
G01 X-4.8109 Y23.4061 F120.00
G01 X-4.7844 Y23.3322 F120.00
G01 X-4.7654 Y23.2561 F120.00
G01 X-4.7539 Y23.1784 F120.00
G01 X-4.7500 Y23.1000 F120.00
G00 X-4.7500 Y23.1000
G01 F60.00
G01 Z-1.3000
G01 F120.00
G01 X-4.7539 Y23.0216 F120.00
G01 X-4.7654 Y22.9439 F120.00
G01 X-4.7844 Y22.8678 F120.00
G01 X-4.8109 Y22.7939 F120.00
G01 X-4.8445 Y22.7229 F120.00
G01 X-4.8848 Y22.6555 F120.00
G01 X-4.9316 Y22.5925 F120.00
G01 X-4.9843 Y22.5343 F120.00
G01 X-5.0425 Y22.4816 F120.00
G01 X-5.1055 Y22.4348 F120.00
G01 X-5.1729 Y22.3945 F120.00
G01 X-5.2439 Y22.3609 F120.00
G01 X-5.3178 Y22.3344 F120.00
G01 X-5.3939 Y22.3154 F120.00
G01 X-5.4716 Y22.3039 F120.00
G01 X-5.5500 Y22.3000 F120.00
G01 X-5.6284 Y22.3039 F120.00
G01 X-5.7061 Y22.3154 F120.00
G01 X-5.7822 Y22.3344 F120.00
G01 X-5.8561 Y22.3609 F120.00
G01 X-5.9271 Y22.3945 F120.00
G01 X-5.9945 Y22.4348 F120.00
G01 X-6.0575 Y22.4816 F120.00
G01 X-6.1157 Y22.5343 F120.00
G01 X-6.1684 Y22.5925 F120.00
G01 X-6.2152 Y22.6555 F120.00
G01 X-6.2555 Y22.7229 F120.00
G01 X-6.2891 Y22.7939 F120.00
G01 X-6.3156 Y22.8678 F120.00
G01 X-6.3346 Y22.9439 F120.00
G01 X-6.3461 Y23.0216 F120.00
G01 X-6.3500 Y23.1000 F120.00
G01 X-6.3461 Y23.1784 F120.00
G01 X-6.3346 Y23.2561 F120.00
G01 X-6.3156 Y23.3322 F120.00
G01 X-6.2891 Y23.4061 F120.00
G01 X-6.2555 Y23.4771 F120.00
G01 X-6.2152 Y23.5445 F120.00
G01 X-6.1684 Y23.6075 F120.00
G01 X-6.1157 Y23.6657 F120.00
G01 X-6.0575 Y23.7184 F120.00
G01 X-5.9945 Y23.7652 F120.00
G01 X-5.9271 Y23.8055 F120.00
G01 X-5.8561 Y23.8391 F120.00
G01 X-5.7822 Y23.8656 F120.00
G01 X-5.7061 Y23.8846 F120.00
G01 X-5.6284 Y23.8961 F120.00
G01 X-5.5500 Y23.9000 F120.00
G01 X-5.4716 Y23.8961 F120.00
G01 X-5.3939 Y23.8846 F120.00
G01 X-5.3178 Y23.8656 F120.00
G01 X-5.2439 Y23.8391 F120.00
G01 X-5.1729 Y23.8055 F120.00
G01 X-5.1055 Y23.7652 F120.00
G01 X-5.0425 Y23.7184 F120.00
G01 X-4.9843 Y23.6657 F120.00
G01 X-4.9316 Y23.6075 F120.00
G01 X-4.8848 Y23.5445 F120.00
G01 X-4.8445 Y23.4771 F120.00
G01 X-4.8109 Y23.4061 F120.00
G01 X-4.7844 Y23.3322 F120.00
G01 X-4.7654 Y23.2561 F120.00
G01 X-4.7539 Y23.1784 F120.00
G01 X-4.7500 Y23.1000 F120.00
G00 X-4.7500 Y23.1000
G01 F60.00
G01 Z-1.4000
G01 F120.00
G01 X-4.7539 Y23.0216 F120.00
G01 X-4.7654 Y22.9439 F120.00
G01 X-4.7844 Y22.8678 F120.00
G01 X-4.8109 Y22.7939 F120.00
G01 X-4.8445 Y22.7229 F120.00
G01 X-4.8848 Y22.6555 F120.00
G01 X-4.9316 Y22.5925 F120.00
G01 X-4.9843 Y22.5343 F120.00
G01 X-5.0425 Y22.4816 F120.00
G01 X-5.1055 Y22.4348 F120.00
G01 X-5.1729 Y22.3945 F120.00
G01 X-5.2439 Y22.3609 F120.00
G01 X-5.3178 Y22.3344 F120.00
G01 X-5.3939 Y22.3154 F120.00
G01 X-5.4716 Y22.3039 F120.00
G01 X-5.5500 Y22.3000 F120.00
G01 X-5.6284 Y22.3039 F120.00
G01 X-5.7061 Y22.3154 F120.00
G01 X-5.7822 Y22.3344 F120.00
G01 X-5.8561 Y22.3609 F120.00
G01 X-5.9271 Y22.3945 F120.00
G01 X-5.9945 Y22.4348 F120.00
G01 X-6.0575 Y22.4816 F120.00
G01 X-6.1157 Y22.5343 F120.00
G01 X-6.1684 Y22.5925 F120.00
G01 X-6.2152 Y22.6555 F120.00
G01 X-6.2555 Y22.7229 F120.00
G01 X-6.2891 Y22.7939 F120.00
G01 X-6.3156 Y22.8678 F120.00
G01 X-6.3346 Y22.9439 F120.00
G01 X-6.3461 Y23.0216 F120.00
G01 X-6.3500 Y23.1000 F120.00
G01 X-6.3461 Y23.1784 F120.00
G01 X-6.3346 Y23.2561 F120.00
G01 X-6.3156 Y23.3322 F120.00
G01 X-6.2891 Y23.4061 F120.00
G01 X-6.2555 Y23.4771 F120.00
G01 X-6.2152 Y23.5445 F120.00
G01 X-6.1684 Y23.6075 F120.00
G01 X-6.1157 Y23.6657 F120.00
G01 X-6.0575 Y23.7184 F120.00
G01 X-5.9945 Y23.7652 F120.00
G01 X-5.9271 Y23.8055 F120.00
G01 X-5.8561 Y23.8391 F120.00
G01 X-5.7822 Y23.8656 F120.00
G01 X-5.7061 Y23.8846 F120.00
G01 X-5.6284 Y23.8961 F120.00
G01 X-5.5500 Y23.9000 F120.00
G01 X-5.4716 Y23.8961 F120.00
G01 X-5.3939 Y23.8846 F120.00
G01 X-5.3178 Y23.8656 F120.00
G01 X-5.2439 Y23.8391 F120.00
G01 X-5.1729 Y23.8055 F120.00
G01 X-5.1055 Y23.7652 F120.00
G01 X-5.0425 Y23.7184 F120.00
G01 X-4.9843 Y23.6657 F120.00
G01 X-4.9316 Y23.6075 F120.00
G01 X-4.8848 Y23.5445 F120.00
G01 X-4.8445 Y23.4771 F120.00
G01 X-4.8109 Y23.4061 F120.00
G01 X-4.7844 Y23.3322 F120.00
G01 X-4.7654 Y23.2561 F120.00
G01 X-4.7539 Y23.1784 F120.00
G01 X-4.7500 Y23.1000 F120.00
G00 X-4.7500 Y23.1000
G01 F60.00
G01 Z-1.5000
G01 F120.00
G01 X-4.7539 Y23.0216 F120.00
G01 X-4.7654 Y22.9439 F120.00
G01 X-4.7844 Y22.8678 F120.00
G01 X-4.8109 Y22.7939 F120.00
G01 X-4.8445 Y22.7229 F120.00
G01 X-4.8848 Y22.6555 F120.00
G01 X-4.9316 Y22.5925 F120.00
G01 X-4.9843 Y22.5343 F120.00
G01 X-5.0425 Y22.4816 F120.00
G01 X-5.1055 Y22.4348 F120.00
G01 X-5.1729 Y22.3945 F120.00
G01 X-5.2439 Y22.3609 F120.00
G01 X-5.3178 Y22.3344 F120.00
G01 X-5.3939 Y22.3154 F120.00
G01 X-5.4716 Y22.3039 F120.00
G01 X-5.5500 Y22.3000 F120.00
G01 X-5.6284 Y22.3039 F120.00
G01 X-5.7061 Y22.3154 F120.00
G01 X-5.7822 Y22.3344 F120.00
G01 X-5.8561 Y22.3609 F120.00
G01 X-5.9271 Y22.3945 F120.00
G01 X-5.9945 Y22.4348 F120.00
G01 X-6.0575 Y22.4816 F120.00
G01 X-6.1157 Y22.5343 F120.00
G01 X-6.1684 Y22.5925 F120.00
G01 X-6.2152 Y22.6555 F120.00
G01 X-6.2555 Y22.7229 F120.00
G01 X-6.2891 Y22.7939 F120.00
G01 X-6.3156 Y22.8678 F120.00
G01 X-6.3346 Y22.9439 F120.00
G01 X-6.3461 Y23.0216 F120.00
G01 X-6.3500 Y23.1000 F120.00
G01 X-6.3461 Y23.1784 F120.00
G01 X-6.3346 Y23.2561 F120.00
G01 X-6.3156 Y23.3322 F120.00
G01 X-6.2891 Y23.4061 F120.00
G01 X-6.2555 Y23.4771 F120.00
G01 X-6.2152 Y23.5445 F120.00
G01 X-6.1684 Y23.6075 F120.00
G01 X-6.1157 Y23.6657 F120.00
G01 X-6.0575 Y23.7184 F120.00
G01 X-5.9945 Y23.7652 F120.00
G01 X-5.9271 Y23.8055 F120.00
G01 X-5.8561 Y23.8391 F120.00
G01 X-5.7822 Y23.8656 F120.00
G01 X-5.7061 Y23.8846 F120.00
G01 X-5.6284 Y23.8961 F120.00
G01 X-5.5500 Y23.9000 F120.00
G01 X-5.4716 Y23.8961 F120.00
G01 X-5.3939 Y23.8846 F120.00
G01 X-5.3178 Y23.8656 F120.00
G01 X-5.2439 Y23.8391 F120.00
G01 X-5.1729 Y23.8055 F120.00
G01 X-5.1055 Y23.7652 F120.00
G01 X-5.0425 Y23.7184 F120.00
G01 X-4.9843 Y23.6657 F120.00
G01 X-4.9316 Y23.6075 F120.00
G01 X-4.8848 Y23.5445 F120.00
G01 X-4.8445 Y23.4771 F120.00
G01 X-4.8109 Y23.4061 F120.00
G01 X-4.7844 Y23.3322 F120.00
G01 X-4.7654 Y23.2561 F120.00
G01 X-4.7539 Y23.1784 F120.00
G01 X-4.7500 Y23.1000 F120.00
G00 X-4.7500 Y23.1000
G01 F60.00
G01 Z-1.6000
G01 F120.00
G01 X-4.7539 Y23.0216 F120.00
G01 X-4.7654 Y22.9439 F120.00
G01 X-4.7844 Y22.8678 F120.00
G01 X-4.8109 Y22.7939 F120.00
G01 X-4.8445 Y22.7229 F120.00
G01 X-4.8848 Y22.6555 F120.00
G01 X-4.9316 Y22.5925 F120.00
G01 X-4.9843 Y22.5343 F120.00
G01 X-5.0425 Y22.4816 F120.00
G01 X-5.1055 Y22.4348 F120.00
G01 X-5.1729 Y22.3945 F120.00
G01 X-5.2439 Y22.3609 F120.00
G01 X-5.3178 Y22.3344 F120.00
G01 X-5.3939 Y22.3154 F120.00
G01 X-5.4716 Y22.3039 F120.00
G01 X-5.5500 Y22.3000 F120.00
G01 X-5.6284 Y22.3039 F120.00
G01 X-5.7061 Y22.3154 F120.00
G01 X-5.7822 Y22.3344 F120.00
G01 X-5.8561 Y22.3609 F120.00
G01 X-5.9271 Y22.3945 F120.00
G01 X-5.9945 Y22.4348 F120.00
G01 X-6.0575 Y22.4816 F120.00
G01 X-6.1157 Y22.5343 F120.00
G01 X-6.1684 Y22.5925 F120.00
G01 X-6.2152 Y22.6555 F120.00
G01 X-6.2555 Y22.7229 F120.00
G01 X-6.2891 Y22.7939 F120.00
G01 X-6.3156 Y22.8678 F120.00
G01 X-6.3346 Y22.9439 F120.00
G01 X-6.3461 Y23.0216 F120.00
G01 X-6.3500 Y23.1000 F120.00
G01 X-6.3461 Y23.1784 F120.00
G01 X-6.3346 Y23.2561 F120.00
G01 X-6.3156 Y23.3322 F120.00
G01 X-6.2891 Y23.4061 F120.00
G01 X-6.2555 Y23.4771 F120.00
G01 X-6.2152 Y23.5445 F120.00
G01 X-6.1684 Y23.6075 F120.00
G01 X-6.1157 Y23.6657 F120.00
G01 X-6.0575 Y23.7184 F120.00
G01 X-5.9945 Y23.7652 F120.00
G01 X-5.9271 Y23.8055 F120.00
G01 X-5.8561 Y23.8391 F120.00
G01 X-5.7822 Y23.8656 F120.00
G01 X-5.7061 Y23.8846 F120.00
G01 X-5.6284 Y23.8961 F120.00
G01 X-5.5500 Y23.9000 F120.00
G01 X-5.4716 Y23.8961 F120.00
G01 X-5.3939 Y23.8846 F120.00
G01 X-5.3178 Y23.8656 F120.00
G01 X-5.2439 Y23.8391 F120.00
G01 X-5.1729 Y23.8055 F120.00
G01 X-5.1055 Y23.7652 F120.00
G01 X-5.0425 Y23.7184 F120.00
G01 X-4.9843 Y23.6657 F120.00
G01 X-4.9316 Y23.6075 F120.00
G01 X-4.8848 Y23.5445 F120.00
G01 X-4.8445 Y23.4771 F120.00
G01 X-4.8109 Y23.4061 F120.00
G01 X-4.7844 Y23.3322 F120.00
G01 X-4.7654 Y23.2561 F120.00
G01 X-4.7539 Y23.1784 F120.00
G01 X-4.7500 Y23.1000 F120.00
G00 X-4.7500 Y23.1000
G01 F60.00
G01 Z-1.7000
G01 F120.00
G01 X-4.7539 Y23.0216 F120.00
G01 X-4.7654 Y22.9439 F120.00
G01 X-4.7844 Y22.8678 F120.00
G01 X-4.8109 Y22.7939 F120.00
G01 X-4.8445 Y22.7229 F120.00
G01 X-4.8848 Y22.6555 F120.00
G01 X-4.9316 Y22.5925 F120.00
G01 X-4.9843 Y22.5343 F120.00
G01 X-5.0425 Y22.4816 F120.00
G01 X-5.1055 Y22.4348 F120.00
G01 X-5.1729 Y22.3945 F120.00
G01 X-5.2439 Y22.3609 F120.00
G01 X-5.3178 Y22.3344 F120.00
G01 X-5.3939 Y22.3154 F120.00
G01 X-5.4716 Y22.3039 F120.00
G01 X-5.5500 Y22.3000 F120.00
G01 X-5.6284 Y22.3039 F120.00
G01 X-5.7061 Y22.3154 F120.00
G01 X-5.7822 Y22.3344 F120.00
G01 X-5.8561 Y22.3609 F120.00
G01 X-5.9271 Y22.3945 F120.00
G01 X-5.9945 Y22.4348 F120.00
G01 X-6.0575 Y22.4816 F120.00
G01 X-6.1157 Y22.5343 F120.00
G01 X-6.1684 Y22.5925 F120.00
G01 X-6.2152 Y22.6555 F120.00
G01 X-6.2555 Y22.7229 F120.00
G01 X-6.2891 Y22.7939 F120.00
G01 X-6.3156 Y22.8678 F120.00
G01 X-6.3346 Y22.9439 F120.00
G01 X-6.3461 Y23.0216 F120.00
G01 X-6.3500 Y23.1000 F120.00
G01 X-6.3461 Y23.1784 F120.00
G01 X-6.3346 Y23.2561 F120.00
G01 X-6.3156 Y23.3322 F120.00
G01 X-6.2891 Y23.4061 F120.00
G01 X-6.2555 Y23.4771 F120.00
G01 X-6.2152 Y23.5445 F120.00
G01 X-6.1684 Y23.6075 F120.00
G01 X-6.1157 Y23.6657 F120.00
G01 X-6.0575 Y23.7184 F120.00
G01 X-5.9945 Y23.7652 F120.00
G01 X-5.9271 Y23.8055 F120.00
G01 X-5.8561 Y23.8391 F120.00
G01 X-5.7822 Y23.8656 F120.00
G01 X-5.7061 Y23.8846 F120.00
G01 X-5.6284 Y23.8961 F120.00
G01 X-5.5500 Y23.9000 F120.00
G01 X-5.4716 Y23.8961 F120.00
G01 X-5.3939 Y23.8846 F120.00
G01 X-5.3178 Y23.8656 F120.00
G01 X-5.2439 Y23.8391 F120.00
G01 X-5.1729 Y23.8055 F120.00
G01 X-5.1055 Y23.7652 F120.00
G01 X-5.0425 Y23.7184 F120.00
G01 X-4.9843 Y23.6657 F120.00
G01 X-4.9316 Y23.6075 F120.00
G01 X-4.8848 Y23.5445 F120.00
G01 X-4.8445 Y23.4771 F120.00
G01 X-4.8109 Y23.4061 F120.00
G01 X-4.7844 Y23.3322 F120.00
G01 X-4.7654 Y23.2561 F120.00
G01 X-4.7539 Y23.1784 F120.00
G01 X-4.7500 Y23.1000 F120.00
G00 X-4.7500 Y23.1000
G01 F60.00
G01 Z-1.8000
G01 F120.00
G01 X-4.7539 Y23.0216 F120.00
G01 X-4.7654 Y22.9439 F120.00
G01 X-4.7844 Y22.8678 F120.00
G01 X-4.8109 Y22.7939 F120.00
G01 X-4.8445 Y22.7229 F120.00
G01 X-4.8848 Y22.6555 F120.00
G01 X-4.9316 Y22.5925 F120.00
G01 X-4.9843 Y22.5343 F120.00
G01 X-5.0425 Y22.4816 F120.00
G01 X-5.1055 Y22.4348 F120.00
G01 X-5.1729 Y22.3945 F120.00
G01 X-5.2439 Y22.3609 F120.00
G01 X-5.3178 Y22.3344 F120.00
G01 X-5.3939 Y22.3154 F120.00
G01 X-5.4716 Y22.3039 F120.00
G01 X-5.5500 Y22.3000 F120.00
G01 X-5.6284 Y22.3039 F120.00
G01 X-5.7061 Y22.3154 F120.00
G01 X-5.7822 Y22.3344 F120.00
G01 X-5.8561 Y22.3609 F120.00
G01 X-5.9271 Y22.3945 F120.00
G01 X-5.9945 Y22.4348 F120.00
G01 X-6.0575 Y22.4816 F120.00
G01 X-6.1157 Y22.5343 F120.00
G01 X-6.1684 Y22.5925 F120.00
G01 X-6.2152 Y22.6555 F120.00
G01 X-6.2555 Y22.7229 F120.00
G01 X-6.2891 Y22.7939 F120.00
G01 X-6.3156 Y22.8678 F120.00
G01 X-6.3346 Y22.9439 F120.00
G01 X-6.3461 Y23.0216 F120.00
G01 X-6.3500 Y23.1000 F120.00
G01 X-6.3461 Y23.1784 F120.00
G01 X-6.3346 Y23.2561 F120.00
G01 X-6.3156 Y23.3322 F120.00
G01 X-6.2891 Y23.4061 F120.00
G01 X-6.2555 Y23.4771 F120.00
G01 X-6.2152 Y23.5445 F120.00
G01 X-6.1684 Y23.6075 F120.00
G01 X-6.1157 Y23.6657 F120.00
G01 X-6.0575 Y23.7184 F120.00
G01 X-5.9945 Y23.7652 F120.00
G01 X-5.9271 Y23.8055 F120.00
G01 X-5.8561 Y23.8391 F120.00
G01 X-5.7822 Y23.8656 F120.00
G01 X-5.7061 Y23.8846 F120.00
G01 X-5.6284 Y23.8961 F120.00
G01 X-5.5500 Y23.9000 F120.00
G01 X-5.4716 Y23.8961 F120.00
G01 X-5.3939 Y23.8846 F120.00
G01 X-5.3178 Y23.8656 F120.00
G01 X-5.2439 Y23.8391 F120.00
G01 X-5.1729 Y23.8055 F120.00
G01 X-5.1055 Y23.7652 F120.00
G01 X-5.0425 Y23.7184 F120.00
G01 X-4.9843 Y23.6657 F120.00
G01 X-4.9316 Y23.6075 F120.00
G01 X-4.8848 Y23.5445 F120.00
G01 X-4.8445 Y23.4771 F120.00
G01 X-4.8109 Y23.4061 F120.00
G01 X-4.7844 Y23.3322 F120.00
G01 X-4.7654 Y23.2561 F120.00
G01 X-4.7539 Y23.1784 F120.00
G01 X-4.7500 Y23.1000 F120.00
G00 Z2.0000
G00 X6.4500 Y23.1000
G01 F60.00
G01 Z-0.1000
G01 F120.00
G01 X6.4461 Y23.0216 F120.00
G01 X6.4346 Y22.9439 F120.00
G01 X6.4156 Y22.8678 F120.00
G01 X6.3891 Y22.7939 F120.00
G01 X6.3555 Y22.7229 F120.00
G01 X6.3152 Y22.6555 F120.00
G01 X6.2684 Y22.5925 F120.00
G01 X6.2157 Y22.5343 F120.00
G01 X6.1575 Y22.4816 F120.00
G01 X6.0945 Y22.4348 F120.00
G01 X6.0271 Y22.3945 F120.00
G01 X5.9561 Y22.3609 F120.00
G01 X5.8822 Y22.3344 F120.00
G01 X5.8061 Y22.3154 F120.00
G01 X5.7284 Y22.3039 F120.00
G01 X5.6500 Y22.3000 F120.00
G01 X5.5716 Y22.3039 F120.00
G01 X5.4939 Y22.3154 F120.00
G01 X5.4178 Y22.3344 F120.00
G01 X5.3439 Y22.3609 F120.00
G01 X5.2729 Y22.3945 F120.00
G01 X5.2055 Y22.4348 F120.00
G01 X5.1425 Y22.4816 F120.00
G01 X5.0843 Y22.5343 F120.00
G01 X5.0316 Y22.5925 F120.00
G01 X4.9848 Y22.6555 F120.00
G01 X4.9445 Y22.7229 F120.00
G01 X4.9109 Y22.7939 F120.00
G01 X4.8844 Y22.8678 F120.00
G01 X4.8654 Y22.9439 F120.00
G01 X4.8539 Y23.0216 F120.00
G01 X4.8500 Y23.1000 F120.00
G01 X4.8539 Y23.1784 F120.00
G01 X4.8654 Y23.2561 F120.00
G01 X4.8844 Y23.3322 F120.00
G01 X4.9109 Y23.4061 F120.00
G01 X4.9445 Y23.4771 F120.00
G01 X4.9848 Y23.5445 F120.00
G01 X5.0316 Y23.6075 F120.00
G01 X5.0843 Y23.6657 F120.00
G01 X5.1425 Y23.7184 F120.00
G01 X5.2055 Y23.7652 F120.00
G01 X5.2729 Y23.8055 F120.00
G01 X5.3439 Y23.8391 F120.00
G01 X5.4178 Y23.8656 F120.00
G01 X5.4939 Y23.8846 F120.00
G01 X5.5716 Y23.8961 F120.00
G01 X5.6500 Y23.9000 F120.00
G01 X5.7284 Y23.8961 F120.00
G01 X5.8061 Y23.8846 F120.00
G01 X5.8822 Y23.8656 F120.00
G01 X5.9561 Y23.8391 F120.00
G01 X6.0271 Y23.8055 F120.00
G01 X6.0945 Y23.7652 F120.00
G01 X6.1575 Y23.7184 F120.00
G01 X6.2157 Y23.6657 F120.00
G01 X6.2684 Y23.6075 F120.00
G01 X6.3152 Y23.5445 F120.00
G01 X6.3555 Y23.4771 F120.00
G01 X6.3891 Y23.4061 F120.00
G01 X6.4156 Y23.3322 F120.00
G01 X6.4346 Y23.2561 F120.00
G01 X6.4461 Y23.1784 F120.00
G01 X6.4500 Y23.1000 F120.00
G00 X6.4500 Y23.1000
G01 F60.00
G01 Z-0.2000
G01 F120.00
G01 X6.4461 Y23.0216 F120.00
G01 X6.4346 Y22.9439 F120.00
G01 X6.4156 Y22.8678 F120.00
G01 X6.3891 Y22.7939 F120.00
G01 X6.3555 Y22.7229 F120.00
G01 X6.3152 Y22.6555 F120.00
G01 X6.2684 Y22.5925 F120.00
G01 X6.2157 Y22.5343 F120.00
G01 X6.1575 Y22.4816 F120.00
G01 X6.0945 Y22.4348 F120.00
G01 X6.0271 Y22.3945 F120.00
G01 X5.9561 Y22.3609 F120.00
G01 X5.8822 Y22.3344 F120.00
G01 X5.8061 Y22.3154 F120.00
G01 X5.7284 Y22.3039 F120.00
G01 X5.6500 Y22.3000 F120.00
G01 X5.5716 Y22.3039 F120.00
G01 X5.4939 Y22.3154 F120.00
G01 X5.4178 Y22.3344 F120.00
G01 X5.3439 Y22.3609 F120.00
G01 X5.2729 Y22.3945 F120.00
G01 X5.2055 Y22.4348 F120.00
G01 X5.1425 Y22.4816 F120.00
G01 X5.0843 Y22.5343 F120.00
G01 X5.0316 Y22.5925 F120.00
G01 X4.9848 Y22.6555 F120.00
G01 X4.9445 Y22.7229 F120.00
G01 X4.9109 Y22.7939 F120.00
G01 X4.8844 Y22.8678 F120.00
G01 X4.8654 Y22.9439 F120.00
G01 X4.8539 Y23.0216 F120.00
G01 X4.8500 Y23.1000 F120.00
G01 X4.8539 Y23.1784 F120.00
G01 X4.8654 Y23.2561 F120.00
G01 X4.8844 Y23.3322 F120.00
G01 X4.9109 Y23.4061 F120.00
G01 X4.9445 Y23.4771 F120.00
G01 X4.9848 Y23.5445 F120.00
G01 X5.0316 Y23.6075 F120.00
G01 X5.0843 Y23.6657 F120.00
G01 X5.1425 Y23.7184 F120.00
G01 X5.2055 Y23.7652 F120.00
G01 X5.2729 Y23.8055 F120.00
G01 X5.3439 Y23.8391 F120.00
G01 X5.4178 Y23.8656 F120.00
G01 X5.4939 Y23.8846 F120.00
G01 X5.5716 Y23.8961 F120.00
G01 X5.6500 Y23.9000 F120.00
G01 X5.7284 Y23.8961 F120.00
G01 X5.8061 Y23.8846 F120.00
G01 X5.8822 Y23.8656 F120.00
G01 X5.9561 Y23.8391 F120.00
G01 X6.0271 Y23.8055 F120.00
G01 X6.0945 Y23.7652 F120.00
G01 X6.1575 Y23.7184 F120.00
G01 X6.2157 Y23.6657 F120.00
G01 X6.2684 Y23.6075 F120.00
G01 X6.3152 Y23.5445 F120.00
G01 X6.3555 Y23.4771 F120.00
G01 X6.3891 Y23.4061 F120.00
G01 X6.4156 Y23.3322 F120.00
G01 X6.4346 Y23.2561 F120.00
G01 X6.4461 Y23.1784 F120.00
G01 X6.4500 Y23.1000 F120.00
G00 X6.4500 Y23.1000
G01 F60.00
G01 Z-0.3000
G01 F120.00
G01 X6.4461 Y23.0216 F120.00
G01 X6.4346 Y22.9439 F120.00
G01 X6.4156 Y22.8678 F120.00
G01 X6.3891 Y22.7939 F120.00
G01 X6.3555 Y22.7229 F120.00
G01 X6.3152 Y22.6555 F120.00
G01 X6.2684 Y22.5925 F120.00
G01 X6.2157 Y22.5343 F120.00
G01 X6.1575 Y22.4816 F120.00
G01 X6.0945 Y22.4348 F120.00
G01 X6.0271 Y22.3945 F120.00
G01 X5.9561 Y22.3609 F120.00
G01 X5.8822 Y22.3344 F120.00
G01 X5.8061 Y22.3154 F120.00
G01 X5.7284 Y22.3039 F120.00
G01 X5.6500 Y22.3000 F120.00
G01 X5.5716 Y22.3039 F120.00
G01 X5.4939 Y22.3154 F120.00
G01 X5.4178 Y22.3344 F120.00
G01 X5.3439 Y22.3609 F120.00
G01 X5.2729 Y22.3945 F120.00
G01 X5.2055 Y22.4348 F120.00
G01 X5.1425 Y22.4816 F120.00
G01 X5.0843 Y22.5343 F120.00
G01 X5.0316 Y22.5925 F120.00
G01 X4.9848 Y22.6555 F120.00
G01 X4.9445 Y22.7229 F120.00
G01 X4.9109 Y22.7939 F120.00
G01 X4.8844 Y22.8678 F120.00
G01 X4.8654 Y22.9439 F120.00
G01 X4.8539 Y23.0216 F120.00
G01 X4.8500 Y23.1000 F120.00
G01 X4.8539 Y23.1784 F120.00
G01 X4.8654 Y23.2561 F120.00
G01 X4.8844 Y23.3322 F120.00
G01 X4.9109 Y23.4061 F120.00
G01 X4.9445 Y23.4771 F120.00
G01 X4.9848 Y23.5445 F120.00
G01 X5.0316 Y23.6075 F120.00
G01 X5.0843 Y23.6657 F120.00
G01 X5.1425 Y23.7184 F120.00
G01 X5.2055 Y23.7652 F120.00
G01 X5.2729 Y23.8055 F120.00
G01 X5.3439 Y23.8391 F120.00
G01 X5.4178 Y23.8656 F120.00
G01 X5.4939 Y23.8846 F120.00
G01 X5.5716 Y23.8961 F120.00
G01 X5.6500 Y23.9000 F120.00
G01 X5.7284 Y23.8961 F120.00
G01 X5.8061 Y23.8846 F120.00
G01 X5.8822 Y23.8656 F120.00
G01 X5.9561 Y23.8391 F120.00
G01 X6.0271 Y23.8055 F120.00
G01 X6.0945 Y23.7652 F120.00
G01 X6.1575 Y23.7184 F120.00
G01 X6.2157 Y23.6657 F120.00
G01 X6.2684 Y23.6075 F120.00
G01 X6.3152 Y23.5445 F120.00
G01 X6.3555 Y23.4771 F120.00
G01 X6.3891 Y23.4061 F120.00
G01 X6.4156 Y23.3322 F120.00
G01 X6.4346 Y23.2561 F120.00
G01 X6.4461 Y23.1784 F120.00
G01 X6.4500 Y23.1000 F120.00
G00 X6.4500 Y23.1000
G01 F60.00
G01 Z-0.4000
G01 F120.00
G01 X6.4461 Y23.0216 F120.00
G01 X6.4346 Y22.9439 F120.00
G01 X6.4156 Y22.8678 F120.00
G01 X6.3891 Y22.7939 F120.00
G01 X6.3555 Y22.7229 F120.00
G01 X6.3152 Y22.6555 F120.00
G01 X6.2684 Y22.5925 F120.00
G01 X6.2157 Y22.5343 F120.00
G01 X6.1575 Y22.4816 F120.00
G01 X6.0945 Y22.4348 F120.00
G01 X6.0271 Y22.3945 F120.00
G01 X5.9561 Y22.3609 F120.00
G01 X5.8822 Y22.3344 F120.00
G01 X5.8061 Y22.3154 F120.00
G01 X5.7284 Y22.3039 F120.00
G01 X5.6500 Y22.3000 F120.00
G01 X5.5716 Y22.3039 F120.00
G01 X5.4939 Y22.3154 F120.00
G01 X5.4178 Y22.3344 F120.00
G01 X5.3439 Y22.3609 F120.00
G01 X5.2729 Y22.3945 F120.00
G01 X5.2055 Y22.4348 F120.00
G01 X5.1425 Y22.4816 F120.00
G01 X5.0843 Y22.5343 F120.00
G01 X5.0316 Y22.5925 F120.00
G01 X4.9848 Y22.6555 F120.00
G01 X4.9445 Y22.7229 F120.00
G01 X4.9109 Y22.7939 F120.00
G01 X4.8844 Y22.8678 F120.00
G01 X4.8654 Y22.9439 F120.00
G01 X4.8539 Y23.0216 F120.00
G01 X4.8500 Y23.1000 F120.00
G01 X4.8539 Y23.1784 F120.00
G01 X4.8654 Y23.2561 F120.00
G01 X4.8844 Y23.3322 F120.00
G01 X4.9109 Y23.4061 F120.00
G01 X4.9445 Y23.4771 F120.00
G01 X4.9848 Y23.5445 F120.00
G01 X5.0316 Y23.6075 F120.00
G01 X5.0843 Y23.6657 F120.00
G01 X5.1425 Y23.7184 F120.00
G01 X5.2055 Y23.7652 F120.00
G01 X5.2729 Y23.8055 F120.00
G01 X5.3439 Y23.8391 F120.00
G01 X5.4178 Y23.8656 F120.00
G01 X5.4939 Y23.8846 F120.00
G01 X5.5716 Y23.8961 F120.00
G01 X5.6500 Y23.9000 F120.00
G01 X5.7284 Y23.8961 F120.00
G01 X5.8061 Y23.8846 F120.00
G01 X5.8822 Y23.8656 F120.00
G01 X5.9561 Y23.8391 F120.00
G01 X6.0271 Y23.8055 F120.00
G01 X6.0945 Y23.7652 F120.00
G01 X6.1575 Y23.7184 F120.00
G01 X6.2157 Y23.6657 F120.00
G01 X6.2684 Y23.6075 F120.00
G01 X6.3152 Y23.5445 F120.00
G01 X6.3555 Y23.4771 F120.00
G01 X6.3891 Y23.4061 F120.00
G01 X6.4156 Y23.3322 F120.00
G01 X6.4346 Y23.2561 F120.00
G01 X6.4461 Y23.1784 F120.00
G01 X6.4500 Y23.1000 F120.00
G00 X6.4500 Y23.1000
G01 F60.00
G01 Z-0.5000
G01 F120.00
G01 X6.4461 Y23.0216 F120.00
G01 X6.4346 Y22.9439 F120.00
G01 X6.4156 Y22.8678 F120.00
G01 X6.3891 Y22.7939 F120.00
G01 X6.3555 Y22.7229 F120.00
G01 X6.3152 Y22.6555 F120.00
G01 X6.2684 Y22.5925 F120.00
G01 X6.2157 Y22.5343 F120.00
G01 X6.1575 Y22.4816 F120.00
G01 X6.0945 Y22.4348 F120.00
G01 X6.0271 Y22.3945 F120.00
G01 X5.9561 Y22.3609 F120.00
G01 X5.8822 Y22.3344 F120.00
G01 X5.8061 Y22.3154 F120.00
G01 X5.7284 Y22.3039 F120.00
G01 X5.6500 Y22.3000 F120.00
G01 X5.5716 Y22.3039 F120.00
G01 X5.4939 Y22.3154 F120.00
G01 X5.4178 Y22.3344 F120.00
G01 X5.3439 Y22.3609 F120.00
G01 X5.2729 Y22.3945 F120.00
G01 X5.2055 Y22.4348 F120.00
G01 X5.1425 Y22.4816 F120.00
G01 X5.0843 Y22.5343 F120.00
G01 X5.0316 Y22.5925 F120.00
G01 X4.9848 Y22.6555 F120.00
G01 X4.9445 Y22.7229 F120.00
G01 X4.9109 Y22.7939 F120.00
G01 X4.8844 Y22.8678 F120.00
G01 X4.8654 Y22.9439 F120.00
G01 X4.8539 Y23.0216 F120.00
G01 X4.8500 Y23.1000 F120.00
G01 X4.8539 Y23.1784 F120.00
G01 X4.8654 Y23.2561 F120.00
G01 X4.8844 Y23.3322 F120.00
G01 X4.9109 Y23.4061 F120.00
G01 X4.9445 Y23.4771 F120.00
G01 X4.9848 Y23.5445 F120.00
G01 X5.0316 Y23.6075 F120.00
G01 X5.0843 Y23.6657 F120.00
G01 X5.1425 Y23.7184 F120.00
G01 X5.2055 Y23.7652 F120.00
G01 X5.2729 Y23.8055 F120.00
G01 X5.3439 Y23.8391 F120.00
G01 X5.4178 Y23.8656 F120.00
G01 X5.4939 Y23.8846 F120.00
G01 X5.5716 Y23.8961 F120.00
G01 X5.6500 Y23.9000 F120.00
G01 X5.7284 Y23.8961 F120.00
G01 X5.8061 Y23.8846 F120.00
G01 X5.8822 Y23.8656 F120.00
G01 X5.9561 Y23.8391 F120.00
G01 X6.0271 Y23.8055 F120.00
G01 X6.0945 Y23.7652 F120.00
G01 X6.1575 Y23.7184 F120.00
G01 X6.2157 Y23.6657 F120.00
G01 X6.2684 Y23.6075 F120.00
G01 X6.3152 Y23.5445 F120.00
G01 X6.3555 Y23.4771 F120.00
G01 X6.3891 Y23.4061 F120.00
G01 X6.4156 Y23.3322 F120.00
G01 X6.4346 Y23.2561 F120.00
G01 X6.4461 Y23.1784 F120.00
G01 X6.4500 Y23.1000 F120.00
G00 X6.4500 Y23.1000
G01 F60.00
G01 Z-0.6000
G01 F120.00
G01 X6.4461 Y23.0216 F120.00
G01 X6.4346 Y22.9439 F120.00
G01 X6.4156 Y22.8678 F120.00
G01 X6.3891 Y22.7939 F120.00
G01 X6.3555 Y22.7229 F120.00
G01 X6.3152 Y22.6555 F120.00
G01 X6.2684 Y22.5925 F120.00
G01 X6.2157 Y22.5343 F120.00
G01 X6.1575 Y22.4816 F120.00
G01 X6.0945 Y22.4348 F120.00
G01 X6.0271 Y22.3945 F120.00
G01 X5.9561 Y22.3609 F120.00
G01 X5.8822 Y22.3344 F120.00
G01 X5.8061 Y22.3154 F120.00
G01 X5.7284 Y22.3039 F120.00
G01 X5.6500 Y22.3000 F120.00
G01 X5.5716 Y22.3039 F120.00
G01 X5.4939 Y22.3154 F120.00
G01 X5.4178 Y22.3344 F120.00
G01 X5.3439 Y22.3609 F120.00
G01 X5.2729 Y22.3945 F120.00
G01 X5.2055 Y22.4348 F120.00
G01 X5.1425 Y22.4816 F120.00
G01 X5.0843 Y22.5343 F120.00
G01 X5.0316 Y22.5925 F120.00
G01 X4.9848 Y22.6555 F120.00
G01 X4.9445 Y22.7229 F120.00
G01 X4.9109 Y22.7939 F120.00
G01 X4.8844 Y22.8678 F120.00
G01 X4.8654 Y22.9439 F120.00
G01 X4.8539 Y23.0216 F120.00
G01 X4.8500 Y23.1000 F120.00
G01 X4.8539 Y23.1784 F120.00
G01 X4.8654 Y23.2561 F120.00
G01 X4.8844 Y23.3322 F120.00
G01 X4.9109 Y23.4061 F120.00
G01 X4.9445 Y23.4771 F120.00
G01 X4.9848 Y23.5445 F120.00
G01 X5.0316 Y23.6075 F120.00
G01 X5.0843 Y23.6657 F120.00
G01 X5.1425 Y23.7184 F120.00
G01 X5.2055 Y23.7652 F120.00
G01 X5.2729 Y23.8055 F120.00
G01 X5.3439 Y23.8391 F120.00
G01 X5.4178 Y23.8656 F120.00
G01 X5.4939 Y23.8846 F120.00
G01 X5.5716 Y23.8961 F120.00
G01 X5.6500 Y23.9000 F120.00
G01 X5.7284 Y23.8961 F120.00
G01 X5.8061 Y23.8846 F120.00
G01 X5.8822 Y23.8656 F120.00
G01 X5.9561 Y23.8391 F120.00
G01 X6.0271 Y23.8055 F120.00
G01 X6.0945 Y23.7652 F120.00
G01 X6.1575 Y23.7184 F120.00
G01 X6.2157 Y23.6657 F120.00
G01 X6.2684 Y23.6075 F120.00
G01 X6.3152 Y23.5445 F120.00
G01 X6.3555 Y23.4771 F120.00
G01 X6.3891 Y23.4061 F120.00
G01 X6.4156 Y23.3322 F120.00
G01 X6.4346 Y23.2561 F120.00
G01 X6.4461 Y23.1784 F120.00
G01 X6.4500 Y23.1000 F120.00
G00 X6.4500 Y23.1000
G01 F60.00
G01 Z-0.7000
G01 F120.00
G01 X6.4461 Y23.0216 F120.00
G01 X6.4346 Y22.9439 F120.00
G01 X6.4156 Y22.8678 F120.00
G01 X6.3891 Y22.7939 F120.00
G01 X6.3555 Y22.7229 F120.00
G01 X6.3152 Y22.6555 F120.00
G01 X6.2684 Y22.5925 F120.00
G01 X6.2157 Y22.5343 F120.00
G01 X6.1575 Y22.4816 F120.00
G01 X6.0945 Y22.4348 F120.00
G01 X6.0271 Y22.3945 F120.00
G01 X5.9561 Y22.3609 F120.00
G01 X5.8822 Y22.3344 F120.00
G01 X5.8061 Y22.3154 F120.00
G01 X5.7284 Y22.3039 F120.00
G01 X5.6500 Y22.3000 F120.00
G01 X5.5716 Y22.3039 F120.00
G01 X5.4939 Y22.3154 F120.00
G01 X5.4178 Y22.3344 F120.00
G01 X5.3439 Y22.3609 F120.00
G01 X5.2729 Y22.3945 F120.00
G01 X5.2055 Y22.4348 F120.00
G01 X5.1425 Y22.4816 F120.00
G01 X5.0843 Y22.5343 F120.00
G01 X5.0316 Y22.5925 F120.00
G01 X4.9848 Y22.6555 F120.00
G01 X4.9445 Y22.7229 F120.00
G01 X4.9109 Y22.7939 F120.00
G01 X4.8844 Y22.8678 F120.00
G01 X4.8654 Y22.9439 F120.00
G01 X4.8539 Y23.0216 F120.00
G01 X4.8500 Y23.1000 F120.00
G01 X4.8539 Y23.1784 F120.00
G01 X4.8654 Y23.2561 F120.00
G01 X4.8844 Y23.3322 F120.00
G01 X4.9109 Y23.4061 F120.00
G01 X4.9445 Y23.4771 F120.00
G01 X4.9848 Y23.5445 F120.00
G01 X5.0316 Y23.6075 F120.00
G01 X5.0843 Y23.6657 F120.00
G01 X5.1425 Y23.7184 F120.00
G01 X5.2055 Y23.7652 F120.00
G01 X5.2729 Y23.8055 F120.00
G01 X5.3439 Y23.8391 F120.00
G01 X5.4178 Y23.8656 F120.00
G01 X5.4939 Y23.8846 F120.00
G01 X5.5716 Y23.8961 F120.00
G01 X5.6500 Y23.9000 F120.00
G01 X5.7284 Y23.8961 F120.00
G01 X5.8061 Y23.8846 F120.00
G01 X5.8822 Y23.8656 F120.00
G01 X5.9561 Y23.8391 F120.00
G01 X6.0271 Y23.8055 F120.00
G01 X6.0945 Y23.7652 F120.00
G01 X6.1575 Y23.7184 F120.00
G01 X6.2157 Y23.6657 F120.00
G01 X6.2684 Y23.6075 F120.00
G01 X6.3152 Y23.5445 F120.00
G01 X6.3555 Y23.4771 F120.00
G01 X6.3891 Y23.4061 F120.00
G01 X6.4156 Y23.3322 F120.00
G01 X6.4346 Y23.2561 F120.00
G01 X6.4461 Y23.1784 F120.00
G01 X6.4500 Y23.1000 F120.00
G00 X6.4500 Y23.1000
G01 F60.00
G01 Z-0.8000
G01 F120.00
G01 X6.4461 Y23.0216 F120.00
G01 X6.4346 Y22.9439 F120.00
G01 X6.4156 Y22.8678 F120.00
G01 X6.3891 Y22.7939 F120.00
G01 X6.3555 Y22.7229 F120.00
G01 X6.3152 Y22.6555 F120.00
G01 X6.2684 Y22.5925 F120.00
G01 X6.2157 Y22.5343 F120.00
G01 X6.1575 Y22.4816 F120.00
G01 X6.0945 Y22.4348 F120.00
G01 X6.0271 Y22.3945 F120.00
G01 X5.9561 Y22.3609 F120.00
G01 X5.8822 Y22.3344 F120.00
G01 X5.8061 Y22.3154 F120.00
G01 X5.7284 Y22.3039 F120.00
G01 X5.6500 Y22.3000 F120.00
G01 X5.5716 Y22.3039 F120.00
G01 X5.4939 Y22.3154 F120.00
G01 X5.4178 Y22.3344 F120.00
G01 X5.3439 Y22.3609 F120.00
G01 X5.2729 Y22.3945 F120.00
G01 X5.2055 Y22.4348 F120.00
G01 X5.1425 Y22.4816 F120.00
G01 X5.0843 Y22.5343 F120.00
G01 X5.0316 Y22.5925 F120.00
G01 X4.9848 Y22.6555 F120.00
G01 X4.9445 Y22.7229 F120.00
G01 X4.9109 Y22.7939 F120.00
G01 X4.8844 Y22.8678 F120.00
G01 X4.8654 Y22.9439 F120.00
G01 X4.8539 Y23.0216 F120.00
G01 X4.8500 Y23.1000 F120.00
G01 X4.8539 Y23.1784 F120.00
G01 X4.8654 Y23.2561 F120.00
G01 X4.8844 Y23.3322 F120.00
G01 X4.9109 Y23.4061 F120.00
G01 X4.9445 Y23.4771 F120.00
G01 X4.9848 Y23.5445 F120.00
G01 X5.0316 Y23.6075 F120.00
G01 X5.0843 Y23.6657 F120.00
G01 X5.1425 Y23.7184 F120.00
G01 X5.2055 Y23.7652 F120.00
G01 X5.2729 Y23.8055 F120.00
G01 X5.3439 Y23.8391 F120.00
G01 X5.4178 Y23.8656 F120.00
G01 X5.4939 Y23.8846 F120.00
G01 X5.5716 Y23.8961 F120.00
G01 X5.6500 Y23.9000 F120.00
G01 X5.7284 Y23.8961 F120.00
G01 X5.8061 Y23.8846 F120.00
G01 X5.8822 Y23.8656 F120.00
G01 X5.9561 Y23.8391 F120.00
G01 X6.0271 Y23.8055 F120.00
G01 X6.0945 Y23.7652 F120.00
G01 X6.1575 Y23.7184 F120.00
G01 X6.2157 Y23.6657 F120.00
G01 X6.2684 Y23.6075 F120.00
G01 X6.3152 Y23.5445 F120.00
G01 X6.3555 Y23.4771 F120.00
G01 X6.3891 Y23.4061 F120.00
G01 X6.4156 Y23.3322 F120.00
G01 X6.4346 Y23.2561 F120.00
G01 X6.4461 Y23.1784 F120.00
G01 X6.4500 Y23.1000 F120.00
G00 X6.4500 Y23.1000
G01 F60.00
G01 Z-0.9000
G01 F120.00
G01 X6.4461 Y23.0216 F120.00
G01 X6.4346 Y22.9439 F120.00
G01 X6.4156 Y22.8678 F120.00
G01 X6.3891 Y22.7939 F120.00
G01 X6.3555 Y22.7229 F120.00
G01 X6.3152 Y22.6555 F120.00
G01 X6.2684 Y22.5925 F120.00
G01 X6.2157 Y22.5343 F120.00
G01 X6.1575 Y22.4816 F120.00
G01 X6.0945 Y22.4348 F120.00
G01 X6.0271 Y22.3945 F120.00
G01 X5.9561 Y22.3609 F120.00
G01 X5.8822 Y22.3344 F120.00
G01 X5.8061 Y22.3154 F120.00
G01 X5.7284 Y22.3039 F120.00
G01 X5.6500 Y22.3000 F120.00
G01 X5.5716 Y22.3039 F120.00
G01 X5.4939 Y22.3154 F120.00
G01 X5.4178 Y22.3344 F120.00
G01 X5.3439 Y22.3609 F120.00
G01 X5.2729 Y22.3945 F120.00
G01 X5.2055 Y22.4348 F120.00
G01 X5.1425 Y22.4816 F120.00
G01 X5.0843 Y22.5343 F120.00
G01 X5.0316 Y22.5925 F120.00
G01 X4.9848 Y22.6555 F120.00
G01 X4.9445 Y22.7229 F120.00
G01 X4.9109 Y22.7939 F120.00
G01 X4.8844 Y22.8678 F120.00
G01 X4.8654 Y22.9439 F120.00
G01 X4.8539 Y23.0216 F120.00
G01 X4.8500 Y23.1000 F120.00
G01 X4.8539 Y23.1784 F120.00
G01 X4.8654 Y23.2561 F120.00
G01 X4.8844 Y23.3322 F120.00
G01 X4.9109 Y23.4061 F120.00
G01 X4.9445 Y23.4771 F120.00
G01 X4.9848 Y23.5445 F120.00
G01 X5.0316 Y23.6075 F120.00
G01 X5.0843 Y23.6657 F120.00
G01 X5.1425 Y23.7184 F120.00
G01 X5.2055 Y23.7652 F120.00
G01 X5.2729 Y23.8055 F120.00
G01 X5.3439 Y23.8391 F120.00
G01 X5.4178 Y23.8656 F120.00
G01 X5.4939 Y23.8846 F120.00
G01 X5.5716 Y23.8961 F120.00
G01 X5.6500 Y23.9000 F120.00
G01 X5.7284 Y23.8961 F120.00
G01 X5.8061 Y23.8846 F120.00
G01 X5.8822 Y23.8656 F120.00
G01 X5.9561 Y23.8391 F120.00
G01 X6.0271 Y23.8055 F120.00
G01 X6.0945 Y23.7652 F120.00
G01 X6.1575 Y23.7184 F120.00
G01 X6.2157 Y23.6657 F120.00
G01 X6.2684 Y23.6075 F120.00
G01 X6.3152 Y23.5445 F120.00
G01 X6.3555 Y23.4771 F120.00
G01 X6.3891 Y23.4061 F120.00
G01 X6.4156 Y23.3322 F120.00
G01 X6.4346 Y23.2561 F120.00
G01 X6.4461 Y23.1784 F120.00
G01 X6.4500 Y23.1000 F120.00
G00 X6.4500 Y23.1000
G01 F60.00
G01 Z-1.0000
G01 F120.00
G01 X6.4461 Y23.0216 F120.00
G01 X6.4346 Y22.9439 F120.00
G01 X6.4156 Y22.8678 F120.00
G01 X6.3891 Y22.7939 F120.00
G01 X6.3555 Y22.7229 F120.00
G01 X6.3152 Y22.6555 F120.00
G01 X6.2684 Y22.5925 F120.00
G01 X6.2157 Y22.5343 F120.00
G01 X6.1575 Y22.4816 F120.00
G01 X6.0945 Y22.4348 F120.00
G01 X6.0271 Y22.3945 F120.00
G01 X5.9561 Y22.3609 F120.00
G01 X5.8822 Y22.3344 F120.00
G01 X5.8061 Y22.3154 F120.00
G01 X5.7284 Y22.3039 F120.00
G01 X5.6500 Y22.3000 F120.00
G01 X5.5716 Y22.3039 F120.00
G01 X5.4939 Y22.3154 F120.00
G01 X5.4178 Y22.3344 F120.00
G01 X5.3439 Y22.3609 F120.00
G01 X5.2729 Y22.3945 F120.00
G01 X5.2055 Y22.4348 F120.00
G01 X5.1425 Y22.4816 F120.00
G01 X5.0843 Y22.5343 F120.00
G01 X5.0316 Y22.5925 F120.00
G01 X4.9848 Y22.6555 F120.00
G01 X4.9445 Y22.7229 F120.00
G01 X4.9109 Y22.7939 F120.00
G01 X4.8844 Y22.8678 F120.00
G01 X4.8654 Y22.9439 F120.00
G01 X4.8539 Y23.0216 F120.00
G01 X4.8500 Y23.1000 F120.00
G01 X4.8539 Y23.1784 F120.00
G01 X4.8654 Y23.2561 F120.00
G01 X4.8844 Y23.3322 F120.00
G01 X4.9109 Y23.4061 F120.00
G01 X4.9445 Y23.4771 F120.00
G01 X4.9848 Y23.5445 F120.00
G01 X5.0316 Y23.6075 F120.00
G01 X5.0843 Y23.6657 F120.00
G01 X5.1425 Y23.7184 F120.00
G01 X5.2055 Y23.7652 F120.00
G01 X5.2729 Y23.8055 F120.00
G01 X5.3439 Y23.8391 F120.00
G01 X5.4178 Y23.8656 F120.00
G01 X5.4939 Y23.8846 F120.00
G01 X5.5716 Y23.8961 F120.00
G01 X5.6500 Y23.9000 F120.00
G01 X5.7284 Y23.8961 F120.00
G01 X5.8061 Y23.8846 F120.00
G01 X5.8822 Y23.8656 F120.00
G01 X5.9561 Y23.8391 F120.00
G01 X6.0271 Y23.8055 F120.00
G01 X6.0945 Y23.7652 F120.00
G01 X6.1575 Y23.7184 F120.00
G01 X6.2157 Y23.6657 F120.00
G01 X6.2684 Y23.6075 F120.00
G01 X6.3152 Y23.5445 F120.00
G01 X6.3555 Y23.4771 F120.00
G01 X6.3891 Y23.4061 F120.00
G01 X6.4156 Y23.3322 F120.00
G01 X6.4346 Y23.2561 F120.00
G01 X6.4461 Y23.1784 F120.00
G01 X6.4500 Y23.1000 F120.00
G00 X6.4500 Y23.1000
G01 F60.00
G01 Z-1.1000
G01 F120.00
G01 X6.4461 Y23.0216 F120.00
G01 X6.4346 Y22.9439 F120.00
G01 X6.4156 Y22.8678 F120.00
G01 X6.3891 Y22.7939 F120.00
G01 X6.3555 Y22.7229 F120.00
G01 X6.3152 Y22.6555 F120.00
G01 X6.2684 Y22.5925 F120.00
G01 X6.2157 Y22.5343 F120.00
G01 X6.1575 Y22.4816 F120.00
G01 X6.0945 Y22.4348 F120.00
G01 X6.0271 Y22.3945 F120.00
G01 X5.9561 Y22.3609 F120.00
G01 X5.8822 Y22.3344 F120.00
G01 X5.8061 Y22.3154 F120.00
G01 X5.7284 Y22.3039 F120.00
G01 X5.6500 Y22.3000 F120.00
G01 X5.5716 Y22.3039 F120.00
G01 X5.4939 Y22.3154 F120.00
G01 X5.4178 Y22.3344 F120.00
G01 X5.3439 Y22.3609 F120.00
G01 X5.2729 Y22.3945 F120.00
G01 X5.2055 Y22.4348 F120.00
G01 X5.1425 Y22.4816 F120.00
G01 X5.0843 Y22.5343 F120.00
G01 X5.0316 Y22.5925 F120.00
G01 X4.9848 Y22.6555 F120.00
G01 X4.9445 Y22.7229 F120.00
G01 X4.9109 Y22.7939 F120.00
G01 X4.8844 Y22.8678 F120.00
G01 X4.8654 Y22.9439 F120.00
G01 X4.8539 Y23.0216 F120.00
G01 X4.8500 Y23.1000 F120.00
G01 X4.8539 Y23.1784 F120.00
G01 X4.8654 Y23.2561 F120.00
G01 X4.8844 Y23.3322 F120.00
G01 X4.9109 Y23.4061 F120.00
G01 X4.9445 Y23.4771 F120.00
G01 X4.9848 Y23.5445 F120.00
G01 X5.0316 Y23.6075 F120.00
G01 X5.0843 Y23.6657 F120.00
G01 X5.1425 Y23.7184 F120.00
G01 X5.2055 Y23.7652 F120.00
G01 X5.2729 Y23.8055 F120.00
G01 X5.3439 Y23.8391 F120.00
G01 X5.4178 Y23.8656 F120.00
G01 X5.4939 Y23.8846 F120.00
G01 X5.5716 Y23.8961 F120.00
G01 X5.6500 Y23.9000 F120.00
G01 X5.7284 Y23.8961 F120.00
G01 X5.8061 Y23.8846 F120.00
G01 X5.8822 Y23.8656 F120.00
G01 X5.9561 Y23.8391 F120.00
G01 X6.0271 Y23.8055 F120.00
G01 X6.0945 Y23.7652 F120.00
G01 X6.1575 Y23.7184 F120.00
G01 X6.2157 Y23.6657 F120.00
G01 X6.2684 Y23.6075 F120.00
G01 X6.3152 Y23.5445 F120.00
G01 X6.3555 Y23.4771 F120.00
G01 X6.3891 Y23.4061 F120.00
G01 X6.4156 Y23.3322 F120.00
G01 X6.4346 Y23.2561 F120.00
G01 X6.4461 Y23.1784 F120.00
G01 X6.4500 Y23.1000 F120.00
G00 X6.4500 Y23.1000
G01 F60.00
G01 Z-1.2000
G01 F120.00
G01 X6.4461 Y23.0216 F120.00
G01 X6.4346 Y22.9439 F120.00
G01 X6.4156 Y22.8678 F120.00
G01 X6.3891 Y22.7939 F120.00
G01 X6.3555 Y22.7229 F120.00
G01 X6.3152 Y22.6555 F120.00
G01 X6.2684 Y22.5925 F120.00
G01 X6.2157 Y22.5343 F120.00
G01 X6.1575 Y22.4816 F120.00
G01 X6.0945 Y22.4348 F120.00
G01 X6.0271 Y22.3945 F120.00
G01 X5.9561 Y22.3609 F120.00
G01 X5.8822 Y22.3344 F120.00
G01 X5.8061 Y22.3154 F120.00
G01 X5.7284 Y22.3039 F120.00
G01 X5.6500 Y22.3000 F120.00
G01 X5.5716 Y22.3039 F120.00
G01 X5.4939 Y22.3154 F120.00
G01 X5.4178 Y22.3344 F120.00
G01 X5.3439 Y22.3609 F120.00
G01 X5.2729 Y22.3945 F120.00
G01 X5.2055 Y22.4348 F120.00
G01 X5.1425 Y22.4816 F120.00
G01 X5.0843 Y22.5343 F120.00
G01 X5.0316 Y22.5925 F120.00
G01 X4.9848 Y22.6555 F120.00
G01 X4.9445 Y22.7229 F120.00
G01 X4.9109 Y22.7939 F120.00
G01 X4.8844 Y22.8678 F120.00
G01 X4.8654 Y22.9439 F120.00
G01 X4.8539 Y23.0216 F120.00
G01 X4.8500 Y23.1000 F120.00
G01 X4.8539 Y23.1784 F120.00
G01 X4.8654 Y23.2561 F120.00
G01 X4.8844 Y23.3322 F120.00
G01 X4.9109 Y23.4061 F120.00
G01 X4.9445 Y23.4771 F120.00
G01 X4.9848 Y23.5445 F120.00
G01 X5.0316 Y23.6075 F120.00
G01 X5.0843 Y23.6657 F120.00
G01 X5.1425 Y23.7184 F120.00
G01 X5.2055 Y23.7652 F120.00
G01 X5.2729 Y23.8055 F120.00
G01 X5.3439 Y23.8391 F120.00
G01 X5.4178 Y23.8656 F120.00
G01 X5.4939 Y23.8846 F120.00
G01 X5.5716 Y23.8961 F120.00
G01 X5.6500 Y23.9000 F120.00
G01 X5.7284 Y23.8961 F120.00
G01 X5.8061 Y23.8846 F120.00
G01 X5.8822 Y23.8656 F120.00
G01 X5.9561 Y23.8391 F120.00
G01 X6.0271 Y23.8055 F120.00
G01 X6.0945 Y23.7652 F120.00
G01 X6.1575 Y23.7184 F120.00
G01 X6.2157 Y23.6657 F120.00
G01 X6.2684 Y23.6075 F120.00
G01 X6.3152 Y23.5445 F120.00
G01 X6.3555 Y23.4771 F120.00
G01 X6.3891 Y23.4061 F120.00
G01 X6.4156 Y23.3322 F120.00
G01 X6.4346 Y23.2561 F120.00
G01 X6.4461 Y23.1784 F120.00
G01 X6.4500 Y23.1000 F120.00
G00 X6.4500 Y23.1000
G01 F60.00
G01 Z-1.3000
G01 F120.00
G01 X6.4461 Y23.0216 F120.00
G01 X6.4346 Y22.9439 F120.00
G01 X6.4156 Y22.8678 F120.00
G01 X6.3891 Y22.7939 F120.00
G01 X6.3555 Y22.7229 F120.00
G01 X6.3152 Y22.6555 F120.00
G01 X6.2684 Y22.5925 F120.00
G01 X6.2157 Y22.5343 F120.00
G01 X6.1575 Y22.4816 F120.00
G01 X6.0945 Y22.4348 F120.00
G01 X6.0271 Y22.3945 F120.00
G01 X5.9561 Y22.3609 F120.00
G01 X5.8822 Y22.3344 F120.00
G01 X5.8061 Y22.3154 F120.00
G01 X5.7284 Y22.3039 F120.00
G01 X5.6500 Y22.3000 F120.00
G01 X5.5716 Y22.3039 F120.00
G01 X5.4939 Y22.3154 F120.00
G01 X5.4178 Y22.3344 F120.00
G01 X5.3439 Y22.3609 F120.00
G01 X5.2729 Y22.3945 F120.00
G01 X5.2055 Y22.4348 F120.00
G01 X5.1425 Y22.4816 F120.00
G01 X5.0843 Y22.5343 F120.00
G01 X5.0316 Y22.5925 F120.00
G01 X4.9848 Y22.6555 F120.00
G01 X4.9445 Y22.7229 F120.00
G01 X4.9109 Y22.7939 F120.00
G01 X4.8844 Y22.8678 F120.00
G01 X4.8654 Y22.9439 F120.00
G01 X4.8539 Y23.0216 F120.00
G01 X4.8500 Y23.1000 F120.00
G01 X4.8539 Y23.1784 F120.00
G01 X4.8654 Y23.2561 F120.00
G01 X4.8844 Y23.3322 F120.00
G01 X4.9109 Y23.4061 F120.00
G01 X4.9445 Y23.4771 F120.00
G01 X4.9848 Y23.5445 F120.00
G01 X5.0316 Y23.6075 F120.00
G01 X5.0843 Y23.6657 F120.00
G01 X5.1425 Y23.7184 F120.00
G01 X5.2055 Y23.7652 F120.00
G01 X5.2729 Y23.8055 F120.00
G01 X5.3439 Y23.8391 F120.00
G01 X5.4178 Y23.8656 F120.00
G01 X5.4939 Y23.8846 F120.00
G01 X5.5716 Y23.8961 F120.00
G01 X5.6500 Y23.9000 F120.00
G01 X5.7284 Y23.8961 F120.00
G01 X5.8061 Y23.8846 F120.00
G01 X5.8822 Y23.8656 F120.00
G01 X5.9561 Y23.8391 F120.00
G01 X6.0271 Y23.8055 F120.00
G01 X6.0945 Y23.7652 F120.00
G01 X6.1575 Y23.7184 F120.00
G01 X6.2157 Y23.6657 F120.00
G01 X6.2684 Y23.6075 F120.00
G01 X6.3152 Y23.5445 F120.00
G01 X6.3555 Y23.4771 F120.00
G01 X6.3891 Y23.4061 F120.00
G01 X6.4156 Y23.3322 F120.00
G01 X6.4346 Y23.2561 F120.00
G01 X6.4461 Y23.1784 F120.00
G01 X6.4500 Y23.1000 F120.00
G00 X6.4500 Y23.1000
G01 F60.00
G01 Z-1.4000
G01 F120.00
G01 X6.4461 Y23.0216 F120.00
G01 X6.4346 Y22.9439 F120.00
G01 X6.4156 Y22.8678 F120.00
G01 X6.3891 Y22.7939 F120.00
G01 X6.3555 Y22.7229 F120.00
G01 X6.3152 Y22.6555 F120.00
G01 X6.2684 Y22.5925 F120.00
G01 X6.2157 Y22.5343 F120.00
G01 X6.1575 Y22.4816 F120.00
G01 X6.0945 Y22.4348 F120.00
G01 X6.0271 Y22.3945 F120.00
G01 X5.9561 Y22.3609 F120.00
G01 X5.8822 Y22.3344 F120.00
G01 X5.8061 Y22.3154 F120.00
G01 X5.7284 Y22.3039 F120.00
G01 X5.6500 Y22.3000 F120.00
G01 X5.5716 Y22.3039 F120.00
G01 X5.4939 Y22.3154 F120.00
G01 X5.4178 Y22.3344 F120.00
G01 X5.3439 Y22.3609 F120.00
G01 X5.2729 Y22.3945 F120.00
G01 X5.2055 Y22.4348 F120.00
G01 X5.1425 Y22.4816 F120.00
G01 X5.0843 Y22.5343 F120.00
G01 X5.0316 Y22.5925 F120.00
G01 X4.9848 Y22.6555 F120.00
G01 X4.9445 Y22.7229 F120.00
G01 X4.9109 Y22.7939 F120.00
G01 X4.8844 Y22.8678 F120.00
G01 X4.8654 Y22.9439 F120.00
G01 X4.8539 Y23.0216 F120.00
G01 X4.8500 Y23.1000 F120.00
G01 X4.8539 Y23.1784 F120.00
G01 X4.8654 Y23.2561 F120.00
G01 X4.8844 Y23.3322 F120.00
G01 X4.9109 Y23.4061 F120.00
G01 X4.9445 Y23.4771 F120.00
G01 X4.9848 Y23.5445 F120.00
G01 X5.0316 Y23.6075 F120.00
G01 X5.0843 Y23.6657 F120.00
G01 X5.1425 Y23.7184 F120.00
G01 X5.2055 Y23.7652 F120.00
G01 X5.2729 Y23.8055 F120.00
G01 X5.3439 Y23.8391 F120.00
G01 X5.4178 Y23.8656 F120.00
G01 X5.4939 Y23.8846 F120.00
G01 X5.5716 Y23.8961 F120.00
G01 X5.6500 Y23.9000 F120.00
G01 X5.7284 Y23.8961 F120.00
G01 X5.8061 Y23.8846 F120.00
G01 X5.8822 Y23.8656 F120.00
G01 X5.9561 Y23.8391 F120.00
G01 X6.0271 Y23.8055 F120.00
G01 X6.0945 Y23.7652 F120.00
G01 X6.1575 Y23.7184 F120.00
G01 X6.2157 Y23.6657 F120.00
G01 X6.2684 Y23.6075 F120.00
G01 X6.3152 Y23.5445 F120.00
G01 X6.3555 Y23.4771 F120.00
G01 X6.3891 Y23.4061 F120.00
G01 X6.4156 Y23.3322 F120.00
G01 X6.4346 Y23.2561 F120.00
G01 X6.4461 Y23.1784 F120.00
G01 X6.4500 Y23.1000 F120.00
G00 X6.4500 Y23.1000
G01 F60.00
G01 Z-1.5000
G01 F120.00
G01 X6.4461 Y23.0216 F120.00
G01 X6.4346 Y22.9439 F120.00
G01 X6.4156 Y22.8678 F120.00
G01 X6.3891 Y22.7939 F120.00
G01 X6.3555 Y22.7229 F120.00
G01 X6.3152 Y22.6555 F120.00
G01 X6.2684 Y22.5925 F120.00
G01 X6.2157 Y22.5343 F120.00
G01 X6.1575 Y22.4816 F120.00
G01 X6.0945 Y22.4348 F120.00
G01 X6.0271 Y22.3945 F120.00
G01 X5.9561 Y22.3609 F120.00
G01 X5.8822 Y22.3344 F120.00
G01 X5.8061 Y22.3154 F120.00
G01 X5.7284 Y22.3039 F120.00
G01 X5.6500 Y22.3000 F120.00
G01 X5.5716 Y22.3039 F120.00
G01 X5.4939 Y22.3154 F120.00
G01 X5.4178 Y22.3344 F120.00
G01 X5.3439 Y22.3609 F120.00
G01 X5.2729 Y22.3945 F120.00
G01 X5.2055 Y22.4348 F120.00
G01 X5.1425 Y22.4816 F120.00
G01 X5.0843 Y22.5343 F120.00
G01 X5.0316 Y22.5925 F120.00
G01 X4.9848 Y22.6555 F120.00
G01 X4.9445 Y22.7229 F120.00
G01 X4.9109 Y22.7939 F120.00
G01 X4.8844 Y22.8678 F120.00
G01 X4.8654 Y22.9439 F120.00
G01 X4.8539 Y23.0216 F120.00
G01 X4.8500 Y23.1000 F120.00
G01 X4.8539 Y23.1784 F120.00
G01 X4.8654 Y23.2561 F120.00
G01 X4.8844 Y23.3322 F120.00
G01 X4.9109 Y23.4061 F120.00
G01 X4.9445 Y23.4771 F120.00
G01 X4.9848 Y23.5445 F120.00
G01 X5.0316 Y23.6075 F120.00
G01 X5.0843 Y23.6657 F120.00
G01 X5.1425 Y23.7184 F120.00
G01 X5.2055 Y23.7652 F120.00
G01 X5.2729 Y23.8055 F120.00
G01 X5.3439 Y23.8391 F120.00
G01 X5.4178 Y23.8656 F120.00
G01 X5.4939 Y23.8846 F120.00
G01 X5.5716 Y23.8961 F120.00
G01 X5.6500 Y23.9000 F120.00
G01 X5.7284 Y23.8961 F120.00
G01 X5.8061 Y23.8846 F120.00
G01 X5.8822 Y23.8656 F120.00
G01 X5.9561 Y23.8391 F120.00
G01 X6.0271 Y23.8055 F120.00
G01 X6.0945 Y23.7652 F120.00
G01 X6.1575 Y23.7184 F120.00
G01 X6.2157 Y23.6657 F120.00
G01 X6.2684 Y23.6075 F120.00
G01 X6.3152 Y23.5445 F120.00
G01 X6.3555 Y23.4771 F120.00
G01 X6.3891 Y23.4061 F120.00
G01 X6.4156 Y23.3322 F120.00
G01 X6.4346 Y23.2561 F120.00
G01 X6.4461 Y23.1784 F120.00
G01 X6.4500 Y23.1000 F120.00
G00 X6.4500 Y23.1000
G01 F60.00
G01 Z-1.6000
G01 F120.00
G01 X6.4461 Y23.0216 F120.00
G01 X6.4346 Y22.9439 F120.00
G01 X6.4156 Y22.8678 F120.00
G01 X6.3891 Y22.7939 F120.00
G01 X6.3555 Y22.7229 F120.00
G01 X6.3152 Y22.6555 F120.00
G01 X6.2684 Y22.5925 F120.00
G01 X6.2157 Y22.5343 F120.00
G01 X6.1575 Y22.4816 F120.00
G01 X6.0945 Y22.4348 F120.00
G01 X6.0271 Y22.3945 F120.00
G01 X5.9561 Y22.3609 F120.00
G01 X5.8822 Y22.3344 F120.00
G01 X5.8061 Y22.3154 F120.00
G01 X5.7284 Y22.3039 F120.00
G01 X5.6500 Y22.3000 F120.00
G01 X5.5716 Y22.3039 F120.00
G01 X5.4939 Y22.3154 F120.00
G01 X5.4178 Y22.3344 F120.00
G01 X5.3439 Y22.3609 F120.00
G01 X5.2729 Y22.3945 F120.00
G01 X5.2055 Y22.4348 F120.00
G01 X5.1425 Y22.4816 F120.00
G01 X5.0843 Y22.5343 F120.00
G01 X5.0316 Y22.5925 F120.00
G01 X4.9848 Y22.6555 F120.00
G01 X4.9445 Y22.7229 F120.00
G01 X4.9109 Y22.7939 F120.00
G01 X4.8844 Y22.8678 F120.00
G01 X4.8654 Y22.9439 F120.00
G01 X4.8539 Y23.0216 F120.00
G01 X4.8500 Y23.1000 F120.00
G01 X4.8539 Y23.1784 F120.00
G01 X4.8654 Y23.2561 F120.00
G01 X4.8844 Y23.3322 F120.00
G01 X4.9109 Y23.4061 F120.00
G01 X4.9445 Y23.4771 F120.00
G01 X4.9848 Y23.5445 F120.00
G01 X5.0316 Y23.6075 F120.00
G01 X5.0843 Y23.6657 F120.00
G01 X5.1425 Y23.7184 F120.00
G01 X5.2055 Y23.7652 F120.00
G01 X5.2729 Y23.8055 F120.00
G01 X5.3439 Y23.8391 F120.00
G01 X5.4178 Y23.8656 F120.00
G01 X5.4939 Y23.8846 F120.00
G01 X5.5716 Y23.8961 F120.00
G01 X5.6500 Y23.9000 F120.00
G01 X5.7284 Y23.8961 F120.00
G01 X5.8061 Y23.8846 F120.00
G01 X5.8822 Y23.8656 F120.00
G01 X5.9561 Y23.8391 F120.00
G01 X6.0271 Y23.8055 F120.00
G01 X6.0945 Y23.7652 F120.00
G01 X6.1575 Y23.7184 F120.00
G01 X6.2157 Y23.6657 F120.00
G01 X6.2684 Y23.6075 F120.00
G01 X6.3152 Y23.5445 F120.00
G01 X6.3555 Y23.4771 F120.00
G01 X6.3891 Y23.4061 F120.00
G01 X6.4156 Y23.3322 F120.00
G01 X6.4346 Y23.2561 F120.00
G01 X6.4461 Y23.1784 F120.00
G01 X6.4500 Y23.1000 F120.00
G00 X6.4500 Y23.1000
G01 F60.00
G01 Z-1.7000
G01 F120.00
G01 X6.4461 Y23.0216 F120.00
G01 X6.4346 Y22.9439 F120.00
G01 X6.4156 Y22.8678 F120.00
G01 X6.3891 Y22.7939 F120.00
G01 X6.3555 Y22.7229 F120.00
G01 X6.3152 Y22.6555 F120.00
G01 X6.2684 Y22.5925 F120.00
G01 X6.2157 Y22.5343 F120.00
G01 X6.1575 Y22.4816 F120.00
G01 X6.0945 Y22.4348 F120.00
G01 X6.0271 Y22.3945 F120.00
G01 X5.9561 Y22.3609 F120.00
G01 X5.8822 Y22.3344 F120.00
G01 X5.8061 Y22.3154 F120.00
G01 X5.7284 Y22.3039 F120.00
G01 X5.6500 Y22.3000 F120.00
G01 X5.5716 Y22.3039 F120.00
G01 X5.4939 Y22.3154 F120.00
G01 X5.4178 Y22.3344 F120.00
G01 X5.3439 Y22.3609 F120.00
G01 X5.2729 Y22.3945 F120.00
G01 X5.2055 Y22.4348 F120.00
G01 X5.1425 Y22.4816 F120.00
G01 X5.0843 Y22.5343 F120.00
G01 X5.0316 Y22.5925 F120.00
G01 X4.9848 Y22.6555 F120.00
G01 X4.9445 Y22.7229 F120.00
G01 X4.9109 Y22.7939 F120.00
G01 X4.8844 Y22.8678 F120.00
G01 X4.8654 Y22.9439 F120.00
G01 X4.8539 Y23.0216 F120.00
G01 X4.8500 Y23.1000 F120.00
G01 X4.8539 Y23.1784 F120.00
G01 X4.8654 Y23.2561 F120.00
G01 X4.8844 Y23.3322 F120.00
G01 X4.9109 Y23.4061 F120.00
G01 X4.9445 Y23.4771 F120.00
G01 X4.9848 Y23.5445 F120.00
G01 X5.0316 Y23.6075 F120.00
G01 X5.0843 Y23.6657 F120.00
G01 X5.1425 Y23.7184 F120.00
G01 X5.2055 Y23.7652 F120.00
G01 X5.2729 Y23.8055 F120.00
G01 X5.3439 Y23.8391 F120.00
G01 X5.4178 Y23.8656 F120.00
G01 X5.4939 Y23.8846 F120.00
G01 X5.5716 Y23.8961 F120.00
G01 X5.6500 Y23.9000 F120.00
G01 X5.7284 Y23.8961 F120.00
G01 X5.8061 Y23.8846 F120.00
G01 X5.8822 Y23.8656 F120.00
G01 X5.9561 Y23.8391 F120.00
G01 X6.0271 Y23.8055 F120.00
G01 X6.0945 Y23.7652 F120.00
G01 X6.1575 Y23.7184 F120.00
G01 X6.2157 Y23.6657 F120.00
G01 X6.2684 Y23.6075 F120.00
G01 X6.3152 Y23.5445 F120.00
G01 X6.3555 Y23.4771 F120.00
G01 X6.3891 Y23.4061 F120.00
G01 X6.4156 Y23.3322 F120.00
G01 X6.4346 Y23.2561 F120.00
G01 X6.4461 Y23.1784 F120.00
G01 X6.4500 Y23.1000 F120.00
G00 X6.4500 Y23.1000
G01 F60.00
G01 Z-1.8000
G01 F120.00
G01 X6.4461 Y23.0216 F120.00
G01 X6.4346 Y22.9439 F120.00
G01 X6.4156 Y22.8678 F120.00
G01 X6.3891 Y22.7939 F120.00
G01 X6.3555 Y22.7229 F120.00
G01 X6.3152 Y22.6555 F120.00
G01 X6.2684 Y22.5925 F120.00
G01 X6.2157 Y22.5343 F120.00
G01 X6.1575 Y22.4816 F120.00
G01 X6.0945 Y22.4348 F120.00
G01 X6.0271 Y22.3945 F120.00
G01 X5.9561 Y22.3609 F120.00
G01 X5.8822 Y22.3344 F120.00
G01 X5.8061 Y22.3154 F120.00
G01 X5.7284 Y22.3039 F120.00
G01 X5.6500 Y22.3000 F120.00
G01 X5.5716 Y22.3039 F120.00
G01 X5.4939 Y22.3154 F120.00
G01 X5.4178 Y22.3344 F120.00
G01 X5.3439 Y22.3609 F120.00
G01 X5.2729 Y22.3945 F120.00
G01 X5.2055 Y22.4348 F120.00
G01 X5.1425 Y22.4816 F120.00
G01 X5.0843 Y22.5343 F120.00
G01 X5.0316 Y22.5925 F120.00
G01 X4.9848 Y22.6555 F120.00
G01 X4.9445 Y22.7229 F120.00
G01 X4.9109 Y22.7939 F120.00
G01 X4.8844 Y22.8678 F120.00
G01 X4.8654 Y22.9439 F120.00
G01 X4.8539 Y23.0216 F120.00
G01 X4.8500 Y23.1000 F120.00
G01 X4.8539 Y23.1784 F120.00
G01 X4.8654 Y23.2561 F120.00
G01 X4.8844 Y23.3322 F120.00
G01 X4.9109 Y23.4061 F120.00
G01 X4.9445 Y23.4771 F120.00
G01 X4.9848 Y23.5445 F120.00
G01 X5.0316 Y23.6075 F120.00
G01 X5.0843 Y23.6657 F120.00
G01 X5.1425 Y23.7184 F120.00
G01 X5.2055 Y23.7652 F120.00
G01 X5.2729 Y23.8055 F120.00
G01 X5.3439 Y23.8391 F120.00
G01 X5.4178 Y23.8656 F120.00
G01 X5.4939 Y23.8846 F120.00
G01 X5.5716 Y23.8961 F120.00
G01 X5.6500 Y23.9000 F120.00
G01 X5.7284 Y23.8961 F120.00
G01 X5.8061 Y23.8846 F120.00
G01 X5.8822 Y23.8656 F120.00
G01 X5.9561 Y23.8391 F120.00
G01 X6.0271 Y23.8055 F120.00
G01 X6.0945 Y23.7652 F120.00
G01 X6.1575 Y23.7184 F120.00
G01 X6.2157 Y23.6657 F120.00
G01 X6.2684 Y23.6075 F120.00
G01 X6.3152 Y23.5445 F120.00
G01 X6.3555 Y23.4771 F120.00
G01 X6.3891 Y23.4061 F120.00
G01 X6.4156 Y23.3322 F120.00
G01 X6.4346 Y23.2561 F120.00
G01 X6.4461 Y23.1784 F120.00
G01 X6.4500 Y23.1000 F120.00
G00 Z2.0000
G00 X45.1000 Y32.0000
G01 F60.00
G01 Z-0.1000
G01 F120.00
G01 X45.0947 Y31.8922 F120.00
G01 X45.0789 Y31.7854 F120.00
G01 X45.0526 Y31.6807 F120.00
G01 X45.0163 Y31.5790 F120.00
G01 X44.9701 Y31.4815 F120.00
G01 X44.9146 Y31.3889 F120.00
G01 X44.8503 Y31.3022 F120.00
G01 X44.7778 Y31.2222 F120.00
G01 X44.6978 Y31.1497 F120.00
G01 X44.6111 Y31.0854 F120.00
G01 X44.5185 Y31.0299 F120.00
G01 X44.4209 Y30.9837 F120.00
G01 X44.3193 Y30.9474 F120.00
G01 X44.2146 Y30.9211 F120.00
G01 X44.1078 Y30.9053 F120.00
G01 X44.0000 Y30.9000 F120.00
G01 X43.8922 Y30.9053 F120.00
G01 X43.7854 Y30.9211 F120.00
G01 X43.6807 Y30.9474 F120.00
G01 X43.5790 Y30.9837 F120.00
G01 X43.4815 Y31.0299 F120.00
G01 X43.3889 Y31.0854 F120.00
G01 X43.3022 Y31.1497 F120.00
G01 X43.2222 Y31.2222 F120.00
G01 X43.1497 Y31.3022 F120.00
G01 X43.0854 Y31.3889 F120.00
G01 X43.0299 Y31.4815 F120.00
G01 X42.9837 Y31.5790 F120.00
G01 X42.9474 Y31.6807 F120.00
G01 X42.9211 Y31.7854 F120.00
G01 X42.9053 Y31.8922 F120.00
G01 X42.9000 Y32.0000 F120.00
G01 X42.9053 Y32.1078 F120.00
G01 X42.9211 Y32.2146 F120.00
G01 X42.9474 Y32.3193 F120.00
G01 X42.9837 Y32.4210 F120.00
G01 X43.0299 Y32.5185 F120.00
G01 X43.0854 Y32.6111 F120.00
G01 X43.1497 Y32.6978 F120.00
G01 X43.2222 Y32.7778 F120.00
G01 X43.3022 Y32.8503 F120.00
G01 X43.3889 Y32.9146 F120.00
G01 X43.4815 Y32.9701 F120.00
G01 X43.5790 Y33.0163 F120.00
G01 X43.6807 Y33.0526 F120.00
G01 X43.7854 Y33.0789 F120.00
G01 X43.8922 Y33.0947 F120.00
G01 X44.0000 Y33.1000 F120.00
G01 X44.1078 Y33.0947 F120.00
G01 X44.2146 Y33.0789 F120.00
G01 X44.3193 Y33.0526 F120.00
G01 X44.4209 Y33.0163 F120.00
G01 X44.5185 Y32.9701 F120.00
G01 X44.6111 Y32.9146 F120.00
G01 X44.6978 Y32.8503 F120.00
G01 X44.7778 Y32.7778 F120.00
G01 X44.8503 Y32.6978 F120.00
G01 X44.9146 Y32.6111 F120.00
G01 X44.9701 Y32.5185 F120.00
G01 X45.0163 Y32.4210 F120.00
G01 X45.0526 Y32.3193 F120.00
G01 X45.0789 Y32.2146 F120.00
G01 X45.0947 Y32.1078 F120.00
G01 X45.1000 Y32.0000 F120.00
G00 X45.1000 Y32.0000
G01 F60.00
G01 Z-0.2000
G01 F120.00
G01 X45.0947 Y31.8922 F120.00
G01 X45.0789 Y31.7854 F120.00
G01 X45.0526 Y31.6807 F120.00
G01 X45.0163 Y31.5790 F120.00
G01 X44.9701 Y31.4815 F120.00
G01 X44.9146 Y31.3889 F120.00
G01 X44.8503 Y31.3022 F120.00
G01 X44.7778 Y31.2222 F120.00
G01 X44.6978 Y31.1497 F120.00
G01 X44.6111 Y31.0854 F120.00
G01 X44.5185 Y31.0299 F120.00
G01 X44.4209 Y30.9837 F120.00
G01 X44.3193 Y30.9474 F120.00
G01 X44.2146 Y30.9211 F120.00
G01 X44.1078 Y30.9053 F120.00
G01 X44.0000 Y30.9000 F120.00
G01 X43.8922 Y30.9053 F120.00
G01 X43.7854 Y30.9211 F120.00
G01 X43.6807 Y30.9474 F120.00
G01 X43.5790 Y30.9837 F120.00
G01 X43.4815 Y31.0299 F120.00
G01 X43.3889 Y31.0854 F120.00
G01 X43.3022 Y31.1497 F120.00
G01 X43.2222 Y31.2222 F120.00
G01 X43.1497 Y31.3022 F120.00
G01 X43.0854 Y31.3889 F120.00
G01 X43.0299 Y31.4815 F120.00
G01 X42.9837 Y31.5790 F120.00
G01 X42.9474 Y31.6807 F120.00
G01 X42.9211 Y31.7854 F120.00
G01 X42.9053 Y31.8922 F120.00
G01 X42.9000 Y32.0000 F120.00
G01 X42.9053 Y32.1078 F120.00
G01 X42.9211 Y32.2146 F120.00
G01 X42.9474 Y32.3193 F120.00
G01 X42.9837 Y32.4210 F120.00
G01 X43.0299 Y32.5185 F120.00
G01 X43.0854 Y32.6111 F120.00
G01 X43.1497 Y32.6978 F120.00
G01 X43.2222 Y32.7778 F120.00
G01 X43.3022 Y32.8503 F120.00
G01 X43.3889 Y32.9146 F120.00
G01 X43.4815 Y32.9701 F120.00
G01 X43.5790 Y33.0163 F120.00
G01 X43.6807 Y33.0526 F120.00
G01 X43.7854 Y33.0789 F120.00
G01 X43.8922 Y33.0947 F120.00
G01 X44.0000 Y33.1000 F120.00
G01 X44.1078 Y33.0947 F120.00
G01 X44.2146 Y33.0789 F120.00
G01 X44.3193 Y33.0526 F120.00
G01 X44.4209 Y33.0163 F120.00
G01 X44.5185 Y32.9701 F120.00
G01 X44.6111 Y32.9146 F120.00
G01 X44.6978 Y32.8503 F120.00
G01 X44.7778 Y32.7778 F120.00
G01 X44.8503 Y32.6978 F120.00
G01 X44.9146 Y32.6111 F120.00
G01 X44.9701 Y32.5185 F120.00
G01 X45.0163 Y32.4210 F120.00
G01 X45.0526 Y32.3193 F120.00
G01 X45.0789 Y32.2146 F120.00
G01 X45.0947 Y32.1078 F120.00
G01 X45.1000 Y32.0000 F120.00
G00 X45.1000 Y32.0000
G01 F60.00
G01 Z-0.3000
G01 F120.00
G01 X45.0947 Y31.8922 F120.00
G01 X45.0789 Y31.7854 F120.00
G01 X45.0526 Y31.6807 F120.00
G01 X45.0163 Y31.5790 F120.00
G01 X44.9701 Y31.4815 F120.00
G01 X44.9146 Y31.3889 F120.00
G01 X44.8503 Y31.3022 F120.00
G01 X44.7778 Y31.2222 F120.00
G01 X44.6978 Y31.1497 F120.00
G01 X44.6111 Y31.0854 F120.00
G01 X44.5185 Y31.0299 F120.00
G01 X44.4209 Y30.9837 F120.00
G01 X44.3193 Y30.9474 F120.00
G01 X44.2146 Y30.9211 F120.00
G01 X44.1078 Y30.9053 F120.00
G01 X44.0000 Y30.9000 F120.00
G01 X43.8922 Y30.9053 F120.00
G01 X43.7854 Y30.9211 F120.00
G01 X43.6807 Y30.9474 F120.00
G01 X43.5790 Y30.9837 F120.00
G01 X43.4815 Y31.0299 F120.00
G01 X43.3889 Y31.0854 F120.00
G01 X43.3022 Y31.1497 F120.00
G01 X43.2222 Y31.2222 F120.00
G01 X43.1497 Y31.3022 F120.00
G01 X43.0854 Y31.3889 F120.00
G01 X43.0299 Y31.4815 F120.00
G01 X42.9837 Y31.5790 F120.00
G01 X42.9474 Y31.6807 F120.00
G01 X42.9211 Y31.7854 F120.00
G01 X42.9053 Y31.8922 F120.00
G01 X42.9000 Y32.0000 F120.00
G01 X42.9053 Y32.1078 F120.00
G01 X42.9211 Y32.2146 F120.00
G01 X42.9474 Y32.3193 F120.00
G01 X42.9837 Y32.4210 F120.00
G01 X43.0299 Y32.5185 F120.00
G01 X43.0854 Y32.6111 F120.00
G01 X43.1497 Y32.6978 F120.00
G01 X43.2222 Y32.7778 F120.00
G01 X43.3022 Y32.8503 F120.00
G01 X43.3889 Y32.9146 F120.00
G01 X43.4815 Y32.9701 F120.00
G01 X43.5790 Y33.0163 F120.00
G01 X43.6807 Y33.0526 F120.00
G01 X43.7854 Y33.0789 F120.00
G01 X43.8922 Y33.0947 F120.00
G01 X44.0000 Y33.1000 F120.00
G01 X44.1078 Y33.0947 F120.00
G01 X44.2146 Y33.0789 F120.00
G01 X44.3193 Y33.0526 F120.00
G01 X44.4209 Y33.0163 F120.00
G01 X44.5185 Y32.9701 F120.00
G01 X44.6111 Y32.9146 F120.00
G01 X44.6978 Y32.8503 F120.00
G01 X44.7778 Y32.7778 F120.00
G01 X44.8503 Y32.6978 F120.00
G01 X44.9146 Y32.6111 F120.00
G01 X44.9701 Y32.5185 F120.00
G01 X45.0163 Y32.4210 F120.00
G01 X45.0526 Y32.3193 F120.00
G01 X45.0789 Y32.2146 F120.00
G01 X45.0947 Y32.1078 F120.00
G01 X45.1000 Y32.0000 F120.00
G00 X45.1000 Y32.0000
G01 F60.00
G01 Z-0.4000
G01 F120.00
G01 X45.0947 Y31.8922 F120.00
G01 X45.0789 Y31.7854 F120.00
G01 X45.0526 Y31.6807 F120.00
G01 X45.0163 Y31.5790 F120.00
G01 X44.9701 Y31.4815 F120.00
G01 X44.9146 Y31.3889 F120.00
G01 X44.8503 Y31.3022 F120.00
G01 X44.7778 Y31.2222 F120.00
G01 X44.6978 Y31.1497 F120.00
G01 X44.6111 Y31.0854 F120.00
G01 X44.5185 Y31.0299 F120.00
G01 X44.4209 Y30.9837 F120.00
G01 X44.3193 Y30.9474 F120.00
G01 X44.2146 Y30.9211 F120.00
G01 X44.1078 Y30.9053 F120.00
G01 X44.0000 Y30.9000 F120.00
G01 X43.8922 Y30.9053 F120.00
G01 X43.7854 Y30.9211 F120.00
G01 X43.6807 Y30.9474 F120.00
G01 X43.5790 Y30.9837 F120.00
G01 X43.4815 Y31.0299 F120.00
G01 X43.3889 Y31.0854 F120.00
G01 X43.3022 Y31.1497 F120.00
G01 X43.2222 Y31.2222 F120.00
G01 X43.1497 Y31.3022 F120.00
G01 X43.0854 Y31.3889 F120.00
G01 X43.0299 Y31.4815 F120.00
G01 X42.9837 Y31.5790 F120.00
G01 X42.9474 Y31.6807 F120.00
G01 X42.9211 Y31.7854 F120.00
G01 X42.9053 Y31.8922 F120.00
G01 X42.9000 Y32.0000 F120.00
G01 X42.9053 Y32.1078 F120.00
G01 X42.9211 Y32.2146 F120.00
G01 X42.9474 Y32.3193 F120.00
G01 X42.9837 Y32.4210 F120.00
G01 X43.0299 Y32.5185 F120.00
G01 X43.0854 Y32.6111 F120.00
G01 X43.1497 Y32.6978 F120.00
G01 X43.2222 Y32.7778 F120.00
G01 X43.3022 Y32.8503 F120.00
G01 X43.3889 Y32.9146 F120.00
G01 X43.4815 Y32.9701 F120.00
G01 X43.5790 Y33.0163 F120.00
G01 X43.6807 Y33.0526 F120.00
G01 X43.7854 Y33.0789 F120.00
G01 X43.8922 Y33.0947 F120.00
G01 X44.0000 Y33.1000 F120.00
G01 X44.1078 Y33.0947 F120.00
G01 X44.2146 Y33.0789 F120.00
G01 X44.3193 Y33.0526 F120.00
G01 X44.4209 Y33.0163 F120.00
G01 X44.5185 Y32.9701 F120.00
G01 X44.6111 Y32.9146 F120.00
G01 X44.6978 Y32.8503 F120.00
G01 X44.7778 Y32.7778 F120.00
G01 X44.8503 Y32.6978 F120.00
G01 X44.9146 Y32.6111 F120.00
G01 X44.9701 Y32.5185 F120.00
G01 X45.0163 Y32.4210 F120.00
G01 X45.0526 Y32.3193 F120.00
G01 X45.0789 Y32.2146 F120.00
G01 X45.0947 Y32.1078 F120.00
G01 X45.1000 Y32.0000 F120.00
G00 X45.1000 Y32.0000
G01 F60.00
G01 Z-0.5000
G01 F120.00
G01 X45.0947 Y31.8922 F120.00
G01 X45.0789 Y31.7854 F120.00
G01 X45.0526 Y31.6807 F120.00
G01 X45.0163 Y31.5790 F120.00
G01 X44.9701 Y31.4815 F120.00
G01 X44.9146 Y31.3889 F120.00
G01 X44.8503 Y31.3022 F120.00
G01 X44.7778 Y31.2222 F120.00
G01 X44.6978 Y31.1497 F120.00
G01 X44.6111 Y31.0854 F120.00
G01 X44.5185 Y31.0299 F120.00
G01 X44.4209 Y30.9837 F120.00
G01 X44.3193 Y30.9474 F120.00
G01 X44.2146 Y30.9211 F120.00
G01 X44.1078 Y30.9053 F120.00
G01 X44.0000 Y30.9000 F120.00
G01 X43.8922 Y30.9053 F120.00
G01 X43.7854 Y30.9211 F120.00
G01 X43.6807 Y30.9474 F120.00
G01 X43.5790 Y30.9837 F120.00
G01 X43.4815 Y31.0299 F120.00
G01 X43.3889 Y31.0854 F120.00
G01 X43.3022 Y31.1497 F120.00
G01 X43.2222 Y31.2222 F120.00
G01 X43.1497 Y31.3022 F120.00
G01 X43.0854 Y31.3889 F120.00
G01 X43.0299 Y31.4815 F120.00
G01 X42.9837 Y31.5790 F120.00
G01 X42.9474 Y31.6807 F120.00
G01 X42.9211 Y31.7854 F120.00
G01 X42.9053 Y31.8922 F120.00
G01 X42.9000 Y32.0000 F120.00
G01 X42.9053 Y32.1078 F120.00
G01 X42.9211 Y32.2146 F120.00
G01 X42.9474 Y32.3193 F120.00
G01 X42.9837 Y32.4210 F120.00
G01 X43.0299 Y32.5185 F120.00
G01 X43.0854 Y32.6111 F120.00
G01 X43.1497 Y32.6978 F120.00
G01 X43.2222 Y32.7778 F120.00
G01 X43.3022 Y32.8503 F120.00
G01 X43.3889 Y32.9146 F120.00
G01 X43.4815 Y32.9701 F120.00
G01 X43.5790 Y33.0163 F120.00
G01 X43.6807 Y33.0526 F120.00
G01 X43.7854 Y33.0789 F120.00
G01 X43.8922 Y33.0947 F120.00
G01 X44.0000 Y33.1000 F120.00
G01 X44.1078 Y33.0947 F120.00
G01 X44.2146 Y33.0789 F120.00
G01 X44.3193 Y33.0526 F120.00
G01 X44.4209 Y33.0163 F120.00
G01 X44.5185 Y32.9701 F120.00
G01 X44.6111 Y32.9146 F120.00
G01 X44.6978 Y32.8503 F120.00
G01 X44.7778 Y32.7778 F120.00
G01 X44.8503 Y32.6978 F120.00
G01 X44.9146 Y32.6111 F120.00
G01 X44.9701 Y32.5185 F120.00
G01 X45.0163 Y32.4210 F120.00
G01 X45.0526 Y32.3193 F120.00
G01 X45.0789 Y32.2146 F120.00
G01 X45.0947 Y32.1078 F120.00
G01 X45.1000 Y32.0000 F120.00
G00 X45.1000 Y32.0000
G01 F60.00
G01 Z-0.6000
G01 F120.00
G01 X45.0947 Y31.8922 F120.00
G01 X45.0789 Y31.7854 F120.00
G01 X45.0526 Y31.6807 F120.00
G01 X45.0163 Y31.5790 F120.00
G01 X44.9701 Y31.4815 F120.00
G01 X44.9146 Y31.3889 F120.00
G01 X44.8503 Y31.3022 F120.00
G01 X44.7778 Y31.2222 F120.00
G01 X44.6978 Y31.1497 F120.00
G01 X44.6111 Y31.0854 F120.00
G01 X44.5185 Y31.0299 F120.00
G01 X44.4209 Y30.9837 F120.00
G01 X44.3193 Y30.9474 F120.00
G01 X44.2146 Y30.9211 F120.00
G01 X44.1078 Y30.9053 F120.00
G01 X44.0000 Y30.9000 F120.00
G01 X43.8922 Y30.9053 F120.00
G01 X43.7854 Y30.9211 F120.00
G01 X43.6807 Y30.9474 F120.00
G01 X43.5790 Y30.9837 F120.00
G01 X43.4815 Y31.0299 F120.00
G01 X43.3889 Y31.0854 F120.00
G01 X43.3022 Y31.1497 F120.00
G01 X43.2222 Y31.2222 F120.00
G01 X43.1497 Y31.3022 F120.00
G01 X43.0854 Y31.3889 F120.00
G01 X43.0299 Y31.4815 F120.00
G01 X42.9837 Y31.5790 F120.00
G01 X42.9474 Y31.6807 F120.00
G01 X42.9211 Y31.7854 F120.00
G01 X42.9053 Y31.8922 F120.00
G01 X42.9000 Y32.0000 F120.00
G01 X42.9053 Y32.1078 F120.00
G01 X42.9211 Y32.2146 F120.00
G01 X42.9474 Y32.3193 F120.00
G01 X42.9837 Y32.4210 F120.00
G01 X43.0299 Y32.5185 F120.00
G01 X43.0854 Y32.6111 F120.00
G01 X43.1497 Y32.6978 F120.00
G01 X43.2222 Y32.7778 F120.00
G01 X43.3022 Y32.8503 F120.00
G01 X43.3889 Y32.9146 F120.00
G01 X43.4815 Y32.9701 F120.00
G01 X43.5790 Y33.0163 F120.00
G01 X43.6807 Y33.0526 F120.00
G01 X43.7854 Y33.0789 F120.00
G01 X43.8922 Y33.0947 F120.00
G01 X44.0000 Y33.1000 F120.00
G01 X44.1078 Y33.0947 F120.00
G01 X44.2146 Y33.0789 F120.00
G01 X44.3193 Y33.0526 F120.00
G01 X44.4209 Y33.0163 F120.00
G01 X44.5185 Y32.9701 F120.00
G01 X44.6111 Y32.9146 F120.00
G01 X44.6978 Y32.8503 F120.00
G01 X44.7778 Y32.7778 F120.00
G01 X44.8503 Y32.6978 F120.00
G01 X44.9146 Y32.6111 F120.00
G01 X44.9701 Y32.5185 F120.00
G01 X45.0163 Y32.4210 F120.00
G01 X45.0526 Y32.3193 F120.00
G01 X45.0789 Y32.2146 F120.00
G01 X45.0947 Y32.1078 F120.00
G01 X45.1000 Y32.0000 F120.00
G00 X45.1000 Y32.0000
G01 F60.00
G01 Z-0.7000
G01 F120.00
G01 X45.0947 Y31.8922 F120.00
G01 X45.0789 Y31.7854 F120.00
G01 X45.0526 Y31.6807 F120.00
G01 X45.0163 Y31.5790 F120.00
G01 X44.9701 Y31.4815 F120.00
G01 X44.9146 Y31.3889 F120.00
G01 X44.8503 Y31.3022 F120.00
G01 X44.7778 Y31.2222 F120.00
G01 X44.6978 Y31.1497 F120.00
G01 X44.6111 Y31.0854 F120.00
G01 X44.5185 Y31.0299 F120.00
G01 X44.4209 Y30.9837 F120.00
G01 X44.3193 Y30.9474 F120.00
G01 X44.2146 Y30.9211 F120.00
G01 X44.1078 Y30.9053 F120.00
G01 X44.0000 Y30.9000 F120.00
G01 X43.8922 Y30.9053 F120.00
G01 X43.7854 Y30.9211 F120.00
G01 X43.6807 Y30.9474 F120.00
G01 X43.5790 Y30.9837 F120.00
G01 X43.4815 Y31.0299 F120.00
G01 X43.3889 Y31.0854 F120.00
G01 X43.3022 Y31.1497 F120.00
G01 X43.2222 Y31.2222 F120.00
G01 X43.1497 Y31.3022 F120.00
G01 X43.0854 Y31.3889 F120.00
G01 X43.0299 Y31.4815 F120.00
G01 X42.9837 Y31.5790 F120.00
G01 X42.9474 Y31.6807 F120.00
G01 X42.9211 Y31.7854 F120.00
G01 X42.9053 Y31.8922 F120.00
G01 X42.9000 Y32.0000 F120.00
G01 X42.9053 Y32.1078 F120.00
G01 X42.9211 Y32.2146 F120.00
G01 X42.9474 Y32.3193 F120.00
G01 X42.9837 Y32.4210 F120.00
G01 X43.0299 Y32.5185 F120.00
G01 X43.0854 Y32.6111 F120.00
G01 X43.1497 Y32.6978 F120.00
G01 X43.2222 Y32.7778 F120.00
G01 X43.3022 Y32.8503 F120.00
G01 X43.3889 Y32.9146 F120.00
G01 X43.4815 Y32.9701 F120.00
G01 X43.5790 Y33.0163 F120.00
G01 X43.6807 Y33.0526 F120.00
G01 X43.7854 Y33.0789 F120.00
G01 X43.8922 Y33.0947 F120.00
G01 X44.0000 Y33.1000 F120.00
G01 X44.1078 Y33.0947 F120.00
G01 X44.2146 Y33.0789 F120.00
G01 X44.3193 Y33.0526 F120.00
G01 X44.4209 Y33.0163 F120.00
G01 X44.5185 Y32.9701 F120.00
G01 X44.6111 Y32.9146 F120.00
G01 X44.6978 Y32.8503 F120.00
G01 X44.7778 Y32.7778 F120.00
G01 X44.8503 Y32.6978 F120.00
G01 X44.9146 Y32.6111 F120.00
G01 X44.9701 Y32.5185 F120.00
G01 X45.0163 Y32.4210 F120.00
G01 X45.0526 Y32.3193 F120.00
G01 X45.0789 Y32.2146 F120.00
G01 X45.0947 Y32.1078 F120.00
G01 X45.1000 Y32.0000 F120.00
G00 X45.1000 Y32.0000
G01 F60.00
G01 Z-0.8000
G01 F120.00
G01 X45.0947 Y31.8922 F120.00
G01 X45.0789 Y31.7854 F120.00
G01 X45.0526 Y31.6807 F120.00
G01 X45.0163 Y31.5790 F120.00
G01 X44.9701 Y31.4815 F120.00
G01 X44.9146 Y31.3889 F120.00
G01 X44.8503 Y31.3022 F120.00
G01 X44.7778 Y31.2222 F120.00
G01 X44.6978 Y31.1497 F120.00
G01 X44.6111 Y31.0854 F120.00
G01 X44.5185 Y31.0299 F120.00
G01 X44.4209 Y30.9837 F120.00
G01 X44.3193 Y30.9474 F120.00
G01 X44.2146 Y30.9211 F120.00
G01 X44.1078 Y30.9053 F120.00
G01 X44.0000 Y30.9000 F120.00
G01 X43.8922 Y30.9053 F120.00
G01 X43.7854 Y30.9211 F120.00
G01 X43.6807 Y30.9474 F120.00
G01 X43.5790 Y30.9837 F120.00
G01 X43.4815 Y31.0299 F120.00
G01 X43.3889 Y31.0854 F120.00
G01 X43.3022 Y31.1497 F120.00
G01 X43.2222 Y31.2222 F120.00
G01 X43.1497 Y31.3022 F120.00
G01 X43.0854 Y31.3889 F120.00
G01 X43.0299 Y31.4815 F120.00
G01 X42.9837 Y31.5790 F120.00
G01 X42.9474 Y31.6807 F120.00
G01 X42.9211 Y31.7854 F120.00
G01 X42.9053 Y31.8922 F120.00
G01 X42.9000 Y32.0000 F120.00
G01 X42.9053 Y32.1078 F120.00
G01 X42.9211 Y32.2146 F120.00
G01 X42.9474 Y32.3193 F120.00
G01 X42.9837 Y32.4210 F120.00
G01 X43.0299 Y32.5185 F120.00
G01 X43.0854 Y32.6111 F120.00
G01 X43.1497 Y32.6978 F120.00
G01 X43.2222 Y32.7778 F120.00
G01 X43.3022 Y32.8503 F120.00
G01 X43.3889 Y32.9146 F120.00
G01 X43.4815 Y32.9701 F120.00
G01 X43.5790 Y33.0163 F120.00
G01 X43.6807 Y33.0526 F120.00
G01 X43.7854 Y33.0789 F120.00
G01 X43.8922 Y33.0947 F120.00
G01 X44.0000 Y33.1000 F120.00
G01 X44.1078 Y33.0947 F120.00
G01 X44.2146 Y33.0789 F120.00
G01 X44.3193 Y33.0526 F120.00
G01 X44.4209 Y33.0163 F120.00
G01 X44.5185 Y32.9701 F120.00
G01 X44.6111 Y32.9146 F120.00
G01 X44.6978 Y32.8503 F120.00
G01 X44.7778 Y32.7778 F120.00
G01 X44.8503 Y32.6978 F120.00
G01 X44.9146 Y32.6111 F120.00
G01 X44.9701 Y32.5185 F120.00
G01 X45.0163 Y32.4210 F120.00
G01 X45.0526 Y32.3193 F120.00
G01 X45.0789 Y32.2146 F120.00
G01 X45.0947 Y32.1078 F120.00
G01 X45.1000 Y32.0000 F120.00
G00 X45.1000 Y32.0000
G01 F60.00
G01 Z-0.9000
G01 F120.00
G01 X45.0947 Y31.8922 F120.00
G01 X45.0789 Y31.7854 F120.00
G01 X45.0526 Y31.6807 F120.00
G01 X45.0163 Y31.5790 F120.00
G01 X44.9701 Y31.4815 F120.00
G01 X44.9146 Y31.3889 F120.00
G01 X44.8503 Y31.3022 F120.00
G01 X44.7778 Y31.2222 F120.00
G01 X44.6978 Y31.1497 F120.00
G01 X44.6111 Y31.0854 F120.00
G01 X44.5185 Y31.0299 F120.00
G01 X44.4209 Y30.9837 F120.00
G01 X44.3193 Y30.9474 F120.00
G01 X44.2146 Y30.9211 F120.00
G01 X44.1078 Y30.9053 F120.00
G01 X44.0000 Y30.9000 F120.00
G01 X43.8922 Y30.9053 F120.00
G01 X43.7854 Y30.9211 F120.00
G01 X43.6807 Y30.9474 F120.00
G01 X43.5790 Y30.9837 F120.00
G01 X43.4815 Y31.0299 F120.00
G01 X43.3889 Y31.0854 F120.00
G01 X43.3022 Y31.1497 F120.00
G01 X43.2222 Y31.2222 F120.00
G01 X43.1497 Y31.3022 F120.00
G01 X43.0854 Y31.3889 F120.00
G01 X43.0299 Y31.4815 F120.00
G01 X42.9837 Y31.5790 F120.00
G01 X42.9474 Y31.6807 F120.00
G01 X42.9211 Y31.7854 F120.00
G01 X42.9053 Y31.8922 F120.00
G01 X42.9000 Y32.0000 F120.00
G01 X42.9053 Y32.1078 F120.00
G01 X42.9211 Y32.2146 F120.00
G01 X42.9474 Y32.3193 F120.00
G01 X42.9837 Y32.4210 F120.00
G01 X43.0299 Y32.5185 F120.00
G01 X43.0854 Y32.6111 F120.00
G01 X43.1497 Y32.6978 F120.00
G01 X43.2222 Y32.7778 F120.00
G01 X43.3022 Y32.8503 F120.00
G01 X43.3889 Y32.9146 F120.00
G01 X43.4815 Y32.9701 F120.00
G01 X43.5790 Y33.0163 F120.00
G01 X43.6807 Y33.0526 F120.00
G01 X43.7854 Y33.0789 F120.00
G01 X43.8922 Y33.0947 F120.00
G01 X44.0000 Y33.1000 F120.00
G01 X44.1078 Y33.0947 F120.00
G01 X44.2146 Y33.0789 F120.00
G01 X44.3193 Y33.0526 F120.00
G01 X44.4209 Y33.0163 F120.00
G01 X44.5185 Y32.9701 F120.00
G01 X44.6111 Y32.9146 F120.00
G01 X44.6978 Y32.8503 F120.00
G01 X44.7778 Y32.7778 F120.00
G01 X44.8503 Y32.6978 F120.00
G01 X44.9146 Y32.6111 F120.00
G01 X44.9701 Y32.5185 F120.00
G01 X45.0163 Y32.4210 F120.00
G01 X45.0526 Y32.3193 F120.00
G01 X45.0789 Y32.2146 F120.00
G01 X45.0947 Y32.1078 F120.00
G01 X45.1000 Y32.0000 F120.00
G00 X45.1000 Y32.0000
G01 F60.00
G01 Z-1.0000
G01 F120.00
G01 X45.0947 Y31.8922 F120.00
G01 X45.0789 Y31.7854 F120.00
G01 X45.0526 Y31.6807 F120.00
G01 X45.0163 Y31.5790 F120.00
G01 X44.9701 Y31.4815 F120.00
G01 X44.9146 Y31.3889 F120.00
G01 X44.8503 Y31.3022 F120.00
G01 X44.7778 Y31.2222 F120.00
G01 X44.6978 Y31.1497 F120.00
G01 X44.6111 Y31.0854 F120.00
G01 X44.5185 Y31.0299 F120.00
G01 X44.4209 Y30.9837 F120.00
G01 X44.3193 Y30.9474 F120.00
G01 X44.2146 Y30.9211 F120.00
G01 X44.1078 Y30.9053 F120.00
G01 X44.0000 Y30.9000 F120.00
G01 X43.8922 Y30.9053 F120.00
G01 X43.7854 Y30.9211 F120.00
G01 X43.6807 Y30.9474 F120.00
G01 X43.5790 Y30.9837 F120.00
G01 X43.4815 Y31.0299 F120.00
G01 X43.3889 Y31.0854 F120.00
G01 X43.3022 Y31.1497 F120.00
G01 X43.2222 Y31.2222 F120.00
G01 X43.1497 Y31.3022 F120.00
G01 X43.0854 Y31.3889 F120.00
G01 X43.0299 Y31.4815 F120.00
G01 X42.9837 Y31.5790 F120.00
G01 X42.9474 Y31.6807 F120.00
G01 X42.9211 Y31.7854 F120.00
G01 X42.9053 Y31.8922 F120.00
G01 X42.9000 Y32.0000 F120.00
G01 X42.9053 Y32.1078 F120.00
G01 X42.9211 Y32.2146 F120.00
G01 X42.9474 Y32.3193 F120.00
G01 X42.9837 Y32.4210 F120.00
G01 X43.0299 Y32.5185 F120.00
G01 X43.0854 Y32.6111 F120.00
G01 X43.1497 Y32.6978 F120.00
G01 X43.2222 Y32.7778 F120.00
G01 X43.3022 Y32.8503 F120.00
G01 X43.3889 Y32.9146 F120.00
G01 X43.4815 Y32.9701 F120.00
G01 X43.5790 Y33.0163 F120.00
G01 X43.6807 Y33.0526 F120.00
G01 X43.7854 Y33.0789 F120.00
G01 X43.8922 Y33.0947 F120.00
G01 X44.0000 Y33.1000 F120.00
G01 X44.1078 Y33.0947 F120.00
G01 X44.2146 Y33.0789 F120.00
G01 X44.3193 Y33.0526 F120.00
G01 X44.4209 Y33.0163 F120.00
G01 X44.5185 Y32.9701 F120.00
G01 X44.6111 Y32.9146 F120.00
G01 X44.6978 Y32.8503 F120.00
G01 X44.7778 Y32.7778 F120.00
G01 X44.8503 Y32.6978 F120.00
G01 X44.9146 Y32.6111 F120.00
G01 X44.9701 Y32.5185 F120.00
G01 X45.0163 Y32.4210 F120.00
G01 X45.0526 Y32.3193 F120.00
G01 X45.0789 Y32.2146 F120.00
G01 X45.0947 Y32.1078 F120.00
G01 X45.1000 Y32.0000 F120.00
G00 X45.1000 Y32.0000
G01 F60.00
G01 Z-1.1000
G01 F120.00
G01 X45.0947 Y31.8922 F120.00
G01 X45.0789 Y31.7854 F120.00
G01 X45.0526 Y31.6807 F120.00
G01 X45.0163 Y31.5790 F120.00
G01 X44.9701 Y31.4815 F120.00
G01 X44.9146 Y31.3889 F120.00
G01 X44.8503 Y31.3022 F120.00
G01 X44.7778 Y31.2222 F120.00
G01 X44.6978 Y31.1497 F120.00
G01 X44.6111 Y31.0854 F120.00
G01 X44.5185 Y31.0299 F120.00
G01 X44.4209 Y30.9837 F120.00
G01 X44.3193 Y30.9474 F120.00
G01 X44.2146 Y30.9211 F120.00
G01 X44.1078 Y30.9053 F120.00
G01 X44.0000 Y30.9000 F120.00
G01 X43.8922 Y30.9053 F120.00
G01 X43.7854 Y30.9211 F120.00
G01 X43.6807 Y30.9474 F120.00
G01 X43.5790 Y30.9837 F120.00
G01 X43.4815 Y31.0299 F120.00
G01 X43.3889 Y31.0854 F120.00
G01 X43.3022 Y31.1497 F120.00
G01 X43.2222 Y31.2222 F120.00
G01 X43.1497 Y31.3022 F120.00
G01 X43.0854 Y31.3889 F120.00
G01 X43.0299 Y31.4815 F120.00
G01 X42.9837 Y31.5790 F120.00
G01 X42.9474 Y31.6807 F120.00
G01 X42.9211 Y31.7854 F120.00
G01 X42.9053 Y31.8922 F120.00
G01 X42.9000 Y32.0000 F120.00
G01 X42.9053 Y32.1078 F120.00
G01 X42.9211 Y32.2146 F120.00
G01 X42.9474 Y32.3193 F120.00
G01 X42.9837 Y32.4210 F120.00
G01 X43.0299 Y32.5185 F120.00
G01 X43.0854 Y32.6111 F120.00
G01 X43.1497 Y32.6978 F120.00
G01 X43.2222 Y32.7778 F120.00
G01 X43.3022 Y32.8503 F120.00
G01 X43.3889 Y32.9146 F120.00
G01 X43.4815 Y32.9701 F120.00
G01 X43.5790 Y33.0163 F120.00
G01 X43.6807 Y33.0526 F120.00
G01 X43.7854 Y33.0789 F120.00
G01 X43.8922 Y33.0947 F120.00
G01 X44.0000 Y33.1000 F120.00
G01 X44.1078 Y33.0947 F120.00
G01 X44.2146 Y33.0789 F120.00
G01 X44.3193 Y33.0526 F120.00
G01 X44.4209 Y33.0163 F120.00
G01 X44.5185 Y32.9701 F120.00
G01 X44.6111 Y32.9146 F120.00
G01 X44.6978 Y32.8503 F120.00
G01 X44.7778 Y32.7778 F120.00
G01 X44.8503 Y32.6978 F120.00
G01 X44.9146 Y32.6111 F120.00
G01 X44.9701 Y32.5185 F120.00
G01 X45.0163 Y32.4210 F120.00
G01 X45.0526 Y32.3193 F120.00
G01 X45.0789 Y32.2146 F120.00
G01 X45.0947 Y32.1078 F120.00
G01 X45.1000 Y32.0000 F120.00
G00 X45.1000 Y32.0000
G01 F60.00
G01 Z-1.2000
G01 F120.00
G01 X45.0947 Y31.8922 F120.00
G01 X45.0789 Y31.7854 F120.00
G01 X45.0526 Y31.6807 F120.00
G01 X45.0163 Y31.5790 F120.00
G01 X44.9701 Y31.4815 F120.00
G01 X44.9146 Y31.3889 F120.00
G01 X44.8503 Y31.3022 F120.00
G01 X44.7778 Y31.2222 F120.00
G01 X44.6978 Y31.1497 F120.00
G01 X44.6111 Y31.0854 F120.00
G01 X44.5185 Y31.0299 F120.00
G01 X44.4209 Y30.9837 F120.00
G01 X44.3193 Y30.9474 F120.00
G01 X44.2146 Y30.9211 F120.00
G01 X44.1078 Y30.9053 F120.00
G01 X44.0000 Y30.9000 F120.00
G01 X43.8922 Y30.9053 F120.00
G01 X43.7854 Y30.9211 F120.00
G01 X43.6807 Y30.9474 F120.00
G01 X43.5790 Y30.9837 F120.00
G01 X43.4815 Y31.0299 F120.00
G01 X43.3889 Y31.0854 F120.00
G01 X43.3022 Y31.1497 F120.00
G01 X43.2222 Y31.2222 F120.00
G01 X43.1497 Y31.3022 F120.00
G01 X43.0854 Y31.3889 F120.00
G01 X43.0299 Y31.4815 F120.00
G01 X42.9837 Y31.5790 F120.00
G01 X42.9474 Y31.6807 F120.00
G01 X42.9211 Y31.7854 F120.00
G01 X42.9053 Y31.8922 F120.00
G01 X42.9000 Y32.0000 F120.00
G01 X42.9053 Y32.1078 F120.00
G01 X42.9211 Y32.2146 F120.00
G01 X42.9474 Y32.3193 F120.00
G01 X42.9837 Y32.4210 F120.00
G01 X43.0299 Y32.5185 F120.00
G01 X43.0854 Y32.6111 F120.00
G01 X43.1497 Y32.6978 F120.00
G01 X43.2222 Y32.7778 F120.00
G01 X43.3022 Y32.8503 F120.00
G01 X43.3889 Y32.9146 F120.00
G01 X43.4815 Y32.9701 F120.00
G01 X43.5790 Y33.0163 F120.00
G01 X43.6807 Y33.0526 F120.00
G01 X43.7854 Y33.0789 F120.00
G01 X43.8922 Y33.0947 F120.00
G01 X44.0000 Y33.1000 F120.00
G01 X44.1078 Y33.0947 F120.00
G01 X44.2146 Y33.0789 F120.00
G01 X44.3193 Y33.0526 F120.00
G01 X44.4209 Y33.0163 F120.00
G01 X44.5185 Y32.9701 F120.00
G01 X44.6111 Y32.9146 F120.00
G01 X44.6978 Y32.8503 F120.00
G01 X44.7778 Y32.7778 F120.00
G01 X44.8503 Y32.6978 F120.00
G01 X44.9146 Y32.6111 F120.00
G01 X44.9701 Y32.5185 F120.00
G01 X45.0163 Y32.4210 F120.00
G01 X45.0526 Y32.3193 F120.00
G01 X45.0789 Y32.2146 F120.00
G01 X45.0947 Y32.1078 F120.00
G01 X45.1000 Y32.0000 F120.00
G00 X45.1000 Y32.0000
G01 F60.00
G01 Z-1.3000
G01 F120.00
G01 X45.0947 Y31.8922 F120.00
G01 X45.0789 Y31.7854 F120.00
G01 X45.0526 Y31.6807 F120.00
G01 X45.0163 Y31.5790 F120.00
G01 X44.9701 Y31.4815 F120.00
G01 X44.9146 Y31.3889 F120.00
G01 X44.8503 Y31.3022 F120.00
G01 X44.7778 Y31.2222 F120.00
G01 X44.6978 Y31.1497 F120.00
G01 X44.6111 Y31.0854 F120.00
G01 X44.5185 Y31.0299 F120.00
G01 X44.4209 Y30.9837 F120.00
G01 X44.3193 Y30.9474 F120.00
G01 X44.2146 Y30.9211 F120.00
G01 X44.1078 Y30.9053 F120.00
G01 X44.0000 Y30.9000 F120.00
G01 X43.8922 Y30.9053 F120.00
G01 X43.7854 Y30.9211 F120.00
G01 X43.6807 Y30.9474 F120.00
G01 X43.5790 Y30.9837 F120.00
G01 X43.4815 Y31.0299 F120.00
G01 X43.3889 Y31.0854 F120.00
G01 X43.3022 Y31.1497 F120.00
G01 X43.2222 Y31.2222 F120.00
G01 X43.1497 Y31.3022 F120.00
G01 X43.0854 Y31.3889 F120.00
G01 X43.0299 Y31.4815 F120.00
G01 X42.9837 Y31.5790 F120.00
G01 X42.9474 Y31.6807 F120.00
G01 X42.9211 Y31.7854 F120.00
G01 X42.9053 Y31.8922 F120.00
G01 X42.9000 Y32.0000 F120.00
G01 X42.9053 Y32.1078 F120.00
G01 X42.9211 Y32.2146 F120.00
G01 X42.9474 Y32.3193 F120.00
G01 X42.9837 Y32.4210 F120.00
G01 X43.0299 Y32.5185 F120.00
G01 X43.0854 Y32.6111 F120.00
G01 X43.1497 Y32.6978 F120.00
G01 X43.2222 Y32.7778 F120.00
G01 X43.3022 Y32.8503 F120.00
G01 X43.3889 Y32.9146 F120.00
G01 X43.4815 Y32.9701 F120.00
G01 X43.5790 Y33.0163 F120.00
G01 X43.6807 Y33.0526 F120.00
G01 X43.7854 Y33.0789 F120.00
G01 X43.8922 Y33.0947 F120.00
G01 X44.0000 Y33.1000 F120.00
G01 X44.1078 Y33.0947 F120.00
G01 X44.2146 Y33.0789 F120.00
G01 X44.3193 Y33.0526 F120.00
G01 X44.4209 Y33.0163 F120.00
G01 X44.5185 Y32.9701 F120.00
G01 X44.6111 Y32.9146 F120.00
G01 X44.6978 Y32.8503 F120.00
G01 X44.7778 Y32.7778 F120.00
G01 X44.8503 Y32.6978 F120.00
G01 X44.9146 Y32.6111 F120.00
G01 X44.9701 Y32.5185 F120.00
G01 X45.0163 Y32.4210 F120.00
G01 X45.0526 Y32.3193 F120.00
G01 X45.0789 Y32.2146 F120.00
G01 X45.0947 Y32.1078 F120.00
G01 X45.1000 Y32.0000 F120.00
G00 X45.1000 Y32.0000
G01 F60.00
G01 Z-1.4000
G01 F120.00
G01 X45.0947 Y31.8922 F120.00
G01 X45.0789 Y31.7854 F120.00
G01 X45.0526 Y31.6807 F120.00
G01 X45.0163 Y31.5790 F120.00
G01 X44.9701 Y31.4815 F120.00
G01 X44.9146 Y31.3889 F120.00
G01 X44.8503 Y31.3022 F120.00
G01 X44.7778 Y31.2222 F120.00
G01 X44.6978 Y31.1497 F120.00
G01 X44.6111 Y31.0854 F120.00
G01 X44.5185 Y31.0299 F120.00
G01 X44.4209 Y30.9837 F120.00
G01 X44.3193 Y30.9474 F120.00
G01 X44.2146 Y30.9211 F120.00
G01 X44.1078 Y30.9053 F120.00
G01 X44.0000 Y30.9000 F120.00
G01 X43.8922 Y30.9053 F120.00
G01 X43.7854 Y30.9211 F120.00
G01 X43.6807 Y30.9474 F120.00
G01 X43.5790 Y30.9837 F120.00
G01 X43.4815 Y31.0299 F120.00
G01 X43.3889 Y31.0854 F120.00
G01 X43.3022 Y31.1497 F120.00
G01 X43.2222 Y31.2222 F120.00
G01 X43.1497 Y31.3022 F120.00
G01 X43.0854 Y31.3889 F120.00
G01 X43.0299 Y31.4815 F120.00
G01 X42.9837 Y31.5790 F120.00
G01 X42.9474 Y31.6807 F120.00
G01 X42.9211 Y31.7854 F120.00
G01 X42.9053 Y31.8922 F120.00
G01 X42.9000 Y32.0000 F120.00
G01 X42.9053 Y32.1078 F120.00
G01 X42.9211 Y32.2146 F120.00
G01 X42.9474 Y32.3193 F120.00
G01 X42.9837 Y32.4210 F120.00
G01 X43.0299 Y32.5185 F120.00
G01 X43.0854 Y32.6111 F120.00
G01 X43.1497 Y32.6978 F120.00
G01 X43.2222 Y32.7778 F120.00
G01 X43.3022 Y32.8503 F120.00
G01 X43.3889 Y32.9146 F120.00
G01 X43.4815 Y32.9701 F120.00
G01 X43.5790 Y33.0163 F120.00
G01 X43.6807 Y33.0526 F120.00
G01 X43.7854 Y33.0789 F120.00
G01 X43.8922 Y33.0947 F120.00
G01 X44.0000 Y33.1000 F120.00
G01 X44.1078 Y33.0947 F120.00
G01 X44.2146 Y33.0789 F120.00
G01 X44.3193 Y33.0526 F120.00
G01 X44.4209 Y33.0163 F120.00
G01 X44.5185 Y32.9701 F120.00
G01 X44.6111 Y32.9146 F120.00
G01 X44.6978 Y32.8503 F120.00
G01 X44.7778 Y32.7778 F120.00
G01 X44.8503 Y32.6978 F120.00
G01 X44.9146 Y32.6111 F120.00
G01 X44.9701 Y32.5185 F120.00
G01 X45.0163 Y32.4210 F120.00
G01 X45.0526 Y32.3193 F120.00
G01 X45.0789 Y32.2146 F120.00
G01 X45.0947 Y32.1078 F120.00
G01 X45.1000 Y32.0000 F120.00
G00 X45.1000 Y32.0000
G01 F60.00
G01 Z-1.5000
G01 F120.00
G01 X45.0947 Y31.8922 F120.00
G01 X45.0789 Y31.7854 F120.00
G01 X45.0526 Y31.6807 F120.00
G01 X45.0163 Y31.5790 F120.00
G01 X44.9701 Y31.4815 F120.00
G01 X44.9146 Y31.3889 F120.00
G01 X44.8503 Y31.3022 F120.00
G01 X44.7778 Y31.2222 F120.00
G01 X44.6978 Y31.1497 F120.00
G01 X44.6111 Y31.0854 F120.00
G01 X44.5185 Y31.0299 F120.00
G01 X44.4209 Y30.9837 F120.00
G01 X44.3193 Y30.9474 F120.00
G01 X44.2146 Y30.9211 F120.00
G01 X44.1078 Y30.9053 F120.00
G01 X44.0000 Y30.9000 F120.00
G01 X43.8922 Y30.9053 F120.00
G01 X43.7854 Y30.9211 F120.00
G01 X43.6807 Y30.9474 F120.00
G01 X43.5790 Y30.9837 F120.00
G01 X43.4815 Y31.0299 F120.00
G01 X43.3889 Y31.0854 F120.00
G01 X43.3022 Y31.1497 F120.00
G01 X43.2222 Y31.2222 F120.00
G01 X43.1497 Y31.3022 F120.00
G01 X43.0854 Y31.3889 F120.00
G01 X43.0299 Y31.4815 F120.00
G01 X42.9837 Y31.5790 F120.00
G01 X42.9474 Y31.6807 F120.00
G01 X42.9211 Y31.7854 F120.00
G01 X42.9053 Y31.8922 F120.00
G01 X42.9000 Y32.0000 F120.00
G01 X42.9053 Y32.1078 F120.00
G01 X42.9211 Y32.2146 F120.00
G01 X42.9474 Y32.3193 F120.00
G01 X42.9837 Y32.4210 F120.00
G01 X43.0299 Y32.5185 F120.00
G01 X43.0854 Y32.6111 F120.00
G01 X43.1497 Y32.6978 F120.00
