(G-CODE GENERATED BY FLATCAM v8.994 - www.flatcam.org - Version Date: 2020/11/7)

(Name: Encoders-LCD-PTH.drl_cnc)
(Type: G-code from Geometry)
(Units: MM)

(Created on Wednesday, 04 September 2024 at 14:27)

(This preprocessor is used with a motion controller loaded with GRBL firmware.)
(It is configured to be compatible with almost any version of GRBL firmware.)


(TOOLS DIAMETER: )
(Tool: 1 -> Dia: 0.3)
(Tool: 2 -> Dia: 0.762)
(Tool: 3 -> Dia: 1.0)
(Tool: 4 -> Dia: 1.1)
(Tool: 5 -> Dia: 2.6)

(FEEDRATE Z: )
(Tool: 1 -> Feedrate: 30.0)
(Tool: 2 -> Feedrate: 30.0)
(Tool: 3 -> Feedrate: 30.0)
(Tool: 4 -> Feedrate: 30.0)
(Tool: 5 -> Feedrate: 30.0)

(FEEDRATE RAPIDS: )
(Tool: 1 -> Feedrate Rapids: 1500)
(Tool: 2 -> Feedrate Rapids: 1500)
(Tool: 3 -> Feedrate Rapids: 1500)
(Tool: 4 -> Feedrate Rapids: 1500)
(Tool: 5 -> Feedrate Rapids: 1500)

(Z_CUT: )
(Tool: 1 -> Z_Cut: -2.3000000000000003)
(Tool: 2 -> Z_Cut: -2.3000000000000003)
(Tool: 3 -> Z_Cut: -2.3000000000000003)
(Tool: 4 -> Z_Cut: -2.3000000000000003)
(Tool: 5 -> Z_Cut: -2.3000000000000003)

(Tools Offset: )
(Tool: 3 -> Offset Z: 0.0)

(Z_MOVE: )
(Tool: 1 -> Z_Move: 2.0)
(Tool: 2 -> Z_Move: 2.0)
(Tool: 3 -> Z_Move: 2.0)
(Tool: 4 -> Z_Move: 2.0)
(Tool: 5 -> Z_Move: 2.0)

(Z Toolchange: 7.0 mm)
(X,Y Toolchange: 0.0000, 0.0000 mm)
(Z Start: None mm)
(Z End: 5.5 mm)
(X,Y End: None mm)
(Steps per circle: 64)
(Steps per circle: 64)
(Preprocessor Excellon: GRBL_11_no_M6)

(X range:    7.8500 ...  103.1500  mm)
(Y range:    6.2500 ...   71.5000  mm)

(Spindle Speed: 900 RPM)
G21
G90
G17
G94


G01 F30.00

M5             
G00 Z7.0000
G00 X0.0000 Y0.0000                
T3
(MSG, Change to Tool Dia = 1.0000 ||| Total drills for tool T3 = 35)
M0
G00 Z7.0000
        
G01 F30.00
M03 S900
G00 X11.1500 Y67.7500
G01 Z-2.3000
G01 Z0
G00 Z2.0000
G00 X13.6900 Y67.7500
G01 Z-2.3000
G01 Z0
G00 Z2.0000
G00 X16.2300 Y67.7500
G01 Z-2.3000
G01 Z0
G00 Z2.0000
G00 X18.7700 Y67.7500
G01 Z-2.3000
G01 Z0
G00 Z2.0000
G00 X21.3100 Y67.7500
G01 Z-2.3000
G01 Z0
G00 Z2.0000
G00 X23.8500 Y67.7500
G01 Z-2.3000
G01 Z0
G00 Z2.0000
G00 X49.0000 Y71.0000
G01 Z-2.3000
G01 Z0
G00 Z2.0000
G00 X51.5400 Y71.0000
G01 Z-2.3000
G01 Z0
G00 Z2.0000
G00 X54.0800 Y71.0000
G01 Z-2.3000
G01 Z0
G00 Z2.0000
G00 X56.6200 Y71.0000
G01 Z-2.3000
G01 Z0
G00 Z2.0000
G00 X59.1600 Y71.0000
G01 Z-2.3000
G01 Z0
G00 Z2.0000
G00 X61.7000 Y71.0000
G01 Z-2.3000
G01 Z0
G00 Z2.0000
G00 X57.4000 Y64.7500
G01 Z-2.3000
G01 Z0
G00 Z2.0000
G00 X52.4000 Y64.7500
G01 Z-2.3000
G01 Z0
G00 Z2.0000
G00 X52.4000 Y50.2500
G01 Z-2.3000
G01 Z0
G00 Z2.0000
G00 X54.9000 Y50.2500
G01 Z-2.3000
G01 Z0
G00 Z2.0000
G00 X57.4000 Y50.2500
G01 Z-2.3000
G01 Z0
G00 Z2.0000
G00 X81.1500 Y67.7500
G01 Z-2.3000
G01 Z0
G00 Z2.0000
G00 X83.6900 Y67.7500
G01 Z-2.3000
G01 Z0
G00 Z2.0000
G00 X86.2300 Y67.7500
G01 Z-2.3000
G01 Z0
G00 Z2.0000
G00 X88.7700 Y67.7500
G01 Z-2.3000
G01 Z0
G00 Z2.0000
G00 X91.3100 Y67.7500
G01 Z-2.3000
G01 Z0
G00 Z2.0000
G00 X93.8500 Y67.7500
G01 Z-2.3000
G01 Z0
G00 Z2.0000
G00 X93.7500 Y21.2500
G01 Z-2.3000
G01 Z0
G00 Z2.0000
G00 X96.2500 Y21.2500
G01 Z-2.3000
G01 Z0
G00 Z2.0000
G00 X98.7500 Y21.2500
G01 Z-2.3000
G01 Z0
G00 Z2.0000
G00 X98.7500 Y6.7500
G01 Z-2.3000
G01 Z0
G00 Z2.0000
G00 X93.7500 Y6.7500
G01 Z-2.3000
G01 Z0
G00 Z2.0000
G00 X55.0000 Y10.9000
G01 Z-2.3000
G01 Z0
G00 Z2.0000
G00 X55.0000 Y17.1000
G01 Z-2.3000
G01 Z0
G00 Z2.0000
G00 X17.2500 Y6.7500
G01 Z-2.3000
G01 Z0
G00 Z2.0000
G00 X12.2500 Y6.7500
G01 Z-2.3000
G01 Z0
G00 Z2.0000
G00 X12.2500 Y21.2500
G01 Z-2.3000
G01 Z0
G00 Z2.0000
G00 X14.7500 Y21.2500
G01 Z-2.3000
G01 Z0
G00 Z2.0000
G00 X17.2500 Y21.2500
G01 Z-2.3000
G01 Z0
G00 Z2.0000
M05
G00 Z5.50


