(G-CODE GENERATED BY FLATCAM v8.994 - www.flatcam.org - Version Date: 2020/11/7)

(Name: Encoders-LCD-PTH.drl_cnc)
(Type: G-code from Geometry)
(Units: MM)

(Created on Monday, 09 September 2024 at 15:48)

(This preprocessor is used with a motion controller loaded with GRBL firmware.)
(It is configured to be compatible with almost any version of GRBL firmware.)


(TOOLS DIAMETER: )
(Tool: 1 -> Dia: 0.5)
(Tool: 2 -> Dia: 0.8)
(Tool: 3 -> Dia: 1.0)
(Tool: 4 -> Dia: 1.19)
(Tool: 5 -> Dia: 2.6)

(FEEDRATE Z: )
(Tool: 1 -> Feedrate: 300)
(Tool: 2 -> Feedrate: 300)
(Tool: 3 -> Feedrate: 300)
(Tool: 4 -> Feedrate: 300)
(Tool: 5 -> Feedrate: 300)

(FEEDRATE RAPIDS: )
(Tool: 1 -> Feedrate Rapids: 1500)
(Tool: 2 -> Feedrate Rapids: 1500)
(Tool: 3 -> Feedrate Rapids: 1500)
(Tool: 4 -> Feedrate Rapids: 1500)
(Tool: 5 -> Feedrate Rapids: 1500)

(Z_CUT: )
(Tool: 1 -> Z_Cut: -1.8)
(Tool: 2 -> Z_Cut: -1.7999999999999998)
(Tool: 3 -> Z_Cut: -1.7999999999999998)
(Tool: 4 -> Z_Cut: -1.7999999999999998)
(Tool: 5 -> Z_Cut: -1.7999999999999998)

(Tools Offset: )
(Tool: 3 -> Offset Z: 0.0)
(Tool: 4 -> Offset Z: 0.0)

(DEPTH_PER_CUT: )
(Tool: 1 -> DeptPerCut: 0.2)
(Tool: 2 -> DeptPerCut: 0.2)
(Tool: 3 -> DeptPerCut: 0.2)
(Tool: 4 -> DeptPerCut: 0.2)
(Tool: 5 -> DeptPerCut: 0.2)

(Z_MOVE: )
(Tool: 1 -> Z_Move: 2.0)
(Tool: 2 -> Z_Move: 2.0)
(Tool: 3 -> Z_Move: 2.0)
(Tool: 4 -> Z_Move: 2.0)
(Tool: 5 -> Z_Move: 2.0)

(Z Toolchange: 5.0 mm)
(X,Y Toolchange: 0.0000, 0.0000 mm)
(Z Start: None mm)
(Z End: 5.0 mm)
(X,Y End: None mm)
(Steps per circle: 64)
(Steps per circle: 64)
(Preprocessor Excellon: GRBL_11_no_M6)

(X range:  -41.4000 ...   43.7500  mm)
(Y range:  -32.6350 ...   27.2500  mm)

(Spindle Speed: 900 RPM)
G21
G90
G17
G94


G01 F300.00

M5             
G00 Z5.0000
G00 X0.0000 Y0.0000                
T3
(MSG, Change to Tool Dia = 1.0000 ||| Total drills for tool T3 = 34)
M0
G00 Z5.0000
        
G01 F300.00
M03 S900
G00 X37.5000 Y-16.7500
G01 Z-0.2000
G01 Z0
G00 Z2.0000
G01 Z-0.4000
G01 Z0
G00 Z2.0000
G01 Z-0.6000
G01 Z0
G00 Z2.0000
G01 Z-0.8000
G01 Z0
G00 Z2.0000
G01 Z-1.0000
G01 Z0
G00 Z2.0000
G01 Z-1.2000
G01 Z0
G00 Z2.0000
G01 Z-1.4000
G01 Z0
G00 Z2.0000
G01 Z-1.6000
G01 Z0
G00 Z2.0000
G01 Z-1.8000
G01 Z0
G00 Z2.0000
G00 X32.5000 Y-16.7500
G01 Z-0.2000
G01 Z0
G00 Z2.0000
G01 Z-0.4000
G01 Z0
G00 Z2.0000
G01 Z-0.6000
G01 Z0
G00 Z2.0000
G01 Z-0.8000
G01 Z0
G00 Z2.0000
G01 Z-1.0000
G01 Z0
G00 Z2.0000
G01 Z-1.2000
G01 Z0
G00 Z2.0000
G01 Z-1.4000
G01 Z0
G00 Z2.0000
G01 Z-1.6000
G01 Z0
G00 Z2.0000
G01 Z-1.8000
G01 Z0
G00 Z2.0000
G00 X37.2000 Y23.5000
G01 Z-0.2000
G01 Z0
G00 Z2.0000
G01 Z-0.4000
G01 Z0
G00 Z2.0000
G01 Z-0.6000
G01 Z0
G00 Z2.0000
G01 Z-0.8000
G01 Z0
G00 Z2.0000
G01 Z-1.0000
G01 Z0
G00 Z2.0000
G01 Z-1.2000
G01 Z0
G00 Z2.0000
G01 Z-1.4000
G01 Z0
G00 Z2.0000
G01 Z-1.6000
G01 Z0
G00 Z2.0000
G01 Z-1.8000
G01 Z0
G00 Z2.0000
G00 X34.6600 Y23.5000
G01 Z-0.2000
G01 Z0
G00 Z2.0000
G01 Z-0.4000
G01 Z0
G00 Z2.0000
G01 Z-0.6000
G01 Z0
G00 Z2.0000
G01 Z-0.8000
G01 Z0
G00 Z2.0000
G01 Z-1.0000
G01 Z0
G00 Z2.0000
G01 Z-1.2000
G01 Z0
G00 Z2.0000
G01 Z-1.4000
G01 Z0
G00 Z2.0000
G01 Z-1.6000
G01 Z0
G00 Z2.0000
G01 Z-1.8000
G01 Z0
G00 Z2.0000
G00 X32.1200 Y23.5000
G01 Z-0.2000
G01 Z0
G00 Z2.0000
G01 Z-0.4000
G01 Z0
G00 Z2.0000
G01 Z-0.6000
G01 Z0
G00 Z2.0000
G01 Z-0.8000
G01 Z0
G00 Z2.0000
G01 Z-1.0000
G01 Z0
G00 Z2.0000
G01 Z-1.2000
G01 Z0
G00 Z2.0000
G01 Z-1.4000
G01 Z0
G00 Z2.0000
G01 Z-1.6000
G01 Z0
G00 Z2.0000
G01 Z-1.8000
G01 Z0
G00 Z2.0000
G00 X29.5800 Y23.5000
G01 Z-0.2000
G01 Z0
G00 Z2.0000
G01 Z-0.4000
G01 Z0
G00 Z2.0000
G01 Z-0.6000
G01 Z0
G00 Z2.0000
G01 Z-0.8000
G01 Z0
G00 Z2.0000
G01 Z-1.0000
G01 Z0
G00 Z2.0000
G01 Z-1.2000
G01 Z0
G00 Z2.0000
G01 Z-1.4000
G01 Z0
G00 Z2.0000
G01 Z-1.6000
G01 Z0
G00 Z2.0000
G01 Z-1.8000
G01 Z0
G00 Z2.0000
G00 X27.0400 Y23.5000
G01 Z-0.2000
G01 Z0
G00 Z2.0000
G01 Z-0.4000
G01 Z0
G00 Z2.0000
G01 Z-0.6000
G01 Z0
G00 Z2.0000
G01 Z-0.8000
G01 Z0
G00 Z2.0000
G01 Z-1.0000
G01 Z0
G00 Z2.0000
G01 Z-1.2000
G01 Z0
G00 Z2.0000
G01 Z-1.4000
G01 Z0
G00 Z2.0000
G01 Z-1.6000
G01 Z0
G00 Z2.0000
G01 Z-1.8000
G01 Z0
G00 Z2.0000
G00 X24.5000 Y23.5000
G01 Z-0.2000
G01 Z0
G00 Z2.0000
G01 Z-0.4000
G01 Z0
G00 Z2.0000
G01 Z-0.6000
G01 Z0
G00 Z2.0000
G01 Z-0.8000
G01 Z0
G00 Z2.0000
G01 Z-1.0000
G01 Z0
G00 Z2.0000
G01 Z-1.2000
G01 Z0
G00 Z2.0000
G01 Z-1.4000
G01 Z0
G00 Z2.0000
G01 Z-1.6000
G01 Z0
G00 Z2.0000
G01 Z-1.8000
G01 Z0
G00 Z2.0000
G00 X2.6000 Y12.2500
G01 Z-0.2000
G01 Z0
G00 Z2.0000
G01 Z-0.4000
G01 Z0
G00 Z2.0000
G01 Z-0.6000
G01 Z0
G00 Z2.0000
G01 Z-0.8000
G01 Z0
G00 Z2.0000
G01 Z-1.0000
G01 Z0
G00 Z2.0000
G01 Z-1.2000
G01 Z0
G00 Z2.0000
G01 Z-1.4000
G01 Z0
G00 Z2.0000
G01 Z-1.6000
G01 Z0
G00 Z2.0000
G01 Z-1.8000
G01 Z0
G00 Z2.0000
G00 X0.1000 Y12.2500
G01 Z-0.2000
G01 Z0
G00 Z2.0000
G01 Z-0.4000
G01 Z0
G00 Z2.0000
G01 Z-0.6000
G01 Z0
G00 Z2.0000
G01 Z-0.8000
G01 Z0
G00 Z2.0000
G01 Z-1.0000
G01 Z0
G00 Z2.0000
G01 Z-1.2000
G01 Z0
G00 Z2.0000
G01 Z-1.4000
G01 Z0
G00 Z2.0000
G01 Z-1.6000
G01 Z0
G00 Z2.0000
G01 Z-1.8000
G01 Z0
G00 Z2.0000
G00 X-2.4000 Y12.2500
G01 Z-0.2000
G01 Z0
G00 Z2.0000
G01 Z-0.4000
G01 Z0
G00 Z2.0000
G01 Z-0.6000
G01 Z0
G00 Z2.0000
G01 Z-0.8000
G01 Z0
G00 Z2.0000
G01 Z-1.0000
G01 Z0
G00 Z2.0000
G01 Z-1.2000
G01 Z0
G00 Z2.0000
G01 Z-1.4000
G01 Z0
G00 Z2.0000
G01 Z-1.6000
G01 Z0
G00 Z2.0000
G01 Z-1.8000
G01 Z0
G00 Z2.0000
G00 X2.6000 Y26.7500
G01 Z-0.2000
G01 Z0
G00 Z2.0000
G01 Z-0.4000
G01 Z0
G00 Z2.0000
G01 Z-0.6000
G01 Z0
G00 Z2.0000
G01 Z-0.8000
G01 Z0
G00 Z2.0000
G01 Z-1.0000
G01 Z0
G00 Z2.0000
G01 Z-1.2000
G01 Z0
G00 Z2.0000
G01 Z-1.4000
G01 Z0
G00 Z2.0000
G01 Z-1.6000
G01 Z0
G00 Z2.0000
G01 Z-1.8000
G01 Z0
G00 Z2.0000
G00 X-2.4000 Y26.7500
G01 Z-0.2000
G01 Z0
G00 Z2.0000
G01 Z-0.4000
G01 Z0
G00 Z2.0000
G01 Z-0.6000
G01 Z0
G00 Z2.0000
G01 Z-0.8000
G01 Z0
G00 Z2.0000
G01 Z-1.0000
G01 Z0
G00 Z2.0000
G01 Z-1.2000
G01 Z0
G00 Z2.0000
G01 Z-1.4000
G01 Z0
G00 Z2.0000
G01 Z-1.6000
G01 Z0
G00 Z2.0000
G01 Z-1.8000
G01 Z0
G00 Z2.0000
G00 X-25.3000 Y23.5000
G01 Z-0.2000
G01 Z0
G00 Z2.0000
G01 Z-0.4000
G01 Z0
G00 Z2.0000
G01 Z-0.6000
G01 Z0
G00 Z2.0000
G01 Z-0.8000
G01 Z0
G00 Z2.0000
G01 Z-1.0000
G01 Z0
G00 Z2.0000
G01 Z-1.2000
G01 Z0
G00 Z2.0000
G01 Z-1.4000
G01 Z0
G00 Z2.0000
G01 Z-1.6000
G01 Z0
G00 Z2.0000
G01 Z-1.8000
G01 Z0
G00 Z2.0000
G00 X-27.8400 Y23.5000
G01 Z-0.2000
G01 Z0
G00 Z2.0000
G01 Z-0.4000
G01 Z0
G00 Z2.0000
G01 Z-0.6000
G01 Z0
G00 Z2.0000
G01 Z-0.8000
G01 Z0
G00 Z2.0000
G01 Z-1.0000
G01 Z0
G00 Z2.0000
G01 Z-1.2000
G01 Z0
G00 Z2.0000
G01 Z-1.4000
G01 Z0
G00 Z2.0000
G01 Z-1.6000
G01 Z0
G00 Z2.0000
G01 Z-1.8000
G01 Z0
G00 Z2.0000
G00 X-30.3800 Y23.5000
G01 Z-0.2000
G01 Z0
G00 Z2.0000
G01 Z-0.4000
G01 Z0
G00 Z2.0000
G01 Z-0.6000
G01 Z0
G00 Z2.0000
G01 Z-0.8000
G01 Z0
G00 Z2.0000
G01 Z-1.0000
G01 Z0
G00 Z2.0000
G01 Z-1.2000
G01 Z0
G00 Z2.0000
G01 Z-1.4000
G01 Z0
G00 Z2.0000
G01 Z-1.6000
G01 Z0
G00 Z2.0000
G01 Z-1.8000
G01 Z0
G00 Z2.0000
G00 X-32.9200 Y23.5000
G01 Z-0.2000
G01 Z0
G00 Z2.0000
G01 Z-0.4000
G01 Z0
G00 Z2.0000
G01 Z-0.6000
G01 Z0
G00 Z2.0000
G01 Z-0.8000
G01 Z0
G00 Z2.0000
G01 Z-1.0000
G01 Z0
G00 Z2.0000
G01 Z-1.2000
G01 Z0
G00 Z2.0000
G01 Z-1.4000
G01 Z0
G00 Z2.0000
G01 Z-1.6000
G01 Z0
G00 Z2.0000
G01 Z-1.8000
G01 Z0
G00 Z2.0000
G00 X-35.4600 Y23.5000
G01 Z-0.2000
G01 Z0
G00 Z2.0000
G01 Z-0.4000
G01 Z0
G00 Z2.0000
G01 Z-0.6000
G01 Z0
G00 Z2.0000
G01 Z-0.8000
G01 Z0
G00 Z2.0000
G01 Z-1.0000
G01 Z0
G00 Z2.0000
G01 Z-1.2000
G01 Z0
G00 Z2.0000
G01 Z-1.4000
G01 Z0
G00 Z2.0000
G01 Z-1.6000
G01 Z0
G00 Z2.0000
G01 Z-1.8000
G01 Z0
G00 Z2.0000
G00 X-38.0000 Y23.5000
G01 Z-0.2000
G01 Z0
G00 Z2.0000
G01 Z-0.4000
G01 Z0
G00 Z2.0000
G01 Z-0.6000
G01 Z0
G00 Z2.0000
G01 Z-0.8000
G01 Z0
G00 Z2.0000
G01 Z-1.0000
G01 Z0
G00 Z2.0000
G01 Z-1.2000
G01 Z0
G00 Z2.0000
G01 Z-1.4000
G01 Z0
G00 Z2.0000
G01 Z-1.6000
G01 Z0
G00 Z2.0000
G01 Z-1.8000
G01 Z0
G00 Z2.0000
G00 X-32.0000 Y-16.2500
G01 Z-0.2000
G01 Z0
G00 Z2.0000
G01 Z-0.4000
G01 Z0
G00 Z2.0000
G01 Z-0.6000
G01 Z0
G00 Z2.0000
G01 Z-0.8000
G01 Z0
G00 Z2.0000
G01 Z-1.0000
G01 Z0
G00 Z2.0000
G01 Z-1.2000
G01 Z0
G00 Z2.0000
G01 Z-1.4000
G01 Z0
G00 Z2.0000
G01 Z-1.6000
G01 Z0
G00 Z2.0000
G01 Z-1.8000
G01 Z0
G00 Z2.0000
G00 X-37.0000 Y-16.2500
G01 Z-0.2000
G01 Z0
G00 Z2.0000
G01 Z-0.4000
G01 Z0
G00 Z2.0000
G01 Z-0.6000
G01 Z0
G00 Z2.0000
G01 Z-0.8000
G01 Z0
G00 Z2.0000
G01 Z-1.0000
G01 Z0
G00 Z2.0000
G01 Z-1.2000
G01 Z0
G00 Z2.0000
G01 Z-1.4000
G01 Z0
G00 Z2.0000
G01 Z-1.6000
G01 Z0
G00 Z2.0000
G01 Z-1.8000
G01 Z0
G00 Z2.0000
G00 X-37.0000 Y-30.7500
G01 Z-0.2000
G01 Z0
G00 Z2.0000
G01 Z-0.4000
G01 Z0
G00 Z2.0000
G01 Z-0.6000
G01 Z0
G00 Z2.0000
G01 Z-0.8000
G01 Z0
G00 Z2.0000
G01 Z-1.0000
G01 Z0
G00 Z2.0000
G01 Z-1.2000
G01 Z0
G00 Z2.0000
G01 Z-1.4000
G01 Z0
G00 Z2.0000
G01 Z-1.6000
G01 Z0
G00 Z2.0000
G01 Z-1.8000
G01 Z0
G00 Z2.0000
G00 X-34.5000 Y-30.7500
G01 Z-0.2000
G01 Z0
G00 Z2.0000
G01 Z-0.4000
G01 Z0
G00 Z2.0000
G01 Z-0.6000
G01 Z0
G00 Z2.0000
G01 Z-0.8000
G01 Z0
G00 Z2.0000
G01 Z-1.0000
G01 Z0
G00 Z2.0000
G01 Z-1.2000
G01 Z0
G00 Z2.0000
G01 Z-1.4000
G01 Z0
G00 Z2.0000
G01 Z-1.6000
G01 Z0
G00 Z2.0000
G01 Z-1.8000
G01 Z0
G00 Z2.0000
G00 X-32.0000 Y-30.7500
G01 Z-0.2000
G01 Z0
G00 Z2.0000
G01 Z-0.4000
G01 Z0
G00 Z2.0000
G01 Z-0.6000
G01 Z0
G00 Z2.0000
G01 Z-0.8000
G01 Z0
G00 Z2.0000
G01 Z-1.0000
G01 Z0
G00 Z2.0000
G01 Z-1.2000
G01 Z0
G00 Z2.0000
G01 Z-1.4000
G01 Z0
G00 Z2.0000
G01 Z-1.6000
G01 Z0
G00 Z2.0000
G01 Z-1.8000
G01 Z0
G00 Z2.0000
G00 X-15.0200 Y-32.0400
G01 Z-0.2000
G01 Z0
G00 Z2.0000
G01 Z-0.4000
G01 Z0
G00 Z2.0000
G01 Z-0.6000
G01 Z0
G00 Z2.0000
G01 Z-0.8000
G01 Z0
G00 Z2.0000
G01 Z-1.0000
G01 Z0
G00 Z2.0000
G01 Z-1.2000
G01 Z0
G00 Z2.0000
G01 Z-1.4000
G01 Z0
G00 Z2.0000
G01 Z-1.6000
G01 Z0
G00 Z2.0000
G01 Z-1.8000
G01 Z0
G00 Z2.0000
G00 X-12.4800 Y-32.0400
G01 Z-0.2000
G01 Z0
G00 Z2.0000
G01 Z-0.4000
G01 Z0
G00 Z2.0000
G01 Z-0.6000
G01 Z0
G00 Z2.0000
G01 Z-0.8000
G01 Z0
G00 Z2.0000
G01 Z-1.0000
G01 Z0
G00 Z2.0000
G01 Z-1.2000
G01 Z0
G00 Z2.0000
G01 Z-1.4000
G01 Z0
G00 Z2.0000
G01 Z-1.6000
G01 Z0
G00 Z2.0000
G01 Z-1.8000
G01 Z0
G00 Z2.0000
G00 X-9.9400 Y-32.0400
G01 Z-0.2000
G01 Z0
G00 Z2.0000
G01 Z-0.4000
G01 Z0
G00 Z2.0000
G01 Z-0.6000
G01 Z0
G00 Z2.0000
G01 Z-0.8000
G01 Z0
G00 Z2.0000
G01 Z-1.0000
G01 Z0
G00 Z2.0000
G01 Z-1.2000
G01 Z0
G00 Z2.0000
G01 Z-1.4000
G01 Z0
G00 Z2.0000
G01 Z-1.6000
G01 Z0
G00 Z2.0000
G01 Z-1.8000
G01 Z0
G00 Z2.0000
G00 X-2.2500 Y-27.2500
G01 Z-0.2000
G01 Z0
G00 Z2.0000
G01 Z-0.4000
G01 Z0
G00 Z2.0000
G01 Z-0.6000
G01 Z0
G00 Z2.0000
G01 Z-0.8000
G01 Z0
G00 Z2.0000
G01 Z-1.0000
G01 Z0
G00 Z2.0000
G01 Z-1.2000
G01 Z0
G00 Z2.0000
G01 Z-1.4000
G01 Z0
G00 Z2.0000
G01 Z-1.6000
G01 Z0
G00 Z2.0000
G01 Z-1.8000
G01 Z0
G00 Z2.0000
G00 X-2.2500 Y-20.7500
G01 Z-0.2000
G01 Z0
G00 Z2.0000
G01 Z-0.4000
G01 Z0
G00 Z2.0000
G01 Z-0.6000
G01 Z0
G00 Z2.0000
G01 Z-0.8000
G01 Z0
G00 Z2.0000
G01 Z-1.0000
G01 Z0
G00 Z2.0000
G01 Z-1.2000
G01 Z0
G00 Z2.0000
G01 Z-1.4000
G01 Z0
G00 Z2.0000
G01 Z-1.6000
G01 Z0
G00 Z2.0000
G01 Z-1.8000
G01 Z0
G00 Z2.0000
G00 X2.2500 Y-20.7500
G01 Z-0.2000
G01 Z0
G00 Z2.0000
G01 Z-0.4000
G01 Z0
G00 Z2.0000
G01 Z-0.6000
G01 Z0
G00 Z2.0000
G01 Z-0.8000
G01 Z0
G00 Z2.0000
G01 Z-1.0000
G01 Z0
G00 Z2.0000
G01 Z-1.2000
G01 Z0
G00 Z2.0000
G01 Z-1.4000
G01 Z0
G00 Z2.0000
G01 Z-1.6000
G01 Z0
G00 Z2.0000
G01 Z-1.8000
G01 Z0
G00 Z2.0000
G00 X2.2500 Y-27.2500
G01 Z-0.2000
G01 Z0
G00 Z2.0000
G01 Z-0.4000
G01 Z0
G00 Z2.0000
G01 Z-0.6000
G01 Z0
G00 Z2.0000
G01 Z-0.8000
G01 Z0
G00 Z2.0000
G01 Z-1.0000
G01 Z0
G00 Z2.0000
G01 Z-1.2000
G01 Z0
G00 Z2.0000
G01 Z-1.4000
G01 Z0
G00 Z2.0000
G01 Z-1.6000
G01 Z0
G00 Z2.0000
G01 Z-1.8000
G01 Z0
G00 Z2.0000
G00 X32.5000 Y-31.2500
G01 Z-0.2000
G01 Z0
G00 Z2.0000
G01 Z-0.4000
G01 Z0
G00 Z2.0000
G01 Z-0.6000
G01 Z0
G00 Z2.0000
G01 Z-0.8000
G01 Z0
G00 Z2.0000
G01 Z-1.0000
G01 Z0
G00 Z2.0000
G01 Z-1.2000
G01 Z0
G00 Z2.0000
G01 Z-1.4000
G01 Z0
G00 Z2.0000
G01 Z-1.6000
G01 Z0
G00 Z2.0000
G01 Z-1.8000
G01 Z0
G00 Z2.0000
G00 X35.0000 Y-31.2500
G01 Z-0.2000
G01 Z0
G00 Z2.0000
G01 Z-0.4000
G01 Z0
G00 Z2.0000
G01 Z-0.6000
G01 Z0
G00 Z2.0000
G01 Z-0.8000
G01 Z0
G00 Z2.0000
G01 Z-1.0000
G01 Z0
G00 Z2.0000
G01 Z-1.2000
G01 Z0
G00 Z2.0000
G01 Z-1.4000
G01 Z0
G00 Z2.0000
G01 Z-1.6000
G01 Z0
G00 Z2.0000
G01 Z-1.8000
G01 Z0
G00 Z2.0000
G00 X37.5000 Y-31.2500
G01 Z-0.2000
G01 Z0
G00 Z2.0000
G01 Z-0.4000
G01 Z0
G00 Z2.0000
G01 Z-0.6000
G01 Z0
G00 Z2.0000
G01 Z-0.8000
G01 Z0
G00 Z2.0000
G01 Z-1.0000
G01 Z0
G00 Z2.0000
G01 Z-1.2000
G01 Z0
G00 Z2.0000
G01 Z-1.4000
G01 Z0
G00 Z2.0000
G01 Z-1.6000
G01 Z0
G00 Z2.0000
G01 Z-1.8000
G01 Z0
G00 Z2.0000
M05
G00 Z5.00


