(G-CODE GENERATED BY FLATCAM v8.994 - www.flatcam.org - Version Date: 2020/11/7)

(Name: Encoders-LCD.drl_cnc)
(Type: G-code from Geometry)
(Units: MM)

(Created on Tuesday, 11 February 2025 at 21:30)

(This preprocessor is used with a motion controller loaded with GRBL firmware.)
(It is configured to be compatible with almost any version of GRBL firmware.)


(TOOLS DIAMETER: )
(Tool: 1 -> Dia: 0.5)
(Tool: 2 -> Dia: 0.6)
(Tool: 3 -> Dia: 1.0)
(Tool: 4 -> Dia: 1.1)
(Tool: 5 -> Dia: 2.6)
(Tool: 6 -> Dia: 3.2)

(FEEDRATE Z: )
(Tool: 1 -> Feedrate: 300)
(Tool: 2 -> Feedrate: 300)
(Tool: 3 -> Feedrate: 300)
(Tool: 4 -> Feedrate: 300)
(Tool: 5 -> Feedrate: 300)
(Tool: 6 -> Feedrate: 300)

(FEEDRATE RAPIDS: )
(Tool: 1 -> Feedrate Rapids: 1500)
(Tool: 2 -> Feedrate Rapids: 1500)
(Tool: 3 -> Feedrate Rapids: 1500)
(Tool: 4 -> Feedrate Rapids: 1500)
(Tool: 5 -> Feedrate Rapids: 1500)
(Tool: 6 -> Feedrate Rapids: 1500)

(Z_CUT: )
(Tool: 1 -> Z_Cut: -1.7)
(Tool: 2 -> Z_Cut: -1.7)
(Tool: 3 -> Z_Cut: -1.7)
(Tool: 4 -> Z_Cut: -1.7)
(Tool: 5 -> Z_Cut: -1.7)
(Tool: 6 -> Z_Cut: -1.7)

(Tools Offset: )
(Tool: 4 -> Offset Z: 0.0)

(Z_MOVE: )
(Tool: 1 -> Z_Move: 2)
(Tool: 2 -> Z_Move: 2)
(Tool: 3 -> Z_Move: 2)
(Tool: 4 -> Z_Move: 2)
(Tool: 5 -> Z_Move: 2)
(Tool: 6 -> Z_Move: 2)

(Z Toolchange: 15 mm)
(X,Y Toolchange: 0.0000, 0.0000 mm)
(Z Start: None mm)
(Z End: 4.999999999999998 mm)
(X,Y End: None mm)
(Steps per circle: 64)
(Steps per circle: 64)
(Preprocessor Excellon: GRBL_11_no_M6)

(X range:  -45.6000 ...   45.6000  mm)
(Y range:  -33.6000 ...   33.6000  mm)

(Spindle Speed: 900 RPM)
G21
G90
G17
G94


G01 F300.00

M5             
G00 Z15.0000
G00 X0.0000 Y0.0000                
T4
(MSG, Change to Tool Dia = 1.1000 ||| Total drills for tool T4 = 12)
M0
G00 Z15.0000
        
G01 F300.00
M03 S900
G00 X35.8600 Y25.6500
G01 Z-1.7000
G01 Z0
G00 Z2.0000
G00 X35.8600 Y21.1500
G01 Z-1.7000
G01 Z0
G00 Z2.0000
G00 X29.3600 Y21.1500
G01 Z-1.7000
G01 Z0
G00 Z2.0000
G00 X3.0800 Y-20.3980
G01 Z-1.7000
G01 Z0
G00 Z2.0000
G00 X3.0800 Y-24.8980
G01 Z-1.7000
G01 Z0
G00 Z2.0000
G00 X-3.4200 Y-24.8980
G01 Z-1.7000
G01 Z0
G00 Z2.0000
G00 X-3.4200 Y-20.3980
G01 Z-1.7000
G01 Z0
G00 Z2.0000
G00 X-29.8630 Y21.1550
G01 Z-1.7000
G01 Z0
G00 Z2.0000
G00 X-36.3630 Y21.1550
G01 Z-1.7000
G01 Z0
G00 Z2.0000
G00 X-36.3630 Y25.6550
G01 Z-1.7000
G01 Z0
G00 Z2.0000
G00 X-29.8630 Y25.6550
G01 Z-1.7000
G01 Z0
G00 Z2.0000
G00 X29.3600 Y25.6500
G01 Z-1.7000
G01 Z0
G00 Z2.0000
M05
G00 Z5.00


