(G-CODE GENERATED BY FLATCAM v8.994 - www.flatcam.org - Version Date: 2020/11/7)

(Name: Encoders-LCD-NPTH.drl_conv_cnc)
(Type: G-code from Geometry)
(Units: MM)

(Created on Monday, 09 September 2024 at 16:01)

(This preprocessor is used with a motion controller loaded with GRBL firmware.)
(It is configured to be compatible with almost any version of GRBL firmware.)

(TOOL DIAMETER: 2.4 mm)
(Feedrate_XY: 120.0 mm/min)
(Feedrate_Z: 60.0 mm/min)
(Feedrate rapids 1500.0 mm/min)

(Z_Cut: -1.8 mm)
(DepthPerCut: 0.2 mm <=>9 passes)
(Z_Move: 2.0 mm)
(Z Start: None mm)
(Z End: 5.0 mm)
(X,Y End: None mm)
(Steps per circle: 64)
(Steps per circle: 64)
(Preprocessor Geometry: GRBL_11_no_M6)

(X range:  -51.3500 ...   51.6000  mm)
(Y range:  -35.1000 ...   34.8500  mm)

(Spindle Speed: 900.0 RPM)
G21
G90
G17
G94


G01 F120.00

M5             
G00 Z15.0000
G00 X0.0000 Y0.0000                
T1
(MSG, Change to Tool Dia = 2.4000)
M0
G00 Z15.0000
        
M03 S900.0
G01 F120.00
G00 X-49.3514 Y33.0000
G01 F60.00
G01 Z-0.2000
G01 F120.00
G01 X-49.3534 Y32.9609 F120.00
G01 X-49.3591 Y32.9222 F120.00
G01 X-49.3686 Y32.8843 F120.00
G01 X-49.3818 Y32.8475 F120.00
G01 X-49.3985 Y32.8121 F120.00
G01 X-49.4186 Y32.7786 F120.00
G01 X-49.4419 Y32.7472 F120.00
G01 X-49.4682 Y32.7182 F120.00
G01 X-49.4972 Y32.6919 F120.00
G01 X-49.5286 Y32.6686 F120.00
G01 X-49.5621 Y32.6485 F120.00
G01 X-49.5975 Y32.6318 F120.00
G01 X-49.6343 Y32.6186 F120.00
G01 X-49.6722 Y32.6091 F120.00
G01 X-49.7109 Y32.6034 F120.00
G01 X-49.7500 Y32.6014 F120.00
G01 X-49.7891 Y32.6034 F120.00
G01 X-49.8278 Y32.6091 F120.00
G01 X-49.8657 Y32.6186 F120.00
G01 X-49.9025 Y32.6318 F120.00
G01 X-49.9379 Y32.6485 F120.00
G01 X-49.9714 Y32.6686 F120.00
G01 X-50.0028 Y32.6919 F120.00
G01 X-50.0318 Y32.7182 F120.00
G01 X-50.0581 Y32.7472 F120.00
G01 X-50.0814 Y32.7786 F120.00
G01 X-50.1015 Y32.8121 F120.00
G01 X-50.1182 Y32.8475 F120.00
G01 X-50.1314 Y32.8843 F120.00
G01 X-50.1409 Y32.9222 F120.00
G01 X-50.1466 Y32.9609 F120.00
G01 X-50.1486 Y33.0000 F120.00
G01 X-50.1466 Y33.0391 F120.00
G01 X-50.1409 Y33.0778 F120.00
G01 X-50.1314 Y33.1157 F120.00
G01 X-50.1182 Y33.1525 F120.00
G01 X-50.1015 Y33.1879 F120.00
G01 X-50.0814 Y33.2214 F120.00
G01 X-50.0581 Y33.2528 F120.00
G01 X-50.0318 Y33.2818 F120.00
G01 X-50.0028 Y33.3081 F120.00
G01 X-49.9714 Y33.3314 F120.00
G01 X-49.9379 Y33.3515 F120.00
G01 X-49.9025 Y33.3682 F120.00
G01 X-49.8657 Y33.3814 F120.00
G01 X-49.8278 Y33.3909 F120.00
G01 X-49.7891 Y33.3966 F120.00
G01 X-49.7500 Y33.3986 F120.00
G01 X-49.7109 Y33.3966 F120.00
G01 X-49.6722 Y33.3909 F120.00
G01 X-49.6343 Y33.3814 F120.00
G01 X-49.5975 Y33.3682 F120.00
G01 X-49.5621 Y33.3515 F120.00
G01 X-49.5286 Y33.3314 F120.00
G01 X-49.4972 Y33.3081 F120.00
G01 X-49.4682 Y33.2818 F120.00
G01 X-49.4419 Y33.2528 F120.00
G01 X-49.4186 Y33.2214 F120.00
G01 X-49.3985 Y33.1879 F120.00
G01 X-49.3818 Y33.1525 F120.00
G01 X-49.3686 Y33.1157 F120.00
G01 X-49.3591 Y33.0778 F120.00
G01 X-49.3534 Y33.0391 F120.00
G01 X-49.3514 Y33.0000 F120.00
G00 X-49.3514 Y33.0000
G01 F60.00
G01 Z-0.4000
G01 F120.00
G01 X-49.3534 Y32.9609 F120.00
G01 X-49.3591 Y32.9222 F120.00
G01 X-49.3686 Y32.8843 F120.00
G01 X-49.3818 Y32.8475 F120.00
G01 X-49.3985 Y32.8121 F120.00
G01 X-49.4186 Y32.7786 F120.00
G01 X-49.4419 Y32.7472 F120.00
G01 X-49.4682 Y32.7182 F120.00
G01 X-49.4972 Y32.6919 F120.00
G01 X-49.5286 Y32.6686 F120.00
G01 X-49.5621 Y32.6485 F120.00
G01 X-49.5975 Y32.6318 F120.00
G01 X-49.6343 Y32.6186 F120.00
G01 X-49.6722 Y32.6091 F120.00
G01 X-49.7109 Y32.6034 F120.00
G01 X-49.7500 Y32.6014 F120.00
G01 X-49.7891 Y32.6034 F120.00
G01 X-49.8278 Y32.6091 F120.00
G01 X-49.8657 Y32.6186 F120.00
G01 X-49.9025 Y32.6318 F120.00
G01 X-49.9379 Y32.6485 F120.00
G01 X-49.9714 Y32.6686 F120.00
G01 X-50.0028 Y32.6919 F120.00
G01 X-50.0318 Y32.7182 F120.00
G01 X-50.0581 Y32.7472 F120.00
G01 X-50.0814 Y32.7786 F120.00
G01 X-50.1015 Y32.8121 F120.00
G01 X-50.1182 Y32.8475 F120.00
G01 X-50.1314 Y32.8843 F120.00
G01 X-50.1409 Y32.9222 F120.00
G01 X-50.1466 Y32.9609 F120.00
G01 X-50.1486 Y33.0000 F120.00
G01 X-50.1466 Y33.0391 F120.00
G01 X-50.1409 Y33.0778 F120.00
G01 X-50.1314 Y33.1157 F120.00
G01 X-50.1182 Y33.1525 F120.00
G01 X-50.1015 Y33.1879 F120.00
G01 X-50.0814 Y33.2214 F120.00
G01 X-50.0581 Y33.2528 F120.00
G01 X-50.0318 Y33.2818 F120.00
G01 X-50.0028 Y33.3081 F120.00
G01 X-49.9714 Y33.3314 F120.00
G01 X-49.9379 Y33.3515 F120.00
G01 X-49.9025 Y33.3682 F120.00
G01 X-49.8657 Y33.3814 F120.00
G01 X-49.8278 Y33.3909 F120.00
G01 X-49.7891 Y33.3966 F120.00
G01 X-49.7500 Y33.3986 F120.00
G01 X-49.7109 Y33.3966 F120.00
G01 X-49.6722 Y33.3909 F120.00
G01 X-49.6343 Y33.3814 F120.00
G01 X-49.5975 Y33.3682 F120.00
G01 X-49.5621 Y33.3515 F120.00
G01 X-49.5286 Y33.3314 F120.00
G01 X-49.4972 Y33.3081 F120.00
G01 X-49.4682 Y33.2818 F120.00
G01 X-49.4419 Y33.2528 F120.00
G01 X-49.4186 Y33.2214 F120.00
G01 X-49.3985 Y33.1879 F120.00
G01 X-49.3818 Y33.1525 F120.00
G01 X-49.3686 Y33.1157 F120.00
G01 X-49.3591 Y33.0778 F120.00
G01 X-49.3534 Y33.0391 F120.00
G01 X-49.3514 Y33.0000 F120.00
G00 X-49.3514 Y33.0000
G01 F60.00
G01 Z-0.6000
G01 F120.00
G01 X-49.3534 Y32.9609 F120.00
G01 X-49.3591 Y32.9222 F120.00
G01 X-49.3686 Y32.8843 F120.00
G01 X-49.3818 Y32.8475 F120.00
G01 X-49.3985 Y32.8121 F120.00
G01 X-49.4186 Y32.7786 F120.00
G01 X-49.4419 Y32.7472 F120.00
G01 X-49.4682 Y32.7182 F120.00
G01 X-49.4972 Y32.6919 F120.00
G01 X-49.5286 Y32.6686 F120.00
G01 X-49.5621 Y32.6485 F120.00
G01 X-49.5975 Y32.6318 F120.00
G01 X-49.6343 Y32.6186 F120.00
G01 X-49.6722 Y32.6091 F120.00
G01 X-49.7109 Y32.6034 F120.00
G01 X-49.7500 Y32.6014 F120.00
G01 X-49.7891 Y32.6034 F120.00
G01 X-49.8278 Y32.6091 F120.00
G01 X-49.8657 Y32.6186 F120.00
G01 X-49.9025 Y32.6318 F120.00
G01 X-49.9379 Y32.6485 F120.00
G01 X-49.9714 Y32.6686 F120.00
G01 X-50.0028 Y32.6919 F120.00
G01 X-50.0318 Y32.7182 F120.00
G01 X-50.0581 Y32.7472 F120.00
G01 X-50.0814 Y32.7786 F120.00
G01 X-50.1015 Y32.8121 F120.00
G01 X-50.1182 Y32.8475 F120.00
G01 X-50.1314 Y32.8843 F120.00
G01 X-50.1409 Y32.9222 F120.00
G01 X-50.1466 Y32.9609 F120.00
G01 X-50.1486 Y33.0000 F120.00
G01 X-50.1466 Y33.0391 F120.00
G01 X-50.1409 Y33.0778 F120.00
G01 X-50.1314 Y33.1157 F120.00
G01 X-50.1182 Y33.1525 F120.00
G01 X-50.1015 Y33.1879 F120.00
G01 X-50.0814 Y33.2214 F120.00
G01 X-50.0581 Y33.2528 F120.00
G01 X-50.0318 Y33.2818 F120.00
G01 X-50.0028 Y33.3081 F120.00
G01 X-49.9714 Y33.3314 F120.00
G01 X-49.9379 Y33.3515 F120.00
G01 X-49.9025 Y33.3682 F120.00
G01 X-49.8657 Y33.3814 F120.00
G01 X-49.8278 Y33.3909 F120.00
G01 X-49.7891 Y33.3966 F120.00
G01 X-49.7500 Y33.3986 F120.00
G01 X-49.7109 Y33.3966 F120.00
G01 X-49.6722 Y33.3909 F120.00
G01 X-49.6343 Y33.3814 F120.00
G01 X-49.5975 Y33.3682 F120.00
G01 X-49.5621 Y33.3515 F120.00
G01 X-49.5286 Y33.3314 F120.00
G01 X-49.4972 Y33.3081 F120.00
G01 X-49.4682 Y33.2818 F120.00
G01 X-49.4419 Y33.2528 F120.00
G01 X-49.4186 Y33.2214 F120.00
G01 X-49.3985 Y33.1879 F120.00
G01 X-49.3818 Y33.1525 F120.00
G01 X-49.3686 Y33.1157 F120.00
G01 X-49.3591 Y33.0778 F120.00
G01 X-49.3534 Y33.0391 F120.00
G01 X-49.3514 Y33.0000 F120.00
G00 X-49.3514 Y33.0000
G01 F60.00
G01 Z-0.8000
G01 F120.00
G01 X-49.3534 Y32.9609 F120.00
G01 X-49.3591 Y32.9222 F120.00
G01 X-49.3686 Y32.8843 F120.00
G01 X-49.3818 Y32.8475 F120.00
G01 X-49.3985 Y32.8121 F120.00
G01 X-49.4186 Y32.7786 F120.00
G01 X-49.4419 Y32.7472 F120.00
G01 X-49.4682 Y32.7182 F120.00
G01 X-49.4972 Y32.6919 F120.00
G01 X-49.5286 Y32.6686 F120.00
G01 X-49.5621 Y32.6485 F120.00
G01 X-49.5975 Y32.6318 F120.00
G01 X-49.6343 Y32.6186 F120.00
G01 X-49.6722 Y32.6091 F120.00
G01 X-49.7109 Y32.6034 F120.00
G01 X-49.7500 Y32.6014 F120.00
G01 X-49.7891 Y32.6034 F120.00
G01 X-49.8278 Y32.6091 F120.00
G01 X-49.8657 Y32.6186 F120.00
G01 X-49.9025 Y32.6318 F120.00
G01 X-49.9379 Y32.6485 F120.00
G01 X-49.9714 Y32.6686 F120.00
G01 X-50.0028 Y32.6919 F120.00
G01 X-50.0318 Y32.7182 F120.00
G01 X-50.0581 Y32.7472 F120.00
G01 X-50.0814 Y32.7786 F120.00
G01 X-50.1015 Y32.8121 F120.00
G01 X-50.1182 Y32.8475 F120.00
G01 X-50.1314 Y32.8843 F120.00
G01 X-50.1409 Y32.9222 F120.00
G01 X-50.1466 Y32.9609 F120.00
G01 X-50.1486 Y33.0000 F120.00
G01 X-50.1466 Y33.0391 F120.00
G01 X-50.1409 Y33.0778 F120.00
G01 X-50.1314 Y33.1157 F120.00
G01 X-50.1182 Y33.1525 F120.00
G01 X-50.1015 Y33.1879 F120.00
G01 X-50.0814 Y33.2214 F120.00
G01 X-50.0581 Y33.2528 F120.00
G01 X-50.0318 Y33.2818 F120.00
G01 X-50.0028 Y33.3081 F120.00
G01 X-49.9714 Y33.3314 F120.00
G01 X-49.9379 Y33.3515 F120.00
G01 X-49.9025 Y33.3682 F120.00
G01 X-49.8657 Y33.3814 F120.00
G01 X-49.8278 Y33.3909 F120.00
G01 X-49.7891 Y33.3966 F120.00
G01 X-49.7500 Y33.3986 F120.00
G01 X-49.7109 Y33.3966 F120.00
G01 X-49.6722 Y33.3909 F120.00
G01 X-49.6343 Y33.3814 F120.00
G01 X-49.5975 Y33.3682 F120.00
G01 X-49.5621 Y33.3515 F120.00
G01 X-49.5286 Y33.3314 F120.00
G01 X-49.4972 Y33.3081 F120.00
G01 X-49.4682 Y33.2818 F120.00
G01 X-49.4419 Y33.2528 F120.00
G01 X-49.4186 Y33.2214 F120.00
G01 X-49.3985 Y33.1879 F120.00
G01 X-49.3818 Y33.1525 F120.00
G01 X-49.3686 Y33.1157 F120.00
G01 X-49.3591 Y33.0778 F120.00
G01 X-49.3534 Y33.0391 F120.00
G01 X-49.3514 Y33.0000 F120.00
G00 X-49.3514 Y33.0000
G01 F60.00
G01 Z-1.0000
G01 F120.00
G01 X-49.3534 Y32.9609 F120.00
G01 X-49.3591 Y32.9222 F120.00
G01 X-49.3686 Y32.8843 F120.00
G01 X-49.3818 Y32.8475 F120.00
G01 X-49.3985 Y32.8121 F120.00
G01 X-49.4186 Y32.7786 F120.00
G01 X-49.4419 Y32.7472 F120.00
G01 X-49.4682 Y32.7182 F120.00
G01 X-49.4972 Y32.6919 F120.00
G01 X-49.5286 Y32.6686 F120.00
G01 X-49.5621 Y32.6485 F120.00
G01 X-49.5975 Y32.6318 F120.00
G01 X-49.6343 Y32.6186 F120.00
G01 X-49.6722 Y32.6091 F120.00
G01 X-49.7109 Y32.6034 F120.00
G01 X-49.7500 Y32.6014 F120.00
G01 X-49.7891 Y32.6034 F120.00
G01 X-49.8278 Y32.6091 F120.00
G01 X-49.8657 Y32.6186 F120.00
G01 X-49.9025 Y32.6318 F120.00
G01 X-49.9379 Y32.6485 F120.00
G01 X-49.9714 Y32.6686 F120.00
G01 X-50.0028 Y32.6919 F120.00
G01 X-50.0318 Y32.7182 F120.00
G01 X-50.0581 Y32.7472 F120.00
G01 X-50.0814 Y32.7786 F120.00
G01 X-50.1015 Y32.8121 F120.00
G01 X-50.1182 Y32.8475 F120.00
G01 X-50.1314 Y32.8843 F120.00
G01 X-50.1409 Y32.9222 F120.00
G01 X-50.1466 Y32.9609 F120.00
G01 X-50.1486 Y33.0000 F120.00
G01 X-50.1466 Y33.0391 F120.00
G01 X-50.1409 Y33.0778 F120.00
G01 X-50.1314 Y33.1157 F120.00
G01 X-50.1182 Y33.1525 F120.00
G01 X-50.1015 Y33.1879 F120.00
G01 X-50.0814 Y33.2214 F120.00
G01 X-50.0581 Y33.2528 F120.00
G01 X-50.0318 Y33.2818 F120.00
G01 X-50.0028 Y33.3081 F120.00
G01 X-49.9714 Y33.3314 F120.00
G01 X-49.9379 Y33.3515 F120.00
G01 X-49.9025 Y33.3682 F120.00
G01 X-49.8657 Y33.3814 F120.00
G01 X-49.8278 Y33.3909 F120.00
G01 X-49.7891 Y33.3966 F120.00
G01 X-49.7500 Y33.3986 F120.00
G01 X-49.7109 Y33.3966 F120.00
G01 X-49.6722 Y33.3909 F120.00
G01 X-49.6343 Y33.3814 F120.00
G01 X-49.5975 Y33.3682 F120.00
G01 X-49.5621 Y33.3515 F120.00
G01 X-49.5286 Y33.3314 F120.00
G01 X-49.4972 Y33.3081 F120.00
G01 X-49.4682 Y33.2818 F120.00
G01 X-49.4419 Y33.2528 F120.00
G01 X-49.4186 Y33.2214 F120.00
G01 X-49.3985 Y33.1879 F120.00
G01 X-49.3818 Y33.1525 F120.00
G01 X-49.3686 Y33.1157 F120.00
G01 X-49.3591 Y33.0778 F120.00
G01 X-49.3534 Y33.0391 F120.00
G01 X-49.3514 Y33.0000 F120.00
G00 X-49.3514 Y33.0000
G01 F60.00
G01 Z-1.2000
G01 F120.00
G01 X-49.3534 Y32.9609 F120.00
G01 X-49.3591 Y32.9222 F120.00
G01 X-49.3686 Y32.8843 F120.00
G01 X-49.3818 Y32.8475 F120.00
G01 X-49.3985 Y32.8121 F120.00
G01 X-49.4186 Y32.7786 F120.00
G01 X-49.4419 Y32.7472 F120.00
G01 X-49.4682 Y32.7182 F120.00
G01 X-49.4972 Y32.6919 F120.00
G01 X-49.5286 Y32.6686 F120.00
G01 X-49.5621 Y32.6485 F120.00
G01 X-49.5975 Y32.6318 F120.00
G01 X-49.6343 Y32.6186 F120.00
G01 X-49.6722 Y32.6091 F120.00
G01 X-49.7109 Y32.6034 F120.00
G01 X-49.7500 Y32.6014 F120.00
G01 X-49.7891 Y32.6034 F120.00
G01 X-49.8278 Y32.6091 F120.00
G01 X-49.8657 Y32.6186 F120.00
G01 X-49.9025 Y32.6318 F120.00
G01 X-49.9379 Y32.6485 F120.00
G01 X-49.9714 Y32.6686 F120.00
G01 X-50.0028 Y32.6919 F120.00
G01 X-50.0318 Y32.7182 F120.00
G01 X-50.0581 Y32.7472 F120.00
G01 X-50.0814 Y32.7786 F120.00
G01 X-50.1015 Y32.8121 F120.00
G01 X-50.1182 Y32.8475 F120.00
G01 X-50.1314 Y32.8843 F120.00
G01 X-50.1409 Y32.9222 F120.00
G01 X-50.1466 Y32.9609 F120.00
G01 X-50.1486 Y33.0000 F120.00
G01 X-50.1466 Y33.0391 F120.00
G01 X-50.1409 Y33.0778 F120.00
G01 X-50.1314 Y33.1157 F120.00
G01 X-50.1182 Y33.1525 F120.00
G01 X-50.1015 Y33.1879 F120.00
G01 X-50.0814 Y33.2214 F120.00
G01 X-50.0581 Y33.2528 F120.00
G01 X-50.0318 Y33.2818 F120.00
G01 X-50.0028 Y33.3081 F120.00
G01 X-49.9714 Y33.3314 F120.00
G01 X-49.9379 Y33.3515 F120.00
G01 X-49.9025 Y33.3682 F120.00
G01 X-49.8657 Y33.3814 F120.00
G01 X-49.8278 Y33.3909 F120.00
G01 X-49.7891 Y33.3966 F120.00
G01 X-49.7500 Y33.3986 F120.00
G01 X-49.7109 Y33.3966 F120.00
G01 X-49.6722 Y33.3909 F120.00
G01 X-49.6343 Y33.3814 F120.00
G01 X-49.5975 Y33.3682 F120.00
G01 X-49.5621 Y33.3515 F120.00
G01 X-49.5286 Y33.3314 F120.00
G01 X-49.4972 Y33.3081 F120.00
G01 X-49.4682 Y33.2818 F120.00
G01 X-49.4419 Y33.2528 F120.00
G01 X-49.4186 Y33.2214 F120.00
G01 X-49.3985 Y33.1879 F120.00
G01 X-49.3818 Y33.1525 F120.00
G01 X-49.3686 Y33.1157 F120.00
G01 X-49.3591 Y33.0778 F120.00
G01 X-49.3534 Y33.0391 F120.00
G01 X-49.3514 Y33.0000 F120.00
G00 X-49.3514 Y33.0000
G01 F60.00
G01 Z-1.4000
G01 F120.00
G01 X-49.3534 Y32.9609 F120.00
G01 X-49.3591 Y32.9222 F120.00
G01 X-49.3686 Y32.8843 F120.00
G01 X-49.3818 Y32.8475 F120.00
G01 X-49.3985 Y32.8121 F120.00
G01 X-49.4186 Y32.7786 F120.00
G01 X-49.4419 Y32.7472 F120.00
G01 X-49.4682 Y32.7182 F120.00
G01 X-49.4972 Y32.6919 F120.00
G01 X-49.5286 Y32.6686 F120.00
G01 X-49.5621 Y32.6485 F120.00
G01 X-49.5975 Y32.6318 F120.00
G01 X-49.6343 Y32.6186 F120.00
G01 X-49.6722 Y32.6091 F120.00
G01 X-49.7109 Y32.6034 F120.00
G01 X-49.7500 Y32.6014 F120.00
G01 X-49.7891 Y32.6034 F120.00
G01 X-49.8278 Y32.6091 F120.00
G01 X-49.8657 Y32.6186 F120.00
G01 X-49.9025 Y32.6318 F120.00
G01 X-49.9379 Y32.6485 F120.00
G01 X-49.9714 Y32.6686 F120.00
G01 X-50.0028 Y32.6919 F120.00
G01 X-50.0318 Y32.7182 F120.00
G01 X-50.0581 Y32.7472 F120.00
G01 X-50.0814 Y32.7786 F120.00
G01 X-50.1015 Y32.8121 F120.00
G01 X-50.1182 Y32.8475 F120.00
G01 X-50.1314 Y32.8843 F120.00
G01 X-50.1409 Y32.9222 F120.00
G01 X-50.1466 Y32.9609 F120.00
G01 X-50.1486 Y33.0000 F120.00
G01 X-50.1466 Y33.0391 F120.00
G01 X-50.1409 Y33.0778 F120.00
G01 X-50.1314 Y33.1157 F120.00
G01 X-50.1182 Y33.1525 F120.00
G01 X-50.1015 Y33.1879 F120.00
G01 X-50.0814 Y33.2214 F120.00
G01 X-50.0581 Y33.2528 F120.00
G01 X-50.0318 Y33.2818 F120.00
G01 X-50.0028 Y33.3081 F120.00
G01 X-49.9714 Y33.3314 F120.00
G01 X-49.9379 Y33.3515 F120.00
G01 X-49.9025 Y33.3682 F120.00
G01 X-49.8657 Y33.3814 F120.00
G01 X-49.8278 Y33.3909 F120.00
G01 X-49.7891 Y33.3966 F120.00
G01 X-49.7500 Y33.3986 F120.00
G01 X-49.7109 Y33.3966 F120.00
G01 X-49.6722 Y33.3909 F120.00
G01 X-49.6343 Y33.3814 F120.00
G01 X-49.5975 Y33.3682 F120.00
G01 X-49.5621 Y33.3515 F120.00
G01 X-49.5286 Y33.3314 F120.00
G01 X-49.4972 Y33.3081 F120.00
G01 X-49.4682 Y33.2818 F120.00
G01 X-49.4419 Y33.2528 F120.00
G01 X-49.4186 Y33.2214 F120.00
G01 X-49.3985 Y33.1879 F120.00
G01 X-49.3818 Y33.1525 F120.00
G01 X-49.3686 Y33.1157 F120.00
G01 X-49.3591 Y33.0778 F120.00
G01 X-49.3534 Y33.0391 F120.00
G01 X-49.3514 Y33.0000 F120.00
G00 X-49.3514 Y33.0000
G01 F60.00
G01 Z-1.6000
G01 F120.00
G01 X-49.3534 Y32.9609 F120.00
G01 X-49.3591 Y32.9222 F120.00
G01 X-49.3686 Y32.8843 F120.00
G01 X-49.3818 Y32.8475 F120.00
G01 X-49.3985 Y32.8121 F120.00
G01 X-49.4186 Y32.7786 F120.00
G01 X-49.4419 Y32.7472 F120.00
G01 X-49.4682 Y32.7182 F120.00
G01 X-49.4972 Y32.6919 F120.00
G01 X-49.5286 Y32.6686 F120.00
G01 X-49.5621 Y32.6485 F120.00
G01 X-49.5975 Y32.6318 F120.00
G01 X-49.6343 Y32.6186 F120.00
G01 X-49.6722 Y32.6091 F120.00
G01 X-49.7109 Y32.6034 F120.00
G01 X-49.7500 Y32.6014 F120.00
G01 X-49.7891 Y32.6034 F120.00
G01 X-49.8278 Y32.6091 F120.00
G01 X-49.8657 Y32.6186 F120.00
G01 X-49.9025 Y32.6318 F120.00
G01 X-49.9379 Y32.6485 F120.00
G01 X-49.9714 Y32.6686 F120.00
G01 X-50.0028 Y32.6919 F120.00
G01 X-50.0318 Y32.7182 F120.00
G01 X-50.0581 Y32.7472 F120.00
G01 X-50.0814 Y32.7786 F120.00
G01 X-50.1015 Y32.8121 F120.00
G01 X-50.1182 Y32.8475 F120.00
G01 X-50.1314 Y32.8843 F120.00
G01 X-50.1409 Y32.9222 F120.00
G01 X-50.1466 Y32.9609 F120.00
G01 X-50.1486 Y33.0000 F120.00
G01 X-50.1466 Y33.0391 F120.00
G01 X-50.1409 Y33.0778 F120.00
G01 X-50.1314 Y33.1157 F120.00
G01 X-50.1182 Y33.1525 F120.00
G01 X-50.1015 Y33.1879 F120.00
G01 X-50.0814 Y33.2214 F120.00
G01 X-50.0581 Y33.2528 F120.00
G01 X-50.0318 Y33.2818 F120.00
G01 X-50.0028 Y33.3081 F120.00
G01 X-49.9714 Y33.3314 F120.00
G01 X-49.9379 Y33.3515 F120.00
G01 X-49.9025 Y33.3682 F120.00
G01 X-49.8657 Y33.3814 F120.00
G01 X-49.8278 Y33.3909 F120.00
G01 X-49.7891 Y33.3966 F120.00
G01 X-49.7500 Y33.3986 F120.00
G01 X-49.7109 Y33.3966 F120.00
G01 X-49.6722 Y33.3909 F120.00
G01 X-49.6343 Y33.3814 F120.00
G01 X-49.5975 Y33.3682 F120.00
G01 X-49.5621 Y33.3515 F120.00
G01 X-49.5286 Y33.3314 F120.00
G01 X-49.4972 Y33.3081 F120.00
G01 X-49.4682 Y33.2818 F120.00
G01 X-49.4419 Y33.2528 F120.00
G01 X-49.4186 Y33.2214 F120.00
G01 X-49.3985 Y33.1879 F120.00
G01 X-49.3818 Y33.1525 F120.00
G01 X-49.3686 Y33.1157 F120.00
G01 X-49.3591 Y33.0778 F120.00
G01 X-49.3534 Y33.0391 F120.00
G01 X-49.3514 Y33.0000 F120.00
G00 X-49.3514 Y33.0000
G01 F60.00
G01 Z-1.8000
G01 F120.00
G01 X-49.3534 Y32.9609 F120.00
G01 X-49.3591 Y32.9222 F120.00
G01 X-49.3686 Y32.8843 F120.00
G01 X-49.3818 Y32.8475 F120.00
G01 X-49.3985 Y32.8121 F120.00
G01 X-49.4186 Y32.7786 F120.00
G01 X-49.4419 Y32.7472 F120.00
G01 X-49.4682 Y32.7182 F120.00
G01 X-49.4972 Y32.6919 F120.00
G01 X-49.5286 Y32.6686 F120.00
G01 X-49.5621 Y32.6485 F120.00
G01 X-49.5975 Y32.6318 F120.00
G01 X-49.6343 Y32.6186 F120.00
G01 X-49.6722 Y32.6091 F120.00
G01 X-49.7109 Y32.6034 F120.00
G01 X-49.7500 Y32.6014 F120.00
G01 X-49.7891 Y32.6034 F120.00
G01 X-49.8278 Y32.6091 F120.00
G01 X-49.8657 Y32.6186 F120.00
G01 X-49.9025 Y32.6318 F120.00
G01 X-49.9379 Y32.6485 F120.00
G01 X-49.9714 Y32.6686 F120.00
G01 X-50.0028 Y32.6919 F120.00
G01 X-50.0318 Y32.7182 F120.00
G01 X-50.0581 Y32.7472 F120.00
G01 X-50.0814 Y32.7786 F120.00
G01 X-50.1015 Y32.8121 F120.00
G01 X-50.1182 Y32.8475 F120.00
G01 X-50.1314 Y32.8843 F120.00
G01 X-50.1409 Y32.9222 F120.00
G01 X-50.1466 Y32.9609 F120.00
G01 X-50.1486 Y33.0000 F120.00
G01 X-50.1466 Y33.0391 F120.00
G01 X-50.1409 Y33.0778 F120.00
G01 X-50.1314 Y33.1157 F120.00
G01 X-50.1182 Y33.1525 F120.00
G01 X-50.1015 Y33.1879 F120.00
G01 X-50.0814 Y33.2214 F120.00
G01 X-50.0581 Y33.2528 F120.00
G01 X-50.0318 Y33.2818 F120.00
G01 X-50.0028 Y33.3081 F120.00
G01 X-49.9714 Y33.3314 F120.00
G01 X-49.9379 Y33.3515 F120.00
G01 X-49.9025 Y33.3682 F120.00
G01 X-49.8657 Y33.3814 F120.00
G01 X-49.8278 Y33.3909 F120.00
G01 X-49.7891 Y33.3966 F120.00
G01 X-49.7500 Y33.3986 F120.00
G01 X-49.7109 Y33.3966 F120.00
G01 X-49.6722 Y33.3909 F120.00
G01 X-49.6343 Y33.3814 F120.00
G01 X-49.5975 Y33.3682 F120.00
G01 X-49.5621 Y33.3515 F120.00
G01 X-49.5286 Y33.3314 F120.00
G01 X-49.4972 Y33.3081 F120.00
G01 X-49.4682 Y33.2818 F120.00
G01 X-49.4419 Y33.2528 F120.00
G01 X-49.4186 Y33.2214 F120.00
G01 X-49.3985 Y33.1879 F120.00
G01 X-49.3818 Y33.1525 F120.00
G01 X-49.3686 Y33.1157 F120.00
G01 X-49.3591 Y33.0778 F120.00
G01 X-49.3534 Y33.0391 F120.00
G01 X-49.3514 Y33.0000 F120.00
G00 Z2.0000
G00 X-49.3514 Y-33.5000
G01 F60.00
G01 Z-0.2000
G01 F120.00
G01 X-49.3534 Y-33.5391 F120.00
G01 X-49.3591 Y-33.5778 F120.00
G01 X-49.3686 Y-33.6157 F120.00
G01 X-49.3818 Y-33.6525 F120.00
G01 X-49.3985 Y-33.6879 F120.00
G01 X-49.4186 Y-33.7214 F120.00
G01 X-49.4419 Y-33.7528 F120.00
G01 X-49.4682 Y-33.7818 F120.00
G01 X-49.4972 Y-33.8081 F120.00
G01 X-49.5286 Y-33.8314 F120.00
G01 X-49.5621 Y-33.8515 F120.00
G01 X-49.5975 Y-33.8682 F120.00
G01 X-49.6343 Y-33.8814 F120.00
G01 X-49.6722 Y-33.8909 F120.00
G01 X-49.7109 Y-33.8966 F120.00
G01 X-49.7500 Y-33.8986 F120.00
G01 X-49.7891 Y-33.8966 F120.00
G01 X-49.8278 Y-33.8909 F120.00
G01 X-49.8657 Y-33.8814 F120.00
G01 X-49.9025 Y-33.8682 F120.00
G01 X-49.9379 Y-33.8515 F120.00
G01 X-49.9714 Y-33.8314 F120.00
G01 X-50.0028 Y-33.8081 F120.00
G01 X-50.0318 Y-33.7818 F120.00
G01 X-50.0581 Y-33.7528 F120.00
G01 X-50.0814 Y-33.7214 F120.00
G01 X-50.1015 Y-33.6879 F120.00
G01 X-50.1182 Y-33.6525 F120.00
G01 X-50.1314 Y-33.6157 F120.00
G01 X-50.1409 Y-33.5778 F120.00
G01 X-50.1466 Y-33.5391 F120.00
G01 X-50.1486 Y-33.5000 F120.00
G01 X-50.1466 Y-33.4609 F120.00
G01 X-50.1409 Y-33.4222 F120.00
G01 X-50.1314 Y-33.3843 F120.00
G01 X-50.1182 Y-33.3475 F120.00
G01 X-50.1015 Y-33.3121 F120.00
G01 X-50.0814 Y-33.2786 F120.00
G01 X-50.0581 Y-33.2472 F120.00
G01 X-50.0318 Y-33.2182 F120.00
G01 X-50.0028 Y-33.1919 F120.00
G01 X-49.9714 Y-33.1686 F120.00
G01 X-49.9379 Y-33.1485 F120.00
G01 X-49.9025 Y-33.1318 F120.00
G01 X-49.8657 Y-33.1186 F120.00
G01 X-49.8278 Y-33.1091 F120.00
G01 X-49.7891 Y-33.1034 F120.00
G01 X-49.7500 Y-33.1014 F120.00
G01 X-49.7109 Y-33.1034 F120.00
G01 X-49.6722 Y-33.1091 F120.00
G01 X-49.6343 Y-33.1186 F120.00
G01 X-49.5975 Y-33.1318 F120.00
G01 X-49.5621 Y-33.1485 F120.00
G01 X-49.5286 Y-33.1686 F120.00
G01 X-49.4972 Y-33.1919 F120.00
G01 X-49.4682 Y-33.2182 F120.00
G01 X-49.4419 Y-33.2472 F120.00
G01 X-49.4186 Y-33.2786 F120.00
G01 X-49.3985 Y-33.3121 F120.00
G01 X-49.3818 Y-33.3475 F120.00
G01 X-49.3686 Y-33.3843 F120.00
G01 X-49.3591 Y-33.4222 F120.00
G01 X-49.3534 Y-33.4609 F120.00
G01 X-49.3514 Y-33.5000 F120.00
G00 X-49.3514 Y-33.5000
G01 F60.00
G01 Z-0.4000
G01 F120.00
G01 X-49.3534 Y-33.5391 F120.00
G01 X-49.3591 Y-33.5778 F120.00
G01 X-49.3686 Y-33.6157 F120.00
G01 X-49.3818 Y-33.6525 F120.00
G01 X-49.3985 Y-33.6879 F120.00
G01 X-49.4186 Y-33.7214 F120.00
G01 X-49.4419 Y-33.7528 F120.00
G01 X-49.4682 Y-33.7818 F120.00
G01 X-49.4972 Y-33.8081 F120.00
G01 X-49.5286 Y-33.8314 F120.00
G01 X-49.5621 Y-33.8515 F120.00
G01 X-49.5975 Y-33.8682 F120.00
G01 X-49.6343 Y-33.8814 F120.00
G01 X-49.6722 Y-33.8909 F120.00
G01 X-49.7109 Y-33.8966 F120.00
G01 X-49.7500 Y-33.8986 F120.00
G01 X-49.7891 Y-33.8966 F120.00
G01 X-49.8278 Y-33.8909 F120.00
G01 X-49.8657 Y-33.8814 F120.00
G01 X-49.9025 Y-33.8682 F120.00
G01 X-49.9379 Y-33.8515 F120.00
G01 X-49.9714 Y-33.8314 F120.00
G01 X-50.0028 Y-33.8081 F120.00
G01 X-50.0318 Y-33.7818 F120.00
G01 X-50.0581 Y-33.7528 F120.00
G01 X-50.0814 Y-33.7214 F120.00
G01 X-50.1015 Y-33.6879 F120.00
G01 X-50.1182 Y-33.6525 F120.00
G01 X-50.1314 Y-33.6157 F120.00
G01 X-50.1409 Y-33.5778 F120.00
G01 X-50.1466 Y-33.5391 F120.00
G01 X-50.1486 Y-33.5000 F120.00
G01 X-50.1466 Y-33.4609 F120.00
G01 X-50.1409 Y-33.4222 F120.00
G01 X-50.1314 Y-33.3843 F120.00
G01 X-50.1182 Y-33.3475 F120.00
G01 X-50.1015 Y-33.3121 F120.00
G01 X-50.0814 Y-33.2786 F120.00
G01 X-50.0581 Y-33.2472 F120.00
G01 X-50.0318 Y-33.2182 F120.00
G01 X-50.0028 Y-33.1919 F120.00
G01 X-49.9714 Y-33.1686 F120.00
G01 X-49.9379 Y-33.1485 F120.00
G01 X-49.9025 Y-33.1318 F120.00
G01 X-49.8657 Y-33.1186 F120.00
G01 X-49.8278 Y-33.1091 F120.00
G01 X-49.7891 Y-33.1034 F120.00
G01 X-49.7500 Y-33.1014 F120.00
G01 X-49.7109 Y-33.1034 F120.00
G01 X-49.6722 Y-33.1091 F120.00
G01 X-49.6343 Y-33.1186 F120.00
G01 X-49.5975 Y-33.1318 F120.00
G01 X-49.5621 Y-33.1485 F120.00
G01 X-49.5286 Y-33.1686 F120.00
G01 X-49.4972 Y-33.1919 F120.00
G01 X-49.4682 Y-33.2182 F120.00
G01 X-49.4419 Y-33.2472 F120.00
G01 X-49.4186 Y-33.2786 F120.00
G01 X-49.3985 Y-33.3121 F120.00
G01 X-49.3818 Y-33.3475 F120.00
G01 X-49.3686 Y-33.3843 F120.00
G01 X-49.3591 Y-33.4222 F120.00
G01 X-49.3534 Y-33.4609 F120.00
G01 X-49.3514 Y-33.5000 F120.00
G00 X-49.3514 Y-33.5000
G01 F60.00
G01 Z-0.6000
G01 F120.00
G01 X-49.3534 Y-33.5391 F120.00
G01 X-49.3591 Y-33.5778 F120.00
G01 X-49.3686 Y-33.6157 F120.00
G01 X-49.3818 Y-33.6525 F120.00
G01 X-49.3985 Y-33.6879 F120.00
G01 X-49.4186 Y-33.7214 F120.00
G01 X-49.4419 Y-33.7528 F120.00
G01 X-49.4682 Y-33.7818 F120.00
G01 X-49.4972 Y-33.8081 F120.00
G01 X-49.5286 Y-33.8314 F120.00
G01 X-49.5621 Y-33.8515 F120.00
G01 X-49.5975 Y-33.8682 F120.00
G01 X-49.6343 Y-33.8814 F120.00
G01 X-49.6722 Y-33.8909 F120.00
G01 X-49.7109 Y-33.8966 F120.00
G01 X-49.7500 Y-33.8986 F120.00
G01 X-49.7891 Y-33.8966 F120.00
G01 X-49.8278 Y-33.8909 F120.00
G01 X-49.8657 Y-33.8814 F120.00
G01 X-49.9025 Y-33.8682 F120.00
G01 X-49.9379 Y-33.8515 F120.00
G01 X-49.9714 Y-33.8314 F120.00
G01 X-50.0028 Y-33.8081 F120.00
G01 X-50.0318 Y-33.7818 F120.00
G01 X-50.0581 Y-33.7528 F120.00
G01 X-50.0814 Y-33.7214 F120.00
G01 X-50.1015 Y-33.6879 F120.00
G01 X-50.1182 Y-33.6525 F120.00
G01 X-50.1314 Y-33.6157 F120.00
G01 X-50.1409 Y-33.5778 F120.00
G01 X-50.1466 Y-33.5391 F120.00
G01 X-50.1486 Y-33.5000 F120.00
G01 X-50.1466 Y-33.4609 F120.00
G01 X-50.1409 Y-33.4222 F120.00
G01 X-50.1314 Y-33.3843 F120.00
G01 X-50.1182 Y-33.3475 F120.00
G01 X-50.1015 Y-33.3121 F120.00
G01 X-50.0814 Y-33.2786 F120.00
G01 X-50.0581 Y-33.2472 F120.00
G01 X-50.0318 Y-33.2182 F120.00
G01 X-50.0028 Y-33.1919 F120.00
G01 X-49.9714 Y-33.1686 F120.00
G01 X-49.9379 Y-33.1485 F120.00
G01 X-49.9025 Y-33.1318 F120.00
G01 X-49.8657 Y-33.1186 F120.00
G01 X-49.8278 Y-33.1091 F120.00
G01 X-49.7891 Y-33.1034 F120.00
G01 X-49.7500 Y-33.1014 F120.00
G01 X-49.7109 Y-33.1034 F120.00
G01 X-49.6722 Y-33.1091 F120.00
G01 X-49.6343 Y-33.1186 F120.00
G01 X-49.5975 Y-33.1318 F120.00
G01 X-49.5621 Y-33.1485 F120.00
G01 X-49.5286 Y-33.1686 F120.00
G01 X-49.4972 Y-33.1919 F120.00
G01 X-49.4682 Y-33.2182 F120.00
G01 X-49.4419 Y-33.2472 F120.00
G01 X-49.4186 Y-33.2786 F120.00
G01 X-49.3985 Y-33.3121 F120.00
G01 X-49.3818 Y-33.3475 F120.00
G01 X-49.3686 Y-33.3843 F120.00
G01 X-49.3591 Y-33.4222 F120.00
G01 X-49.3534 Y-33.4609 F120.00
G01 X-49.3514 Y-33.5000 F120.00
G00 X-49.3514 Y-33.5000
G01 F60.00
G01 Z-0.8000
G01 F120.00
G01 X-49.3534 Y-33.5391 F120.00
G01 X-49.3591 Y-33.5778 F120.00
G01 X-49.3686 Y-33.6157 F120.00
G01 X-49.3818 Y-33.6525 F120.00
G01 X-49.3985 Y-33.6879 F120.00
G01 X-49.4186 Y-33.7214 F120.00
G01 X-49.4419 Y-33.7528 F120.00
G01 X-49.4682 Y-33.7818 F120.00
G01 X-49.4972 Y-33.8081 F120.00
G01 X-49.5286 Y-33.8314 F120.00
G01 X-49.5621 Y-33.8515 F120.00
G01 X-49.5975 Y-33.8682 F120.00
G01 X-49.6343 Y-33.8814 F120.00
G01 X-49.6722 Y-33.8909 F120.00
G01 X-49.7109 Y-33.8966 F120.00
G01 X-49.7500 Y-33.8986 F120.00
G01 X-49.7891 Y-33.8966 F120.00
G01 X-49.8278 Y-33.8909 F120.00
G01 X-49.8657 Y-33.8814 F120.00
G01 X-49.9025 Y-33.8682 F120.00
G01 X-49.9379 Y-33.8515 F120.00
G01 X-49.9714 Y-33.8314 F120.00
G01 X-50.0028 Y-33.8081 F120.00
G01 X-50.0318 Y-33.7818 F120.00
G01 X-50.0581 Y-33.7528 F120.00
G01 X-50.0814 Y-33.7214 F120.00
G01 X-50.1015 Y-33.6879 F120.00
G01 X-50.1182 Y-33.6525 F120.00
G01 X-50.1314 Y-33.6157 F120.00
G01 X-50.1409 Y-33.5778 F120.00
G01 X-50.1466 Y-33.5391 F120.00
G01 X-50.1486 Y-33.5000 F120.00
G01 X-50.1466 Y-33.4609 F120.00
G01 X-50.1409 Y-33.4222 F120.00
G01 X-50.1314 Y-33.3843 F120.00
G01 X-50.1182 Y-33.3475 F120.00
G01 X-50.1015 Y-33.3121 F120.00
G01 X-50.0814 Y-33.2786 F120.00
G01 X-50.0581 Y-33.2472 F120.00
G01 X-50.0318 Y-33.2182 F120.00
G01 X-50.0028 Y-33.1919 F120.00
G01 X-49.9714 Y-33.1686 F120.00
G01 X-49.9379 Y-33.1485 F120.00
G01 X-49.9025 Y-33.1318 F120.00
G01 X-49.8657 Y-33.1186 F120.00
G01 X-49.8278 Y-33.1091 F120.00
G01 X-49.7891 Y-33.1034 F120.00
G01 X-49.7500 Y-33.1014 F120.00
G01 X-49.7109 Y-33.1034 F120.00
G01 X-49.6722 Y-33.1091 F120.00
G01 X-49.6343 Y-33.1186 F120.00
G01 X-49.5975 Y-33.1318 F120.00
G01 X-49.5621 Y-33.1485 F120.00
G01 X-49.5286 Y-33.1686 F120.00
G01 X-49.4972 Y-33.1919 F120.00
G01 X-49.4682 Y-33.2182 F120.00
G01 X-49.4419 Y-33.2472 F120.00
G01 X-49.4186 Y-33.2786 F120.00
G01 X-49.3985 Y-33.3121 F120.00
G01 X-49.3818 Y-33.3475 F120.00
G01 X-49.3686 Y-33.3843 F120.00
G01 X-49.3591 Y-33.4222 F120.00
G01 X-49.3534 Y-33.4609 F120.00
G01 X-49.3514 Y-33.5000 F120.00
G00 X-49.3514 Y-33.5000
G01 F60.00
G01 Z-1.0000
G01 F120.00
G01 X-49.3534 Y-33.5391 F120.00
G01 X-49.3591 Y-33.5778 F120.00
G01 X-49.3686 Y-33.6157 F120.00
G01 X-49.3818 Y-33.6525 F120.00
G01 X-49.3985 Y-33.6879 F120.00
G01 X-49.4186 Y-33.7214 F120.00
G01 X-49.4419 Y-33.7528 F120.00
G01 X-49.4682 Y-33.7818 F120.00
G01 X-49.4972 Y-33.8081 F120.00
G01 X-49.5286 Y-33.8314 F120.00
G01 X-49.5621 Y-33.8515 F120.00
G01 X-49.5975 Y-33.8682 F120.00
G01 X-49.6343 Y-33.8814 F120.00
G01 X-49.6722 Y-33.8909 F120.00
G01 X-49.7109 Y-33.8966 F120.00
G01 X-49.7500 Y-33.8986 F120.00
G01 X-49.7891 Y-33.8966 F120.00
G01 X-49.8278 Y-33.8909 F120.00
G01 X-49.8657 Y-33.8814 F120.00
G01 X-49.9025 Y-33.8682 F120.00
G01 X-49.9379 Y-33.8515 F120.00
G01 X-49.9714 Y-33.8314 F120.00
G01 X-50.0028 Y-33.8081 F120.00
G01 X-50.0318 Y-33.7818 F120.00
G01 X-50.0581 Y-33.7528 F120.00
G01 X-50.0814 Y-33.7214 F120.00
G01 X-50.1015 Y-33.6879 F120.00
G01 X-50.1182 Y-33.6525 F120.00
G01 X-50.1314 Y-33.6157 F120.00
G01 X-50.1409 Y-33.5778 F120.00
G01 X-50.1466 Y-33.5391 F120.00
G01 X-50.1486 Y-33.5000 F120.00
G01 X-50.1466 Y-33.4609 F120.00
G01 X-50.1409 Y-33.4222 F120.00
G01 X-50.1314 Y-33.3843 F120.00
G01 X-50.1182 Y-33.3475 F120.00
G01 X-50.1015 Y-33.3121 F120.00
G01 X-50.0814 Y-33.2786 F120.00
G01 X-50.0581 Y-33.2472 F120.00
G01 X-50.0318 Y-33.2182 F120.00
G01 X-50.0028 Y-33.1919 F120.00
G01 X-49.9714 Y-33.1686 F120.00
G01 X-49.9379 Y-33.1485 F120.00
G01 X-49.9025 Y-33.1318 F120.00
G01 X-49.8657 Y-33.1186 F120.00
G01 X-49.8278 Y-33.1091 F120.00
G01 X-49.7891 Y-33.1034 F120.00
G01 X-49.7500 Y-33.1014 F120.00
G01 X-49.7109 Y-33.1034 F120.00
G01 X-49.6722 Y-33.1091 F120.00
G01 X-49.6343 Y-33.1186 F120.00
G01 X-49.5975 Y-33.1318 F120.00
G01 X-49.5621 Y-33.1485 F120.00
G01 X-49.5286 Y-33.1686 F120.00
G01 X-49.4972 Y-33.1919 F120.00
G01 X-49.4682 Y-33.2182 F120.00
G01 X-49.4419 Y-33.2472 F120.00
G01 X-49.4186 Y-33.2786 F120.00
G01 X-49.3985 Y-33.3121 F120.00
G01 X-49.3818 Y-33.3475 F120.00
G01 X-49.3686 Y-33.3843 F120.00
G01 X-49.3591 Y-33.4222 F120.00
G01 X-49.3534 Y-33.4609 F120.00
G01 X-49.3514 Y-33.5000 F120.00
G00 X-49.3514 Y-33.5000
G01 F60.00
G01 Z-1.2000
G01 F120.00
G01 X-49.3534 Y-33.5391 F120.00
G01 X-49.3591 Y-33.5778 F120.00
G01 X-49.3686 Y-33.6157 F120.00
G01 X-49.3818 Y-33.6525 F120.00
G01 X-49.3985 Y-33.6879 F120.00
G01 X-49.4186 Y-33.7214 F120.00
G01 X-49.4419 Y-33.7528 F120.00
G01 X-49.4682 Y-33.7818 F120.00
G01 X-49.4972 Y-33.8081 F120.00
G01 X-49.5286 Y-33.8314 F120.00
G01 X-49.5621 Y-33.8515 F120.00
G01 X-49.5975 Y-33.8682 F120.00
G01 X-49.6343 Y-33.8814 F120.00
G01 X-49.6722 Y-33.8909 F120.00
G01 X-49.7109 Y-33.8966 F120.00
G01 X-49.7500 Y-33.8986 F120.00
G01 X-49.7891 Y-33.8966 F120.00
G01 X-49.8278 Y-33.8909 F120.00
G01 X-49.8657 Y-33.8814 F120.00
G01 X-49.9025 Y-33.8682 F120.00
G01 X-49.9379 Y-33.8515 F120.00
G01 X-49.9714 Y-33.8314 F120.00
G01 X-50.0028 Y-33.8081 F120.00
G01 X-50.0318 Y-33.7818 F120.00
G01 X-50.0581 Y-33.7528 F120.00
G01 X-50.0814 Y-33.7214 F120.00
G01 X-50.1015 Y-33.6879 F120.00
G01 X-50.1182 Y-33.6525 F120.00
G01 X-50.1314 Y-33.6157 F120.00
G01 X-50.1409 Y-33.5778 F120.00
G01 X-50.1466 Y-33.5391 F120.00
G01 X-50.1486 Y-33.5000 F120.00
G01 X-50.1466 Y-33.4609 F120.00
G01 X-50.1409 Y-33.4222 F120.00
G01 X-50.1314 Y-33.3843 F120.00
G01 X-50.1182 Y-33.3475 F120.00
G01 X-50.1015 Y-33.3121 F120.00
G01 X-50.0814 Y-33.2786 F120.00
G01 X-50.0581 Y-33.2472 F120.00
G01 X-50.0318 Y-33.2182 F120.00
G01 X-50.0028 Y-33.1919 F120.00
G01 X-49.9714 Y-33.1686 F120.00
G01 X-49.9379 Y-33.1485 F120.00
G01 X-49.9025 Y-33.1318 F120.00
G01 X-49.8657 Y-33.1186 F120.00
G01 X-49.8278 Y-33.1091 F120.00
G01 X-49.7891 Y-33.1034 F120.00
G01 X-49.7500 Y-33.1014 F120.00
G01 X-49.7109 Y-33.1034 F120.00
G01 X-49.6722 Y-33.1091 F120.00
G01 X-49.6343 Y-33.1186 F120.00
G01 X-49.5975 Y-33.1318 F120.00
G01 X-49.5621 Y-33.1485 F120.00
G01 X-49.5286 Y-33.1686 F120.00
G01 X-49.4972 Y-33.1919 F120.00
G01 X-49.4682 Y-33.2182 F120.00
G01 X-49.4419 Y-33.2472 F120.00
G01 X-49.4186 Y-33.2786 F120.00
G01 X-49.3985 Y-33.3121 F120.00
G01 X-49.3818 Y-33.3475 F120.00
G01 X-49.3686 Y-33.3843 F120.00
G01 X-49.3591 Y-33.4222 F120.00
G01 X-49.3534 Y-33.4609 F120.00
G01 X-49.3514 Y-33.5000 F120.00
G00 X-49.3514 Y-33.5000
G01 F60.00
G01 Z-1.4000
G01 F120.00
G01 X-49.3534 Y-33.5391 F120.00
G01 X-49.3591 Y-33.5778 F120.00
G01 X-49.3686 Y-33.6157 F120.00
G01 X-49.3818 Y-33.6525 F120.00
G01 X-49.3985 Y-33.6879 F120.00
G01 X-49.4186 Y-33.7214 F120.00
G01 X-49.4419 Y-33.7528 F120.00
G01 X-49.4682 Y-33.7818 F120.00
G01 X-49.4972 Y-33.8081 F120.00
G01 X-49.5286 Y-33.8314 F120.00
G01 X-49.5621 Y-33.8515 F120.00
G01 X-49.5975 Y-33.8682 F120.00
G01 X-49.6343 Y-33.8814 F120.00
G01 X-49.6722 Y-33.8909 F120.00
G01 X-49.7109 Y-33.8966 F120.00
G01 X-49.7500 Y-33.8986 F120.00
G01 X-49.7891 Y-33.8966 F120.00
G01 X-49.8278 Y-33.8909 F120.00
G01 X-49.8657 Y-33.8814 F120.00
G01 X-49.9025 Y-33.8682 F120.00
G01 X-49.9379 Y-33.8515 F120.00
G01 X-49.9714 Y-33.8314 F120.00
G01 X-50.0028 Y-33.8081 F120.00
G01 X-50.0318 Y-33.7818 F120.00
G01 X-50.0581 Y-33.7528 F120.00
G01 X-50.0814 Y-33.7214 F120.00
G01 X-50.1015 Y-33.6879 F120.00
G01 X-50.1182 Y-33.6525 F120.00
G01 X-50.1314 Y-33.6157 F120.00
G01 X-50.1409 Y-33.5778 F120.00
G01 X-50.1466 Y-33.5391 F120.00
G01 X-50.1486 Y-33.5000 F120.00
G01 X-50.1466 Y-33.4609 F120.00
G01 X-50.1409 Y-33.4222 F120.00
G01 X-50.1314 Y-33.3843 F120.00
G01 X-50.1182 Y-33.3475 F120.00
G01 X-50.1015 Y-33.3121 F120.00
G01 X-50.0814 Y-33.2786 F120.00
G01 X-50.0581 Y-33.2472 F120.00
G01 X-50.0318 Y-33.2182 F120.00
G01 X-50.0028 Y-33.1919 F120.00
G01 X-49.9714 Y-33.1686 F120.00
G01 X-49.9379 Y-33.1485 F120.00
G01 X-49.9025 Y-33.1318 F120.00
G01 X-49.8657 Y-33.1186 F120.00
G01 X-49.8278 Y-33.1091 F120.00
G01 X-49.7891 Y-33.1034 F120.00
G01 X-49.7500 Y-33.1014 F120.00
G01 X-49.7109 Y-33.1034 F120.00
G01 X-49.6722 Y-33.1091 F120.00
G01 X-49.6343 Y-33.1186 F120.00
G01 X-49.5975 Y-33.1318 F120.00
G01 X-49.5621 Y-33.1485 F120.00
G01 X-49.5286 Y-33.1686 F120.00
G01 X-49.4972 Y-33.1919 F120.00
G01 X-49.4682 Y-33.2182 F120.00
G01 X-49.4419 Y-33.2472 F120.00
G01 X-49.4186 Y-33.2786 F120.00
G01 X-49.3985 Y-33.3121 F120.00
G01 X-49.3818 Y-33.3475 F120.00
G01 X-49.3686 Y-33.3843 F120.00
G01 X-49.3591 Y-33.4222 F120.00
G01 X-49.3534 Y-33.4609 F120.00
G01 X-49.3514 Y-33.5000 F120.00
G00 X-49.3514 Y-33.5000
G01 F60.00
G01 Z-1.6000
G01 F120.00
G01 X-49.3534 Y-33.5391 F120.00
G01 X-49.3591 Y-33.5778 F120.00
G01 X-49.3686 Y-33.6157 F120.00
G01 X-49.3818 Y-33.6525 F120.00
G01 X-49.3985 Y-33.6879 F120.00
G01 X-49.4186 Y-33.7214 F120.00
G01 X-49.4419 Y-33.7528 F120.00
G01 X-49.4682 Y-33.7818 F120.00
G01 X-49.4972 Y-33.8081 F120.00
G01 X-49.5286 Y-33.8314 F120.00
G01 X-49.5621 Y-33.8515 F120.00
G01 X-49.5975 Y-33.8682 F120.00
G01 X-49.6343 Y-33.8814 F120.00
G01 X-49.6722 Y-33.8909 F120.00
G01 X-49.7109 Y-33.8966 F120.00
G01 X-49.7500 Y-33.8986 F120.00
G01 X-49.7891 Y-33.8966 F120.00
G01 X-49.8278 Y-33.8909 F120.00
G01 X-49.8657 Y-33.8814 F120.00
G01 X-49.9025 Y-33.8682 F120.00
G01 X-49.9379 Y-33.8515 F120.00
G01 X-49.9714 Y-33.8314 F120.00
G01 X-50.0028 Y-33.8081 F120.00
G01 X-50.0318 Y-33.7818 F120.00
G01 X-50.0581 Y-33.7528 F120.00
G01 X-50.0814 Y-33.7214 F120.00
G01 X-50.1015 Y-33.6879 F120.00
G01 X-50.1182 Y-33.6525 F120.00
G01 X-50.1314 Y-33.6157 F120.00
G01 X-50.1409 Y-33.5778 F120.00
G01 X-50.1466 Y-33.5391 F120.00
G01 X-50.1486 Y-33.5000 F120.00
G01 X-50.1466 Y-33.4609 F120.00
G01 X-50.1409 Y-33.4222 F120.00
G01 X-50.1314 Y-33.3843 F120.00
G01 X-50.1182 Y-33.3475 F120.00
G01 X-50.1015 Y-33.3121 F120.00
G01 X-50.0814 Y-33.2786 F120.00
G01 X-50.0581 Y-33.2472 F120.00
G01 X-50.0318 Y-33.2182 F120.00
G01 X-50.0028 Y-33.1919 F120.00
G01 X-49.9714 Y-33.1686 F120.00
G01 X-49.9379 Y-33.1485 F120.00
G01 X-49.9025 Y-33.1318 F120.00
G01 X-49.8657 Y-33.1186 F120.00
G01 X-49.8278 Y-33.1091 F120.00
G01 X-49.7891 Y-33.1034 F120.00
G01 X-49.7500 Y-33.1014 F120.00
G01 X-49.7109 Y-33.1034 F120.00
G01 X-49.6722 Y-33.1091 F120.00
G01 X-49.6343 Y-33.1186 F120.00
G01 X-49.5975 Y-33.1318 F120.00
G01 X-49.5621 Y-33.1485 F120.00
G01 X-49.5286 Y-33.1686 F120.00
G01 X-49.4972 Y-33.1919 F120.00
G01 X-49.4682 Y-33.2182 F120.00
G01 X-49.4419 Y-33.2472 F120.00
G01 X-49.4186 Y-33.2786 F120.00
G01 X-49.3985 Y-33.3121 F120.00
G01 X-49.3818 Y-33.3475 F120.00
G01 X-49.3686 Y-33.3843 F120.00
G01 X-49.3591 Y-33.4222 F120.00
G01 X-49.3534 Y-33.4609 F120.00
G01 X-49.3514 Y-33.5000 F120.00
G00 X-49.3514 Y-33.5000
G01 F60.00
G01 Z-1.8000
G01 F120.00
G01 X-49.3534 Y-33.5391 F120.00
G01 X-49.3591 Y-33.5778 F120.00
G01 X-49.3686 Y-33.6157 F120.00
G01 X-49.3818 Y-33.6525 F120.00
G01 X-49.3985 Y-33.6879 F120.00
G01 X-49.4186 Y-33.7214 F120.00
G01 X-49.4419 Y-33.7528 F120.00
G01 X-49.4682 Y-33.7818 F120.00
G01 X-49.4972 Y-33.8081 F120.00
G01 X-49.5286 Y-33.8314 F120.00
G01 X-49.5621 Y-33.8515 F120.00
G01 X-49.5975 Y-33.8682 F120.00
G01 X-49.6343 Y-33.8814 F120.00
G01 X-49.6722 Y-33.8909 F120.00
G01 X-49.7109 Y-33.8966 F120.00
G01 X-49.7500 Y-33.8986 F120.00
G01 X-49.7891 Y-33.8966 F120.00
G01 X-49.8278 Y-33.8909 F120.00
G01 X-49.8657 Y-33.8814 F120.00
G01 X-49.9025 Y-33.8682 F120.00
G01 X-49.9379 Y-33.8515 F120.00
G01 X-49.9714 Y-33.8314 F120.00
G01 X-50.0028 Y-33.8081 F120.00
G01 X-50.0318 Y-33.7818 F120.00
G01 X-50.0581 Y-33.7528 F120.00
G01 X-50.0814 Y-33.7214 F120.00
G01 X-50.1015 Y-33.6879 F120.00
G01 X-50.1182 Y-33.6525 F120.00
G01 X-50.1314 Y-33.6157 F120.00
G01 X-50.1409 Y-33.5778 F120.00
G01 X-50.1466 Y-33.5391 F120.00
G01 X-50.1486 Y-33.5000 F120.00
G01 X-50.1466 Y-33.4609 F120.00
G01 X-50.1409 Y-33.4222 F120.00
G01 X-50.1314 Y-33.3843 F120.00
G01 X-50.1182 Y-33.3475 F120.00
G01 X-50.1015 Y-33.3121 F120.00
G01 X-50.0814 Y-33.2786 F120.00
G01 X-50.0581 Y-33.2472 F120.00
G01 X-50.0318 Y-33.2182 F120.00
G01 X-50.0028 Y-33.1919 F120.00
G01 X-49.9714 Y-33.1686 F120.00
G01 X-49.9379 Y-33.1485 F120.00
G01 X-49.9025 Y-33.1318 F120.00
G01 X-49.8657 Y-33.1186 F120.00
G01 X-49.8278 Y-33.1091 F120.00
G01 X-49.7891 Y-33.1034 F120.00
G01 X-49.7500 Y-33.1014 F120.00
G01 X-49.7109 Y-33.1034 F120.00
G01 X-49.6722 Y-33.1091 F120.00
G01 X-49.6343 Y-33.1186 F120.00
G01 X-49.5975 Y-33.1318 F120.00
G01 X-49.5621 Y-33.1485 F120.00
G01 X-49.5286 Y-33.1686 F120.00
G01 X-49.4972 Y-33.1919 F120.00
G01 X-49.4682 Y-33.2182 F120.00
G01 X-49.4419 Y-33.2472 F120.00
G01 X-49.4186 Y-33.2786 F120.00
G01 X-49.3985 Y-33.3121 F120.00
G01 X-49.3818 Y-33.3475 F120.00
G01 X-49.3686 Y-33.3843 F120.00
G01 X-49.3591 Y-33.4222 F120.00
G01 X-49.3534 Y-33.4609 F120.00
G01 X-49.3514 Y-33.5000 F120.00
G00 Z2.0000
G00 X50.3986 Y-33.5000
G01 F60.00
G01 Z-0.2000
G01 F120.00
G01 X50.3966 Y-33.5391 F120.00
G01 X50.3909 Y-33.5778 F120.00
G01 X50.3814 Y-33.6157 F120.00
G01 X50.3682 Y-33.6525 F120.00
G01 X50.3515 Y-33.6879 F120.00
G01 X50.3314 Y-33.7214 F120.00
G01 X50.3081 Y-33.7528 F120.00
G01 X50.2818 Y-33.7818 F120.00
G01 X50.2528 Y-33.8081 F120.00
G01 X50.2214 Y-33.8314 F120.00
G01 X50.1879 Y-33.8515 F120.00
G01 X50.1525 Y-33.8682 F120.00
G01 X50.1157 Y-33.8814 F120.00
G01 X50.0778 Y-33.8909 F120.00
G01 X50.0391 Y-33.8966 F120.00
G01 X50.0000 Y-33.8986 F120.00
G01 X49.9609 Y-33.8966 F120.00
G01 X49.9222 Y-33.8909 F120.00
G01 X49.8843 Y-33.8814 F120.00
G01 X49.8475 Y-33.8682 F120.00
G01 X49.8121 Y-33.8515 F120.00
G01 X49.7786 Y-33.8314 F120.00
G01 X49.7472 Y-33.8081 F120.00
G01 X49.7182 Y-33.7818 F120.00
G01 X49.6919 Y-33.7528 F120.00
G01 X49.6686 Y-33.7214 F120.00
G01 X49.6485 Y-33.6879 F120.00
G01 X49.6318 Y-33.6525 F120.00
G01 X49.6186 Y-33.6157 F120.00
G01 X49.6091 Y-33.5778 F120.00
G01 X49.6034 Y-33.5391 F120.00
G01 X49.6014 Y-33.5000 F120.00
G01 X49.6034 Y-33.4609 F120.00
G01 X49.6091 Y-33.4222 F120.00
G01 X49.6186 Y-33.3843 F120.00
G01 X49.6318 Y-33.3475 F120.00
G01 X49.6485 Y-33.3121 F120.00
G01 X49.6686 Y-33.2786 F120.00
G01 X49.6919 Y-33.2472 F120.00
G01 X49.7182 Y-33.2182 F120.00
G01 X49.7472 Y-33.1919 F120.00
G01 X49.7786 Y-33.1686 F120.00
G01 X49.8121 Y-33.1485 F120.00
G01 X49.8475 Y-33.1318 F120.00
G01 X49.8843 Y-33.1186 F120.00
G01 X49.9222 Y-33.1091 F120.00
G01 X49.9609 Y-33.1034 F120.00
G01 X50.0000 Y-33.1014 F120.00
G01 X50.0391 Y-33.1034 F120.00
G01 X50.0778 Y-33.1091 F120.00
G01 X50.1157 Y-33.1186 F120.00
G01 X50.1525 Y-33.1318 F120.00
G01 X50.1879 Y-33.1485 F120.00
G01 X50.2214 Y-33.1686 F120.00
G01 X50.2528 Y-33.1919 F120.00
G01 X50.2818 Y-33.2182 F120.00
G01 X50.3081 Y-33.2472 F120.00
G01 X50.3314 Y-33.2786 F120.00
G01 X50.3515 Y-33.3121 F120.00
G01 X50.3682 Y-33.3475 F120.00
G01 X50.3814 Y-33.3843 F120.00
G01 X50.3909 Y-33.4222 F120.00
G01 X50.3966 Y-33.4609 F120.00
G01 X50.3986 Y-33.5000 F120.00
G00 X50.3986 Y-33.5000
G01 F60.00
G01 Z-0.4000
G01 F120.00
G01 X50.3966 Y-33.5391 F120.00
G01 X50.3909 Y-33.5778 F120.00
G01 X50.3814 Y-33.6157 F120.00
G01 X50.3682 Y-33.6525 F120.00
G01 X50.3515 Y-33.6879 F120.00
G01 X50.3314 Y-33.7214 F120.00
G01 X50.3081 Y-33.7528 F120.00
G01 X50.2818 Y-33.7818 F120.00
G01 X50.2528 Y-33.8081 F120.00
G01 X50.2214 Y-33.8314 F120.00
G01 X50.1879 Y-33.8515 F120.00
G01 X50.1525 Y-33.8682 F120.00
G01 X50.1157 Y-33.8814 F120.00
G01 X50.0778 Y-33.8909 F120.00
G01 X50.0391 Y-33.8966 F120.00
G01 X50.0000 Y-33.8986 F120.00
G01 X49.9609 Y-33.8966 F120.00
G01 X49.9222 Y-33.8909 F120.00
G01 X49.8843 Y-33.8814 F120.00
G01 X49.8475 Y-33.8682 F120.00
G01 X49.8121 Y-33.8515 F120.00
G01 X49.7786 Y-33.8314 F120.00
G01 X49.7472 Y-33.8081 F120.00
G01 X49.7182 Y-33.7818 F120.00
G01 X49.6919 Y-33.7528 F120.00
G01 X49.6686 Y-33.7214 F120.00
G01 X49.6485 Y-33.6879 F120.00
G01 X49.6318 Y-33.6525 F120.00
G01 X49.6186 Y-33.6157 F120.00
G01 X49.6091 Y-33.5778 F120.00
G01 X49.6034 Y-33.5391 F120.00
G01 X49.6014 Y-33.5000 F120.00
G01 X49.6034 Y-33.4609 F120.00
G01 X49.6091 Y-33.4222 F120.00
G01 X49.6186 Y-33.3843 F120.00
G01 X49.6318 Y-33.3475 F120.00
G01 X49.6485 Y-33.3121 F120.00
G01 X49.6686 Y-33.2786 F120.00
G01 X49.6919 Y-33.2472 F120.00
G01 X49.7182 Y-33.2182 F120.00
G01 X49.7472 Y-33.1919 F120.00
G01 X49.7786 Y-33.1686 F120.00
G01 X49.8121 Y-33.1485 F120.00
G01 X49.8475 Y-33.1318 F120.00
G01 X49.8843 Y-33.1186 F120.00
G01 X49.9222 Y-33.1091 F120.00
G01 X49.9609 Y-33.1034 F120.00
G01 X50.0000 Y-33.1014 F120.00
G01 X50.0391 Y-33.1034 F120.00
G01 X50.0778 Y-33.1091 F120.00
G01 X50.1157 Y-33.1186 F120.00
G01 X50.1525 Y-33.1318 F120.00
G01 X50.1879 Y-33.1485 F120.00
G01 X50.2214 Y-33.1686 F120.00
G01 X50.2528 Y-33.1919 F120.00
G01 X50.2818 Y-33.2182 F120.00
G01 X50.3081 Y-33.2472 F120.00
G01 X50.3314 Y-33.2786 F120.00
G01 X50.3515 Y-33.3121 F120.00
G01 X50.3682 Y-33.3475 F120.00
G01 X50.3814 Y-33.3843 F120.00
G01 X50.3909 Y-33.4222 F120.00
G01 X50.3966 Y-33.4609 F120.00
G01 X50.3986 Y-33.5000 F120.00
G00 X50.3986 Y-33.5000
G01 F60.00
G01 Z-0.6000
G01 F120.00
G01 X50.3966 Y-33.5391 F120.00
G01 X50.3909 Y-33.5778 F120.00
G01 X50.3814 Y-33.6157 F120.00
G01 X50.3682 Y-33.6525 F120.00
G01 X50.3515 Y-33.6879 F120.00
G01 X50.3314 Y-33.7214 F120.00
G01 X50.3081 Y-33.7528 F120.00
G01 X50.2818 Y-33.7818 F120.00
G01 X50.2528 Y-33.8081 F120.00
G01 X50.2214 Y-33.8314 F120.00
G01 X50.1879 Y-33.8515 F120.00
G01 X50.1525 Y-33.8682 F120.00
G01 X50.1157 Y-33.8814 F120.00
G01 X50.0778 Y-33.8909 F120.00
G01 X50.0391 Y-33.8966 F120.00
G01 X50.0000 Y-33.8986 F120.00
G01 X49.9609 Y-33.8966 F120.00
G01 X49.9222 Y-33.8909 F120.00
G01 X49.8843 Y-33.8814 F120.00
G01 X49.8475 Y-33.8682 F120.00
G01 X49.8121 Y-33.8515 F120.00
G01 X49.7786 Y-33.8314 F120.00
G01 X49.7472 Y-33.8081 F120.00
G01 X49.7182 Y-33.7818 F120.00
G01 X49.6919 Y-33.7528 F120.00
G01 X49.6686 Y-33.7214 F120.00
G01 X49.6485 Y-33.6879 F120.00
G01 X49.6318 Y-33.6525 F120.00
G01 X49.6186 Y-33.6157 F120.00
G01 X49.6091 Y-33.5778 F120.00
G01 X49.6034 Y-33.5391 F120.00
G01 X49.6014 Y-33.5000 F120.00
G01 X49.6034 Y-33.4609 F120.00
G01 X49.6091 Y-33.4222 F120.00
G01 X49.6186 Y-33.3843 F120.00
G01 X49.6318 Y-33.3475 F120.00
G01 X49.6485 Y-33.3121 F120.00
G01 X49.6686 Y-33.2786 F120.00
G01 X49.6919 Y-33.2472 F120.00
G01 X49.7182 Y-33.2182 F120.00
G01 X49.7472 Y-33.1919 F120.00
G01 X49.7786 Y-33.1686 F120.00
G01 X49.8121 Y-33.1485 F120.00
G01 X49.8475 Y-33.1318 F120.00
G01 X49.8843 Y-33.1186 F120.00
G01 X49.9222 Y-33.1091 F120.00
G01 X49.9609 Y-33.1034 F120.00
G01 X50.0000 Y-33.1014 F120.00
G01 X50.0391 Y-33.1034 F120.00
G01 X50.0778 Y-33.1091 F120.00
G01 X50.1157 Y-33.1186 F120.00
G01 X50.1525 Y-33.1318 F120.00
G01 X50.1879 Y-33.1485 F120.00
G01 X50.2214 Y-33.1686 F120.00
G01 X50.2528 Y-33.1919 F120.00
G01 X50.2818 Y-33.2182 F120.00
G01 X50.3081 Y-33.2472 F120.00
G01 X50.3314 Y-33.2786 F120.00
G01 X50.3515 Y-33.3121 F120.00
G01 X50.3682 Y-33.3475 F120.00
G01 X50.3814 Y-33.3843 F120.00
G01 X50.3909 Y-33.4222 F120.00
G01 X50.3966 Y-33.4609 F120.00
G01 X50.3986 Y-33.5000 F120.00
G00 X50.3986 Y-33.5000
G01 F60.00
G01 Z-0.8000
G01 F120.00
G01 X50.3966 Y-33.5391 F120.00
G01 X50.3909 Y-33.5778 F120.00
G01 X50.3814 Y-33.6157 F120.00
G01 X50.3682 Y-33.6525 F120.00
G01 X50.3515 Y-33.6879 F120.00
G01 X50.3314 Y-33.7214 F120.00
G01 X50.3081 Y-33.7528 F120.00
G01 X50.2818 Y-33.7818 F120.00
G01 X50.2528 Y-33.8081 F120.00
G01 X50.2214 Y-33.8314 F120.00
G01 X50.1879 Y-33.8515 F120.00
G01 X50.1525 Y-33.8682 F120.00
G01 X50.1157 Y-33.8814 F120.00
G01 X50.0778 Y-33.8909 F120.00
G01 X50.0391 Y-33.8966 F120.00
G01 X50.0000 Y-33.8986 F120.00
G01 X49.9609 Y-33.8966 F120.00
G01 X49.9222 Y-33.8909 F120.00
G01 X49.8843 Y-33.8814 F120.00
G01 X49.8475 Y-33.8682 F120.00
G01 X49.8121 Y-33.8515 F120.00
G01 X49.7786 Y-33.8314 F120.00
G01 X49.7472 Y-33.8081 F120.00
G01 X49.7182 Y-33.7818 F120.00
G01 X49.6919 Y-33.7528 F120.00
G01 X49.6686 Y-33.7214 F120.00
G01 X49.6485 Y-33.6879 F120.00
G01 X49.6318 Y-33.6525 F120.00
G01 X49.6186 Y-33.6157 F120.00
G01 X49.6091 Y-33.5778 F120.00
G01 X49.6034 Y-33.5391 F120.00
G01 X49.6014 Y-33.5000 F120.00
G01 X49.6034 Y-33.4609 F120.00
G01 X49.6091 Y-33.4222 F120.00
G01 X49.6186 Y-33.3843 F120.00
G01 X49.6318 Y-33.3475 F120.00
G01 X49.6485 Y-33.3121 F120.00
G01 X49.6686 Y-33.2786 F120.00
G01 X49.6919 Y-33.2472 F120.00
G01 X49.7182 Y-33.2182 F120.00
G01 X49.7472 Y-33.1919 F120.00
G01 X49.7786 Y-33.1686 F120.00
G01 X49.8121 Y-33.1485 F120.00
G01 X49.8475 Y-33.1318 F120.00
G01 X49.8843 Y-33.1186 F120.00
G01 X49.9222 Y-33.1091 F120.00
G01 X49.9609 Y-33.1034 F120.00
G01 X50.0000 Y-33.1014 F120.00
G01 X50.0391 Y-33.1034 F120.00
G01 X50.0778 Y-33.1091 F120.00
G01 X50.1157 Y-33.1186 F120.00
G01 X50.1525 Y-33.1318 F120.00
G01 X50.1879 Y-33.1485 F120.00
G01 X50.2214 Y-33.1686 F120.00
G01 X50.2528 Y-33.1919 F120.00
G01 X50.2818 Y-33.2182 F120.00
G01 X50.3081 Y-33.2472 F120.00
G01 X50.3314 Y-33.2786 F120.00
G01 X50.3515 Y-33.3121 F120.00
G01 X50.3682 Y-33.3475 F120.00
G01 X50.3814 Y-33.3843 F120.00
G01 X50.3909 Y-33.4222 F120.00
G01 X50.3966 Y-33.4609 F120.00
G01 X50.3986 Y-33.5000 F120.00
G00 X50.3986 Y-33.5000
G01 F60.00
G01 Z-1.0000
G01 F120.00
G01 X50.3966 Y-33.5391 F120.00
G01 X50.3909 Y-33.5778 F120.00
G01 X50.3814 Y-33.6157 F120.00
G01 X50.3682 Y-33.6525 F120.00
G01 X50.3515 Y-33.6879 F120.00
G01 X50.3314 Y-33.7214 F120.00
G01 X50.3081 Y-33.7528 F120.00
G01 X50.2818 Y-33.7818 F120.00
G01 X50.2528 Y-33.8081 F120.00
G01 X50.2214 Y-33.8314 F120.00
G01 X50.1879 Y-33.8515 F120.00
G01 X50.1525 Y-33.8682 F120.00
G01 X50.1157 Y-33.8814 F120.00
G01 X50.0778 Y-33.8909 F120.00
G01 X50.0391 Y-33.8966 F120.00
G01 X50.0000 Y-33.8986 F120.00
G01 X49.9609 Y-33.8966 F120.00
G01 X49.9222 Y-33.8909 F120.00
G01 X49.8843 Y-33.8814 F120.00
G01 X49.8475 Y-33.8682 F120.00
G01 X49.8121 Y-33.8515 F120.00
G01 X49.7786 Y-33.8314 F120.00
G01 X49.7472 Y-33.8081 F120.00
G01 X49.7182 Y-33.7818 F120.00
G01 X49.6919 Y-33.7528 F120.00
G01 X49.6686 Y-33.7214 F120.00
G01 X49.6485 Y-33.6879 F120.00
G01 X49.6318 Y-33.6525 F120.00
G01 X49.6186 Y-33.6157 F120.00
G01 X49.6091 Y-33.5778 F120.00
G01 X49.6034 Y-33.5391 F120.00
G01 X49.6014 Y-33.5000 F120.00
G01 X49.6034 Y-33.4609 F120.00
G01 X49.6091 Y-33.4222 F120.00
G01 X49.6186 Y-33.3843 F120.00
G01 X49.6318 Y-33.3475 F120.00
G01 X49.6485 Y-33.3121 F120.00
G01 X49.6686 Y-33.2786 F120.00
G01 X49.6919 Y-33.2472 F120.00
G01 X49.7182 Y-33.2182 F120.00
G01 X49.7472 Y-33.1919 F120.00
G01 X49.7786 Y-33.1686 F120.00
G01 X49.8121 Y-33.1485 F120.00
G01 X49.8475 Y-33.1318 F120.00
G01 X49.8843 Y-33.1186 F120.00
G01 X49.9222 Y-33.1091 F120.00
G01 X49.9609 Y-33.1034 F120.00
G01 X50.0000 Y-33.1014 F120.00
G01 X50.0391 Y-33.1034 F120.00
G01 X50.0778 Y-33.1091 F120.00
G01 X50.1157 Y-33.1186 F120.00
G01 X50.1525 Y-33.1318 F120.00
G01 X50.1879 Y-33.1485 F120.00
G01 X50.2214 Y-33.1686 F120.00
G01 X50.2528 Y-33.1919 F120.00
G01 X50.2818 Y-33.2182 F120.00
G01 X50.3081 Y-33.2472 F120.00
G01 X50.3314 Y-33.2786 F120.00
G01 X50.3515 Y-33.3121 F120.00
G01 X50.3682 Y-33.3475 F120.00
G01 X50.3814 Y-33.3843 F120.00
G01 X50.3909 Y-33.4222 F120.00
G01 X50.3966 Y-33.4609 F120.00
G01 X50.3986 Y-33.5000 F120.00
G00 X50.3986 Y-33.5000
G01 F60.00
G01 Z-1.2000
G01 F120.00
G01 X50.3966 Y-33.5391 F120.00
G01 X50.3909 Y-33.5778 F120.00
G01 X50.3814 Y-33.6157 F120.00
G01 X50.3682 Y-33.6525 F120.00
G01 X50.3515 Y-33.6879 F120.00
G01 X50.3314 Y-33.7214 F120.00
G01 X50.3081 Y-33.7528 F120.00
G01 X50.2818 Y-33.7818 F120.00
G01 X50.2528 Y-33.8081 F120.00
G01 X50.2214 Y-33.8314 F120.00
G01 X50.1879 Y-33.8515 F120.00
G01 X50.1525 Y-33.8682 F120.00
G01 X50.1157 Y-33.8814 F120.00
G01 X50.0778 Y-33.8909 F120.00
G01 X50.0391 Y-33.8966 F120.00
G01 X50.0000 Y-33.8986 F120.00
G01 X49.9609 Y-33.8966 F120.00
G01 X49.9222 Y-33.8909 F120.00
G01 X49.8843 Y-33.8814 F120.00
G01 X49.8475 Y-33.8682 F120.00
G01 X49.8121 Y-33.8515 F120.00
G01 X49.7786 Y-33.8314 F120.00
G01 X49.7472 Y-33.8081 F120.00
G01 X49.7182 Y-33.7818 F120.00
G01 X49.6919 Y-33.7528 F120.00
G01 X49.6686 Y-33.7214 F120.00
G01 X49.6485 Y-33.6879 F120.00
G01 X49.6318 Y-33.6525 F120.00
G01 X49.6186 Y-33.6157 F120.00
G01 X49.6091 Y-33.5778 F120.00
G01 X49.6034 Y-33.5391 F120.00
G01 X49.6014 Y-33.5000 F120.00
G01 X49.6034 Y-33.4609 F120.00
G01 X49.6091 Y-33.4222 F120.00
G01 X49.6186 Y-33.3843 F120.00
G01 X49.6318 Y-33.3475 F120.00
G01 X49.6485 Y-33.3121 F120.00
G01 X49.6686 Y-33.2786 F120.00
G01 X49.6919 Y-33.2472 F120.00
G01 X49.7182 Y-33.2182 F120.00
G01 X49.7472 Y-33.1919 F120.00
G01 X49.7786 Y-33.1686 F120.00
G01 X49.8121 Y-33.1485 F120.00
G01 X49.8475 Y-33.1318 F120.00
G01 X49.8843 Y-33.1186 F120.00
G01 X49.9222 Y-33.1091 F120.00
G01 X49.9609 Y-33.1034 F120.00
G01 X50.0000 Y-33.1014 F120.00
G01 X50.0391 Y-33.1034 F120.00
G01 X50.0778 Y-33.1091 F120.00
G01 X50.1157 Y-33.1186 F120.00
G01 X50.1525 Y-33.1318 F120.00
G01 X50.1879 Y-33.1485 F120.00
G01 X50.2214 Y-33.1686 F120.00
G01 X50.2528 Y-33.1919 F120.00
G01 X50.2818 Y-33.2182 F120.00
G01 X50.3081 Y-33.2472 F120.00
G01 X50.3314 Y-33.2786 F120.00
G01 X50.3515 Y-33.3121 F120.00
G01 X50.3682 Y-33.3475 F120.00
G01 X50.3814 Y-33.3843 F120.00
G01 X50.3909 Y-33.4222 F120.00
G01 X50.3966 Y-33.4609 F120.00
G01 X50.3986 Y-33.5000 F120.00
G00 X50.3986 Y-33.5000
G01 F60.00
G01 Z-1.4000
G01 F120.00
G01 X50.3966 Y-33.5391 F120.00
G01 X50.3909 Y-33.5778 F120.00
G01 X50.3814 Y-33.6157 F120.00
G01 X50.3682 Y-33.6525 F120.00
G01 X50.3515 Y-33.6879 F120.00
G01 X50.3314 Y-33.7214 F120.00
G01 X50.3081 Y-33.7528 F120.00
G01 X50.2818 Y-33.7818 F120.00
G01 X50.2528 Y-33.8081 F120.00
G01 X50.2214 Y-33.8314 F120.00
G01 X50.1879 Y-33.8515 F120.00
G01 X50.1525 Y-33.8682 F120.00
G01 X50.1157 Y-33.8814 F120.00
G01 X50.0778 Y-33.8909 F120.00
G01 X50.0391 Y-33.8966 F120.00
G01 X50.0000 Y-33.8986 F120.00
G01 X49.9609 Y-33.8966 F120.00
G01 X49.9222 Y-33.8909 F120.00
G01 X49.8843 Y-33.8814 F120.00
G01 X49.8475 Y-33.8682 F120.00
G01 X49.8121 Y-33.8515 F120.00
G01 X49.7786 Y-33.8314 F120.00
G01 X49.7472 Y-33.8081 F120.00
G01 X49.7182 Y-33.7818 F120.00
G01 X49.6919 Y-33.7528 F120.00
G01 X49.6686 Y-33.7214 F120.00
G01 X49.6485 Y-33.6879 F120.00
G01 X49.6318 Y-33.6525 F120.00
G01 X49.6186 Y-33.6157 F120.00
G01 X49.6091 Y-33.5778 F120.00
G01 X49.6034 Y-33.5391 F120.00
G01 X49.6014 Y-33.5000 F120.00
G01 X49.6034 Y-33.4609 F120.00
G01 X49.6091 Y-33.4222 F120.00
G01 X49.6186 Y-33.3843 F120.00
G01 X49.6318 Y-33.3475 F120.00
G01 X49.6485 Y-33.3121 F120.00
G01 X49.6686 Y-33.2786 F120.00
G01 X49.6919 Y-33.2472 F120.00
G01 X49.7182 Y-33.2182 F120.00
G01 X49.7472 Y-33.1919 F120.00
G01 X49.7786 Y-33.1686 F120.00
G01 X49.8121 Y-33.1485 F120.00
G01 X49.8475 Y-33.1318 F120.00
G01 X49.8843 Y-33.1186 F120.00
G01 X49.9222 Y-33.1091 F120.00
G01 X49.9609 Y-33.1034 F120.00
G01 X50.0000 Y-33.1014 F120.00
G01 X50.0391 Y-33.1034 F120.00
G01 X50.0778 Y-33.1091 F120.00
G01 X50.1157 Y-33.1186 F120.00
G01 X50.1525 Y-33.1318 F120.00
G01 X50.1879 Y-33.1485 F120.00
G01 X50.2214 Y-33.1686 F120.00
G01 X50.2528 Y-33.1919 F120.00
G01 X50.2818 Y-33.2182 F120.00
G01 X50.3081 Y-33.2472 F120.00
G01 X50.3314 Y-33.2786 F120.00
G01 X50.3515 Y-33.3121 F120.00
G01 X50.3682 Y-33.3475 F120.00
G01 X50.3814 Y-33.3843 F120.00
G01 X50.3909 Y-33.4222 F120.00
G01 X50.3966 Y-33.4609 F120.00
G01 X50.3986 Y-33.5000 F120.00
G00 X50.3986 Y-33.5000
G01 F60.00
G01 Z-1.6000
G01 F120.00
G01 X50.3966 Y-33.5391 F120.00
G01 X50.3909 Y-33.5778 F120.00
G01 X50.3814 Y-33.6157 F120.00
G01 X50.3682 Y-33.6525 F120.00
G01 X50.3515 Y-33.6879 F120.00
G01 X50.3314 Y-33.7214 F120.00
G01 X50.3081 Y-33.7528 F120.00
G01 X50.2818 Y-33.7818 F120.00
G01 X50.2528 Y-33.8081 F120.00
G01 X50.2214 Y-33.8314 F120.00
G01 X50.1879 Y-33.8515 F120.00
G01 X50.1525 Y-33.8682 F120.00
G01 X50.1157 Y-33.8814 F120.00
G01 X50.0778 Y-33.8909 F120.00
G01 X50.0391 Y-33.8966 F120.00
G01 X50.0000 Y-33.8986 F120.00
G01 X49.9609 Y-33.8966 F120.00
G01 X49.9222 Y-33.8909 F120.00
G01 X49.8843 Y-33.8814 F120.00
G01 X49.8475 Y-33.8682 F120.00
G01 X49.8121 Y-33.8515 F120.00
G01 X49.7786 Y-33.8314 F120.00
G01 X49.7472 Y-33.8081 F120.00
G01 X49.7182 Y-33.7818 F120.00
G01 X49.6919 Y-33.7528 F120.00
G01 X49.6686 Y-33.7214 F120.00
G01 X49.6485 Y-33.6879 F120.00
G01 X49.6318 Y-33.6525 F120.00
G01 X49.6186 Y-33.6157 F120.00
G01 X49.6091 Y-33.5778 F120.00
G01 X49.6034 Y-33.5391 F120.00
G01 X49.6014 Y-33.5000 F120.00
G01 X49.6034 Y-33.4609 F120.00
G01 X49.6091 Y-33.4222 F120.00
G01 X49.6186 Y-33.3843 F120.00
G01 X49.6318 Y-33.3475 F120.00
G01 X49.6485 Y-33.3121 F120.00
G01 X49.6686 Y-33.2786 F120.00
G01 X49.6919 Y-33.2472 F120.00
G01 X49.7182 Y-33.2182 F120.00
G01 X49.7472 Y-33.1919 F120.00
G01 X49.7786 Y-33.1686 F120.00
G01 X49.8121 Y-33.1485 F120.00
G01 X49.8475 Y-33.1318 F120.00
G01 X49.8843 Y-33.1186 F120.00
G01 X49.9222 Y-33.1091 F120.00
G01 X49.9609 Y-33.1034 F120.00
G01 X50.0000 Y-33.1014 F120.00
G01 X50.0391 Y-33.1034 F120.00
G01 X50.0778 Y-33.1091 F120.00
G01 X50.1157 Y-33.1186 F120.00
G01 X50.1525 Y-33.1318 F120.00
G01 X50.1879 Y-33.1485 F120.00
G01 X50.2214 Y-33.1686 F120.00
G01 X50.2528 Y-33.1919 F120.00
G01 X50.2818 Y-33.2182 F120.00
G01 X50.3081 Y-33.2472 F120.00
G01 X50.3314 Y-33.2786 F120.00
G01 X50.3515 Y-33.3121 F120.00
G01 X50.3682 Y-33.3475 F120.00
G01 X50.3814 Y-33.3843 F120.00
G01 X50.3909 Y-33.4222 F120.00
G01 X50.3966 Y-33.4609 F120.00
G01 X50.3986 Y-33.5000 F120.00
G00 X50.3986 Y-33.5000
G01 F60.00
G01 Z-1.8000
G01 F120.00
G01 X50.3966 Y-33.5391 F120.00
G01 X50.3909 Y-33.5778 F120.00
G01 X50.3814 Y-33.6157 F120.00
G01 X50.3682 Y-33.6525 F120.00
G01 X50.3515 Y-33.6879 F120.00
G01 X50.3314 Y-33.7214 F120.00
G01 X50.3081 Y-33.7528 F120.00
G01 X50.2818 Y-33.7818 F120.00
G01 X50.2528 Y-33.8081 F120.00
G01 X50.2214 Y-33.8314 F120.00
G01 X50.1879 Y-33.8515 F120.00
G01 X50.1525 Y-33.8682 F120.00
G01 X50.1157 Y-33.8814 F120.00
G01 X50.0778 Y-33.8909 F120.00
G01 X50.0391 Y-33.8966 F120.00
G01 X50.0000 Y-33.8986 F120.00
G01 X49.9609 Y-33.8966 F120.00
G01 X49.9222 Y-33.8909 F120.00
G01 X49.8843 Y-33.8814 F120.00
G01 X49.8475 Y-33.8682 F120.00
G01 X49.8121 Y-33.8515 F120.00
G01 X49.7786 Y-33.8314 F120.00
G01 X49.7472 Y-33.8081 F120.00
G01 X49.7182 Y-33.7818 F120.00
G01 X49.6919 Y-33.7528 F120.00
G01 X49.6686 Y-33.7214 F120.00
G01 X49.6485 Y-33.6879 F120.00
G01 X49.6318 Y-33.6525 F120.00
G01 X49.6186 Y-33.6157 F120.00
G01 X49.6091 Y-33.5778 F120.00
G01 X49.6034 Y-33.5391 F120.00
G01 X49.6014 Y-33.5000 F120.00
G01 X49.6034 Y-33.4609 F120.00
G01 X49.6091 Y-33.4222 F120.00
G01 X49.6186 Y-33.3843 F120.00
G01 X49.6318 Y-33.3475 F120.00
G01 X49.6485 Y-33.3121 F120.00
G01 X49.6686 Y-33.2786 F120.00
G01 X49.6919 Y-33.2472 F120.00
G01 X49.7182 Y-33.2182 F120.00
G01 X49.7472 Y-33.1919 F120.00
G01 X49.7786 Y-33.1686 F120.00
G01 X49.8121 Y-33.1485 F120.00
G01 X49.8475 Y-33.1318 F120.00
G01 X49.8843 Y-33.1186 F120.00
G01 X49.9222 Y-33.1091 F120.00
G01 X49.9609 Y-33.1034 F120.00
G01 X50.0000 Y-33.1014 F120.00
G01 X50.0391 Y-33.1034 F120.00
G01 X50.0778 Y-33.1091 F120.00
G01 X50.1157 Y-33.1186 F120.00
G01 X50.1525 Y-33.1318 F120.00
G01 X50.1879 Y-33.1485 F120.00
G01 X50.2214 Y-33.1686 F120.00
G01 X50.2528 Y-33.1919 F120.00
G01 X50.2818 Y-33.2182 F120.00
G01 X50.3081 Y-33.2472 F120.00
G01 X50.3314 Y-33.2786 F120.00
G01 X50.3515 Y-33.3121 F120.00
G01 X50.3682 Y-33.3475 F120.00
G01 X50.3814 Y-33.3843 F120.00
G01 X50.3909 Y-33.4222 F120.00
G01 X50.3966 Y-33.4609 F120.00
G01 X50.3986 Y-33.5000 F120.00
G00 Z2.0000
G00 X50.3986 Y33.2500
G01 F60.00
G01 Z-0.2000
G01 F120.00
G01 X50.3966 Y33.2109 F120.00
G01 X50.3909 Y33.1722 F120.00
G01 X50.3814 Y33.1343 F120.00
G01 X50.3682 Y33.0975 F120.00
G01 X50.3515 Y33.0621 F120.00
G01 X50.3314 Y33.0286 F120.00
G01 X50.3081 Y32.9972 F120.00
G01 X50.2818 Y32.9682 F120.00
G01 X50.2528 Y32.9419 F120.00
G01 X50.2214 Y32.9186 F120.00
G01 X50.1879 Y32.8985 F120.00
G01 X50.1525 Y32.8818 F120.00
G01 X50.1157 Y32.8686 F120.00
G01 X50.0778 Y32.8591 F120.00
G01 X50.0391 Y32.8534 F120.00
G01 X50.0000 Y32.8514 F120.00
G01 X49.9609 Y32.8534 F120.00
G01 X49.9222 Y32.8591 F120.00
G01 X49.8843 Y32.8686 F120.00
G01 X49.8475 Y32.8818 F120.00
G01 X49.8121 Y32.8985 F120.00
G01 X49.7786 Y32.9186 F120.00
G01 X49.7472 Y32.9419 F120.00
G01 X49.7182 Y32.9682 F120.00
G01 X49.6919 Y32.9972 F120.00
G01 X49.6686 Y33.0286 F120.00
G01 X49.6485 Y33.0621 F120.00
G01 X49.6318 Y33.0975 F120.00
G01 X49.6186 Y33.1343 F120.00
G01 X49.6091 Y33.1722 F120.00
G01 X49.6034 Y33.2109 F120.00
G01 X49.6014 Y33.2500 F120.00
G01 X49.6034 Y33.2891 F120.00
G01 X49.6091 Y33.3278 F120.00
G01 X49.6186 Y33.3657 F120.00
G01 X49.6318 Y33.4025 F120.00
G01 X49.6485 Y33.4379 F120.00
G01 X49.6686 Y33.4714 F120.00
G01 X49.6919 Y33.5028 F120.00
G01 X49.7182 Y33.5318 F120.00
G01 X49.7472 Y33.5581 F120.00
G01 X49.7786 Y33.5814 F120.00
G01 X49.8121 Y33.6015 F120.00
G01 X49.8475 Y33.6182 F120.00
G01 X49.8843 Y33.6314 F120.00
G01 X49.9222 Y33.6409 F120.00
G01 X49.9609 Y33.6466 F120.00
G01 X50.0000 Y33.6486 F120.00
G01 X50.0391 Y33.6466 F120.00
G01 X50.0778 Y33.6409 F120.00
G01 X50.1157 Y33.6314 F120.00
G01 X50.1525 Y33.6182 F120.00
G01 X50.1879 Y33.6015 F120.00
G01 X50.2214 Y33.5814 F120.00
G01 X50.2528 Y33.5581 F120.00
G01 X50.2818 Y33.5318 F120.00
G01 X50.3081 Y33.5028 F120.00
G01 X50.3314 Y33.4714 F120.00
G01 X50.3515 Y33.4379 F120.00
G01 X50.3682 Y33.4025 F120.00
G01 X50.3814 Y33.3657 F120.00
G01 X50.3909 Y33.3278 F120.00
G01 X50.3966 Y33.2891 F120.00
G01 X50.3986 Y33.2500 F120.00
G00 X50.3986 Y33.2500
G01 F60.00
G01 Z-0.4000
G01 F120.00
G01 X50.3966 Y33.2109 F120.00
G01 X50.3909 Y33.1722 F120.00
G01 X50.3814 Y33.1343 F120.00
G01 X50.3682 Y33.0975 F120.00
G01 X50.3515 Y33.0621 F120.00
G01 X50.3314 Y33.0286 F120.00
G01 X50.3081 Y32.9972 F120.00
G01 X50.2818 Y32.9682 F120.00
G01 X50.2528 Y32.9419 F120.00
G01 X50.2214 Y32.9186 F120.00
G01 X50.1879 Y32.8985 F120.00
G01 X50.1525 Y32.8818 F120.00
G01 X50.1157 Y32.8686 F120.00
G01 X50.0778 Y32.8591 F120.00
G01 X50.0391 Y32.8534 F120.00
G01 X50.0000 Y32.8514 F120.00
G01 X49.9609 Y32.8534 F120.00
G01 X49.9222 Y32.8591 F120.00
G01 X49.8843 Y32.8686 F120.00
G01 X49.8475 Y32.8818 F120.00
G01 X49.8121 Y32.8985 F120.00
G01 X49.7786 Y32.9186 F120.00
G01 X49.7472 Y32.9419 F120.00
G01 X49.7182 Y32.9682 F120.00
G01 X49.6919 Y32.9972 F120.00
G01 X49.6686 Y33.0286 F120.00
G01 X49.6485 Y33.0621 F120.00
G01 X49.6318 Y33.0975 F120.00
G01 X49.6186 Y33.1343 F120.00
G01 X49.6091 Y33.1722 F120.00
G01 X49.6034 Y33.2109 F120.00
G01 X49.6014 Y33.2500 F120.00
G01 X49.6034 Y33.2891 F120.00
G01 X49.6091 Y33.3278 F120.00
G01 X49.6186 Y33.3657 F120.00
G01 X49.6318 Y33.4025 F120.00
G01 X49.6485 Y33.4379 F120.00
G01 X49.6686 Y33.4714 F120.00
G01 X49.6919 Y33.5028 F120.00
G01 X49.7182 Y33.5318 F120.00
G01 X49.7472 Y33.5581 F120.00
G01 X49.7786 Y33.5814 F120.00
G01 X49.8121 Y33.6015 F120.00
G01 X49.8475 Y33.6182 F120.00
G01 X49.8843 Y33.6314 F120.00
G01 X49.9222 Y33.6409 F120.00
G01 X49.9609 Y33.6466 F120.00
G01 X50.0000 Y33.6486 F120.00
G01 X50.0391 Y33.6466 F120.00
G01 X50.0778 Y33.6409 F120.00
G01 X50.1157 Y33.6314 F120.00
G01 X50.1525 Y33.6182 F120.00
G01 X50.1879 Y33.6015 F120.00
G01 X50.2214 Y33.5814 F120.00
G01 X50.2528 Y33.5581 F120.00
G01 X50.2818 Y33.5318 F120.00
G01 X50.3081 Y33.5028 F120.00
G01 X50.3314 Y33.4714 F120.00
G01 X50.3515 Y33.4379 F120.00
G01 X50.3682 Y33.4025 F120.00
G01 X50.3814 Y33.3657 F120.00
G01 X50.3909 Y33.3278 F120.00
G01 X50.3966 Y33.2891 F120.00
G01 X50.3986 Y33.2500 F120.00
G00 X50.3986 Y33.2500
G01 F60.00
G01 Z-0.6000
G01 F120.00
G01 X50.3966 Y33.2109 F120.00
G01 X50.3909 Y33.1722 F120.00
G01 X50.3814 Y33.1343 F120.00
G01 X50.3682 Y33.0975 F120.00
G01 X50.3515 Y33.0621 F120.00
G01 X50.3314 Y33.0286 F120.00
G01 X50.3081 Y32.9972 F120.00
G01 X50.2818 Y32.9682 F120.00
G01 X50.2528 Y32.9419 F120.00
G01 X50.2214 Y32.9186 F120.00
G01 X50.1879 Y32.8985 F120.00
G01 X50.1525 Y32.8818 F120.00
G01 X50.1157 Y32.8686 F120.00
G01 X50.0778 Y32.8591 F120.00
G01 X50.0391 Y32.8534 F120.00
G01 X50.0000 Y32.8514 F120.00
G01 X49.9609 Y32.8534 F120.00
G01 X49.9222 Y32.8591 F120.00
G01 X49.8843 Y32.8686 F120.00
G01 X49.8475 Y32.8818 F120.00
G01 X49.8121 Y32.8985 F120.00
G01 X49.7786 Y32.9186 F120.00
G01 X49.7472 Y32.9419 F120.00
G01 X49.7182 Y32.9682 F120.00
G01 X49.6919 Y32.9972 F120.00
G01 X49.6686 Y33.0286 F120.00
G01 X49.6485 Y33.0621 F120.00
G01 X49.6318 Y33.0975 F120.00
G01 X49.6186 Y33.1343 F120.00
G01 X49.6091 Y33.1722 F120.00
G01 X49.6034 Y33.2109 F120.00
G01 X49.6014 Y33.2500 F120.00
G01 X49.6034 Y33.2891 F120.00
G01 X49.6091 Y33.3278 F120.00
G01 X49.6186 Y33.3657 F120.00
G01 X49.6318 Y33.4025 F120.00
G01 X49.6485 Y33.4379 F120.00
G01 X49.6686 Y33.4714 F120.00
G01 X49.6919 Y33.5028 F120.00
G01 X49.7182 Y33.5318 F120.00
G01 X49.7472 Y33.5581 F120.00
G01 X49.7786 Y33.5814 F120.00
G01 X49.8121 Y33.6015 F120.00
G01 X49.8475 Y33.6182 F120.00
G01 X49.8843 Y33.6314 F120.00
G01 X49.9222 Y33.6409 F120.00
G01 X49.9609 Y33.6466 F120.00
G01 X50.0000 Y33.6486 F120.00
G01 X50.0391 Y33.6466 F120.00
G01 X50.0778 Y33.6409 F120.00
G01 X50.1157 Y33.6314 F120.00
G01 X50.1525 Y33.6182 F120.00
G01 X50.1879 Y33.6015 F120.00
G01 X50.2214 Y33.5814 F120.00
G01 X50.2528 Y33.5581 F120.00
G01 X50.2818 Y33.5318 F120.00
G01 X50.3081 Y33.5028 F120.00
G01 X50.3314 Y33.4714 F120.00
G01 X50.3515 Y33.4379 F120.00
G01 X50.3682 Y33.4025 F120.00
G01 X50.3814 Y33.3657 F120.00
G01 X50.3909 Y33.3278 F120.00
G01 X50.3966 Y33.2891 F120.00
G01 X50.3986 Y33.2500 F120.00
G00 X50.3986 Y33.2500
G01 F60.00
G01 Z-0.8000
G01 F120.00
G01 X50.3966 Y33.2109 F120.00
G01 X50.3909 Y33.1722 F120.00
G01 X50.3814 Y33.1343 F120.00
G01 X50.3682 Y33.0975 F120.00
G01 X50.3515 Y33.0621 F120.00
G01 X50.3314 Y33.0286 F120.00
G01 X50.3081 Y32.9972 F120.00
G01 X50.2818 Y32.9682 F120.00
G01 X50.2528 Y32.9419 F120.00
G01 X50.2214 Y32.9186 F120.00
G01 X50.1879 Y32.8985 F120.00
G01 X50.1525 Y32.8818 F120.00
G01 X50.1157 Y32.8686 F120.00
G01 X50.0778 Y32.8591 F120.00
G01 X50.0391 Y32.8534 F120.00
G01 X50.0000 Y32.8514 F120.00
G01 X49.9609 Y32.8534 F120.00
G01 X49.9222 Y32.8591 F120.00
G01 X49.8843 Y32.8686 F120.00
G01 X49.8475 Y32.8818 F120.00
G01 X49.8121 Y32.8985 F120.00
G01 X49.7786 Y32.9186 F120.00
G01 X49.7472 Y32.9419 F120.00
G01 X49.7182 Y32.9682 F120.00
G01 X49.6919 Y32.9972 F120.00
G01 X49.6686 Y33.0286 F120.00
G01 X49.6485 Y33.0621 F120.00
G01 X49.6318 Y33.0975 F120.00
G01 X49.6186 Y33.1343 F120.00
G01 X49.6091 Y33.1722 F120.00
G01 X49.6034 Y33.2109 F120.00
G01 X49.6014 Y33.2500 F120.00
G01 X49.6034 Y33.2891 F120.00
G01 X49.6091 Y33.3278 F120.00
G01 X49.6186 Y33.3657 F120.00
G01 X49.6318 Y33.4025 F120.00
G01 X49.6485 Y33.4379 F120.00
G01 X49.6686 Y33.4714 F120.00
G01 X49.6919 Y33.5028 F120.00
G01 X49.7182 Y33.5318 F120.00
G01 X49.7472 Y33.5581 F120.00
G01 X49.7786 Y33.5814 F120.00
G01 X49.8121 Y33.6015 F120.00
G01 X49.8475 Y33.6182 F120.00
G01 X49.8843 Y33.6314 F120.00
G01 X49.9222 Y33.6409 F120.00
G01 X49.9609 Y33.6466 F120.00
G01 X50.0000 Y33.6486 F120.00
G01 X50.0391 Y33.6466 F120.00
G01 X50.0778 Y33.6409 F120.00
G01 X50.1157 Y33.6314 F120.00
G01 X50.1525 Y33.6182 F120.00
G01 X50.1879 Y33.6015 F120.00
G01 X50.2214 Y33.5814 F120.00
G01 X50.2528 Y33.5581 F120.00
G01 X50.2818 Y33.5318 F120.00
G01 X50.3081 Y33.5028 F120.00
G01 X50.3314 Y33.4714 F120.00
G01 X50.3515 Y33.4379 F120.00
G01 X50.3682 Y33.4025 F120.00
G01 X50.3814 Y33.3657 F120.00
G01 X50.3909 Y33.3278 F120.00
G01 X50.3966 Y33.2891 F120.00
G01 X50.3986 Y33.2500 F120.00
G00 X50.3986 Y33.2500
G01 F60.00
G01 Z-1.0000
G01 F120.00
G01 X50.3966 Y33.2109 F120.00
G01 X50.3909 Y33.1722 F120.00
G01 X50.3814 Y33.1343 F120.00
G01 X50.3682 Y33.0975 F120.00
G01 X50.3515 Y33.0621 F120.00
G01 X50.3314 Y33.0286 F120.00
G01 X50.3081 Y32.9972 F120.00
G01 X50.2818 Y32.9682 F120.00
G01 X50.2528 Y32.9419 F120.00
G01 X50.2214 Y32.9186 F120.00
G01 X50.1879 Y32.8985 F120.00
G01 X50.1525 Y32.8818 F120.00
G01 X50.1157 Y32.8686 F120.00
G01 X50.0778 Y32.8591 F120.00
G01 X50.0391 Y32.8534 F120.00
G01 X50.0000 Y32.8514 F120.00
G01 X49.9609 Y32.8534 F120.00
G01 X49.9222 Y32.8591 F120.00
G01 X49.8843 Y32.8686 F120.00
G01 X49.8475 Y32.8818 F120.00
G01 X49.8121 Y32.8985 F120.00
G01 X49.7786 Y32.9186 F120.00
G01 X49.7472 Y32.9419 F120.00
G01 X49.7182 Y32.9682 F120.00
G01 X49.6919 Y32.9972 F120.00
G01 X49.6686 Y33.0286 F120.00
G01 X49.6485 Y33.0621 F120.00
G01 X49.6318 Y33.0975 F120.00
G01 X49.6186 Y33.1343 F120.00
G01 X49.6091 Y33.1722 F120.00
G01 X49.6034 Y33.2109 F120.00
G01 X49.6014 Y33.2500 F120.00
G01 X49.6034 Y33.2891 F120.00
G01 X49.6091 Y33.3278 F120.00
G01 X49.6186 Y33.3657 F120.00
G01 X49.6318 Y33.4025 F120.00
G01 X49.6485 Y33.4379 F120.00
G01 X49.6686 Y33.4714 F120.00
G01 X49.6919 Y33.5028 F120.00
G01 X49.7182 Y33.5318 F120.00
G01 X49.7472 Y33.5581 F120.00
G01 X49.7786 Y33.5814 F120.00
G01 X49.8121 Y33.6015 F120.00
G01 X49.8475 Y33.6182 F120.00
G01 X49.8843 Y33.6314 F120.00
G01 X49.9222 Y33.6409 F120.00
G01 X49.9609 Y33.6466 F120.00
G01 X50.0000 Y33.6486 F120.00
G01 X50.0391 Y33.6466 F120.00
G01 X50.0778 Y33.6409 F120.00
G01 X50.1157 Y33.6314 F120.00
G01 X50.1525 Y33.6182 F120.00
G01 X50.1879 Y33.6015 F120.00
G01 X50.2214 Y33.5814 F120.00
G01 X50.2528 Y33.5581 F120.00
G01 X50.2818 Y33.5318 F120.00
G01 X50.3081 Y33.5028 F120.00
G01 X50.3314 Y33.4714 F120.00
G01 X50.3515 Y33.4379 F120.00
G01 X50.3682 Y33.4025 F120.00
G01 X50.3814 Y33.3657 F120.00
G01 X50.3909 Y33.3278 F120.00
G01 X50.3966 Y33.2891 F120.00
G01 X50.3986 Y33.2500 F120.00
G00 X50.3986 Y33.2500
G01 F60.00
G01 Z-1.2000
G01 F120.00
G01 X50.3966 Y33.2109 F120.00
G01 X50.3909 Y33.1722 F120.00
G01 X50.3814 Y33.1343 F120.00
G01 X50.3682 Y33.0975 F120.00
G01 X50.3515 Y33.0621 F120.00
G01 X50.3314 Y33.0286 F120.00
G01 X50.3081 Y32.9972 F120.00
G01 X50.2818 Y32.9682 F120.00
G01 X50.2528 Y32.9419 F120.00
G01 X50.2214 Y32.9186 F120.00
G01 X50.1879 Y32.8985 F120.00
G01 X50.1525 Y32.8818 F120.00
G01 X50.1157 Y32.8686 F120.00
G01 X50.0778 Y32.8591 F120.00
G01 X50.0391 Y32.8534 F120.00
G01 X50.0000 Y32.8514 F120.00
G01 X49.9609 Y32.8534 F120.00
G01 X49.9222 Y32.8591 F120.00
G01 X49.8843 Y32.8686 F120.00
G01 X49.8475 Y32.8818 F120.00
G01 X49.8121 Y32.8985 F120.00
G01 X49.7786 Y32.9186 F120.00
G01 X49.7472 Y32.9419 F120.00
G01 X49.7182 Y32.9682 F120.00
G01 X49.6919 Y32.9972 F120.00
G01 X49.6686 Y33.0286 F120.00
G01 X49.6485 Y33.0621 F120.00
G01 X49.6318 Y33.0975 F120.00
G01 X49.6186 Y33.1343 F120.00
G01 X49.6091 Y33.1722 F120.00
G01 X49.6034 Y33.2109 F120.00
G01 X49.6014 Y33.2500 F120.00
G01 X49.6034 Y33.2891 F120.00
G01 X49.6091 Y33.3278 F120.00
G01 X49.6186 Y33.3657 F120.00
G01 X49.6318 Y33.4025 F120.00
G01 X49.6485 Y33.4379 F120.00
G01 X49.6686 Y33.4714 F120.00
G01 X49.6919 Y33.5028 F120.00
G01 X49.7182 Y33.5318 F120.00
G01 X49.7472 Y33.5581 F120.00
G01 X49.7786 Y33.5814 F120.00
G01 X49.8121 Y33.6015 F120.00
G01 X49.8475 Y33.6182 F120.00
G01 X49.8843 Y33.6314 F120.00
G01 X49.9222 Y33.6409 F120.00
G01 X49.9609 Y33.6466 F120.00
G01 X50.0000 Y33.6486 F120.00
G01 X50.0391 Y33.6466 F120.00
G01 X50.0778 Y33.6409 F120.00
G01 X50.1157 Y33.6314 F120.00
G01 X50.1525 Y33.6182 F120.00
G01 X50.1879 Y33.6015 F120.00
G01 X50.2214 Y33.5814 F120.00
G01 X50.2528 Y33.5581 F120.00
G01 X50.2818 Y33.5318 F120.00
G01 X50.3081 Y33.5028 F120.00
G01 X50.3314 Y33.4714 F120.00
G01 X50.3515 Y33.4379 F120.00
G01 X50.3682 Y33.4025 F120.00
G01 X50.3814 Y33.3657 F120.00
G01 X50.3909 Y33.3278 F120.00
G01 X50.3966 Y33.2891 F120.00
G01 X50.3986 Y33.2500 F120.00
G00 X50.3986 Y33.2500
G01 F60.00
G01 Z-1.4000
G01 F120.00
G01 X50.3966 Y33.2109 F120.00
G01 X50.3909 Y33.1722 F120.00
G01 X50.3814 Y33.1343 F120.00
G01 X50.3682 Y33.0975 F120.00
G01 X50.3515 Y33.0621 F120.00
G01 X50.3314 Y33.0286 F120.00
G01 X50.3081 Y32.9972 F120.00
G01 X50.2818 Y32.9682 F120.00
G01 X50.2528 Y32.9419 F120.00
G01 X50.2214 Y32.9186 F120.00
G01 X50.1879 Y32.8985 F120.00
G01 X50.1525 Y32.8818 F120.00
G01 X50.1157 Y32.8686 F120.00
G01 X50.0778 Y32.8591 F120.00
G01 X50.0391 Y32.8534 F120.00
G01 X50.0000 Y32.8514 F120.00
G01 X49.9609 Y32.8534 F120.00
G01 X49.9222 Y32.8591 F120.00
G01 X49.8843 Y32.8686 F120.00
G01 X49.8475 Y32.8818 F120.00
G01 X49.8121 Y32.8985 F120.00
G01 X49.7786 Y32.9186 F120.00
G01 X49.7472 Y32.9419 F120.00
G01 X49.7182 Y32.9682 F120.00
G01 X49.6919 Y32.9972 F120.00
G01 X49.6686 Y33.0286 F120.00
G01 X49.6485 Y33.0621 F120.00
G01 X49.6318 Y33.0975 F120.00
G01 X49.6186 Y33.1343 F120.00
G01 X49.6091 Y33.1722 F120.00
G01 X49.6034 Y33.2109 F120.00
G01 X49.6014 Y33.2500 F120.00
G01 X49.6034 Y33.2891 F120.00
G01 X49.6091 Y33.3278 F120.00
G01 X49.6186 Y33.3657 F120.00
G01 X49.6318 Y33.4025 F120.00
G01 X49.6485 Y33.4379 F120.00
G01 X49.6686 Y33.4714 F120.00
G01 X49.6919 Y33.5028 F120.00
G01 X49.7182 Y33.5318 F120.00
G01 X49.7472 Y33.5581 F120.00
G01 X49.7786 Y33.5814 F120.00
G01 X49.8121 Y33.6015 F120.00
G01 X49.8475 Y33.6182 F120.00
G01 X49.8843 Y33.6314 F120.00
G01 X49.9222 Y33.6409 F120.00
G01 X49.9609 Y33.6466 F120.00
G01 X50.0000 Y33.6486 F120.00
G01 X50.0391 Y33.6466 F120.00
G01 X50.0778 Y33.6409 F120.00
G01 X50.1157 Y33.6314 F120.00
G01 X50.1525 Y33.6182 F120.00
G01 X50.1879 Y33.6015 F120.00
G01 X50.2214 Y33.5814 F120.00
G01 X50.2528 Y33.5581 F120.00
G01 X50.2818 Y33.5318 F120.00
G01 X50.3081 Y33.5028 F120.00
G01 X50.3314 Y33.4714 F120.00
G01 X50.3515 Y33.4379 F120.00
G01 X50.3682 Y33.4025 F120.00
G01 X50.3814 Y33.3657 F120.00
G01 X50.3909 Y33.3278 F120.00
G01 X50.3966 Y33.2891 F120.00
G01 X50.3986 Y33.2500 F120.00
G00 X50.3986 Y33.2500
G01 F60.00
G01 Z-1.6000
G01 F120.00
G01 X50.3966 Y33.2109 F120.00
G01 X50.3909 Y33.1722 F120.00
G01 X50.3814 Y33.1343 F120.00
G01 X50.3682 Y33.0975 F120.00
G01 X50.3515 Y33.0621 F120.00
G01 X50.3314 Y33.0286 F120.00
G01 X50.3081 Y32.9972 F120.00
G01 X50.2818 Y32.9682 F120.00
G01 X50.2528 Y32.9419 F120.00
G01 X50.2214 Y32.9186 F120.00
G01 X50.1879 Y32.8985 F120.00
G01 X50.1525 Y32.8818 F120.00
G01 X50.1157 Y32.8686 F120.00
G01 X50.0778 Y32.8591 F120.00
G01 X50.0391 Y32.8534 F120.00
G01 X50.0000 Y32.8514 F120.00
G01 X49.9609 Y32.8534 F120.00
G01 X49.9222 Y32.8591 F120.00
G01 X49.8843 Y32.8686 F120.00
G01 X49.8475 Y32.8818 F120.00
G01 X49.8121 Y32.8985 F120.00
G01 X49.7786 Y32.9186 F120.00
G01 X49.7472 Y32.9419 F120.00
G01 X49.7182 Y32.9682 F120.00
G01 X49.6919 Y32.9972 F120.00
G01 X49.6686 Y33.0286 F120.00
G01 X49.6485 Y33.0621 F120.00
G01 X49.6318 Y33.0975 F120.00
G01 X49.6186 Y33.1343 F120.00
G01 X49.6091 Y33.1722 F120.00
G01 X49.6034 Y33.2109 F120.00
G01 X49.6014 Y33.2500 F120.00
G01 X49.6034 Y33.2891 F120.00
G01 X49.6091 Y33.3278 F120.00
G01 X49.6186 Y33.3657 F120.00
G01 X49.6318 Y33.4025 F120.00
G01 X49.6485 Y33.4379 F120.00
G01 X49.6686 Y33.4714 F120.00
G01 X49.6919 Y33.5028 F120.00
G01 X49.7182 Y33.5318 F120.00
G01 X49.7472 Y33.5581 F120.00
G01 X49.7786 Y33.5814 F120.00
G01 X49.8121 Y33.6015 F120.00
G01 X49.8475 Y33.6182 F120.00
G01 X49.8843 Y33.6314 F120.00
G01 X49.9222 Y33.6409 F120.00
G01 X49.9609 Y33.6466 F120.00
G01 X50.0000 Y33.6486 F120.00
G01 X50.0391 Y33.6466 F120.00
G01 X50.0778 Y33.6409 F120.00
G01 X50.1157 Y33.6314 F120.00
G01 X50.1525 Y33.6182 F120.00
G01 X50.1879 Y33.6015 F120.00
G01 X50.2214 Y33.5814 F120.00
G01 X50.2528 Y33.5581 F120.00
G01 X50.2818 Y33.5318 F120.00
G01 X50.3081 Y33.5028 F120.00
G01 X50.3314 Y33.4714 F120.00
G01 X50.3515 Y33.4379 F120.00
G01 X50.3682 Y33.4025 F120.00
G01 X50.3814 Y33.3657 F120.00
G01 X50.3909 Y33.3278 F120.00
G01 X50.3966 Y33.2891 F120.00
G01 X50.3986 Y33.2500 F120.00
G00 X50.3986 Y33.2500
G01 F60.00
G01 Z-1.8000
G01 F120.00
G01 X50.3966 Y33.2109 F120.00
G01 X50.3909 Y33.1722 F120.00
G01 X50.3814 Y33.1343 F120.00
G01 X50.3682 Y33.0975 F120.00
G01 X50.3515 Y33.0621 F120.00
G01 X50.3314 Y33.0286 F120.00
G01 X50.3081 Y32.9972 F120.00
G01 X50.2818 Y32.9682 F120.00
G01 X50.2528 Y32.9419 F120.00
G01 X50.2214 Y32.9186 F120.00
G01 X50.1879 Y32.8985 F120.00
G01 X50.1525 Y32.8818 F120.00
G01 X50.1157 Y32.8686 F120.00
G01 X50.0778 Y32.8591 F120.00
G01 X50.0391 Y32.8534 F120.00
G01 X50.0000 Y32.8514 F120.00
G01 X49.9609 Y32.8534 F120.00
G01 X49.9222 Y32.8591 F120.00
G01 X49.8843 Y32.8686 F120.00
G01 X49.8475 Y32.8818 F120.00
G01 X49.8121 Y32.8985 F120.00
G01 X49.7786 Y32.9186 F120.00
G01 X49.7472 Y32.9419 F120.00
G01 X49.7182 Y32.9682 F120.00
G01 X49.6919 Y32.9972 F120.00
G01 X49.6686 Y33.0286 F120.00
G01 X49.6485 Y33.0621 F120.00
G01 X49.6318 Y33.0975 F120.00
G01 X49.6186 Y33.1343 F120.00
G01 X49.6091 Y33.1722 F120.00
G01 X49.6034 Y33.2109 F120.00
G01 X49.6014 Y33.2500 F120.00
G01 X49.6034 Y33.2891 F120.00
G01 X49.6091 Y33.3278 F120.00
G01 X49.6186 Y33.3657 F120.00
G01 X49.6318 Y33.4025 F120.00
G01 X49.6485 Y33.4379 F120.00
G01 X49.6686 Y33.4714 F120.00
G01 X49.6919 Y33.5028 F120.00
G01 X49.7182 Y33.5318 F120.00
G01 X49.7472 Y33.5581 F120.00
G01 X49.7786 Y33.5814 F120.00
G01 X49.8121 Y33.6015 F120.00
G01 X49.8475 Y33.6182 F120.00
G01 X49.8843 Y33.6314 F120.00
G01 X49.9222 Y33.6409 F120.00
G01 X49.9609 Y33.6466 F120.00
G01 X50.0000 Y33.6486 F120.00
G01 X50.0391 Y33.6466 F120.00
G01 X50.0778 Y33.6409 F120.00
G01 X50.1157 Y33.6314 F120.00
G01 X50.1525 Y33.6182 F120.00
G01 X50.1879 Y33.6015 F120.00
G01 X50.2214 Y33.5814 F120.00
G01 X50.2528 Y33.5581 F120.00
G01 X50.2818 Y33.5318 F120.00
G01 X50.3081 Y33.5028 F120.00
G01 X50.3314 Y33.4714 F120.00
G01 X50.3515 Y33.4379 F120.00
G01 X50.3682 Y33.4025 F120.00
G01 X50.3814 Y33.3657 F120.00
G01 X50.3909 Y33.3278 F120.00
G01 X50.3966 Y33.2891 F120.00
G01 X50.3986 Y33.2500 F120.00
G00 Z2.0000
M05
G00 Z2.0000
G00 Z5.00


