(G-CODE GENERATED BY FLATCAM v8.994 - www.flatcam.org - Version Date: 2020/11/7)

(Name: Encoders-LCD-PTH.drl_cnc)
(Type: G-code from Geometry)
(Units: MM)

(Created on Sunday, 08 September 2024 at 20:59)

(This preprocessor is used with a motion controller loaded with GRBL firmware.)
(It is configured to be compatible with almost any version of GRBL firmware.)


(TOOLS DIAMETER: )
(Tool: 1 -> Dia: 0.3)
(Tool: 2 -> Dia: 0.8)
(Tool: 3 -> Dia: 1.0)
(Tool: 4 -> Dia: 1.19)
(Tool: 5 -> Dia: 2.6)

(FEEDRATE Z: )
(Tool: 1 -> Feedrate: 300)
(Tool: 2 -> Feedrate: 300)
(Tool: 3 -> Feedrate: 300)
(Tool: 4 -> Feedrate: 300)
(Tool: 5 -> Feedrate: 300)

(FEEDRATE RAPIDS: )
(Tool: 1 -> Feedrate Rapids: 1500)
(Tool: 2 -> Feedrate Rapids: 1500)
(Tool: 3 -> Feedrate Rapids: 1500)
(Tool: 4 -> Feedrate Rapids: 1500)
(Tool: 5 -> Feedrate Rapids: 1500)

(Z_CUT: )
(Tool: 1 -> Z_Cut: -1.8)
(Tool: 2 -> Z_Cut: -1.8)
(Tool: 3 -> Z_Cut: -1.8)
(Tool: 4 -> Z_Cut: -1.8)
(Tool: 5 -> Z_Cut: -1.8)

(Tools Offset: )
(Tool: 5 -> Offset Z: 0.0)

(DEPTH_PER_CUT: )
(Tool: 1 -> DeptPerCut: 0.2)
(Tool: 2 -> DeptPerCut: 0.2)
(Tool: 3 -> DeptPerCut: 0.2)
(Tool: 4 -> DeptPerCut: 0.2)
(Tool: 5 -> DeptPerCut: 0.2)

(Z_MOVE: )
(Tool: 1 -> Z_Move: 2)
(Tool: 2 -> Z_Move: 2)
(Tool: 3 -> Z_Move: 2)
(Tool: 4 -> Z_Move: 2)
(Tool: 5 -> Z_Move: 2)

(Z Toolchange: 5.0 mm)
(X,Y Toolchange: 0.0000, 0.0000 mm)
(Z Start: None mm)
(Z End: 4.999999999999998 mm)
(X,Y End: None mm)
(Steps per circle: 64)
(Steps per circle: 64)
(Preprocessor Excellon: GRBL_11_no_M6)

(X range:  -41.4000 ...   43.6500  mm)
(Y range:  -32.6350 ...   27.2500  mm)

(Spindle Speed: 900 RPM)
G21
G90
G17
G94


G01 F300.00

M5             
G00 Z5.0000
G00 X0.0000 Y0.0000                
T5
(MSG, Change to Tool Dia = 2.6000 ||| Total drills for tool T5 = 6)
M0
G00 Z5.0000
        
G01 F300.00
M03 S900
G00 X40.6000 Y-23.7500
G01 Z-0.2000
G01 Z0
G00 Z2.0000
G01 Z-0.4000
G01 Z0
G00 Z2.0000
G01 Z-0.6000
G01 Z0
G00 Z2.0000
G01 Z-0.8000
G01 Z0
G00 Z2.0000
G01 Z-1.0000
G01 Z0
G00 Z2.0000
G01 Z-1.2000
G01 Z0
G00 Z2.0000
G01 Z-1.4000
G01 Z0
G00 Z2.0000
G01 Z-1.6000
G01 Z0
G00 Z2.0000
G01 Z-1.8000
G01 Z0
G00 Z2.0000
G01 Z-1.8000
G01 Z0
G00 Z2.0000
G00 X29.4000 Y-23.7500
G01 Z-0.2000
G01 Z0
G00 Z2.0000
G01 Z-0.4000
G01 Z0
G00 Z2.0000
G01 Z-0.6000
G01 Z0
G00 Z2.0000
G01 Z-0.8000
G01 Z0
G00 Z2.0000
G01 Z-1.0000
G01 Z0
G00 Z2.0000
G01 Z-1.2000
G01 Z0
G00 Z2.0000
G01 Z-1.4000
G01 Z0
G00 Z2.0000
G01 Z-1.6000
G01 Z0
G00 Z2.0000
G01 Z-1.8000
G01 Z0
G00 Z2.0000
G01 Z-1.8000
G01 Z0
G00 Z2.0000
G00 X-28.9000 Y-23.2500
G01 Z-0.2000
G01 Z0
G00 Z2.0000
G01 Z-0.4000
G01 Z0
G00 Z2.0000
G01 Z-0.6000
G01 Z0
G00 Z2.0000
G01 Z-0.8000
G01 Z0
G00 Z2.0000
G01 Z-1.0000
G01 Z0
G00 Z2.0000
G01 Z-1.2000
G01 Z0
G00 Z2.0000
G01 Z-1.4000
G01 Z0
G00 Z2.0000
G01 Z-1.6000
G01 Z0
G00 Z2.0000
G01 Z-1.8000
G01 Z0
G00 Z2.0000
G01 Z-1.8000
G01 Z0
G00 Z2.0000
G00 X-40.1000 Y-23.2500
G01 Z-0.2000
G01 Z0
G00 Z2.0000
G01 Z-0.4000
G01 Z0
G00 Z2.0000
G01 Z-0.6000
G01 Z0
G00 Z2.0000
G01 Z-0.8000
G01 Z0
G00 Z2.0000
G01 Z-1.0000
G01 Z0
G00 Z2.0000
G01 Z-1.2000
G01 Z0
G00 Z2.0000
G01 Z-1.4000
G01 Z0
G00 Z2.0000
G01 Z-1.6000
G01 Z0
G00 Z2.0000
G01 Z-1.8000
G01 Z0
G00 Z2.0000
G01 Z-1.8000
G01 Z0
G00 Z2.0000
G00 X-5.5000 Y19.7500
G01 Z-0.2000
G01 Z0
G00 Z2.0000
G01 Z-0.4000
G01 Z0
G00 Z2.0000
G01 Z-0.6000
G01 Z0
G00 Z2.0000
G01 Z-0.8000
G01 Z0
G00 Z2.0000
G01 Z-1.0000
G01 Z0
G00 Z2.0000
G01 Z-1.2000
G01 Z0
G00 Z2.0000
G01 Z-1.4000
G01 Z0
G00 Z2.0000
G01 Z-1.6000
G01 Z0
G00 Z2.0000
G01 Z-1.8000
G01 Z0
G00 Z2.0000
G01 Z-1.8000
G01 Z0
G00 Z2.0000
G00 X5.7000 Y19.7500
G01 Z-0.2000
G01 Z0
G00 Z2.0000
G01 Z-0.4000
G01 Z0
G00 Z2.0000
G01 Z-0.6000
G01 Z0
G00 Z2.0000
G01 Z-0.8000
G01 Z0
G00 Z2.0000
G01 Z-1.0000
G01 Z0
G00 Z2.0000
G01 Z-1.2000
G01 Z0
G00 Z2.0000
G01 Z-1.4000
G01 Z0
G00 Z2.0000
G01 Z-1.6000
G01 Z0
G00 Z2.0000
G01 Z-1.8000
G01 Z0
G00 Z2.0000
G01 Z-1.8000
G01 Z0
G00 Z2.0000
M05
G00 Z5.00


