(G-CODE GENERATED BY FLATCAM v8.994 - www.flatcam.org - Version Date: 2020/11/7)

(Name: Encoders-LCD-B_Cu.gbr_iso_combined_cnc)
(Type: G-code from Geometry)
(Units: MM)

(Created on Wednesday, 04 September 2024 at 14:25)

(This preprocessor is used with a motion controller loaded with GRBL firmware.)
(It is configured to be compatible with almost any version of GRBL firmware.)

(TOOL DIAMETER: 0.1536 mm)
(Feedrate_XY: 120.0 mm/min)
(Feedrate_Z: 60.0 mm/min)
(Feedrate rapids 1500.0 mm/min)

(Z_Cut: -0.1 mm)
(Z_Move: 2.0 mm)
(Z Start: None mm)
(Z End: 7.0 mm)
(X,Y End: None mm)
(Steps per circle: 64)
(Steps per circle: 64)
(Preprocessor Geometry: GRBL_11_no_M6)

(X range:    0.4237 ...  109.5763  mm)
(Y range:    0.4237 ...   75.5763  mm)

(Spindle Speed: 900.0 RPM)
G21
G90
G17
G94


G01 F120.00

M5             
G00 Z7.0000
G00 X0.0000 Y0.0000                
T1
(MSG, Change to Tool Dia = 0.1536)
M0
G00 Z7.0000
        
M03 S900.0
G01 F120.00
G00 X5.6231 Y2.9383
G01 F60.00
G01 Z-0.1000
G01 F120.00
G01 X5.6472 Y2.8171 F120.00
G01 X5.6944 Y2.7031 F120.00
G01 X5.7631 Y2.6004 F120.00
G01 X6.8504 Y1.5131 F120.00
G01 X6.9531 Y1.4444 F120.00
G01 X7.0671 Y1.3972 F120.00
G01 X7.1883 Y1.3731 F120.00
G01 X19.5617 Y1.3731 F120.00
G01 X19.6829 Y1.3972 F120.00
G01 X19.7969 Y1.4444 F120.00
G01 X19.8996 Y1.5131 F120.00
G01 X20.7870 Y2.4004 F120.00
G01 X20.7929 Y2.4078 F120.00
G01 X20.7993 Y2.4142 F120.00
G01 X20.8559 Y2.4615 F120.00
G01 X20.8656 Y2.4680 F120.00
G01 X20.8743 Y2.4723 F120.00
G01 X20.8883 Y2.4776 F120.00
G01 X20.9867 Y2.5103 F120.00
G01 X21.1207 Y2.5929 F120.00
G01 X21.2321 Y2.7043 F120.00
G01 X21.3147 Y2.8383 F120.00
G01 X21.3635 Y2.9855 F120.00
G01 X21.3661 Y2.9923 F120.00
G01 X21.3685 Y2.9972 F120.00
G01 X21.3722 Y3.0035 F120.00
G01 X21.4164 Y3.0670 F120.00
G01 X21.4229 Y3.0741 F120.00
G01 X21.4302 Y3.0802 F120.00
G01 X21.4381 Y3.0855 F120.00
G01 X21.4467 Y3.0897 F120.00
G01 X21.5164 Y3.1184 F120.00
G01 X21.5236 Y3.1205 F120.00
G01 X21.5309 Y3.1218 F120.00
G01 X21.5499 Y3.1230 F120.00
G01 X60.5617 Y3.1231 F120.00
G01 X60.6829 Y3.1472 F120.00
G01 X60.7969 Y3.1944 F120.00
G01 X60.8996 Y3.2631 F120.00
G01 X61.9869 Y4.3504 F120.00
G01 X62.0556 Y4.4531 F120.00
G01 X62.1028 Y4.5671 F120.00
G01 X62.1269 Y4.6883 F120.00
G01 X62.1269 Y10.4459 F120.00
G01 X62.1274 Y10.4550 F120.00
G01 X62.1287 Y10.4622 F120.00
G01 X62.1300 Y10.4675 F120.00
G01 X62.1497 Y10.5346 F120.00
G01 X62.1522 Y10.5418 F120.00
G01 X62.1563 Y10.5504 F120.00
G01 X62.1615 Y10.5584 F120.00
G01 X62.1663 Y10.5643 F120.00
G01 X62.1731 Y10.5710 F120.00
G01 X62.2273 Y10.6179 F120.00
G01 X62.2333 Y10.6224 F120.00
G01 X62.2397 Y10.6263 F120.00
G01 X62.2464 Y10.6295 F120.00
G01 X62.2645 Y10.6365 F120.00
G01 X62.4117 Y10.6853 F120.00
G01 X62.5457 Y10.7679 F120.00
G01 X62.6571 Y10.8793 F120.00
G01 X62.7178 Y10.9777 F120.00
G01 X62.7219 Y10.9837 F120.00
G01 X62.7266 Y10.9894 F120.00
G01 X62.7318 Y10.9945 F120.00
G01 X62.7865 Y11.0436 F120.00
G01 X62.7925 Y11.0481 F120.00
G01 X62.7989 Y11.0519 F120.00
G01 X62.8057 Y11.0551 F120.00
G01 X62.8109 Y11.0570 F120.00
G01 X62.8181 Y11.0590 F120.00
G01 X62.8735 Y11.0716 F120.00
G01 X62.8810 Y11.0727 F120.00
G01 X62.8887 Y11.0731 F120.00
G01 X85.1741 Y11.0731 F120.00
G01 X85.1832 Y11.0723 F120.00
G01 X85.1922 Y11.0705 F120.00
G01 X85.2646 Y11.0491 F120.00
G01 X85.2717 Y11.0463 F120.00
G01 X85.2801 Y11.0417 F120.00
G01 X85.2863 Y11.0374 F120.00
G01 X85.2935 Y11.0311 F120.00
G01 X85.3444 Y10.9726 F120.00
G01 X85.3500 Y10.9649 F120.00
G01 X85.3538 Y10.9582 F120.00
G01 X85.3575 Y10.9494 F120.00
G01 X85.3601 Y10.9401 F120.00
G01 X85.3717 Y10.8868 F120.00
G01 X85.3726 Y10.8814 F120.00
G01 X85.3731 Y10.8741 F120.00
G01 X85.3731 Y2.4383 F120.00
G01 X85.3972 Y2.3171 F120.00
G01 X85.4444 Y2.2031 F120.00
G01 X85.5131 Y2.1004 F120.00
G01 X86.6004 Y1.0131 F120.00
G01 X86.7031 Y0.9444 F120.00
G01 X86.8171 Y0.8972 F120.00
G01 X86.9383 Y0.8731 F120.00
G01 X101.5617 Y0.8731 F120.00
G01 X101.6829 Y0.8972 F120.00
G01 X101.7969 Y0.9444 F120.00
G01 X101.8996 Y1.0131 F120.00
G01 X101.9923 Y1.1057 F120.00
G01 X102.2869 Y1.4004 F120.00
G01 X102.3556 Y1.5031 F120.00
G01 X102.4028 Y1.6171 F120.00
G01 X102.4269 Y1.7383 F120.00
G01 X102.4269 Y1.8613 F120.00
G01 X102.4277 Y1.8723 F120.00
G01 X102.4300 Y1.8830 F120.00
G01 X102.4497 Y1.9500 F120.00
G01 X102.4521 Y1.9570 F120.00
G01 X102.4544 Y1.9621 F120.00
G01 X102.4600 Y1.9718 F120.00
G01 X102.4670 Y1.9805 F120.00
G01 X102.5088 Y2.0217 F120.00
G01 X102.5145 Y2.0267 F120.00
G01 X102.5223 Y2.0322 F120.00
G01 X102.6207 Y2.0929 F120.00
G01 X102.7321 Y2.2043 F120.00
G01 X102.8147 Y2.3383 F120.00
G01 X102.8645 Y2.4884 F120.00
G01 X102.8737 Y2.5789 F120.00
G01 X102.8737 Y3.9211 F120.00
G01 X102.8645 Y4.0116 F120.00
G01 X102.8147 Y4.1617 F120.00
G01 X102.7321 Y4.2957 F120.00
G01 X102.6207 Y4.4071 F120.00
G01 X102.5207 Y4.4687 F120.00
G01 X102.5134 Y4.4742 F120.00
G01 X102.5055 Y4.4818 F120.00
G01 X102.4575 Y4.5351 F120.00
G01 X102.4519 Y4.5425 F120.00
G01 X102.4481 Y4.5489 F120.00
G01 X102.4442 Y4.5574 F120.00
G01 X102.4414 Y4.5662 F120.00
G01 X102.4288 Y4.6216 F120.00
G01 X102.4271 Y4.6329 F120.00
G01 X102.4269 Y8.5117 F120.00
G01 X102.4028 Y8.6329 F120.00
G01 X102.3556 Y8.7469 F120.00
G01 X102.2869 Y8.8496 F120.00
G01 X99.4344 Y11.7022 F120.00
G01 X99.4285 Y11.7091 F120.00
G01 X99.4235 Y11.7168 F120.00
G01 X99.3891 Y11.7797 F120.00
G01 X99.3851 Y11.7882 F120.00
G01 X99.3827 Y11.7953 F120.00
G01 X99.3807 Y11.8045 F120.00
G01 X99.3773 Y11.8346 F120.00
G01 X99.3769 Y11.8428 F120.00
G01 X99.3769 Y15.6572 F120.00
G01 X99.3777 Y15.6681 F120.00
G01 X99.3795 Y15.6770 F120.00
G01 X99.4002 Y15.7476 F120.00
G01 X99.4029 Y15.7547 F120.00
G01 X99.4053 Y15.7598 F120.00
G01 X99.4081 Y15.7647 F120.00
G01 X99.4124 Y15.7709 F120.00
G01 X99.4302 Y15.7930 F120.00
G01 X99.4357 Y15.7991 F120.00
G01 X99.9522 Y16.3156 F120.00
G01 X99.9591 Y16.3215 F120.00
G01 X99.9668 Y16.3265 F120.00
G01 X100.0297 Y16.3609 F120.00
G01 X100.0400 Y16.3655 F120.00
G01 X100.0472 Y16.3678 F120.00
G01 X100.0564 Y16.3696 F120.00
G01 X100.0846 Y16.3727 F120.00
G01 X100.0928 Y16.3731 F120.00
G01 X101.0617 Y16.3731 F120.00
G01 X101.1829 Y16.3972 F120.00
G01 X101.2969 Y16.4444 F120.00
G01 X101.3996 Y16.5131 F120.00
G01 X102.5369 Y17.6504 F120.00
G01 X102.6056 Y17.7531 F120.00
G01 X102.6528 Y17.8671 F120.00
G01 X102.6769 Y17.9883 F120.00
G01 X102.6771 Y23.1168 F120.00
G01 X102.6780 Y23.1241 F120.00
G01 X102.6795 Y23.1312 F120.00
G01 X102.7008 Y23.2036 F120.00
G01 X102.7036 Y23.2105 F120.00
G01 X102.7080 Y23.2187 F120.00
G01 X102.7122 Y23.2248 F120.00
G01 X102.7170 Y23.2305 F120.00
G01 X102.7588 Y23.2717 F120.00
G01 X102.7675 Y23.2791 F120.00
G01 X102.8707 Y23.3429 F120.00
G01 X102.9821 Y23.4543 F120.00
G01 X103.0647 Y23.5883 F120.00
G01 X103.1145 Y23.7384 F120.00
G01 X103.1237 Y23.8289 F120.00
G01 X103.1237 Y25.1711 F120.00
G01 X103.1145 Y25.2616 F120.00
G01 X103.0647 Y25.4117 F120.00
G01 X102.9821 Y25.5457 F120.00
G01 X102.8707 Y25.6571 F120.00
G01 X102.7707 Y25.7187 F120.00
G01 X102.7620 Y25.7254 F120.00
G01 X102.7555 Y25.7318 F120.00
G01 X102.7075 Y25.7851 F120.00
G01 X102.7019 Y25.7925 F120.00
G01 X102.6981 Y25.7989 F120.00
G01 X102.6942 Y25.8074 F120.00
G01 X102.6914 Y25.8162 F120.00
G01 X102.6788 Y25.8716 F120.00
G01 X102.6773 Y25.8811 F120.00
G01 X102.6769 Y25.8887 F120.00
G01 X102.6769 Y29.2617 F120.00
G01 X102.6528 Y29.3829 F120.00
G01 X102.6056 Y29.4969 F120.00
G01 X102.5369 Y29.5996 F120.00
G01 X101.8996 Y30.2369 F120.00
G01 X101.7969 Y30.3056 F120.00
G01 X101.6829 Y30.3528 F120.00
G01 X101.5617 Y30.3769 F120.00
G01 X89.4383 Y30.3769 F120.00
G01 X89.3171 Y30.3528 F120.00
G01 X89.2031 Y30.3056 F120.00
G01 X89.1004 Y30.2369 F120.00
G01 X88.2631 Y29.3996 F120.00
G01 X88.1944 Y29.2970 F120.00
G01 X88.1472 Y29.1829 F120.00
G01 X88.1231 Y29.0617 F120.00
G01 X88.1231 Y25.4383 F120.00
G01 X88.1472 Y25.3171 F120.00
G01 X88.1944 Y25.2031 F120.00
G01 X88.2631 Y25.1004 F120.00
G01 X89.5675 Y23.7959 F120.00
G01 X89.5747 Y23.7877 F120.00
G01 X89.5806 Y23.7784 F120.00
G01 X89.6150 Y23.7155 F120.00
G01 X89.6187 Y23.7068 F120.00
G01 X89.6219 Y23.6960 F120.00
G01 X89.6230 Y23.6885 F120.00
G01 X89.6263 Y23.6560 F120.00
G01 X89.6263 Y23.5789 F120.00
G01 X89.6355 Y23.4884 F120.00
G01 X89.6853 Y23.3383 F120.00
G01 X89.7679 Y23.2043 F120.00
G01 X89.8793 Y23.0929 F120.00
G01 X90.0133 Y23.0103 F120.00
G01 X90.1634 Y22.9605 F120.00
G01 X90.2539 Y22.9513 F120.00
G01 X91.1461 Y22.9513 F120.00
G01 X91.2366 Y22.9605 F120.00
G01 X91.3867 Y23.0103 F120.00
G01 X91.5207 Y23.0929 F120.00
G01 X91.6321 Y23.2043 F120.00
G01 X91.7147 Y23.3383 F120.00
G01 X91.7645 Y23.4884 F120.00
G01 X91.7737 Y23.5789 F120.00
G01 X91.7737 Y24.9241 F120.00
G01 X91.7745 Y24.9332 F120.00
G01 X91.7768 Y24.9439 F120.00
G01 X91.7971 Y25.0128 F120.00
G01 X91.7997 Y25.0199 F120.00
G01 X91.8031 Y25.0268 F120.00
G01 X91.8072 Y25.0332 F120.00
G01 X91.8106 Y25.0378 F120.00
G01 X91.8185 Y25.0461 F120.00
G01 X91.8742 Y25.0944 F120.00
G01 X91.8803 Y25.0990 F120.00
G01 X91.8852 Y25.1020 F120.00
G01 X91.8956 Y25.1069 F120.00
G01 X91.9048 Y25.1097 F120.00
G01 X91.9582 Y25.1213 F120.00
G01 X91.9690 Y25.1229 F120.00
G01 X92.5292 Y25.1230 F120.00
G01 X92.5382 Y25.1220 F120.00
G01 X92.5454 Y25.1205 F120.00
G01 X92.6160 Y25.0997 F120.00
G01 X92.6231 Y25.0971 F120.00
G01 X92.6300 Y25.0937 F120.00
G01 X92.6364 Y25.0896 F120.00
G01 X92.6410 Y25.0862 F120.00
G01 X92.6493 Y25.0783 F120.00
G01 X92.6963 Y25.0241 F120.00
G01 X92.7022 Y25.0165 F120.00
G01 X92.7061 Y25.0099 F120.00
G01 X92.7101 Y25.0012 F120.00
G01 X92.7129 Y24.9920 F120.00
G01 X92.7249 Y24.9368 F120.00
G01 X92.7262 Y24.9260 F120.00
G01 X92.7263 Y23.5789 F120.00
G01 X92.7355 Y23.4884 F120.00
G01 X92.7853 Y23.3383 F120.00
G01 X92.8679 Y23.2043 F120.00
G01 X92.9793 Y23.0929 F120.00
G01 X93.0293 Y23.0621 F120.00
G01 X93.0352 Y23.0578 F120.00
G01 X93.0407 Y23.0530 F120.00
G01 X93.0924 Y22.9957 F120.00
G01 X93.0991 Y22.9867 F120.00
G01 X93.1043 Y22.9769 F120.00
G01 X93.1070 Y22.9700 F120.00
G01 X93.1090 Y22.9628 F120.00
G01 X93.1216 Y22.9073 F120.00
G01 X93.1230 Y22.8960 F120.00
G01 X93.1231 Y22.6492 F120.00
G01 X93.1228 Y22.6419 F120.00
G01 X93.1220 Y22.6365 F120.00
G01 X93.1205 Y22.6293 F120.00
G01 X93.0985 Y22.5552 F120.00
G01 X93.0955 Y22.5483 F120.00
G01 X93.0919 Y22.5417 F120.00
G01 X93.0877 Y22.5356 F120.00
G01 X93.0815 Y22.5285 F120.00
G01 X93.0335 Y22.4838 F120.00
G01 X93.0276 Y22.4789 F120.00
G01 X93.0196 Y22.4735 F120.00
G01 X92.9686 Y22.4460 F120.00
G01 X92.7825 Y22.3010 F120.00
G01 X92.6226 Y22.1275 F120.00
G01 X92.5174 Y21.9664 F120.00
G01 X92.5118 Y21.9592 F120.00
G01 X92.5053 Y21.9527 F120.00
G01 X92.4493 Y21.9049 F120.00
G01 X92.4432 Y21.9004 F120.00
G01 X92.4366 Y21.8965 F120.00
G01 X92.4297 Y21.8933 F120.00
G01 X92.4207 Y21.8903 F120.00
G01 X92.3646 Y21.8782 F120.00
G01 X92.3575 Y21.8772 F120.00
G01 X92.3503 Y21.8769 F120.00
G01 X59.2472 Y21.8771 F120.00
G01 X59.2400 Y21.8780 F120.00
G01 X59.2328 Y21.8795 F120.00
G01 X59.1604 Y21.9009 F120.00
G01 X59.1516 Y21.9045 F120.00
G01 X59.1449 Y21.9083 F120.00
G01 X59.1372 Y21.9138 F120.00
G01 X59.1315 Y21.9189 F120.00
G01 X59.0806 Y21.9774 F120.00
G01 X59.0760 Y21.9835 F120.00
G01 X59.0712 Y21.9918 F120.00
G01 X59.0675 Y22.0006 F120.00
G01 X59.0649 Y22.0099 F120.00
G01 X59.0533 Y22.0632 F120.00
G01 X59.0522 Y22.0704 F120.00
G01 X59.0519 Y22.0759 F120.00
G01 X59.0519 Y28.0057 F120.00
G01 X59.0527 Y28.0148 F120.00
G01 X59.0545 Y28.0238 F120.00
G01 X59.0747 Y28.0926 F120.00
G01 X59.0779 Y28.1016 F120.00
G01 X59.0833 Y28.1117 F120.00
G01 X59.0888 Y28.1194 F120.00
G01 X59.0967 Y28.1277 F120.00
G01 X59.1524 Y28.1760 F120.00
G01 X59.1585 Y28.1805 F120.00
G01 X59.1650 Y28.1845 F120.00
G01 X59.1702 Y28.1870 F120.00
G01 X59.1773 Y28.1897 F120.00
G01 X59.1884 Y28.1924 F120.00
G01 X59.2614 Y28.2029 F120.00
G01 X59.2730 Y28.2034 F120.00
G01 X59.2847 Y28.2021 F120.00
G01 X59.3053 Y28.1977 F120.00
G01 X59.3682 Y28.1795 F120.00
G01 X59.3682 Y28.5830 F120.00
G01 X59.3564 Y28.5990 F120.00
G01 X59.3450 Y28.6181 F120.00
G01 X59.3355 Y28.6382 F120.00
G01 X59.3291 Y28.6556 F120.00
G01 X59.3270 Y28.6628 F120.00
G01 X59.3222 Y28.6826 F120.00
G01 X59.3193 Y28.7028 F120.00
G01 X59.3182 Y28.7231 F120.00
G01 X59.3182 Y30.4750 F120.00
G01 X59.3193 Y30.4972 F120.00
G01 X59.3219 Y30.5155 F120.00
G01 X59.3234 Y30.5229 F120.00
G01 X59.3274 Y30.5390 F120.00
G01 X59.3291 Y30.5444 F120.00
G01 X59.3355 Y30.5618 F120.00
G01 X59.3450 Y30.5819 F120.00
G01 X59.3564 Y30.6010 F120.00
G01 X59.3682 Y30.6170 F120.00
G01 X59.3682 Y31.0205 F120.00
G01 X59.3155 Y31.0052 F120.00
G01 X59.1867 Y30.9290 F120.00
G01 X59.1798 Y30.9239 F120.00
G01 X59.1733 Y30.9201 F120.00
G01 X59.1629 Y30.9155 F120.00
G01 X59.1537 Y30.9129 F120.00
G01 X59.1216 Y30.8954 F120.00
G01 X59.1147 Y30.8923 F120.00
G01 X59.1093 Y30.8904 F120.00
G01 X59.1019 Y30.8885 F120.00
G01 X59.0944 Y30.8874 F120.00
G01 X59.0867 Y30.8870 F120.00
G01 X59.0094 Y30.8924 F120.00
G01 X59.0000 Y30.8939 F120.00
G01 X58.9908 Y30.8966 F120.00
G01 X58.9803 Y30.9013 F120.00
G01 X58.9570 Y30.9161 F120.00
G01 X58.9504 Y30.9188 F120.00
G01 X58.9437 Y30.9223 F120.00
G01 X58.9336 Y30.9294 F120.00
G01 X58.8047 Y31.0057 F120.00
G01 X58.6637 Y31.0467 F120.00
G01 X58.6377 Y31.0487 F120.00
G01 X58.2123 Y31.0487 F120.00
G01 X58.1863 Y31.0467 F120.00
G01 X58.0453 Y31.0057 F120.00
G01 X57.9164 Y30.9294 F120.00
G01 X57.9095 Y30.9243 F120.00
G01 X57.9030 Y30.9205 F120.00
G01 X57.8926 Y30.9159 F120.00
G01 X57.8835 Y30.9133 F120.00
G01 X57.8515 Y30.8958 F120.00
G01 X57.8445 Y30.8927 F120.00
G01 X57.8391 Y30.8908 F120.00
G01 X57.8318 Y30.8889 F120.00
G01 X57.8242 Y30.8877 F120.00
G01 X57.8166 Y30.8873 F120.00
G01 X57.7393 Y30.8927 F120.00
G01 X57.7298 Y30.8942 F120.00
G01 X57.7206 Y30.8969 F120.00
G01 X57.7153 Y30.8990 F120.00
G01 X57.7084 Y30.9025 F120.00
G01 X57.6875 Y30.9159 F120.00
G01 X57.6804 Y30.9188 F120.00
G01 X57.6737 Y30.9223 F120.00
G01 X57.6636 Y30.9294 F120.00
G01 X57.5347 Y31.0057 F120.00
G01 X57.3937 Y31.0467 F120.00
G01 X57.3677 Y31.0487 F120.00
G01 X56.9423 Y31.0487 F120.00
G01 X56.9163 Y31.0467 F120.00
G01 X56.7753 Y31.0057 F120.00
G01 X56.6464 Y30.9294 F120.00
G01 X56.6395 Y30.9243 F120.00
G01 X56.6330 Y30.9205 F120.00
G01 X56.6226 Y30.9159 F120.00
G01 X56.6135 Y30.9133 F120.00
G01 X56.5815 Y30.8958 F120.00
G01 X56.5745 Y30.8927 F120.00
G01 X56.5673 Y30.8903 F120.00
G01 X56.5618 Y30.8889 F120.00
G01 X56.5542 Y30.8877 F120.00
G01 X56.5466 Y30.8873 F120.00
G01 X56.4693 Y30.8927 F120.00
G01 X56.4598 Y30.8942 F120.00
G01 X56.4506 Y30.8969 F120.00
G01 X56.4435 Y30.8998 F120.00
G01 X56.4384 Y30.9025 F120.00
G01 X56.4175 Y30.9159 F120.00
G01 X56.4104 Y30.9188 F120.00
G01 X56.4037 Y30.9223 F120.00
G01 X56.3936 Y30.9294 F120.00
G01 X56.2647 Y31.0057 F120.00
G01 X56.1237 Y31.0467 F120.00
G01 X56.0977 Y31.0487 F120.00
G01 X55.6723 Y31.0487 F120.00
G01 X55.6463 Y31.0467 F120.00
G01 X55.5053 Y31.0057 F120.00
G01 X55.3764 Y30.9294 F120.00
G01 X55.3695 Y30.9243 F120.00
G01 X55.3630 Y30.9205 F120.00
G01 X55.3526 Y30.9159 F120.00
G01 X55.3435 Y30.9133 F120.00
G01 X55.3115 Y30.8958 F120.00
G01 X55.3045 Y30.8927 F120.00
G01 X55.2991 Y30.8908 F120.00
G01 X55.2918 Y30.8889 F120.00
G01 X55.2842 Y30.8877 F120.00
G01 X55.2766 Y30.8873 F120.00
G01 X55.1993 Y30.8927 F120.00
G01 X55.1898 Y30.8942 F120.00
G01 X55.1806 Y30.8969 F120.00
G01 X55.1753 Y30.8990 F120.00
G01 X55.1684 Y30.9025 F120.00
G01 X55.1475 Y30.9159 F120.00
G01 X55.1404 Y30.9188 F120.00
G01 X55.1337 Y30.9223 F120.00
G01 X55.1236 Y30.9294 F120.00
G01 X54.9947 Y31.0057 F120.00
G01 X54.8537 Y31.0467 F120.00
G01 X54.8277 Y31.0487 F120.00
G01 X54.4023 Y31.0487 F120.00
G01 X54.3763 Y31.0467 F120.00
G01 X54.2353 Y31.0057 F120.00
G01 X54.1064 Y30.9294 F120.00
G01 X54.0995 Y30.9243 F120.00
G01 X54.0930 Y30.9205 F120.00
G01 X54.0826 Y30.9159 F120.00
G01 X54.0735 Y30.9133 F120.00
G01 X54.0415 Y30.8958 F120.00
G01 X54.0345 Y30.8927 F120.00
G01 X54.0273 Y30.8903 F120.00
G01 X54.0218 Y30.8889 F120.00
G01 X54.0142 Y30.8877 F120.00
G01 X54.0066 Y30.8873 F120.00
G01 X53.9293 Y30.8927 F120.00
G01 X53.9198 Y30.8942 F120.00
G01 X53.9106 Y30.8969 F120.00
G01 X53.9035 Y30.8998 F120.00
G01 X53.8984 Y30.9025 F120.00
G01 X53.8775 Y30.9159 F120.00
G01 X53.8704 Y30.9188 F120.00
G01 X53.8637 Y30.9223 F120.00
G01 X53.8536 Y30.9294 F120.00
G01 X53.7247 Y31.0057 F120.00
G01 X53.5837 Y31.0467 F120.00
G01 X53.5577 Y31.0487 F120.00
G01 X53.1323 Y31.0487 F120.00
G01 X53.1063 Y31.0467 F120.00
G01 X52.9653 Y31.0057 F120.00
G01 X52.8364 Y30.9294 F120.00
G01 X52.8295 Y30.9243 F120.00
G01 X52.8230 Y30.9205 F120.00
G01 X52.8126 Y30.9159 F120.00
G01 X52.8035 Y30.9133 F120.00
G01 X52.7715 Y30.8958 F120.00
G01 X52.7645 Y30.8927 F120.00
G01 X52.7591 Y30.8908 F120.00
G01 X52.7518 Y30.8889 F120.00
G01 X52.7442 Y30.8877 F120.00
G01 X52.7366 Y30.8873 F120.00
G01 X52.6593 Y30.8927 F120.00
G01 X52.6498 Y30.8942 F120.00
G01 X52.6406 Y30.8969 F120.00
G01 X52.6353 Y30.8990 F120.00
G01 X52.6284 Y30.9025 F120.00
G01 X52.6075 Y30.9159 F120.00
G01 X52.6004 Y30.9188 F120.00
G01 X52.5937 Y30.9223 F120.00
G01 X52.5836 Y30.9294 F120.00
G01 X52.4547 Y31.0057 F120.00
G01 X52.3137 Y31.0467 F120.00
G01 X52.2877 Y31.0487 F120.00
G01 X51.8623 Y31.0487 F120.00
G01 X51.8363 Y31.0467 F120.00
G01 X51.6953 Y31.0057 F120.00
G01 X51.5664 Y30.9294 F120.00
G01 X51.5595 Y30.9243 F120.00
G01 X51.5530 Y30.9205 F120.00
G01 X51.5426 Y30.9159 F120.00
G01 X51.5335 Y30.9133 F120.00
G01 X51.5015 Y30.8958 F120.00
G01 X51.4945 Y30.8927 F120.00
G01 X51.4873 Y30.8903 F120.00
G01 X51.4818 Y30.8889 F120.00
G01 X51.4742 Y30.8877 F120.00
G01 X51.4666 Y30.8873 F120.00
G01 X51.3893 Y30.8927 F120.00
G01 X51.3798 Y30.8942 F120.00
G01 X51.3706 Y30.8969 F120.00
G01 X51.3635 Y30.8998 F120.00
G01 X51.3584 Y30.9025 F120.00
G01 X51.3375 Y30.9159 F120.00
G01 X51.3304 Y30.9188 F120.00
G01 X51.3237 Y30.9223 F120.00
G01 X51.3136 Y30.9294 F120.00
G01 X51.1847 Y31.0057 F120.00
G01 X51.0437 Y31.0467 F120.00
G01 X51.0177 Y31.0487 F120.00
G01 X50.5923 Y31.0487 F120.00
G01 X50.5663 Y31.0467 F120.00
G01 X50.4253 Y31.0057 F120.00
G01 X50.2964 Y30.9294 F120.00
G01 X50.2895 Y30.9243 F120.00
G01 X50.2830 Y30.9205 F120.00
G01 X50.2726 Y30.9159 F120.00
G01 X50.2635 Y30.9133 F120.00
G01 X50.2315 Y30.8958 F120.00
G01 X50.2245 Y30.8927 F120.00
G01 X50.2173 Y30.8903 F120.00
G01 X50.2118 Y30.8889 F120.00
G01 X50.2042 Y30.8877 F120.00
G01 X50.1985 Y30.8874 F120.00
G01 X50.1909 Y30.8875 F120.00
G01 X50.1193 Y30.8927 F120.00
G01 X50.1098 Y30.8942 F120.00
G01 X50.1006 Y30.8969 F120.00
G01 X50.0953 Y30.8990 F120.00
G01 X50.0884 Y30.9025 F120.00
G01 X50.0675 Y30.9159 F120.00
G01 X50.0604 Y30.9188 F120.00
G01 X50.0537 Y30.9223 F120.00
G01 X50.0436 Y30.9294 F120.00
G01 X49.9147 Y31.0057 F120.00
G01 X49.7737 Y31.0467 F120.00
G01 X49.7477 Y31.0487 F120.00
G01 X49.3223 Y31.0487 F120.00
G01 X49.2963 Y31.0467 F120.00
G01 X49.1487 Y31.0038 F120.00
G01 X49.1398 Y31.0018 F120.00
G01 X49.1289 Y31.0007 F120.00
G01 X49.0553 Y31.0010 F120.00
G01 X49.0458 Y31.0018 F120.00
G01 X49.0365 Y31.0038 F120.00
G01 X49.0258 Y31.0078 F120.00
G01 X49.0157 Y31.0132 F120.00
G01 X48.9555 Y31.0522 F120.00
G01 X48.9479 Y31.0581 F120.00
G01 X48.9412 Y31.0648 F120.00
G01 X48.9343 Y31.0739 F120.00
G01 X48.9288 Y31.0840 F120.00
G01 X48.8992 Y31.1494 F120.00
G01 X48.8960 Y31.1586 F120.00
G01 X48.8939 Y31.1681 F120.00
G01 X48.8919 Y31.1966 F120.00
G01 X48.8919 Y32.2967 F120.00
G01 X48.8678 Y32.4179 F120.00
G01 X48.8206 Y32.5319 F120.00
G01 X48.7519 Y32.6346 F120.00
G01 X47.1844 Y34.2022 F120.00
G01 X47.1785 Y34.2091 F120.00
G01 X47.1735 Y34.2168 F120.00
G01 X47.1391 Y34.2797 F120.00
G01 X47.1358 Y34.2865 F120.00
G01 X47.1327 Y34.2953 F120.00
G01 X47.1307 Y34.3045 F120.00
G01 X47.1269 Y34.3408 F120.00
G01 X47.1269 Y54.7518 F120.00
G01 X47.1274 Y54.7609 F120.00
G01 X47.1295 Y54.7716 F120.00
G01 X47.1509 Y54.8441 F120.00
G01 X47.1545 Y54.8529 F120.00
G01 X47.1593 Y54.8611 F120.00
G01 X47.1650 Y54.8687 F120.00
G01 X47.1717 Y54.8756 F120.00
G01 X47.2274 Y54.9238 F120.00
G01 X47.2367 Y54.9304 F120.00
G01 X47.2452 Y54.9348 F120.00
G01 X47.2541 Y54.9381 F120.00
G01 X47.2634 Y54.9403 F120.00
G01 X47.3344 Y54.9505 F120.00
G01 X47.3458 Y54.9513 F120.00
G01 X47.3515 Y54.9510 F120.00
G01 X47.3591 Y54.9501 F120.00
G01 X47.3665 Y54.9483 F120.00
G01 X47.3737 Y54.9459 F120.00
G01 X47.4425 Y54.9145 F120.00
G01 X47.4492 Y54.9109 F120.00
G01 X47.4539 Y54.9077 F120.00
G01 X47.4598 Y54.9030 F120.00
G01 X47.4697 Y54.8937 F120.00
G01 X47.5806 Y54.7828 F120.00
G01 X47.5865 Y54.7759 F120.00
G01 X47.5915 Y54.7682 F120.00
G01 X47.6259 Y54.7053 F120.00
G01 X47.6292 Y54.6985 F120.00
G01 X47.6323 Y54.6897 F120.00
G01 X47.6343 Y54.6805 F120.00
G01 X47.6381 Y54.6442 F120.00
G01 X47.6381 Y40.1506 F120.00
G01 X47.6375 Y40.1413 F120.00
G01 X47.6358 Y40.1321 F120.00
G01 X47.6181 Y40.0672 F120.00
G01 X47.6158 Y40.0601 F120.00
G01 X47.6111 Y40.0500 F120.00
G01 X47.5843 Y40.0047 F120.00
G01 X47.5433 Y39.8637 F120.00
G01 X47.5413 Y39.8377 F120.00
G01 X47.5413 Y37.9623 F120.00
G01 X47.5433 Y37.9363 F120.00
G01 X47.5843 Y37.7954 F120.00
G01 X47.6581 Y37.6706 F120.00
G01 X47.7606 Y37.5681 F120.00
G01 X47.8853 Y37.4943 F120.00
G01 X48.0263 Y37.4533 F120.00
G01 X48.0523 Y37.4513 F120.00
G01 X48.4777 Y37.4513 F120.00
G01 X48.5037 Y37.4533 F120.00
G01 X48.6447 Y37.4943 F120.00
G01 X48.7736 Y37.5706 F120.00
G01 X48.7806 Y37.5757 F120.00
G01 X48.7870 Y37.5795 F120.00
G01 X48.7974 Y37.5841 F120.00
G01 X48.8065 Y37.5867 F120.00
G01 X48.8384 Y37.6041 F120.00
G01 X48.8454 Y37.6073 F120.00
G01 X48.8526 Y37.6097 F120.00
G01 X48.8581 Y37.6111 F120.00
G01 X48.8657 Y37.6122 F120.00
G01 X48.8733 Y37.6126 F120.00
G01 X48.9506 Y37.6073 F120.00
G01 X48.9620 Y37.6054 F120.00
G01 X48.9711 Y37.6025 F120.00
G01 X48.9815 Y37.5975 F120.00
G01 X49.0025 Y37.5841 F120.00
G01 X49.0096 Y37.5812 F120.00
G01 X49.0163 Y37.5777 F120.00
G01 X49.0264 Y37.5706 F120.00
G01 X49.1553 Y37.4943 F120.00
G01 X49.2963 Y37.4533 F120.00
G01 X49.3223 Y37.4513 F120.00
G01 X49.7477 Y37.4513 F120.00
G01 X49.7737 Y37.4533 F120.00
G01 X49.9147 Y37.4943 F120.00
G01 X50.0436 Y37.5706 F120.00
G01 X50.0506 Y37.5757 F120.00
G01 X50.0570 Y37.5795 F120.00
G01 X50.0674 Y37.5841 F120.00
G01 X50.0765 Y37.5867 F120.00
G01 X50.1084 Y37.6041 F120.00
G01 X50.1154 Y37.6073 F120.00
G01 X50.1226 Y37.6097 F120.00
G01 X50.1281 Y37.6111 F120.00
G01 X50.1357 Y37.6122 F120.00
G01 X50.1433 Y37.6126 F120.00
G01 X50.2206 Y37.6073 F120.00
G01 X50.2301 Y37.6058 F120.00
G01 X50.2411 Y37.6025 F120.00
G01 X50.2515 Y37.5975 F120.00
G01 X50.2725 Y37.5841 F120.00
G01 X50.2796 Y37.5812 F120.00
G01 X50.2863 Y37.5777 F120.00
G01 X50.2964 Y37.5706 F120.00
G01 X50.4253 Y37.4943 F120.00
G01 X50.5663 Y37.4533 F120.00
G01 X50.5923 Y37.4513 F120.00
G01 X51.0177 Y37.4513 F120.00
G01 X51.0437 Y37.4533 F120.00
G01 X51.1847 Y37.4943 F120.00
G01 X51.3136 Y37.5706 F120.00
G01 X51.3206 Y37.5757 F120.00
G01 X51.3270 Y37.5795 F120.00
G01 X51.3374 Y37.5841 F120.00
G01 X51.3465 Y37.5867 F120.00
G01 X51.3784 Y37.6041 F120.00
G01 X51.3854 Y37.6073 F120.00
G01 X51.3926 Y37.6097 F120.00
G01 X51.3981 Y37.6111 F120.00
G01 X51.4057 Y37.6122 F120.00
G01 X51.4133 Y37.6126 F120.00
G01 X51.4906 Y37.6073 F120.00
G01 X51.5020 Y37.6054 F120.00
G01 X51.5111 Y37.6025 F120.00
G01 X51.5215 Y37.5975 F120.00
G01 X51.5425 Y37.5841 F120.00
G01 X51.5496 Y37.5812 F120.00
G01 X51.5563 Y37.5777 F120.00
G01 X51.5664 Y37.5706 F120.00
G01 X51.6953 Y37.4943 F120.00
G01 X51.8363 Y37.4533 F120.00
G01 X51.8623 Y37.4513 F120.00
G01 X52.2877 Y37.4513 F120.00
G01 X52.3137 Y37.4533 F120.00
G01 X52.4547 Y37.4943 F120.00
G01 X52.5836 Y37.5706 F120.00
G01 X52.5906 Y37.5757 F120.00
G01 X52.5970 Y37.5795 F120.00
G01 X52.6074 Y37.5841 F120.00
G01 X52.6165 Y37.5867 F120.00
G01 X52.6484 Y37.6041 F120.00
G01 X52.6554 Y37.6073 F120.00
G01 X52.6626 Y37.6097 F120.00
G01 X52.6681 Y37.6111 F120.00
G01 X52.6757 Y37.6122 F120.00
G01 X52.6833 Y37.6126 F120.00
G01 X52.7606 Y37.6073 F120.00
G01 X52.7701 Y37.6058 F120.00
G01 X52.7811 Y37.6025 F120.00
G01 X52.7915 Y37.5975 F120.00
G01 X52.8125 Y37.5841 F120.00
G01 X52.8196 Y37.5812 F120.00
G01 X52.8263 Y37.5777 F120.00
G01 X52.8364 Y37.5706 F120.00
G01 X52.9653 Y37.4943 F120.00
G01 X53.1063 Y37.4533 F120.00
G01 X53.1323 Y37.4513 F120.00
G01 X53.5577 Y37.4513 F120.00
G01 X53.5837 Y37.4533 F120.00
G01 X53.7247 Y37.4943 F120.00
G01 X53.8536 Y37.5706 F120.00
G01 X53.8606 Y37.5757 F120.00
G01 X53.8670 Y37.5795 F120.00
G01 X53.8774 Y37.5841 F120.00
G01 X53.8865 Y37.5867 F120.00
G01 X53.9184 Y37.6041 F120.00
G01 X53.9254 Y37.6073 F120.00
G01 X53.9326 Y37.6097 F120.00
G01 X53.9381 Y37.6111 F120.00
G01 X53.9457 Y37.6122 F120.00
G01 X53.9533 Y37.6126 F120.00
G01 X54.0306 Y37.6073 F120.00
G01 X54.0420 Y37.6054 F120.00
G01 X54.0511 Y37.6025 F120.00
G01 X54.0615 Y37.5975 F120.00
G01 X54.0825 Y37.5841 F120.00
G01 X54.0896 Y37.5812 F120.00
G01 X54.0963 Y37.5777 F120.00
G01 X54.1064 Y37.5706 F120.00
G01 X54.2353 Y37.4943 F120.00
G01 X54.3763 Y37.4533 F120.00
G01 X54.4023 Y37.4513 F120.00
G01 X54.8277 Y37.4513 F120.00
G01 X54.8537 Y37.4533 F120.00
G01 X54.9947 Y37.4943 F120.00
G01 X55.1236 Y37.5706 F120.00
G01 X55.1306 Y37.5757 F120.00
G01 X55.1370 Y37.5795 F120.00
G01 X55.1474 Y37.5841 F120.00
G01 X55.1565 Y37.5867 F120.00
G01 X55.1884 Y37.6041 F120.00
G01 X55.1954 Y37.6073 F120.00
G01 X55.2026 Y37.6097 F120.00
G01 X55.2081 Y37.6111 F120.00
G01 X55.2157 Y37.6122 F120.00
G01 X55.2233 Y37.6126 F120.00
G01 X55.3006 Y37.6073 F120.00
G01 X55.3120 Y37.6054 F120.00
G01 X55.3211 Y37.6025 F120.00
G01 X55.3315 Y37.5975 F120.00
G01 X55.3525 Y37.5841 F120.00
G01 X55.3596 Y37.5812 F120.00
G01 X55.3663 Y37.5777 F120.00
G01 X55.3764 Y37.5706 F120.00
G01 X55.5053 Y37.4943 F120.00
G01 X55.6463 Y37.4533 F120.00
G01 X55.6723 Y37.4513 F120.00
G01 X56.0977 Y37.4513 F120.00
G01 X56.1237 Y37.4533 F120.00
G01 X56.2647 Y37.4943 F120.00
G01 X56.3936 Y37.5706 F120.00
G01 X56.4006 Y37.5757 F120.00
G01 X56.4070 Y37.5795 F120.00
G01 X56.4174 Y37.5841 F120.00
G01 X56.4265 Y37.5867 F120.00
G01 X56.4584 Y37.6041 F120.00
G01 X56.4654 Y37.6073 F120.00
G01 X56.4726 Y37.6097 F120.00
G01 X56.4781 Y37.6111 F120.00
G01 X56.4857 Y37.6122 F120.00
G01 X56.4933 Y37.6126 F120.00
G01 X56.5706 Y37.6073 F120.00
G01 X56.5820 Y37.6054 F120.00
G01 X56.5911 Y37.6025 F120.00
G01 X56.6015 Y37.5975 F120.00
G01 X56.6225 Y37.5841 F120.00
G01 X56.6296 Y37.5812 F120.00
G01 X56.6363 Y37.5777 F120.00
G01 X56.6464 Y37.5706 F120.00
G01 X56.7753 Y37.4943 F120.00
G01 X56.9163 Y37.4533 F120.00
G01 X56.9423 Y37.4513 F120.00
G01 X57.3677 Y37.4513 F120.00
G01 X57.3937 Y37.4533 F120.00
G01 X57.5347 Y37.4943 F120.00
G01 X57.6636 Y37.5706 F120.00
G01 X57.6706 Y37.5757 F120.00
G01 X57.6770 Y37.5795 F120.00
G01 X57.6874 Y37.5841 F120.00
G01 X57.6965 Y37.5867 F120.00
G01 X57.7284 Y37.6041 F120.00
G01 X57.7354 Y37.6073 F120.00
G01 X57.7426 Y37.6097 F120.00
G01 X57.7481 Y37.6111 F120.00
G01 X57.7557 Y37.6122 F120.00
G01 X57.7633 Y37.6126 F120.00
G01 X57.8406 Y37.6073 F120.00
G01 X57.8520 Y37.6054 F120.00
G01 X57.8611 Y37.6025 F120.00
G01 X57.8715 Y37.5975 F120.00
G01 X57.8925 Y37.5841 F120.00
G01 X57.8996 Y37.5812 F120.00
G01 X57.9063 Y37.5777 F120.00
G01 X57.9164 Y37.5706 F120.00
G01 X58.0453 Y37.4943 F120.00
G01 X58.1863 Y37.4533 F120.00
G01 X58.2123 Y37.4513 F120.00
G01 X58.6377 Y37.4513 F120.00
G01 X58.6637 Y37.4533 F120.00
G01 X58.8047 Y37.4943 F120.00
G01 X58.9336 Y37.5706 F120.00
G01 X58.9406 Y37.5757 F120.00
G01 X58.9470 Y37.5795 F120.00
G01 X58.9574 Y37.5841 F120.00
G01 X58.9665 Y37.5867 F120.00
G01 X58.9984 Y37.6041 F120.00
G01 X59.0054 Y37.6073 F120.00
G01 X59.0126 Y37.6097 F120.00
G01 X59.0181 Y37.6111 F120.00
G01 X59.0257 Y37.6122 F120.00
G01 X59.0333 Y37.6126 F120.00
G01 X59.1106 Y37.6073 F120.00
G01 X59.1201 Y37.6058 F120.00
G01 X59.1311 Y37.6025 F120.00
G01 X59.1415 Y37.5975 F120.00
G01 X59.1625 Y37.5841 F120.00
G01 X59.1696 Y37.5812 F120.00
G01 X59.1763 Y37.5777 F120.00
G01 X59.1864 Y37.5706 F120.00
G01 X59.3153 Y37.4943 F120.00
G01 X59.4563 Y37.4533 F120.00
G01 X59.4823 Y37.4513 F120.00
G01 X59.9077 Y37.4513 F120.00
G01 X59.9337 Y37.4533 F120.00
G01 X60.0747 Y37.4943 F120.00
G01 X60.2036 Y37.5706 F120.00
G01 X60.2106 Y37.5757 F120.00
G01 X60.2170 Y37.5795 F120.00
G01 X60.2274 Y37.5841 F120.00
G01 X60.2365 Y37.5867 F120.00
G01 X60.2684 Y37.6041 F120.00
G01 X60.2754 Y37.6073 F120.00
G01 X60.2826 Y37.6097 F120.00
G01 X60.2881 Y37.6111 F120.00
G01 X60.2957 Y37.6122 F120.00
G01 X60.3033 Y37.6126 F120.00
G01 X60.3806 Y37.6073 F120.00
G01 X60.3920 Y37.6054 F120.00
G01 X60.4011 Y37.6025 F120.00
G01 X60.4115 Y37.5975 F120.00
G01 X60.4325 Y37.5841 F120.00
G01 X60.4396 Y37.5812 F120.00
G01 X60.4463 Y37.5777 F120.00
G01 X60.4564 Y37.5706 F120.00
G01 X60.5853 Y37.4943 F120.00
G01 X60.7263 Y37.4533 F120.00
G01 X60.7523 Y37.4513 F120.00
G01 X60.9362 Y37.4513 F120.00
G01 X61.8582 Y38.3733 F120.00
G01 X61.8582 Y39.7769 F120.00
G01 X61.8593 Y39.7972 F120.00
G01 X61.8622 Y39.8174 F120.00
G01 X61.8670 Y39.8372 F120.00
G01 X61.8691 Y39.8444 F120.00
G01 X61.8755 Y39.8618 F120.00
G01 X61.8850 Y39.8819 F120.00
G01 X61.8964 Y39.9010 F120.00
G01 X61.9082 Y39.9170 F120.00
G01 X61.9082 Y40.4036 F120.00
G01 X61.8866 Y40.4397 F120.00
G01 X61.8822 Y40.4481 F120.00
G01 X61.8795 Y40.4553 F120.00
G01 X61.8775 Y40.4626 F120.00
G01 X61.8762 Y40.4701 F120.00
G01 X61.8757 Y40.4778 F120.00
G01 X61.8784 Y40.5571 F120.00
G01 X61.8800 Y40.5664 F120.00
G01 X61.8821 Y40.5737 F120.00
G01 X61.8849 Y40.5808 F120.00
G01 X61.8884 Y40.5876 F120.00
G01 X61.9204 Y40.6397 F120.00
G01 X61.9246 Y40.6455 F120.00
G01 X61.9306 Y40.6522 F120.00
G01 X63.6426 Y42.3641 F120.00
G01 X63.6497 Y42.3698 F120.00
G01 X63.6558 Y42.3738 F120.00
G01 X63.7204 Y42.4090 F120.00
G01 X63.7309 Y42.4135 F120.00
G01 X63.7420 Y42.4163 F120.00
G01 X63.7515 Y42.4174 F120.00
G01 X63.7591 Y42.4175 F120.00
G01 X63.8345 Y42.4120 F120.00
G01 X63.8420 Y42.4107 F120.00
G01 X63.8512 Y42.4080 F120.00
G01 X63.8582 Y42.4051 F120.00
G01 X63.8649 Y42.4015 F120.00
G01 X63.8713 Y42.3972 F120.00
G01 X63.9302 Y42.3530 F120.00
G01 X63.9384 Y42.3451 F120.00
G01 X63.9454 Y42.3360 F120.00
G01 X63.9492 Y42.3294 F120.00
G01 X63.9524 Y42.3225 F120.00
G01 X63.9788 Y42.2517 F120.00
G01 X63.9803 Y42.2462 F120.00
G01 X63.9817 Y42.2387 F120.00
G01 X63.9827 Y42.2223 F120.00
G01 X63.9827 Y39.8014 F120.00
G01 X63.9819 Y39.7905 F120.00
G01 X63.9796 Y39.7798 F120.00
G01 X63.9594 Y39.7109 F120.00
G01 X63.9567 Y39.7039 F120.00
G01 X63.9534 Y39.6971 F120.00
G01 X63.9472 Y39.6877 F120.00
G01 X63.9294 Y39.6655 F120.00
G01 X63.9239 Y39.6594 F120.00
G01 X63.3010 Y39.0365 F120.00
G01 X63.2956 Y39.0316 F120.00
G01 X63.2912 Y39.0283 F120.00
G01 X63.2851 Y39.0243 F120.00
G01 X63.2205 Y38.9891 F120.00
G01 X63.2117 Y38.9852 F120.00
G01 X63.2008 Y38.9821 F120.00
G01 X63.1913 Y38.9808 F120.00
G01 X63.1799 Y38.9807 F120.00
G01 X63.1083 Y38.9859 F120.00
G01 X63.0989 Y38.9874 F120.00
G01 X63.0915 Y38.9894 F120.00
G01 X63.0810 Y38.9938 F120.00
G01 X63.0712 Y38.9997 F120.00
G01 X63.0122 Y39.0439 F120.00
G01 X63.0064 Y39.0489 F120.00
G01 X63.0000 Y39.0559 F120.00
G01 X62.9935 Y39.0653 F120.00
G01 X62.9885 Y39.0756 F120.00
G01 X62.9627 Y39.1446 F120.00
G01 X62.9598 Y39.1556 F120.00
G01 X62.9587 Y39.1650 F120.00
G01 X62.9582 Y39.1785 F120.00
G01 X62.9582 Y39.8376 F120.00
G01 X62.9562 Y39.8636 F120.00
G01 X62.9152 Y40.0045 F120.00
G01 X62.8415 Y40.1291 F120.00
G01 X62.7391 Y40.2315 F120.00
G01 X62.6691 Y40.2729 F120.00
G01 X62.5618 Y40.1657 F120.00
G01 X62.5618 Y39.9170 F120.00
G01 X62.5736 Y39.9010 F120.00
G01 X62.5850 Y39.8819 F120.00
G01 X62.5945 Y39.8618 F120.00
G01 X62.6009 Y39.8444 F120.00
G01 X62.6026 Y39.8390 F120.00
G01 X62.6066 Y39.8229 F120.00
G01 X62.6081 Y39.8155 F120.00
G01 X62.6107 Y39.7972 F120.00
G01 X62.6118 Y39.7750 F120.00
G01 X62.6118 Y38.0231 F120.00
G01 X62.6109 Y38.0046 F120.00
G01 X62.6102 Y37.9990 F120.00
G01 X62.6074 Y37.9808 F120.00
G01 X62.6030 Y37.9628 F120.00
G01 X62.6015 Y37.9574 F120.00
G01 X62.5952 Y37.9400 F120.00
G01 X62.5859 Y37.9198 F120.00
G01 X62.5736 Y37.8990 F120.00
G01 X62.5603 Y37.8811 F120.00
G01 X62.5454 Y37.8646 F120.00
G01 X62.5317 Y37.8521 F120.00
G01 X62.5259 Y37.8474 F120.00
G01 X62.5094 Y37.8354 F120.00
G01 X62.4936 Y37.8259 F120.00
G01 X62.4885 Y37.8233 F120.00
G01 X62.4735 Y37.8162 F120.00
G01 X62.4683 Y37.8141 F120.00
G01 X62.4508 Y37.8080 F120.00
G01 X62.4329 Y37.8034 F120.00
G01 X62.4274 Y37.8022 F120.00
G01 X62.4091 Y37.7995 F120.00
G01 X62.3869 Y37.7982 F120.00
G01 X62.0850 Y37.7982 F120.00
G01 X62.0757 Y37.7986 F120.00
G01 X60.4525 Y36.1753 F120.00
G01 X60.4095 Y36.1109 F120.00
G01 X60.3622 Y35.9968 F120.00
G01 X60.3381 Y35.8757 F120.00
G01 X60.3380 Y31.1924 F120.00
G01 X60.3373 Y31.1852 F120.00
G01 X60.3355 Y31.1762 F120.00
G01 X60.3153 Y31.1074 F120.00
G01 X60.3113 Y31.0967 F120.00
G01 X60.3067 Y31.0883 F120.00
G01 X60.3012 Y31.0806 F120.00
G01 X60.2933 Y31.0723 F120.00
G01 X60.2376 Y31.0240 F120.00
G01 X60.2315 Y31.0195 F120.00
G01 X60.2250 Y31.0155 F120.00
G01 X60.2198 Y31.0130 F120.00
G01 X60.2127 Y31.0103 F120.00
G01 X60.2016 Y31.0076 F120.00
G01 X60.1286 Y30.9971 F120.00
G01 X60.1170 Y30.9966 F120.00
G01 X60.1053 Y30.9979 F120.00
G01 X60.0847 Y31.0023 F120.00
G01 X60.0218 Y31.0205 F120.00
G01 X60.0218 Y30.6170 F120.00
G01 X60.0336 Y30.6010 F120.00
G01 X60.0450 Y30.5819 F120.00
G01 X60.0545 Y30.5618 F120.00
G01 X60.0609 Y30.5444 F120.00
G01 X60.0630 Y30.5372 F120.00
G01 X60.0678 Y30.5174 F120.00
G01 X60.0707 Y30.4972 F120.00
G01 X60.0718 Y30.4769 F120.00
G01 X60.0718 Y28.7250 F120.00
G01 X60.0707 Y28.7028 F120.00
G01 X60.0681 Y28.6845 F120.00
G01 X60.0666 Y28.6771 F120.00
G01 X60.0626 Y28.6610 F120.00
G01 X60.0609 Y28.6556 F120.00
G01 X60.0545 Y28.6382 F120.00
G01 X60.0450 Y28.6181 F120.00
G01 X60.0336 Y28.5990 F120.00
G01 X60.0218 Y28.5830 F120.00
G01 X60.0218 Y28.1795 F120.00
G01 X60.0745 Y28.1948 F120.00
G01 X60.2033 Y28.2710 F120.00
G01 X60.2102 Y28.2761 F120.00
G01 X60.2184 Y28.2808 F120.00
G01 X60.2271 Y28.2845 F120.00
G01 X60.2362 Y28.2871 F120.00
G01 X60.2681 Y28.3045 F120.00
G01 X60.2768 Y28.3083 F120.00
G01 X60.2822 Y28.3101 F120.00
G01 X60.2897 Y28.3118 F120.00
G01 X60.2972 Y28.3128 F120.00
G01 X60.3048 Y28.3130 F120.00
G01 X60.3803 Y28.3077 F120.00
G01 X60.3897 Y28.3062 F120.00
G01 X60.4008 Y28.3028 F120.00
G01 X60.4111 Y28.2979 F120.00
G01 X60.4329 Y28.2840 F120.00
G01 X60.4396 Y28.2812 F120.00
G01 X60.4463 Y28.2777 F120.00
G01 X60.4564 Y28.2706 F120.00
G01 X60.5853 Y28.1943 F120.00
G01 X60.7263 Y28.1533 F120.00
G01 X60.7523 Y28.1513 F120.00
G01 X61.1777 Y28.1513 F120.00
G01 X61.2037 Y28.1533 F120.00
G01 X61.3447 Y28.1943 F120.00
G01 X61.4736 Y28.2706 F120.00
G01 X61.4806 Y28.2757 F120.00
G01 X61.4887 Y28.2804 F120.00
G01 X61.4974 Y28.2841 F120.00
G01 X61.5065 Y28.2867 F120.00
G01 X61.5384 Y28.3041 F120.00
G01 X61.5472 Y28.3080 F120.00
G01 X61.5544 Y28.3102 F120.00
G01 X61.5600 Y28.3114 F120.00
G01 X61.5676 Y28.3124 F120.00
G01 X61.5752 Y28.3126 F120.00
G01 X61.6506 Y28.3073 F120.00
G01 X61.6620 Y28.3054 F120.00
G01 X61.6711 Y28.3025 F120.00
G01 X61.6815 Y28.2975 F120.00
G01 X61.7025 Y28.2841 F120.00
G01 X61.7096 Y28.2812 F120.00
G01 X61.7163 Y28.2777 F120.00
G01 X61.7264 Y28.2706 F120.00
G01 X61.8553 Y28.1943 F120.00
G01 X61.9963 Y28.1533 F120.00
G01 X62.0223 Y28.1513 F120.00
G01 X62.4477 Y28.1513 F120.00
G01 X62.4737 Y28.1533 F120.00
G01 X62.6147 Y28.1943 F120.00
G01 X62.7394 Y28.2681 F120.00
G01 X62.8419 Y28.3706 F120.00
G01 X62.9157 Y28.4953 F120.00
G01 X62.9567 Y28.6363 F120.00
G01 X62.9587 Y28.6623 F120.00
G01 X62.9587 Y30.5377 F120.00
G01 X62.9567 Y30.5637 F120.00
G01 X62.9157 Y30.7047 F120.00
G01 X62.8889 Y30.7500 F120.00
G01 X62.8842 Y30.7601 F120.00
G01 X62.8819 Y30.7672 F120.00
G01 X62.8642 Y30.8321 F120.00
G01 X62.8627 Y30.8394 F120.00
G01 X62.8619 Y30.8487 F120.00
G01 X62.8619 Y35.8790 F120.00
G01 X62.8624 Y35.8881 F120.00
G01 X62.8645 Y35.8989 F120.00
G01 X62.8847 Y35.9677 F120.00
G01 X62.8887 Y35.9783 F120.00
G01 X62.8931 Y35.9866 F120.00
G01 X62.8974 Y35.9928 F120.00
G01 X62.9152 Y36.0149 F120.00
G01 X62.9207 Y36.0210 F120.00
G01 X65.7369 Y38.8372 F120.00
G01 X65.8056 Y38.9399 F120.00
G01 X65.8528 Y39.0540 F120.00
G01 X65.8769 Y39.1751 F120.00
G01 X65.8771 Y60.0763 F120.00
G01 X65.8780 Y60.0836 F120.00
G01 X65.8795 Y60.0907 F120.00
G01 X65.8997 Y60.1595 F120.00
G01 X65.9029 Y60.1684 F120.00
G01 X65.9072 Y60.1768 F120.00
G01 X65.9113 Y60.1831 F120.00
G01 X65.9343 Y60.2114 F120.00
G01 X67.5965 Y61.8737 F120.00
G01 X67.6652 Y61.9763 F120.00
G01 X67.7124 Y62.0904 F120.00
G01 X67.7365 Y62.2115 F120.00
G01 X67.7365 Y66.9264 F120.00
G01 X67.7124 Y67.0475 F120.00
G01 X67.6652 Y67.1616 F120.00
G01 X67.5965 Y67.2642 F120.00
G01 X65.4046 Y69.4561 F120.00
G01 X65.3020 Y69.5248 F120.00
G01 X65.1879 Y69.5720 F120.00
G01 X65.0668 Y69.5961 F120.00
G01 X62.6200 Y69.5962 F120.00
G01 X62.6109 Y69.5972 F120.00
G01 X62.6020 Y69.5992 F120.00
G01 X62.5332 Y69.6194 F120.00
G01 X62.5261 Y69.6221 F120.00
G01 X62.5210 Y69.6245 F120.00
G01 X62.5161 Y69.6273 F120.00
G01 X62.5099 Y69.6316 F120.00
G01 X62.4862 Y69.6507 F120.00
G01 X62.4511 Y69.6855 F120.00
G01 X62.4452 Y69.6925 F120.00
G01 X62.4402 Y69.7001 F120.00
G01 X62.4058 Y69.7630 F120.00
G01 X62.4011 Y69.7734 F120.00
G01 X62.3979 Y69.7844 F120.00
G01 X62.3966 Y69.7939 F120.00
G01 X62.3965 Y69.8034 F120.00
G01 X62.4016 Y69.8750 F120.00
G01 X62.4032 Y69.8863 F120.00
G01 X62.4065 Y69.8973 F120.00
G01 X62.4105 Y69.9059 F120.00
G01 X62.4156 Y69.9140 F120.00
G01 X62.4586 Y69.9715 F120.00
G01 X62.4648 Y69.9788 F120.00
G01 X62.4704 Y69.9841 F120.00
G01 X62.4750 Y69.9877 F120.00
G01 X62.5218 Y70.0206 F120.00
G01 X62.6794 Y70.1782 F120.00
G01 X62.8073 Y70.3607 F120.00
G01 X62.9015 Y70.5627 F120.00
G01 X62.9591 Y70.7780 F120.00
G01 X62.9786 Y71.0000 F120.00
G01 X62.9591 Y71.2220 F120.00
G01 X62.9015 Y71.4373 F120.00
G01 X62.8073 Y71.6393 F120.00
G01 X62.6794 Y71.8218 F120.00
G01 X62.5218 Y71.9794 F120.00
G01 X62.4798 Y72.0089 F120.00
G01 X62.4742 Y72.0135 F120.00
G01 X62.4702 Y72.0173 F120.00
G01 X62.4654 Y72.0228 F120.00
G01 X62.4195 Y72.0804 F120.00
G01 X62.4135 Y72.0901 F120.00
G01 X62.4090 Y72.1007 F120.00
G01 X62.4069 Y72.1080 F120.00
G01 X62.4056 Y72.1155 F120.00
G01 X62.3978 Y72.1926 F120.00
G01 X62.3981 Y72.2021 F120.00
G01 X62.3996 Y72.2115 F120.00
G01 X62.4022 Y72.2207 F120.00
G01 X62.4052 Y72.2277 F120.00
G01 X62.4384 Y72.2935 F120.00
G01 X62.4446 Y72.3031 F120.00
G01 X62.4507 Y72.3104 F120.00
G01 X62.4578 Y72.3168 F120.00
G01 X62.4655 Y72.3224 F120.00
G01 X62.5306 Y72.3606 F120.00
G01 X62.5407 Y72.3650 F120.00
G01 X62.5514 Y72.3679 F120.00
G01 X62.5871 Y72.3725 F120.00
G01 X62.5965 Y72.3731 F120.00
G01 X82.6590 Y72.3731 F120.00
G01 X82.6681 Y72.3723 F120.00
G01 X82.6770 Y72.3705 F120.00
G01 X82.7458 Y72.3503 F120.00
G01 X82.7530 Y72.3478 F120.00
G01 X82.7615 Y72.3438 F120.00
G01 X82.7694 Y72.3387 F120.00
G01 X82.7962 Y72.3171 F120.00
G01 X83.0043 Y72.1091 F120.00
G01 X83.0092 Y72.1037 F120.00
G01 X83.0125 Y72.0994 F120.00
G01 X83.0165 Y72.0932 F120.00
G01 X83.0518 Y72.0287 F120.00
G01 X83.0549 Y72.0218 F120.00
G01 X83.0568 Y72.0165 F120.00
G01 X83.0582 Y72.0110 F120.00
G01 X83.0596 Y72.0036 F120.00
G01 X83.0627 Y71.9754 F120.00
G01 X83.0631 Y71.9672 F120.00
G01 X83.0631 Y68.9705 F120.00
G01 X83.0626 Y68.9614 F120.00
G01 X83.0605 Y68.9506 F120.00
G01 X83.0403 Y68.8818 F120.00
G01 X83.0379 Y68.8748 F120.00
G01 X83.0348 Y68.8681 F120.00
G01 X83.0301 Y68.8602 F120.00
G01 X83.0245 Y68.8529 F120.00
G01 X82.9875 Y68.8144 F120.00
G01 X82.9819 Y68.8094 F120.00
G01 X82.9775 Y68.8060 F120.00
G01 X82.8682 Y68.7294 F120.00
G01 X82.7510 Y68.6123 F120.00
G01 X82.7441 Y68.6062 F120.00
G01 X82.7397 Y68.6030 F120.00
G01 X82.7335 Y68.5992 F120.00
G01 X82.6722 Y68.5657 F120.00
G01 X82.6617 Y68.5610 F120.00
G01 X82.6545 Y68.5587 F120.00
G01 X82.6470 Y68.5572 F120.00
G01 X82.6394 Y68.5564 F120.00
G01 X82.6337 Y68.5563 F120.00
G01 X82.5583 Y68.5616 F120.00
G01 X82.5507 Y68.5627 F120.00
G01 X82.5433 Y68.5646 F120.00
G01 X82.5327 Y68.5687 F120.00
G01 X82.5227 Y68.5744 F120.00
G01 X82.4622 Y68.6196 F120.00
G01 X82.4563 Y68.6247 F120.00
G01 X82.4523 Y68.6289 F120.00
G01 X82.4453 Y68.6381 F120.00
G01 X82.4230 Y68.6790 F120.00
G01 X82.3757 Y68.8051 F120.00
G01 X82.3027 Y68.9027 F120.00
G01 X82.2051 Y68.9757 F120.00
G01 X82.0897 Y69.0188 F120.00
G01 X82.0438 Y69.0237 F120.00
G01 X80.2562 Y69.0237 F120.00
G01 X80.2103 Y69.0188 F120.00
G01 X80.0949 Y68.9757 F120.00
G01 X79.9973 Y68.9027 F120.00
G01 X79.9243 Y68.8052 F120.00
G01 X79.8812 Y68.6897 F120.00
G01 X79.8763 Y68.6438 F120.00
G01 X79.8763 Y68.5759 F120.00
G01 X79.8752 Y68.5650 F120.00
G01 X79.8732 Y68.5561 F120.00
G01 X79.8529 Y68.4872 F120.00
G01 X79.8503 Y68.4801 F120.00
G01 X79.8459 Y68.4716 F120.00
G01 X79.8394 Y68.4622 F120.00
G01 X79.8315 Y68.4539 F120.00
G01 X79.7758 Y68.4056 F120.00
G01 X79.7697 Y68.4010 F120.00
G01 X79.7648 Y68.3980 F120.00
G01 X79.7561 Y68.3938 F120.00
G01 X79.7452 Y68.3903 F120.00
G01 X79.6918 Y68.3787 F120.00
G01 X79.6810 Y68.3771 F120.00
G01 X70.4383 Y68.3769 F120.00
G01 X70.3171 Y68.3528 F120.00
G01 X70.2031 Y68.3056 F120.00
G01 X70.1004 Y68.2369 F120.00
G01 X68.5131 Y66.6496 F120.00
G01 X68.4444 Y66.5470 F120.00
G01 X68.3972 Y66.4329 F120.00
G01 X68.3731 Y66.3117 F120.00
G01 X68.3731 Y25.6704 F120.00
G01 X68.3725 Y25.6606 F120.00
G01 X68.3706 Y25.6510 F120.00
G01 X68.3505 Y25.5813 F120.00
G01 X68.3478 Y25.5740 F120.00
G01 X68.3439 Y25.5663 F120.00
G01 X68.2900 Y25.4121 F120.00
G01 X68.2717 Y25.2500 F120.00
G01 X68.2900 Y25.0879 F120.00
G01 X68.3438 Y24.9340 F120.00
G01 X68.4306 Y24.7959 F120.00
G01 X68.5459 Y24.6806 F120.00
G01 X68.6840 Y24.5938 F120.00
G01 X68.8379 Y24.5400 F120.00
G01 X69.0000 Y24.5217 F120.00
G01 X69.1621 Y24.5400 F120.00
G01 X69.3160 Y24.5938 F120.00
G01 X69.4541 Y24.6806 F120.00
G01 X69.5694 Y24.7959 F120.00
G01 X69.6562 Y24.9340 F120.00
G01 X69.7100 Y25.0879 F120.00
G01 X69.7283 Y25.2500 F120.00
G01 X69.7100 Y25.4121 F120.00
G01 X69.6560 Y25.5663 F120.00
G01 X69.6522 Y25.5740 F120.00
G01 X69.6495 Y25.5813 F120.00
G01 X69.6294 Y25.6510 F120.00
G01 X69.6275 Y25.6606 F120.00
G01 X69.6269 Y25.6704 F120.00
G01 X69.6269 Y65.9072 F120.00
G01 X69.6277 Y65.9181 F120.00
G01 X69.6295 Y65.9270 F120.00
G01 X69.6497 Y65.9958 F120.00
G01 X69.6522 Y66.0030 F120.00
G01 X69.6562 Y66.0115 F120.00
G01 X69.6602 Y66.0179 F120.00
G01 X69.6802 Y66.0430 F120.00
G01 X69.6857 Y66.0491 F120.00
G01 X70.7022 Y67.0656 F120.00
G01 X70.7091 Y67.0715 F120.00
G01 X70.7168 Y67.0765 F120.00
G01 X70.7797 Y67.1109 F120.00
G01 X70.7865 Y67.1142 F120.00
G01 X70.7953 Y67.1173 F120.00
G01 X70.8027 Y67.1190 F120.00
G01 X70.8367 Y67.1229 F120.00
G01 X79.6810 Y67.1229 F120.00
G01 X79.6882 Y67.1220 F120.00
G01 X79.6954 Y67.1205 F120.00
G01 X79.7642 Y67.1003 F120.00
G01 X79.7749 Y67.0963 F120.00
G01 X79.7833 Y67.0917 F120.00
G01 X79.7925 Y67.0850 F120.00
G01 X79.7993 Y67.0783 F120.00
G01 X79.8476 Y67.0226 F120.00
G01 X79.8542 Y67.0132 F120.00
G01 X79.8586 Y67.0047 F120.00
G01 X79.8624 Y66.9939 F120.00
G01 X79.8755 Y66.9332 F120.00
G01 X79.8763 Y66.9223 F120.00
G01 X79.8763 Y66.8562 F120.00
G01 X79.8812 Y66.8103 F120.00
G01 X79.9243 Y66.6949 F120.00
G01 X79.9973 Y66.5973 F120.00
G01 X80.0948 Y66.5243 F120.00
G01 X80.2103 Y66.4812 F120.00
G01 X80.2562 Y66.4763 F120.00
G01 X82.0438 Y66.4763 F120.00
G01 X82.0897 Y66.4812 F120.00
G01 X82.2051 Y66.5243 F120.00
G01 X82.3027 Y66.5973 F120.00
G01 X82.3757 Y66.6949 F120.00
G01 X82.4209 Y66.8159 F120.00
G01 X82.4237 Y66.8226 F120.00
G01 X82.4272 Y66.8291 F120.00
G01 X82.4313 Y66.8351 F120.00
G01 X82.4744 Y66.8926 F120.00
G01 X82.4807 Y66.8997 F120.00
G01 X82.4894 Y66.9071 F120.00
G01 X82.4975 Y66.9122 F120.00
G01 X82.5061 Y66.9163 F120.00
G01 X82.5733 Y66.9414 F120.00
G01 X82.5843 Y66.9446 F120.00
G01 X82.5937 Y66.9460 F120.00
G01 X82.6051 Y66.9461 F120.00
G01 X82.6165 Y66.9445 F120.00
G01 X82.6866 Y66.9292 F120.00
G01 X82.6940 Y66.9270 F120.00
G01 X82.7029 Y66.9232 F120.00
G01 X82.7129 Y66.9172 F120.00
G01 X82.7427 Y66.8949 F120.00
G01 X82.7483 Y66.8903 F120.00
G01 X82.8682 Y66.7706 F120.00
G01 X82.9825 Y66.6905 F120.00
G01 X82.9896 Y66.6848 F120.00
G01 X82.9948 Y66.6797 F120.00
G01 X83.0432 Y66.6195 F120.00
G01 X83.0473 Y66.6135 F120.00
G01 X83.0509 Y66.6070 F120.00
G01 X83.0545 Y66.5985 F120.00
G01 X83.0570 Y66.5897 F120.00
G01 X83.0667 Y66.5409 F120.00
G01 X83.0677 Y66.5335 F120.00
G01 X83.0681 Y66.5260 F120.00
G01 X83.0681 Y62.9670 F120.00
G01 X83.0673 Y62.9561 F120.00
G01 X83.0650 Y62.9454 F120.00
G01 X83.0442 Y62.8749 F120.00
G01 X83.0398 Y62.8647 F120.00
G01 X83.0371 Y62.8599 F120.00
G01 X83.0330 Y62.8538 F120.00
G01 X83.0270 Y62.8468 F120.00
G01 X82.9938 Y62.8123 F120.00
G01 X82.9884 Y62.8071 F120.00
G01 X82.9825 Y62.8026 F120.00
G01 X82.9299 Y62.7658 F120.00
G01 X82.7832 Y62.6191 F120.00
G01 X82.6642 Y62.4491 F120.00
G01 X82.6067 Y62.3258 F120.00
G01 X82.6014 Y62.3162 F120.00
G01 X82.5947 Y62.3075 F120.00
G01 X82.5473 Y62.2536 F120.00
G01 X82.5404 Y62.2470 F120.00
G01 X82.5343 Y62.2424 F120.00
G01 X82.5295 Y62.2394 F120.00
G01 X82.5227 Y62.2359 F120.00
G01 X82.5120 Y62.2319 F120.00
G01 X82.4429 Y62.2123 F120.00
G01 X82.4336 Y62.2105 F120.00
G01 X82.4241 Y62.2098 F120.00
G01 X82.4127 Y62.2106 F120.00
G01 X82.4033 Y62.2126 F120.00
G01 X82.3328 Y62.2339 F120.00
G01 X82.3258 Y62.2366 F120.00
G01 X82.3191 Y62.2400 F120.00
G01 X82.3097 Y62.2462 F120.00
G01 X82.3013 Y62.2538 F120.00
G01 X82.2543 Y62.3079 F120.00
G01 X82.2484 Y62.3156 F120.00
G01 X82.2427 Y62.3258 F120.00
G01 X82.1938 Y62.4307 F120.00
G01 X81.9322 Y62.1690 F120.00
G01 X81.9577 Y62.0975 F120.00
G01 X81.9777 Y62.0176 F120.00
G01 X81.9898 Y61.9362 F120.00
G01 X81.9938 Y61.8540 F120.00
G01 X81.9898 Y61.7718 F120.00
G01 X81.9777 Y61.6904 F120.00
G01 X81.9577 Y61.6105 F120.00
G01 X81.9322 Y61.5390 F120.00
G01 X82.1938 Y61.2773 F120.00
G01 X82.2427 Y61.3822 F120.00
G01 X82.2452 Y61.3871 F120.00
G01 X82.2491 Y61.3933 F120.00
G01 X82.2547 Y61.4005 F120.00
G01 X82.3035 Y61.4558 F120.00
G01 X82.3076 Y61.4597 F120.00
G01 X82.3136 Y61.4645 F120.00
G01 X82.3183 Y61.4677 F120.00
G01 X82.3250 Y61.4713 F120.00
G01 X82.3356 Y61.4755 F120.00
G01 X82.4065 Y61.4957 F120.00
G01 X82.4177 Y61.4978 F120.00
G01 X82.4235 Y61.4981 F120.00
G01 X82.4311 Y61.4980 F120.00
G01 X82.4386 Y61.4971 F120.00
G01 X82.4461 Y61.4954 F120.00
G01 X82.5201 Y61.4728 F120.00
G01 X82.5287 Y61.4689 F120.00
G01 X82.5351 Y61.4651 F120.00
G01 X82.5426 Y61.4594 F120.00
G01 X82.5481 Y61.4542 F120.00
G01 X82.5951 Y61.4001 F120.00
G01 X82.6021 Y61.3907 F120.00
G01 X82.6067 Y61.3822 F120.00
G01 X82.6642 Y61.2589 F120.00
G01 X82.7832 Y61.0889 F120.00
G01 X82.9299 Y60.9422 F120.00
G01 X82.9840 Y60.9044 F120.00
G01 X82.9923 Y60.8973 F120.00
G01 X82.9984 Y60.8905 F120.00
G01 X83.0432 Y60.8345 F120.00
G01 X83.0483 Y60.8268 F120.00
G01 X83.0525 Y60.8186 F120.00
G01 X83.0556 Y60.8099 F120.00
G01 X83.0574 Y60.8028 F120.00
G01 X83.0670 Y60.7540 F120.00
G01 X83.0681 Y60.7428 F120.00
G01 X83.0681 Y60.2433 F120.00
G01 X83.0922 Y60.1221 F120.00
G01 X83.1394 Y60.0081 F120.00
G01 X83.2081 Y59.9054 F120.00
G01 X84.1504 Y58.9631 F120.00
G01 X84.2530 Y58.8944 F120.00
G01 X84.3671 Y58.8472 F120.00
G01 X84.4883 Y58.8231 F120.00
G01 X98.3117 Y58.8231 F120.00
G01 X98.4329 Y58.8472 F120.00
G01 X98.5469 Y58.8944 F120.00
G01 X98.6496 Y58.9631 F120.00
G01 X99.4219 Y59.7354 F120.00
G01 X99.4906 Y59.8381 F120.00
G01 X99.5378 Y59.9521 F120.00
G01 X99.5619 Y60.0733 F120.00
G01 X99.5619 Y60.7428 F120.00
G01 X99.5627 Y60.7519 F120.00
G01 X99.5645 Y60.7608 F120.00
G01 X99.5858 Y60.8331 F120.00
G01 X99.5886 Y60.8400 F120.00
G01 X99.5910 Y60.8449 F120.00
G01 X99.5949 Y60.8512 F120.00
G01 X99.5982 Y60.8557 F120.00
G01 X99.6030 Y60.8612 F120.00
G01 X99.6375 Y60.8971 F120.00
G01 X99.6460 Y60.9044 F120.00
G01 X99.7001 Y60.9422 F120.00
G01 X99.8468 Y61.0889 F120.00
G01 X99.9658 Y61.2589 F120.00
G01 X100.0535 Y61.4469 F120.00
G01 X100.1071 Y61.6473 F120.00
G01 X100.1252 Y61.8540 F120.00
G01 X100.1071 Y62.0607 F120.00
G01 X100.0535 Y62.2611 F120.00
G01 X99.9658 Y62.4491 F120.00
G01 X99.8468 Y62.6191 F120.00
G01 X99.7001 Y62.7658 F120.00
G01 X99.5301 Y62.8848 F120.00
G01 X99.3421 Y62.9725 F120.00
G01 X99.1417 Y63.0261 F120.00
G01 X98.9350 Y63.0442 F120.00
G01 X98.7283 Y63.0261 F120.00
G01 X98.5279 Y62.9725 F120.00
G01 X98.3399 Y62.8848 F120.00
G01 X98.1699 Y62.7658 F120.00
G01 X98.0232 Y62.6191 F120.00
G01 X97.9042 Y62.4491 F120.00
G01 X97.8470 Y62.3264 F120.00
G01 X97.8417 Y62.3168 F120.00
G01 X97.8350 Y62.3081 F120.00
G01 X97.7876 Y62.2542 F120.00
G01 X97.7807 Y62.2476 F120.00
G01 X97.7714 Y62.2409 F120.00
G01 X97.7630 Y62.2365 F120.00
G01 X97.7541 Y62.2331 F120.00
G01 X97.6795 Y62.2120 F120.00
G01 X97.6720 Y62.2108 F120.00
G01 X97.6663 Y62.2105 F120.00
G01 X97.6586 Y62.2106 F120.00
G01 X97.6511 Y62.2115 F120.00
G01 X97.6418 Y62.2137 F120.00
G01 X97.5696 Y62.2358 F120.00
G01 X97.5627 Y62.2388 F120.00
G01 X97.5546 Y62.2435 F120.00
G01 X97.5485 Y62.2480 F120.00
G01 X97.5429 Y62.2530 F120.00
G01 X97.4946 Y62.3085 F120.00
G01 X97.4877 Y62.3179 F120.00
G01 X97.4830 Y62.3264 F120.00
G01 X97.4259 Y62.4489 F120.00
G01 X97.3068 Y62.6191 F120.00
G01 X97.1601 Y62.7658 F120.00
G01 X96.9901 Y62.8848 F120.00
G01 X96.8021 Y62.9725 F120.00
G01 X96.6017 Y63.0261 F120.00
G01 X96.3950 Y63.0442 F120.00
G01 X96.1883 Y63.0261 F120.00
G01 X95.9879 Y62.9725 F120.00
G01 X95.7999 Y62.8848 F120.00
G01 X95.6299 Y62.7658 F120.00
G01 X95.4832 Y62.6191 F120.00
G01 X95.3642 Y62.4491 F120.00
G01 X95.3070 Y62.3264 F120.00
G01 X95.3017 Y62.3168 F120.00
G01 X95.2950 Y62.3081 F120.00
G01 X95.2488 Y62.2556 F120.00
G01 X95.2435 Y62.2502 F120.00
G01 X95.2392 Y62.2464 F120.00
G01 X95.2330 Y62.2420 F120.00
G01 X95.2264 Y62.2381 F120.00
G01 X95.2195 Y62.2350 F120.00
G01 X95.2141 Y62.2331 F120.00
G01 X95.1414 Y62.2124 F120.00
G01 X95.1320 Y62.2108 F120.00
G01 X95.1205 Y62.2105 F120.00
G01 X95.1111 Y62.2115 F120.00
G01 X95.1036 Y62.2132 F120.00
G01 X95.0296 Y62.2358 F120.00
G01 X95.0210 Y62.2397 F120.00
G01 X95.0130 Y62.2446 F120.00
G01 X95.0057 Y62.2504 F120.00
G01 X94.9991 Y62.2571 F120.00
G01 X94.9546 Y62.3085 F120.00
G01 X94.9477 Y62.3179 F120.00
G01 X94.9430 Y62.3264 F120.00
G01 X94.8859 Y62.4489 F120.00
G01 X94.7668 Y62.6191 F120.00
G01 X94.6201 Y62.7658 F120.00
G01 X94.5660 Y62.8036 F120.00
G01 X94.5577 Y62.8107 F120.00
G01 X94.5516 Y62.8175 F120.00
G01 X94.5057 Y62.8750 F120.00
G01 X94.5017 Y62.8812 F120.00
G01 X94.4983 Y62.8877 F120.00
G01 X94.4955 Y62.8946 F120.00
G01 X94.4939 Y62.8998 F120.00
G01 X94.4825 Y62.9577 F120.00
G01 X94.4819 Y62.9670 F120.00
G01 X94.4819 Y66.5349 F120.00
G01 X94.4827 Y66.5440 F120.00
G01 X94.4845 Y66.5529 F120.00
G01 X94.5058 Y66.6252 F120.00
G01 X94.5086 Y66.6321 F120.00
G01 X94.5120 Y66.6386 F120.00
G01 X94.5159 Y66.6448 F120.00
G01 X94.5205 Y66.6506 F120.00
G01 X94.5562 Y66.6878 F120.00
G01 X94.5645 Y66.6953 F120.00
G01 X94.6718 Y66.7706 F120.00
G01 X94.8294 Y66.9282 F120.00
G01 X94.9573 Y67.1107 F120.00
G01 X95.0515 Y67.3127 F120.00
G01 X95.1091 Y67.5280 F120.00
G01 X95.1286 Y67.7500 F120.00
G01 X95.1091 Y67.9720 F120.00
G01 X95.0515 Y68.1873 F120.00
G01 X94.9573 Y68.3893 F120.00
G01 X94.8294 Y68.5718 F120.00
G01 X94.6718 Y68.7294 F120.00
G01 X94.4893 Y68.8573 F120.00
G01 X94.2873 Y68.9515 F120.00
G01 X94.0720 Y69.0091 F120.00
G01 X93.8500 Y69.0286 F120.00
G01 X93.6280 Y69.0091 F120.00
G01 X93.4127 Y68.9515 F120.00
G01 X93.2107 Y68.8573 F120.00
G01 X93.0282 Y68.7294 F120.00
G01 X92.8706 Y68.5718 F120.00
G01 X92.7445 Y68.3918 F120.00
G01 X92.7388 Y68.3846 F120.00
G01 X92.7323 Y68.3782 F120.00
G01 X92.6734 Y68.3311 F120.00
G01 X92.6639 Y68.3248 F120.00
G01 X92.6552 Y68.3208 F120.00
G01 X92.6462 Y68.3178 F120.00
G01 X92.6368 Y68.3160 F120.00
G01 X92.5654 Y68.3086 F120.00
G01 X92.5559 Y68.3082 F120.00
G01 X92.5483 Y68.3088 F120.00
G01 X92.5408 Y68.3101 F120.00
G01 X92.5334 Y68.3121 F120.00
G01 X92.5263 Y68.3148 F120.00
G01 X92.4588 Y68.3489 F120.00
G01 X92.4509 Y68.3538 F120.00
G01 X92.4436 Y68.3596 F120.00
G01 X92.4371 Y68.3663 F120.00
G01 X92.4167 Y68.3902 F120.00
G01 X92.2894 Y68.5718 F120.00
G01 X92.1318 Y68.7294 F120.00
G01 X91.9493 Y68.8573 F120.00
G01 X91.7473 Y68.9515 F120.00
G01 X91.5320 Y69.0091 F120.00
G01 X91.3100 Y69.0286 F120.00
G01 X91.0880 Y69.0091 F120.00
G01 X90.8727 Y68.9515 F120.00
G01 X90.6707 Y68.8573 F120.00
G01 X90.4882 Y68.7294 F120.00
G01 X90.3306 Y68.5718 F120.00
G01 X90.2045 Y68.3918 F120.00
G01 X90.1976 Y68.3833 F120.00
G01 X90.1909 Y68.3770 F120.00
G01 X90.1334 Y68.3311 F120.00
G01 X90.1255 Y68.3258 F120.00
G01 X90.1152 Y68.3208 F120.00
G01 X90.1062 Y68.3178 F120.00
G01 X90.0968 Y68.3160 F120.00
G01 X90.0254 Y68.3086 F120.00
G01 X90.0159 Y68.3082 F120.00
G01 X90.0083 Y68.3088 F120.00
G01 X90.0008 Y68.3101 F120.00
G01 X89.9934 Y68.3121 F120.00
G01 X89.9863 Y68.3148 F120.00
G01 X89.9188 Y68.3489 F120.00
G01 X89.9109 Y68.3538 F120.00
G01 X89.9036 Y68.3596 F120.00
G01 X89.8971 Y68.3663 F120.00
G01 X89.8767 Y68.3902 F120.00
G01 X89.7494 Y68.5718 F120.00
G01 X89.5918 Y68.7294 F120.00
G01 X89.4093 Y68.8573 F120.00
G01 X89.2073 Y68.9515 F120.00
G01 X88.9920 Y69.0091 F120.00
G01 X88.7700 Y69.0286 F120.00
G01 X88.5480 Y69.0091 F120.00
G01 X88.3327 Y68.9515 F120.00
G01 X88.1307 Y68.8573 F120.00
G01 X87.9482 Y68.7294 F120.00
G01 X87.7906 Y68.5718 F120.00
G01 X87.6645 Y68.3918 F120.00
G01 X87.6576 Y68.3833 F120.00
G01 X87.6509 Y68.3770 F120.00
G01 X87.5934 Y68.3311 F120.00
G01 X87.5855 Y68.3258 F120.00
G01 X87.5752 Y68.3208 F120.00
G01 X87.5662 Y68.3178 F120.00
G01 X87.5568 Y68.3160 F120.00
G01 X87.4854 Y68.3086 F120.00
G01 X87.4759 Y68.3082 F120.00
G01 X87.4683 Y68.3088 F120.00
G01 X87.4608 Y68.3101 F120.00
G01 X87.4534 Y68.3121 F120.00
G01 X87.4463 Y68.3148 F120.00
G01 X87.3788 Y68.3489 F120.00
G01 X87.3709 Y68.3538 F120.00
G01 X87.3636 Y68.3596 F120.00
G01 X87.3571 Y68.3663 F120.00
G01 X87.3367 Y68.3902 F120.00
G01 X87.2094 Y68.5718 F120.00
G01 X87.0518 Y68.7294 F120.00
G01 X86.8693 Y68.8573 F120.00
G01 X86.6673 Y68.9515 F120.00
G01 X86.4520 Y69.0091 F120.00
G01 X86.2300 Y69.0286 F120.00
G01 X86.0080 Y69.0091 F120.00
G01 X85.7927 Y68.9515 F120.00
G01 X85.5907 Y68.8573 F120.00
G01 X85.4082 Y68.7294 F120.00
G01 X85.2506 Y68.5718 F120.00
G01 X85.1245 Y68.3918 F120.00
G01 X85.1188 Y68.3846 F120.00
G01 X85.1137 Y68.3794 F120.00
G01 X85.1095 Y68.3759 F120.00
G01 X85.0550 Y68.3322 F120.00
G01 X85.0488 Y68.3278 F120.00
G01 X85.0422 Y68.3239 F120.00
G01 X85.0334 Y68.3201 F120.00
G01 X85.0262 Y68.3178 F120.00
G01 X85.0187 Y68.3163 F120.00
G01 X84.9435 Y68.3085 F120.00
G01 X84.9359 Y68.3082 F120.00
G01 X84.9283 Y68.3088 F120.00
G01 X84.9171 Y68.3110 F120.00
G01 X84.9063 Y68.3148 F120.00
G01 X84.8405 Y68.3480 F120.00
G01 X84.8324 Y68.3527 F120.00
G01 X84.8250 Y68.3584 F120.00
G01 X84.8196 Y68.3635 F120.00
G01 X84.7967 Y68.3902 F120.00
G01 X84.6694 Y68.5718 F120.00
G01 X84.5118 Y68.7294 F120.00
G01 X84.4010 Y68.8071 F120.00
G01 X84.3940 Y68.8129 F120.00
G01 X84.3877 Y68.8195 F120.00
G01 X84.3418 Y68.8770 F120.00
G01 X84.3377 Y68.8830 F120.00
G01 X84.3341 Y68.8895 F120.00
G01 X84.3305 Y68.8980 F120.00
G01 X84.3280 Y68.9068 F120.00
G01 X84.3175 Y68.9612 F120.00
G01 X84.3169 Y68.9705 F120.00
G01 X84.3169 Y72.3717 F120.00
G01 X84.2928 Y72.4929 F120.00
G01 X84.2456 Y72.6069 F120.00
G01 X84.1769 Y72.7096 F120.00
G01 X83.3996 Y73.4869 F120.00
G01 X83.2969 Y73.5556 F120.00
G01 X83.1829 Y73.6028 F120.00
G01 X83.0617 Y73.6269 F120.00
G01 X46.9383 Y73.6269 F120.00
G01 X46.8171 Y73.6028 F120.00
G01 X46.7031 Y73.5556 F120.00
G01 X46.6004 Y73.4869 F120.00
G01 X44.7978 Y71.6844 F120.00
G01 X44.7909 Y71.6785 F120.00
G01 X44.7832 Y71.6735 F120.00
G01 X44.7203 Y71.6391 F120.00
G01 X44.7135 Y71.6358 F120.00
G01 X44.7047 Y71.6327 F120.00
G01 X44.6955 Y71.6307 F120.00
G01 X44.6613 Y71.6270 F120.00
G01 X10.1883 Y71.6269 F120.00
G01 X10.0671 Y71.6028 F120.00
G01 X9.9531 Y71.5556 F120.00
G01 X9.8504 Y71.4869 F120.00
G01 X8.8131 Y70.4496 F120.00
G01 X8.7444 Y70.3469 F120.00
G01 X8.6972 Y70.2329 F120.00
G01 X8.6731 Y70.1117 F120.00
G01 X8.6731 Y65.7383 F120.00
G01 X8.6972 Y65.6171 F120.00
G01 X8.7444 Y65.5031 F120.00
G01 X8.8131 Y65.4004 F120.00
G01 X9.3004 Y64.9131 F120.00
G01 X9.4031 Y64.8444 F120.00
G01 X9.5171 Y64.7972 F120.00
G01 X9.6383 Y64.7731 F120.00
G01 X12.0617 Y64.7731 F120.00
G01 X12.1829 Y64.7972 F120.00
G01 X12.2969 Y64.8444 F120.00
G01 X12.3996 Y64.9131 F120.00
G01 X12.6843 Y65.1975 F120.00
G01 X12.6901 Y65.2020 F120.00
G01 X12.6962 Y65.2059 F120.00
G01 X12.7591 Y65.2403 F120.00
G01 X12.7660 Y65.2436 F120.00
G01 X12.7732 Y65.2463 F120.00
G01 X12.7824 Y65.2485 F120.00
G01 X12.7900 Y65.2495 F120.00
G01 X12.7976 Y65.2497 F120.00
G01 X12.8730 Y65.2444 F120.00
G01 X12.8806 Y65.2433 F120.00
G01 X12.8898 Y65.2408 F120.00
G01 X12.9003 Y65.2365 F120.00
G01 X12.9101 Y65.2305 F120.00
G01 X12.9691 Y65.1864 F120.00
G01 X12.9749 Y65.1814 F120.00
G01 X12.9813 Y65.1743 F120.00
G01 X12.9868 Y65.1666 F120.00
G01 X12.9921 Y65.1564 F120.00
G01 X13.0186 Y65.0857 F120.00
G01 X13.0207 Y65.0784 F120.00
G01 X13.0221 Y65.0709 F120.00
G01 X13.0226 Y65.0652 F120.00
G01 X13.0231 Y65.0518 F120.00
G01 X13.0231 Y63.0530 F120.00
G01 X13.0223 Y63.0421 F120.00
G01 X13.0205 Y63.0332 F120.00
G01 X12.9998 Y62.9626 F120.00
G01 X12.9972 Y62.9557 F120.00
G01 X12.9940 Y62.9491 F120.00
G01 X12.9901 Y62.9428 F120.00
G01 X12.9868 Y62.9383 F120.00
G01 X12.9820 Y62.9328 F120.00
G01 X12.9475 Y62.8969 F120.00
G01 X12.9390 Y62.8896 F120.00
G01 X12.8849 Y62.8518 F120.00
G01 X12.7382 Y62.7051 F120.00
G01 X12.6192 Y62.5351 F120.00
G01 X12.5617 Y62.4118 F120.00
G01 X12.5564 Y62.4022 F120.00
G01 X12.5497 Y62.3935 F120.00
G01 X12.5023 Y62.3396 F120.00
G01 X12.4954 Y62.3330 F120.00
G01 X12.4877 Y62.3274 F120.00
G01 X12.4777 Y62.3219 F120.00
G01 X12.4670 Y62.3179 F120.00
G01 X12.3979 Y62.2983 F120.00
G01 X12.3886 Y62.2965 F120.00
G01 X12.3791 Y62.2958 F120.00
G01 X12.3677 Y62.2966 F120.00
G01 X12.3583 Y62.2986 F120.00
G01 X12.2878 Y62.3199 F120.00
G01 X12.2808 Y62.3226 F120.00
G01 X12.2741 Y62.3260 F120.00
G01 X12.2647 Y62.3322 F120.00
G01 X12.2563 Y62.3398 F120.00
G01 X12.2093 Y62.3939 F120.00
G01 X12.2034 Y62.4016 F120.00
G01 X12.1977 Y62.4118 F120.00
G01 X12.1488 Y62.5167 F120.00
G01 X11.8872 Y62.2550 F120.00
G01 X11.9127 Y62.1835 F120.00
G01 X11.9327 Y62.1036 F120.00
G01 X11.9448 Y62.0222 F120.00
G01 X11.9488 Y61.9400 F120.00
G01 X11.9448 Y61.8578 F120.00
G01 X11.9327 Y61.7764 F120.00
G01 X11.9127 Y61.6965 F120.00
G01 X11.8872 Y61.6250 F120.00
G01 X12.1488 Y61.3633 F120.00
G01 X12.1977 Y61.4682 F120.00
G01 X12.2011 Y61.4747 F120.00
G01 X12.2051 Y61.4808 F120.00
G01 X12.2097 Y61.4865 F120.00
G01 X12.2559 Y61.5390 F120.00
G01 X12.2612 Y61.5444 F120.00
G01 X12.2670 Y61.5494 F120.00
G01 X12.2750 Y61.5546 F120.00
G01 X12.2817 Y61.5581 F120.00
G01 X12.2906 Y61.5615 F120.00
G01 X12.3597 Y61.5812 F120.00
G01 X12.3671 Y61.5830 F120.00
G01 X12.3746 Y61.5839 F120.00
G01 X12.3842 Y61.5841 F120.00
G01 X12.3936 Y61.5831 F120.00
G01 X12.4029 Y61.5809 F120.00
G01 X12.4716 Y61.5601 F120.00
G01 X12.4803 Y61.5566 F120.00
G01 X12.4886 Y61.5521 F120.00
G01 X12.4976 Y61.5454 F120.00
G01 X12.5044 Y61.5389 F120.00
G01 X12.5501 Y61.4861 F120.00
G01 X12.5560 Y61.4784 F120.00
G01 X12.5609 Y61.4700 F120.00
G01 X12.6192 Y61.3449 F120.00
G01 X12.7382 Y61.1749 F120.00
G01 X12.8849 Y61.0282 F120.00
G01 X12.9390 Y60.9904 F120.00
G01 X12.9446 Y60.9858 F120.00
G01 X12.9486 Y60.9820 F120.00
G01 X12.9534 Y60.9765 F120.00
G01 X12.9993 Y60.9190 F120.00
G01 X13.0051 Y60.9096 F120.00
G01 X13.0075 Y60.9046 F120.00
G01 X13.0101 Y60.8977 F120.00
G01 X13.0124 Y60.8888 F120.00
G01 X13.0217 Y60.8418 F120.00
G01 X13.0225 Y60.8363 F120.00
G01 X13.0231 Y60.8288 F120.00
G01 X13.0231 Y60.0883 F120.00
G01 X13.0472 Y59.9671 F120.00
G01 X13.0944 Y59.8531 F120.00
G01 X13.1631 Y59.7504 F120.00
G01 X13.8100 Y59.1035 F120.00
G01 X13.9127 Y59.0348 F120.00
G01 X14.0267 Y58.9876 F120.00
G01 X14.1479 Y58.9635 F120.00
G01 X28.4521 Y58.9635 F120.00
G01 X28.5733 Y58.9876 F120.00
G01 X28.6873 Y59.0348 F120.00
G01 X28.7900 Y59.1035 F120.00
G01 X29.3769 Y59.6904 F120.00
G01 X29.4456 Y59.7931 F120.00
G01 X29.4928 Y59.9071 F120.00
G01 X29.5169 Y60.0283 F120.00
G01 X29.5169 Y60.8270 F120.00
G01 X29.5174 Y60.8361 F120.00
G01 X29.5195 Y60.8468 F120.00
G01 X29.5414 Y60.9209 F120.00
G01 X29.5444 Y60.9276 F120.00
G01 X29.5479 Y60.9341 F120.00
G01 X29.5520 Y60.9402 F120.00
G01 X29.5555 Y60.9445 F120.00
G01 X29.5912 Y60.9817 F120.00
G01 X29.5966 Y60.9869 F120.00
G01 X29.6025 Y60.9914 F120.00
G01 X29.6551 Y61.0282 F120.00
G01 X29.8018 Y61.1749 F120.00
G01 X29.9208 Y61.3449 F120.00
G01 X30.0085 Y61.5329 F120.00
G01 X30.0621 Y61.7333 F120.00
G01 X30.0802 Y61.9400 F120.00
G01 X30.0621 Y62.1467 F120.00
G01 X30.0085 Y62.3471 F120.00
G01 X29.9208 Y62.5351 F120.00
G01 X29.8018 Y62.7051 F120.00
G01 X29.6551 Y62.8518 F120.00
G01 X29.4851 Y62.9708 F120.00
G01 X29.2971 Y63.0585 F120.00
G01 X29.0967 Y63.1121 F120.00
G01 X28.8900 Y63.1302 F120.00
G01 X28.6833 Y63.1121 F120.00
G01 X28.4829 Y63.0585 F120.00
G01 X28.2949 Y62.9708 F120.00
G01 X28.1249 Y62.8518 F120.00
G01 X27.9782 Y62.7051 F120.00
G01 X27.8592 Y62.5351 F120.00
G01 X27.8020 Y62.4124 F120.00
G01 X27.7967 Y62.4028 F120.00
G01 X27.7900 Y62.3941 F120.00
G01 X27.7413 Y62.3388 F120.00
G01 X27.7357 Y62.3336 F120.00
G01 X27.7280 Y62.3280 F120.00
G01 X27.7214 Y62.3241 F120.00
G01 X27.7127 Y62.3203 F120.00
G01 X27.6401 Y62.2994 F120.00
G01 X27.6326 Y62.2976 F120.00
G01 X27.6251 Y62.2967 F120.00
G01 X27.6175 Y62.2964 F120.00
G01 X27.6098 Y62.2970 F120.00
G01 X27.6023 Y62.2983 F120.00
G01 X27.5299 Y62.3199 F120.00
G01 X27.5211 Y62.3232 F120.00
G01 X27.5128 Y62.3275 F120.00
G01 X27.5050 Y62.3328 F120.00
G01 X27.4979 Y62.3390 F120.00
G01 X27.4496 Y62.3945 F120.00
G01 X27.4427 Y62.4039 F120.00
G01 X27.4380 Y62.4124 F120.00
G01 X27.3808 Y62.5351 F120.00
G01 X27.2618 Y62.7051 F120.00
G01 X27.1151 Y62.8518 F120.00
G01 X26.9451 Y62.9708 F120.00
G01 X26.7571 Y63.0585 F120.00
G01 X26.5567 Y63.1121 F120.00
G01 X26.3500 Y63.1302 F120.00
G01 X26.1433 Y63.1121 F120.00
G01 X25.9429 Y63.0585 F120.00
G01 X25.7549 Y62.9708 F120.00
G01 X25.5849 Y62.8518 F120.00
G01 X25.4382 Y62.7051 F120.00
G01 X25.3192 Y62.5351 F120.00
G01 X25.2620 Y62.4124 F120.00
G01 X25.2595 Y62.4075 F120.00
G01 X25.2556 Y62.4013 F120.00
G01 X25.2500 Y62.3941 F120.00
G01 X25.2013 Y62.3388 F120.00
G01 X25.1957 Y62.3336 F120.00
G01 X25.1912 Y62.3301 F120.00
G01 X25.1814 Y62.3241 F120.00
G01 X25.1745 Y62.3210 F120.00
G01 X25.1691 Y62.3191 F120.00
G01 X25.0945 Y62.2980 F120.00
G01 X25.0870 Y62.2968 F120.00
G01 X25.0775 Y62.2964 F120.00
G01 X25.0698 Y62.2970 F120.00
G01 X25.0605 Y62.2987 F120.00
G01 X24.9881 Y62.3205 F120.00
G01 X24.9794 Y62.3240 F120.00
G01 X24.9712 Y62.3285 F120.00
G01 X24.9635 Y62.3340 F120.00
G01 X24.9553 Y62.3417 F120.00
G01 X24.9096 Y62.3945 F120.00
G01 X24.9037 Y62.4022 F120.00
G01 X24.8989 Y62.4106 F120.00
G01 X24.8408 Y62.5351 F120.00
G01 X24.7218 Y62.7051 F120.00
G01 X24.5751 Y62.8518 F120.00
G01 X24.5210 Y62.8896 F120.00
G01 X24.5140 Y62.8955 F120.00
G01 X24.5077 Y62.9021 F120.00
G01 X24.4618 Y62.9595 F120.00
G01 X24.4577 Y62.9656 F120.00
G01 X24.4541 Y62.9721 F120.00
G01 X24.4505 Y62.9806 F120.00
G01 X24.4480 Y62.9894 F120.00
G01 X24.4375 Y63.0437 F120.00
G01 X24.4369 Y63.0530 F120.00
G01 X24.4370 Y66.5052 F120.00
G01 X24.4380 Y66.5143 F120.00
G01 X24.4395 Y66.5214 F120.00
G01 X24.4608 Y66.5937 F120.00
G01 X24.4636 Y66.6005 F120.00
G01 X24.4670 Y66.6071 F120.00
G01 X24.4709 Y66.6133 F120.00
G01 X24.4768 Y66.6204 F120.00
G01 X24.5125 Y66.6576 F120.00
G01 X24.5195 Y66.6638 F120.00
G01 X24.6718 Y66.7706 F120.00
G01 X24.8294 Y66.9282 F120.00
G01 X24.9573 Y67.1107 F120.00
G01 X25.0515 Y67.3127 F120.00
G01 X25.1091 Y67.5280 F120.00
G01 X25.1286 Y67.7500 F120.00
G01 X25.1091 Y67.9720 F120.00
G01 X25.0515 Y68.1873 F120.00
G01 X24.9573 Y68.3893 F120.00
G01 X24.8294 Y68.5718 F120.00
G01 X24.6718 Y68.7294 F120.00
G01 X24.4893 Y68.8573 F120.00
G01 X24.2873 Y68.9515 F120.00
G01 X24.0720 Y69.0091 F120.00
G01 X23.8500 Y69.0286 F120.00
G01 X23.6280 Y69.0091 F120.00
G01 X23.4127 Y68.9515 F120.00
G01 X23.2107 Y68.8573 F120.00
G01 X23.0282 Y68.7294 F120.00
G01 X22.8706 Y68.5718 F120.00
G01 X22.7445 Y68.3918 F120.00
G01 X22.7388 Y68.3846 F120.00
G01 X22.7323 Y68.3782 F120.00
G01 X22.6734 Y68.3311 F120.00
G01 X22.6639 Y68.3248 F120.00
G01 X22.6552 Y68.3208 F120.00
G01 X22.6462 Y68.3178 F120.00
G01 X22.6368 Y68.3160 F120.00
G01 X22.5654 Y68.3086 F120.00
G01 X22.5559 Y68.3082 F120.00
G01 X22.5483 Y68.3088 F120.00
G01 X22.5408 Y68.3101 F120.00
G01 X22.5334 Y68.3121 F120.00
G01 X22.5263 Y68.3148 F120.00
G01 X22.4588 Y68.3489 F120.00
G01 X22.4509 Y68.3538 F120.00
G01 X22.4436 Y68.3596 F120.00
G01 X22.4371 Y68.3663 F120.00
G01 X22.4167 Y68.3902 F120.00
G01 X22.2894 Y68.5718 F120.00
G01 X22.1318 Y68.7294 F120.00
G01 X21.9493 Y68.8573 F120.00
G01 X21.7473 Y68.9515 F120.00
G01 X21.5320 Y69.0091 F120.00
G01 X21.3100 Y69.0286 F120.00
G01 X21.0880 Y69.0091 F120.00
G01 X20.8727 Y68.9515 F120.00
G01 X20.6707 Y68.8573 F120.00
G01 X20.4882 Y68.7294 F120.00
G01 X20.3306 Y68.5718 F120.00
G01 X20.2045 Y68.3918 F120.00
G01 X20.1976 Y68.3833 F120.00
G01 X20.1909 Y68.3770 F120.00
G01 X20.1334 Y68.3311 F120.00
G01 X20.1239 Y68.3248 F120.00
G01 X20.1152 Y68.3208 F120.00
G01 X20.1062 Y68.3178 F120.00
G01 X20.0968 Y68.3160 F120.00
G01 X20.0254 Y68.3086 F120.00
G01 X20.0159 Y68.3082 F120.00
G01 X20.0083 Y68.3088 F120.00
G01 X20.0008 Y68.3101 F120.00
G01 X19.9934 Y68.3121 F120.00
G01 X19.9863 Y68.3148 F120.00
G01 X19.9188 Y68.3489 F120.00
G01 X19.9109 Y68.3538 F120.00
G01 X19.9036 Y68.3596 F120.00
G01 X19.8971 Y68.3663 F120.00
G01 X19.8767 Y68.3902 F120.00
G01 X19.7494 Y68.5718 F120.00
G01 X19.5918 Y68.7294 F120.00
G01 X19.4093 Y68.8573 F120.00
G01 X19.2073 Y68.9515 F120.00
G01 X18.9920 Y69.0091 F120.00
G01 X18.7700 Y69.0286 F120.00
G01 X18.5480 Y69.0091 F120.00
G01 X18.3327 Y68.9515 F120.00
G01 X18.1307 Y68.8573 F120.00
G01 X17.9482 Y68.7294 F120.00
G01 X17.7906 Y68.5718 F120.00
G01 X17.6645 Y68.3918 F120.00
G01 X17.6576 Y68.3833 F120.00
G01 X17.6509 Y68.3770 F120.00
G01 X17.5934 Y68.3311 F120.00
G01 X17.5839 Y68.3248 F120.00
G01 X17.5752 Y68.3208 F120.00
G01 X17.5662 Y68.3178 F120.00
G01 X17.5568 Y68.3160 F120.00
G01 X17.4854 Y68.3086 F120.00
G01 X17.4759 Y68.3082 F120.00
G01 X17.4683 Y68.3088 F120.00
G01 X17.4608 Y68.3101 F120.00
G01 X17.4534 Y68.3121 F120.00
G01 X17.4463 Y68.3148 F120.00
G01 X17.3788 Y68.3489 F120.00
G01 X17.3709 Y68.3538 F120.00
G01 X17.3636 Y68.3596 F120.00
G01 X17.3571 Y68.3663 F120.00
G01 X17.3367 Y68.3902 F120.00
G01 X17.2094 Y68.5718 F120.00
G01 X17.0518 Y68.7294 F120.00
G01 X16.8693 Y68.8573 F120.00
G01 X16.6673 Y68.9515 F120.00
G01 X16.4520 Y69.0091 F120.00
G01 X16.2300 Y69.0286 F120.00
G01 X16.0080 Y69.0091 F120.00
G01 X15.7927 Y68.9515 F120.00
G01 X15.5907 Y68.8573 F120.00
G01 X15.4082 Y68.7294 F120.00
G01 X15.2506 Y68.5718 F120.00
G01 X15.1245 Y68.3918 F120.00
G01 X15.1176 Y68.3833 F120.00
G01 X15.1109 Y68.3770 F120.00
G01 X15.0534 Y68.3311 F120.00
G01 X15.0439 Y68.3248 F120.00
G01 X15.0352 Y68.3208 F120.00
G01 X15.0262 Y68.3178 F120.00
G01 X15.0168 Y68.3160 F120.00
G01 X14.9454 Y68.3086 F120.00
G01 X14.9340 Y68.3083 F120.00
G01 X14.9264 Y68.3090 F120.00
G01 X14.9189 Y68.3105 F120.00
G01 X14.9116 Y68.3127 F120.00
G01 X14.9046 Y68.3156 F120.00
G01 X14.8388 Y68.3489 F120.00
G01 X14.8309 Y68.3538 F120.00
G01 X14.8236 Y68.3596 F120.00
G01 X14.8171 Y68.3663 F120.00
G01 X14.7967 Y68.3902 F120.00
G01 X14.6694 Y68.5718 F120.00
G01 X14.5118 Y68.7294 F120.00
G01 X14.3293 Y68.8573 F120.00
G01 X14.1273 Y68.9515 F120.00
G01 X13.9120 Y69.0091 F120.00
G01 X13.6900 Y69.0286 F120.00
G01 X13.4680 Y69.0091 F120.00
G01 X13.2527 Y68.9515 F120.00
G01 X13.0507 Y68.8573 F120.00
G01 X12.8682 Y68.7294 F120.00
G01 X12.7510 Y68.6123 F120.00
G01 X12.7441 Y68.6062 F120.00
G01 X12.7351 Y68.6001 F120.00
G01 X12.6705 Y68.5648 F120.00
G01 X12.6617 Y68.5610 F120.00
G01 X12.6526 Y68.5582 F120.00
G01 X12.6432 Y68.5567 F120.00
G01 X12.6318 Y68.5564 F120.00
G01 X12.5545 Y68.5621 F120.00
G01 X12.5489 Y68.5631 F120.00
G01 X12.5415 Y68.5652 F120.00
G01 X12.5344 Y68.5679 F120.00
G01 X12.5293 Y68.5704 F120.00
G01 X12.5196 Y68.5766 F120.00
G01 X12.4622 Y68.6196 F120.00
G01 X12.4536 Y68.6275 F120.00
G01 X12.4464 Y68.6365 F120.00
G01 X12.4423 Y68.6431 F120.00
G01 X12.4254 Y68.6741 F120.00
G01 X12.4222 Y68.6807 F120.00
G01 X12.3757 Y68.8051 F120.00
G01 X12.3027 Y68.9027 F120.00
G01 X12.1946 Y68.9836 F120.00
G01 X12.1889 Y68.9883 F120.00
G01 X12.1838 Y68.9934 F120.00
G01 X12.1802 Y68.9976 F120.00
G01 X12.1350 Y69.0581 F120.00
G01 X12.1311 Y69.0646 F120.00
G01 X12.1278 Y69.0715 F120.00
G01 X12.1252 Y69.0787 F120.00
G01 X12.1230 Y69.0880 F120.00
G01 X12.1221 Y69.0956 F120.00
G01 X12.1169 Y69.1710 F120.00
G01 X12.1176 Y69.1805 F120.00
G01 X12.1189 Y69.1880 F120.00
G01 X12.1216 Y69.1971 F120.00
G01 X12.1246 Y69.2041 F120.00
G01 X12.1607 Y69.2704 F120.00
G01 X12.1657 Y69.2781 F120.00
G01 X12.1716 Y69.2850 F120.00
G01 X12.4535 Y69.5668 F120.00
G01 X12.4606 Y69.5725 F120.00
G01 X12.4684 Y69.5774 F120.00
G01 X12.5313 Y69.6118 F120.00
G01 X12.5417 Y69.6162 F120.00
G01 X12.5490 Y69.6182 F120.00
G01 X12.5564 Y69.6196 F120.00
G01 X12.5846 Y69.6227 F120.00
G01 X12.5928 Y69.6231 F120.00
G01 X41.4090 Y69.6231 F120.00
G01 X41.4181 Y69.6223 F120.00
G01 X41.4270 Y69.6205 F120.00
G01 X41.4958 Y69.6003 F120.00
G01 X41.5030 Y69.5978 F120.00
G01 X41.5115 Y69.5938 F120.00
G01 X41.5194 Y69.5887 F120.00
G01 X41.5462 Y69.5671 F120.00
G01 X42.3143 Y68.7991 F120.00
G01 X42.3192 Y68.7937 F120.00
G01 X42.3236 Y68.7879 F120.00
G01 X42.3274 Y68.7816 F120.00
G01 X42.3609 Y68.7203 F120.00
G01 X42.3649 Y68.7118 F120.00
G01 X42.3673 Y68.7047 F120.00
G01 X42.3693 Y68.6955 F120.00
G01 X42.3727 Y68.6654 F120.00
G01 X42.3731 Y68.6572 F120.00
G01 X42.3731 Y58.6883 F120.00
G01 X42.3972 Y58.5671 F120.00
G01 X42.4444 Y58.4531 F120.00
G01 X42.5131 Y58.3504 F120.00
G01 X45.8143 Y55.0491 F120.00
G01 X45.8215 Y55.0409 F120.00
G01 X45.8265 Y55.0332 F120.00
G01 X45.8618 Y54.9687 F120.00
G01 X45.8642 Y54.9635 F120.00
G01 X45.8668 Y54.9565 F120.00
G01 X45.8682 Y54.9510 F120.00
G01 X45.8696 Y54.9436 F120.00
G01 X45.8727 Y54.9154 F120.00
G01 X45.8731 Y54.9072 F120.00
G01 X45.8731 Y33.9383 F120.00
G01 X45.8972 Y33.8171 F120.00
G01 X45.9444 Y33.7031 F120.00
G01 X46.0131 Y33.6004 F120.00
G01 X47.5806 Y32.0328 F120.00
G01 X47.5865 Y32.0259 F120.00
G01 X47.5915 Y32.0182 F120.00
G01 X47.6259 Y31.9553 F120.00
G01 X47.6305 Y31.9450 F120.00
G01 X47.6337 Y31.9342 F120.00
G01 X47.6348 Y31.9267 F120.00
G01 X47.6377 Y31.9004 F120.00
G01 X47.6381 Y31.8922 F120.00
G01 X47.6379 Y30.8450 F120.00
G01 X47.6373 Y30.8394 F120.00
G01 X47.6358 Y30.8321 F120.00
G01 X47.6181 Y30.7672 F120.00
G01 X47.6158 Y30.7601 F120.00
G01 X47.6111 Y30.7500 F120.00
G01 X47.5843 Y30.7047 F120.00
G01 X47.5433 Y30.5637 F120.00
G01 X47.5413 Y30.5377 F120.00
G01 X47.5413 Y28.6623 F120.00
G01 X47.5433 Y28.6363 F120.00
G01 X47.5843 Y28.4954 F120.00
G01 X47.6111 Y28.4500 F120.00
G01 X47.6158 Y28.4399 F120.00
G01 X47.6181 Y28.4328 F120.00
G01 X47.6358 Y28.3679 F120.00
G01 X47.6373 Y28.3606 F120.00
G01 X47.6381 Y28.3513 F120.00
G01 X47.6379 Y25.8524 F120.00
G01 X47.6370 Y25.8451 F120.00
G01 X47.6355 Y25.8380 F120.00
G01 X47.6153 Y25.7692 F120.00
G01 X47.6128 Y25.7620 F120.00
G01 X47.6088 Y25.7535 F120.00
G01 X47.6037 Y25.7456 F120.00
G01 X47.5821 Y25.7188 F120.00
G01 X47.0491 Y25.1857 F120.00
G01 X47.0423 Y25.1797 F120.00
G01 X47.0332 Y25.1735 F120.00
G01 X46.9703 Y25.1391 F120.00
G01 X46.9635 Y25.1358 F120.00
G01 X46.9547 Y25.1327 F120.00
G01 X46.9455 Y25.1307 F120.00
G01 X46.9092 Y25.1269 F120.00
G01 X23.0777 Y25.1269 F120.00
G01 X23.0686 Y25.1274 F120.00
G01 X23.0614 Y25.1287 F120.00
G01 X23.0561 Y25.1300 F120.00
G01 X22.9836 Y25.1515 F120.00
G01 X22.9766 Y25.1545 F120.00
G01 X22.9683 Y25.1593 F120.00
G01 X22.9607 Y25.1650 F120.00
G01 X22.9552 Y25.1703 F120.00
G01 X22.9056 Y25.2274 F120.00
G01 X22.9010 Y25.2335 F120.00
G01 X22.8962 Y25.2418 F120.00
G01 X22.8925 Y25.2506 F120.00
G01 X22.8903 Y25.2580 F120.00
G01 X22.8783 Y25.3132 F120.00
G01 X22.8770 Y25.3240 F120.00
G01 X22.8769 Y29.0617 F120.00
G01 X22.8528 Y29.1829 F120.00
G01 X22.8056 Y29.2969 F120.00
G01 X22.7369 Y29.3996 F120.00
G01 X21.8996 Y30.2369 F120.00
G01 X21.7969 Y30.3056 F120.00
G01 X21.6829 Y30.3528 F120.00
G01 X21.5617 Y30.3769 F120.00
G01 X7.9383 Y30.3769 F120.00
G01 X7.8171 Y30.3528 F120.00
G01 X7.7031 Y30.3056 F120.00
G01 X7.6004 Y30.2369 F120.00
G01 X6.7631 Y29.3996 F120.00
G01 X6.6944 Y29.2970 F120.00
G01 X6.6472 Y29.1829 F120.00
G01 X6.6231 Y29.0617 F120.00
G01 X6.6231 Y25.4383 F120.00
G01 X6.6472 Y25.3171 F120.00
G01 X6.6944 Y25.2031 F120.00
G01 X6.7631 Y25.1004 F120.00
G01 X7.8504 Y24.0131 F120.00
G01 X7.9531 Y23.9444 F120.00
G01 X8.0126 Y23.9198 F120.00
G01 X8.0223 Y23.9146 F120.00
G01 X8.0297 Y23.9093 F120.00
G01 X8.0841 Y23.8655 F120.00
G01 X8.0923 Y23.8578 F120.00
G01 X8.0993 Y23.8490 F120.00
G01 X8.1033 Y23.8426 F120.00
G01 X8.1058 Y23.8376 F120.00
G01 X8.1301 Y23.7724 F120.00
G01 X8.1322 Y23.7649 F120.00
G01 X8.1333 Y23.7592 F120.00
G01 X8.1355 Y23.7384 F120.00
G01 X8.1853 Y23.5883 F120.00
G01 X8.2679 Y23.4543 F120.00
G01 X8.3793 Y23.3429 F120.00
G01 X8.4777 Y23.2822 F120.00
G01 X8.4837 Y23.2781 F120.00
G01 X8.4880 Y23.2746 F120.00
G01 X8.4945 Y23.2682 F120.00
G01 X8.5424 Y23.2149 F120.00
G01 X8.5470 Y23.2090 F120.00
G01 X8.5519 Y23.2011 F120.00
G01 X8.5558 Y23.1926 F120.00
G01 X8.5586 Y23.1838 F120.00
G01 X8.5716 Y23.1265 F120.00
G01 X8.5727 Y23.1190 F120.00
G01 X8.5731 Y23.1132 F120.00
G01 X8.5729 Y21.8222 F120.00
G01 X8.5720 Y21.8150 F120.00
G01 X8.5705 Y21.8078 F120.00
G01 X8.5491 Y21.7354 F120.00
G01 X8.5463 Y21.7283 F120.00
G01 X8.5417 Y21.7199 F120.00
G01 X8.5362 Y21.7122 F120.00
G01 X8.5311 Y21.7065 F120.00
G01 X8.4726 Y21.6556 F120.00
G01 X8.4665 Y21.6510 F120.00
G01 X8.4599 Y21.6471 F120.00
G01 X8.4512 Y21.6431 F120.00
G01 X8.4420 Y21.6403 F120.00
G01 X8.3832 Y21.6277 F120.00
G01 X8.3723 Y21.6269 F120.00
G01 X6.9383 Y21.6269 F120.00
G01 X6.8171 Y21.6028 F120.00
G01 X6.7031 Y21.5556 F120.00
G01 X6.6004 Y21.4869 F120.00
G01 X5.7631 Y20.6496 F120.00
G01 X5.6944 Y20.5469 F120.00
G01 X5.6472 Y20.4329 F120.00
G01 X5.6231 Y20.3117 F120.00
G01 X5.6231 Y2.9383 F120.00
G00 Z2.0000
G00 X5.9700 Y2.9962
G01 F60.00
G01 Z-0.1000
G01 F120.00
G01 X5.9712 Y2.9725 F120.00
G01 X5.9753 Y2.9454 F120.00
G01 X5.9820 Y2.9187 F120.00
G01 X5.9912 Y2.8928 F120.00
G01 X6.0030 Y2.8680 F120.00
G01 X6.0171 Y2.8444 F120.00
G01 X6.0335 Y2.8223 F120.00
G01 X6.0519 Y2.8019 F120.00
G01 X7.0547 Y1.7993 F120.00
G01 X7.0723 Y1.7835 F120.00
G01 X7.0944 Y1.7671 F120.00
G01 X7.1180 Y1.7530 F120.00
G01 X7.1394 Y1.7427 F120.00
G01 X7.1463 Y1.7399 F120.00
G01 X7.1669 Y1.7325 F120.00
G01 X7.1723 Y1.7310 F120.00
G01 X7.1954 Y1.7253 F120.00
G01 X7.2225 Y1.7212 F120.00
G01 X7.2500 Y1.7199 F120.00
G01 X19.5000 Y1.7199 F120.00
G01 X19.5275 Y1.7212 F120.00
G01 X19.5546 Y1.7253 F120.00
G01 X19.5813 Y1.7320 F120.00
G01 X19.6072 Y1.7412 F120.00
G01 X19.6320 Y1.7530 F120.00
G01 X19.6556 Y1.7671 F120.00
G01 X19.6777 Y1.7835 F120.00
G01 X19.6981 Y1.8019 F120.00
G01 X20.4981 Y2.6019 F120.00
G01 X20.5141 Y2.6195 F120.00
G01 X20.5177 Y2.6238 F120.00
G01 X20.5307 Y2.6413 F120.00
G01 X20.5349 Y2.6476 F120.00
G01 X20.5479 Y2.6696 F120.00
G01 X20.5573 Y2.6894 F120.00
G01 X20.5601 Y2.6963 F120.00
G01 X20.5680 Y2.7187 F120.00
G01 X20.5747 Y2.7454 F120.00
G01 X20.5788 Y2.7725 F120.00
G01 X20.5801 Y2.7982 F120.00
G01 X20.7000 Y2.7982 F120.00
G01 X20.7302 Y2.7996 F120.00
G01 X20.7638 Y2.8045 F120.00
G01 X20.7967 Y2.8128 F120.00
G01 X20.8251 Y2.8231 F120.00
G01 X20.8507 Y2.8351 F120.00
G01 X20.8573 Y2.8386 F120.00
G01 X20.8816 Y2.8533 F120.00
G01 X20.9043 Y2.8701 F120.00
G01 X20.9102 Y2.8748 F120.00
G01 X20.9311 Y2.8939 F120.00
G01 X20.9514 Y2.9162 F120.00
G01 X20.9696 Y2.9404 F120.00
G01 X20.9737 Y2.9466 F120.00
G01 X20.9882 Y2.9709 F120.00
G01 X21.0019 Y2.9999 F120.00
G01 X21.0115 Y3.0266 F120.00
G01 X21.0137 Y3.0338 F120.00
G01 X21.0205 Y3.0612 F120.00
G01 X21.0248 Y3.0892 F120.00
G01 X21.0255 Y3.0967 F120.00
G01 X21.0268 Y3.1250 F120.00
G01 X21.0268 Y3.4699 F120.00
G01 X60.5000 Y3.4699 F120.00
G01 X60.5275 Y3.4712 F120.00
G01 X60.5546 Y3.4753 F120.00
G01 X60.5813 Y3.4820 F120.00
G01 X60.6072 Y3.4912 F120.00
G01 X60.6287 Y3.5013 F120.00
G01 X60.6337 Y3.5039 F120.00
G01 X60.6524 Y3.5151 F120.00
G01 X60.6587 Y3.5193 F120.00
G01 X60.6777 Y3.5335 F120.00
G01 X60.6981 Y3.5519 F120.00
G01 X61.6994 Y4.5533 F120.00
G01 X61.7165 Y4.5723 F120.00
G01 X61.7307 Y4.5913 F120.00
G01 X61.7349 Y4.5976 F120.00
G01 X61.7470 Y4.6180 F120.00
G01 X61.7573 Y4.6394 F120.00
G01 X61.7601 Y4.6463 F120.00
G01 X61.7680 Y4.6687 F120.00
G01 X61.7739 Y4.6917 F120.00
G01 X61.7754 Y4.6991 F120.00
G01 X61.7788 Y4.7225 F120.00
G01 X61.7801 Y4.7500 F120.00
G01 X61.7801 Y10.9732 F120.00
G01 X62.1250 Y10.9732 F120.00
G01 X62.1570 Y10.9748 F120.00
G01 X62.1888 Y10.9795 F120.00
G01 X62.2162 Y10.9863 F120.00
G01 X62.2234 Y10.9885 F120.00
G01 X62.2501 Y10.9981 F120.00
G01 X62.2757 Y11.0101 F120.00
G01 X62.2823 Y11.0136 F120.00
G01 X62.3066 Y11.0283 F120.00
G01 X62.3293 Y11.0451 F120.00
G01 X62.3352 Y11.0498 F120.00
G01 X62.3561 Y11.0689 F120.00
G01 X62.3776 Y11.0927 F120.00
G01 X62.3967 Y11.1184 F120.00
G01 X62.4114 Y11.1427 F120.00
G01 X62.4149 Y11.1493 F120.00
G01 X62.4254 Y11.1715 F120.00
G01 X62.4283 Y11.1785 F120.00
G01 X62.4377 Y11.2051 F120.00
G01 X62.4447 Y11.2326 F120.00
G01 X62.4462 Y11.2400 F120.00
G01 X62.4502 Y11.2680 F120.00
G01 X62.4518 Y11.3000 F120.00
G01 X62.4518 Y11.4199 F120.00
G01 X85.4340 Y11.4199 F120.00
G01 X85.7199 Y11.1340 F120.00
G01 X85.7199 Y2.5000 F120.00
G01 X85.7210 Y2.4763 F120.00
G01 X85.7217 Y2.4688 F120.00
G01 X85.7253 Y2.4454 F120.00
G01 X85.7320 Y2.4187 F120.00
G01 X85.7412 Y2.3928 F120.00
G01 X85.7513 Y2.3713 F120.00
G01 X85.7539 Y2.3663 F120.00
G01 X85.7651 Y2.3476 F120.00
G01 X85.7693 Y2.3413 F120.00
G01 X85.7835 Y2.3223 F120.00
G01 X85.8006 Y2.3033 F120.00
G01 X86.8019 Y1.3019 F120.00
G01 X86.8223 Y1.2835 F120.00
G01 X86.8460 Y1.2661 F120.00
G01 X86.8680 Y1.2530 F120.00
G01 X86.8894 Y1.2427 F120.00
G01 X86.8963 Y1.2399 F120.00
G01 X86.9187 Y1.2320 F120.00
G01 X86.9417 Y1.2261 F120.00
G01 X86.9491 Y1.2246 F120.00
G01 X86.9725 Y1.2212 F120.00
G01 X87.0000 Y1.2199 F120.00
G01 X101.5000 Y1.2199 F120.00
G01 X101.5237 Y1.2210 F120.00
G01 X101.5312 Y1.2217 F120.00
G01 X101.5546 Y1.2253 F120.00
G01 X101.5795 Y1.2314 F120.00
G01 X101.6072 Y1.2412 F120.00
G01 X101.6287 Y1.2513 F120.00
G01 X101.6353 Y1.2548 F120.00
G01 X101.6556 Y1.2671 F120.00
G01 X101.6747 Y1.2812 F120.00
G01 X101.6805 Y1.2859 F120.00
G01 X101.6967 Y1.3006 F120.00
G01 X102.0007 Y1.6047 F120.00
G01 X102.0165 Y1.6223 F120.00
G01 X102.0329 Y1.6444 F120.00
G01 X102.0470 Y1.6680 F120.00
G01 X102.0573 Y1.6894 F120.00
G01 X102.0601 Y1.6963 F120.00
G01 X102.0680 Y1.7187 F120.00
G01 X102.0743 Y1.7435 F120.00
G01 X102.0788 Y1.7725 F120.00
G01 X102.0800 Y1.7962 F120.00
G01 X102.0801 Y2.2982 F120.00
G01 X102.2019 Y2.2982 F120.00
G01 X102.2320 Y2.2998 F120.00
G01 X102.2619 Y2.3041 F120.00
G01 X102.2949 Y2.3123 F120.00
G01 X102.3251 Y2.3231 F120.00
G01 X102.3541 Y2.3368 F120.00
G01 X102.3816 Y2.3533 F120.00
G01 X102.4073 Y2.3724 F120.00
G01 X102.4284 Y2.3913 F120.00
G01 X102.4337 Y2.3966 F120.00
G01 X102.4502 Y2.4148 F120.00
G01 X102.4549 Y2.4207 F120.00
G01 X102.4717 Y2.4434 F120.00
G01 X102.4864 Y2.4677 F120.00
G01 X102.4899 Y2.4743 F120.00
G01 X102.5019 Y2.4999 F120.00
G01 X102.5127 Y2.5301 F120.00
G01 X102.5205 Y2.5612 F120.00
G01 X102.5254 Y2.5948 F120.00
G01 X102.5268 Y2.6250 F120.00
G01 X102.5268 Y3.8750 F120.00
G01 X102.5255 Y3.9033 F120.00
G01 X102.5248 Y3.9108 F120.00
G01 X102.5205 Y3.9388 F120.00
G01 X102.5133 Y3.9681 F120.00
G01 X102.5019 Y4.0001 F120.00
G01 X102.4882 Y4.0291 F120.00
G01 X102.4717 Y4.0566 F120.00
G01 X102.4526 Y4.0823 F120.00
G01 X102.4311 Y4.1061 F120.00
G01 X102.4073 Y4.1276 F120.00
G01 X102.3816 Y4.1467 F120.00
G01 X102.3541 Y4.1632 F120.00
G01 X102.3251 Y4.1769 F120.00
G01 X102.2949 Y4.1877 F120.00
G01 X102.2638 Y4.1955 F120.00
G01 X102.2358 Y4.1998 F120.00
G01 X102.2283 Y4.2005 F120.00
G01 X102.2019 Y4.2018 F120.00
G01 X102.0801 Y4.2018 F120.00
G01 X102.0801 Y8.4500 F120.00
G01 X102.0788 Y8.4775 F120.00
G01 X102.0751 Y8.5028 F120.00
G01 X102.0690 Y8.5277 F120.00
G01 X102.0669 Y8.5349 F120.00
G01 X102.0588 Y8.5572 F120.00
G01 X102.0470 Y8.5820 F120.00
G01 X102.0349 Y8.6024 F120.00
G01 X102.0307 Y8.6087 F120.00
G01 X102.0165 Y8.6277 F120.00
G01 X101.9981 Y8.6481 F120.00
G01 X99.0301 Y11.6160 F120.00
G01 X99.0301 Y15.8840 F120.00
G01 X99.8660 Y16.7199 F120.00
G01 X101.0019 Y16.7199 F120.00
G01 X101.0275 Y16.7212 F120.00
G01 X101.0509 Y16.7246 F120.00
G01 X101.0583 Y16.7261 F120.00
G01 X101.0813 Y16.7320 F120.00
G01 X101.1037 Y16.7399 F120.00
G01 X101.1106 Y16.7427 F120.00
G01 X101.1320 Y16.7530 F120.00
G01 X101.1540 Y16.7661 F120.00
G01 X101.1777 Y16.7835 F120.00
G01 X101.1981 Y16.8019 F120.00
G01 X102.2494 Y17.8533 F120.00
G01 X102.2665 Y17.8723 F120.00
G01 X102.2807 Y17.8913 F120.00
G01 X102.2849 Y17.8976 F120.00
G01 X102.2970 Y17.9180 F120.00
G01 X102.3073 Y17.9394 F120.00
G01 X102.3101 Y17.9463 F120.00
G01 X102.3180 Y17.9687 F120.00
G01 X102.3239 Y17.9917 F120.00
G01 X102.3254 Y17.9991 F120.00
G01 X102.3288 Y18.0225 F120.00
G01 X102.3301 Y18.0500 F120.00
G01 X102.3301 Y23.5482 F120.00
G01 X102.4519 Y23.5482 F120.00
G01 X102.4783 Y23.5495 F120.00
G01 X102.4858 Y23.5502 F120.00
G01 X102.5138 Y23.5545 F120.00
G01 X102.5449 Y23.5623 F120.00
G01 X102.5751 Y23.5731 F120.00
G01 X102.6041 Y23.5868 F120.00
G01 X102.6316 Y23.6033 F120.00
G01 X102.6573 Y23.6224 F120.00
G01 X102.6811 Y23.6439 F120.00
G01 X102.7026 Y23.6677 F120.00
G01 X102.7217 Y23.6934 F120.00
G01 X102.7382 Y23.7209 F120.00
G01 X102.7519 Y23.7499 F120.00
G01 X102.7633 Y23.7819 F120.00
G01 X102.7705 Y23.8112 F120.00
G01 X102.7748 Y23.8392 F120.00
G01 X102.7755 Y23.8467 F120.00
G01 X102.7768 Y23.8750 F120.00
G01 X102.7768 Y25.1250 F120.00
G01 X102.7752 Y25.1570 F120.00
G01 X102.7712 Y25.1850 F120.00
G01 X102.7697 Y25.1924 F120.00
G01 X102.7627 Y25.2199 F120.00
G01 X102.7533 Y25.2465 F120.00
G01 X102.7504 Y25.2535 F120.00
G01 X102.7382 Y25.2791 F120.00
G01 X102.7217 Y25.3066 F120.00
G01 X102.7049 Y25.3293 F120.00
G01 X102.7002 Y25.3352 F120.00
G01 X102.6811 Y25.3561 F120.00
G01 X102.6602 Y25.3752 F120.00
G01 X102.6543 Y25.3799 F120.00
G01 X102.6346 Y25.3946 F120.00
G01 X102.6284 Y25.3987 F120.00
G01 X102.6041 Y25.4132 F120.00
G01 X102.5751 Y25.4269 F120.00
G01 X102.5449 Y25.4377 F120.00
G01 X102.5138 Y25.4455 F120.00
G01 X102.4820 Y25.4502 F120.00
G01 X102.4519 Y25.4518 F120.00
G01 X102.3301 Y25.4518 F120.00
G01 X102.3301 Y29.2000 F120.00
G01 X102.3290 Y29.2237 F120.00
G01 X102.3283 Y29.2312 F120.00
G01 X102.3247 Y29.2546 F120.00
G01 X102.3186 Y29.2795 F120.00
G01 X102.3088 Y29.3072 F120.00
G01 X102.2987 Y29.3287 F120.00
G01 X102.2952 Y29.3353 F120.00
G01 X102.2839 Y29.3540 F120.00
G01 X102.2807 Y29.3587 F120.00
G01 X102.2665 Y29.3777 F120.00
G01 X102.2507 Y29.3953 F120.00
G01 X101.6967 Y29.9494 F120.00
G01 X101.6777 Y29.9665 F120.00
G01 X101.6556 Y29.9829 F120.00
G01 X101.6320 Y29.9970 F120.00
G01 X101.6106 Y30.0073 F120.00
G01 X101.6037 Y30.0101 F120.00
G01 X101.5831 Y30.0175 F120.00
G01 X101.5583 Y30.0239 F120.00
G01 X101.5509 Y30.0254 F120.00
G01 X101.5293 Y30.0285 F120.00
G01 X101.5237 Y30.0290 F120.00
G01 X101.5000 Y30.0301 F120.00
G01 X89.4981 Y30.0301 F120.00
G01 X89.4725 Y30.0288 F120.00
G01 X89.4454 Y30.0247 F120.00
G01 X89.4187 Y30.0180 F120.00
G01 X89.3963 Y30.0101 F120.00
G01 X89.3894 Y30.0073 F120.00
G01 X89.3696 Y29.9979 F120.00
G01 X89.3647 Y29.9952 F120.00
G01 X89.3444 Y29.9829 F120.00
G01 X89.3209 Y29.9653 F120.00
G01 X89.3019 Y29.9481 F120.00
G01 X88.5519 Y29.1981 F120.00
G01 X88.5335 Y29.1777 F120.00
G01 X88.5171 Y29.1556 F120.00
G01 X88.5030 Y29.1320 F120.00
G01 X88.4912 Y29.1072 F120.00
G01 X88.4820 Y29.0813 F120.00
G01 X88.4753 Y29.0546 F120.00
G01 X88.4712 Y29.0275 F120.00
G01 X88.4699 Y29.0019 F120.00
G01 X88.4699 Y25.5000 F120.00
G01 X88.4712 Y25.4725 F120.00
G01 X88.4753 Y25.4454 F120.00
G01 X88.4820 Y25.4187 F120.00
G01 X88.4899 Y25.3963 F120.00
G01 X88.4927 Y25.3894 F120.00
G01 X88.5030 Y25.3680 F120.00
G01 X88.5171 Y25.3444 F120.00
G01 X88.5335 Y25.3223 F120.00
G01 X88.5519 Y25.3019 F120.00
G01 X89.8033 Y24.0506 F120.00
G01 X89.8223 Y24.0335 F120.00
G01 X89.8444 Y24.0171 F120.00
G01 X89.8680 Y24.0030 F120.00
G01 X89.8894 Y23.9927 F120.00
G01 X89.8963 Y23.9899 F120.00
G01 X89.9169 Y23.9825 F120.00
G01 X89.9223 Y23.9810 F120.00
G01 X89.9454 Y23.9753 F120.00
G01 X89.9732 Y23.9712 F120.00
G01 X89.9732 Y23.6231 F120.00
G01 X89.9748 Y23.5930 F120.00
G01 X89.9795 Y23.5612 F120.00
G01 X89.9873 Y23.5301 F120.00
G01 X89.9967 Y23.5035 F120.00
G01 X89.9996 Y23.4965 F120.00
G01 X90.0101 Y23.4743 F120.00
G01 X90.0136 Y23.4677 F120.00
G01 X90.0283 Y23.4434 F120.00
G01 X90.0474 Y23.4177 F120.00
G01 X90.0689 Y23.3939 F120.00
G01 X90.0927 Y23.3724 F120.00
G01 X90.1184 Y23.3533 F120.00
G01 X90.1427 Y23.3386 F120.00
G01 X90.1493 Y23.3351 F120.00
G01 X90.1749 Y23.3231 F120.00
G01 X90.2051 Y23.3123 F120.00
G01 X90.2326 Y23.3053 F120.00
G01 X90.2400 Y23.3038 F120.00
G01 X90.2698 Y23.2996 F120.00
G01 X90.3000 Y23.2982 F120.00
G01 X91.1000 Y23.2982 F120.00
G01 X91.1320 Y23.2998 F120.00
G01 X91.1638 Y23.3045 F120.00
G01 X91.1949 Y23.3123 F120.00
G01 X91.2215 Y23.3217 F120.00
G01 X91.2285 Y23.3246 F120.00
G01 X91.2541 Y23.3368 F120.00
G01 X91.2784 Y23.3513 F120.00
G01 X91.2846 Y23.3554 F120.00
G01 X91.3043 Y23.3701 F120.00
G01 X91.3102 Y23.3748 F120.00
G01 X91.3311 Y23.3939 F120.00
G01 X91.3526 Y23.4177 F120.00
G01 X91.3717 Y23.4434 F120.00
G01 X91.3882 Y23.4709 F120.00
G01 X91.4019 Y23.4999 F120.00
G01 X91.4127 Y23.5301 F120.00
G01 X91.4205 Y23.5612 F120.00
G01 X91.4248 Y23.5892 F120.00
G01 X91.4255 Y23.5967 F120.00
G01 X91.4268 Y23.6250 F120.00
G01 X91.4268 Y24.8750 F120.00
G01 X91.4255 Y24.9033 F120.00
G01 X91.4248 Y24.9108 F120.00
G01 X91.4212 Y24.9350 F120.00
G01 X91.4197 Y24.9424 F120.00
G01 X91.4127 Y24.9699 F120.00
G01 X91.4019 Y25.0001 F120.00
G01 X91.3882 Y25.0291 F120.00
G01 X91.3737 Y25.0534 F120.00
G01 X91.3696 Y25.0596 F120.00
G01 X91.3549 Y25.0793 F120.00
G01 X91.3502 Y25.0852 F120.00
G01 X91.3311 Y25.1061 F120.00
G01 X91.3073 Y25.1276 F120.00
G01 X91.2816 Y25.1467 F120.00
G01 X91.2541 Y25.1632 F120.00
G01 X91.2251 Y25.1769 F120.00
G01 X91.1949 Y25.1877 F120.00
G01 X91.1638 Y25.1955 F120.00
G01 X91.1320 Y25.2002 F120.00
G01 X91.1000 Y25.2018 F120.00
G01 X90.2981 Y25.2018 F120.00
G01 X90.2680 Y25.2002 F120.00
G01 X90.2400 Y25.1962 F120.00
G01 X90.2326 Y25.1947 F120.00
G01 X90.2051 Y25.1877 F120.00
G01 X90.1749 Y25.1769 F120.00
G01 X90.1459 Y25.1632 F120.00
G01 X90.1184 Y25.1467 F120.00
G01 X90.0957 Y25.1299 F120.00
G01 X90.0898 Y25.1252 F120.00
G01 X90.0689 Y25.1061 F120.00
G01 X90.0498 Y25.0852 F120.00
G01 X90.0451 Y25.0793 F120.00
G01 X90.0304 Y25.0596 F120.00
G01 X90.0263 Y25.0534 F120.00
G01 X90.0118 Y25.0291 F120.00
G01 X89.9988 Y25.0018 F120.00
G01 X89.9885 Y24.9734 F120.00
G01 X89.9863 Y24.9662 F120.00
G01 X89.9795 Y24.9388 F120.00
G01 X89.9746 Y24.9052 F120.00
G01 X89.9732 Y24.8750 F120.00
G01 X89.9732 Y24.6729 F120.00
G01 X89.0301 Y25.6160 F120.00
G01 X89.0301 Y28.8840 F120.00
G01 X89.6160 Y29.4699 F120.00
G01 X101.3840 Y29.4699 F120.00
G01 X101.7699 Y29.0840 F120.00
G01 X101.7699 Y25.4518 F120.00
G01 X101.6481 Y25.4518 F120.00
G01 X101.6180 Y25.4502 F120.00
G01 X101.5862 Y25.4455 F120.00
G01 X101.5551 Y25.4377 F120.00
G01 X101.5249 Y25.4269 F120.00
G01 X101.4959 Y25.4132 F120.00
G01 X101.4716 Y25.3987 F120.00
G01 X101.4654 Y25.3946 F120.00
G01 X101.4457 Y25.3799 F120.00
G01 X101.4398 Y25.3752 F120.00
G01 X101.4189 Y25.3561 F120.00
G01 X101.3998 Y25.3352 F120.00
G01 X101.3951 Y25.3293 F120.00
G01 X101.3783 Y25.3066 F120.00
G01 X101.3618 Y25.2791 F120.00
G01 X101.3481 Y25.2501 F120.00
G01 X101.3385 Y25.2234 F120.00
G01 X101.3363 Y25.2162 F120.00
G01 X101.3295 Y25.1888 F120.00
G01 X101.3252 Y25.1608 F120.00
G01 X101.3245 Y25.1533 F120.00
G01 X101.3232 Y25.1250 F120.00
G01 X101.3232 Y23.8750 F120.00
G01 X101.3245 Y23.8467 F120.00
G01 X101.3252 Y23.8392 F120.00
G01 X101.3295 Y23.8112 F120.00
G01 X101.3367 Y23.7819 F120.00
G01 X101.3481 Y23.7499 F120.00
G01 X101.3618 Y23.7209 F120.00
G01 X101.3783 Y23.6934 F120.00
G01 X101.3974 Y23.6677 F120.00
G01 X101.4189 Y23.6439 F120.00
G01 X101.4427 Y23.6224 F120.00
G01 X101.4684 Y23.6033 F120.00
G01 X101.4959 Y23.5868 F120.00
G01 X101.5249 Y23.5731 F120.00
G01 X101.5551 Y23.5623 F120.00
G01 X101.5862 Y23.5545 F120.00
G01 X101.6142 Y23.5502 F120.00
G01 X101.6217 Y23.5495 F120.00
G01 X101.6481 Y23.5482 F120.00
G01 X101.7699 Y23.5482 F120.00
G01 X101.7699 Y18.1660 F120.00
G01 X100.8840 Y17.2801 F120.00
G01 X99.7481 Y17.2801 F120.00
G01 X99.7225 Y17.2788 F120.00
G01 X99.6991 Y17.2754 F120.00
G01 X99.6917 Y17.2739 F120.00
G01 X99.6687 Y17.2680 F120.00
G01 X99.6463 Y17.2601 F120.00
G01 X99.6394 Y17.2573 F120.00
G01 X99.6180 Y17.2470 F120.00
G01 X99.5944 Y17.2329 F120.00
G01 X99.5723 Y17.2165 F120.00
G01 X99.5519 Y17.1981 F120.00
G01 X98.5493 Y16.1953 F120.00
G01 X98.5335 Y16.1777 F120.00
G01 X98.5171 Y16.1556 F120.00
G01 X98.5030 Y16.1320 F120.00
G01 X98.4912 Y16.1072 F120.00
G01 X98.4820 Y16.0813 F120.00
G01 X98.4753 Y16.0546 F120.00
G01 X98.4712 Y16.0275 F120.00
G01 X98.4699 Y16.0019 F120.00
G01 X98.4699 Y11.5000 F120.00
G01 X98.4712 Y11.4725 F120.00
G01 X98.4753 Y11.4454 F120.00
G01 X98.4820 Y11.4187 F120.00
G01 X98.4905 Y11.3946 F120.00
G01 X98.5030 Y11.3680 F120.00
G01 X98.5171 Y11.3444 F120.00
G01 X98.5335 Y11.3223 F120.00
G01 X98.5519 Y11.3019 F120.00
G01 X101.5199 Y8.3340 F120.00
G01 X101.5199 Y4.2018 F120.00
G01 X101.3981 Y4.2018 F120.00
G01 X101.3680 Y4.2002 F120.00
G01 X101.3362 Y4.1955 F120.00
G01 X101.3051 Y4.1877 F120.00
G01 X101.2749 Y4.1769 F120.00
G01 X101.2459 Y4.1632 F120.00
G01 X101.2216 Y4.1487 F120.00
G01 X101.2154 Y4.1446 F120.00
G01 X101.1957 Y4.1299 F120.00
G01 X101.1898 Y4.1252 F120.00
G01 X101.1689 Y4.1061 F120.00
G01 X101.1498 Y4.0852 F120.00
G01 X101.1451 Y4.0793 F120.00
G01 X101.1283 Y4.0566 F120.00
G01 X101.1118 Y4.0291 F120.00
G01 X101.0981 Y4.0001 F120.00
G01 X101.0885 Y3.9734 F120.00
G01 X101.0863 Y3.9662 F120.00
G01 X101.0795 Y3.9388 F120.00
G01 X101.0752 Y3.9108 F120.00
G01 X101.0745 Y3.9033 F120.00
G01 X101.0732 Y3.8769 F120.00
G01 X101.0732 Y2.6250 F120.00
G01 X101.0745 Y2.5967 F120.00
G01 X101.0752 Y2.5892 F120.00
G01 X101.0795 Y2.5612 F120.00
G01 X101.0867 Y2.5319 F120.00
G01 X101.0981 Y2.4999 F120.00
G01 X101.1118 Y2.4709 F120.00
G01 X101.1283 Y2.4434 F120.00
G01 X101.1474 Y2.4177 F120.00
G01 X101.1689 Y2.3939 F120.00
G01 X101.1927 Y2.3724 F120.00
G01 X101.2184 Y2.3533 F120.00
G01 X101.2459 Y2.3368 F120.00
G01 X101.2749 Y2.3231 F120.00
G01 X101.3051 Y2.3123 F120.00
G01 X101.3362 Y2.3045 F120.00
G01 X101.3642 Y2.3002 F120.00
G01 X101.3717 Y2.2995 F120.00
G01 X101.3981 Y2.2982 F120.00
G01 X101.5199 Y2.2982 F120.00
G01 X101.5199 Y1.9160 F120.00
G01 X101.3840 Y1.7801 F120.00
G01 X87.1160 Y1.7801 F120.00
G01 X86.2801 Y2.6160 F120.00
G01 X86.2801 Y11.2500 F120.00
G01 X86.2789 Y11.2756 F120.00
G01 X86.2747 Y11.3046 F120.00
G01 X86.2690 Y11.3277 F120.00
G01 X86.2675 Y11.3331 F120.00
G01 X86.2601 Y11.3537 F120.00
G01 X86.2573 Y11.3606 F120.00
G01 X86.2470 Y11.3820 F120.00
G01 X86.2329 Y11.4056 F120.00
G01 X86.2165 Y11.4277 F120.00
G01 X86.1994 Y11.4467 F120.00
G01 X85.7453 Y11.9007 F120.00
G01 X85.7277 Y11.9165 F120.00
G01 X85.7087 Y11.9307 F120.00
G01 X85.7040 Y11.9339 F120.00
G01 X85.6853 Y11.9452 F120.00
G01 X85.6787 Y11.9487 F120.00
G01 X85.6572 Y11.9588 F120.00
G01 X85.6295 Y11.9686 F120.00
G01 X85.6046 Y11.9747 F120.00
G01 X85.5812 Y11.9783 F120.00
G01 X85.5737 Y11.9790 F120.00
G01 X85.5500 Y11.9801 F120.00
G01 X62.4518 Y11.9801 F120.00
G01 X62.4518 Y12.1019 F120.00
G01 X62.4502 Y12.1320 F120.00
G01 X62.4455 Y12.1638 F120.00
G01 X62.4377 Y12.1949 F120.00
G01 X62.4269 Y12.2251 F120.00
G01 X62.4132 Y12.2541 F120.00
G01 X62.3987 Y12.2784 F120.00
G01 X62.3946 Y12.2846 F120.00
G01 X62.3799 Y12.3043 F120.00
G01 X62.3752 Y12.3102 F120.00
G01 X62.3561 Y12.3311 F120.00
G01 X62.3352 Y12.3502 F120.00
G01 X62.3293 Y12.3549 F120.00
G01 X62.3066 Y12.3717 F120.00
G01 X62.2791 Y12.3882 F120.00
G01 X62.2501 Y12.4019 F120.00
G01 X62.2234 Y12.4115 F120.00
G01 X62.2162 Y12.4137 F120.00
G01 X62.1888 Y12.4205 F120.00
G01 X62.1608 Y12.4248 F120.00
G01 X62.1533 Y12.4255 F120.00
G01 X62.1250 Y12.4268 F120.00
G01 X60.8750 Y12.4268 F120.00
G01 X60.8430 Y12.4252 F120.00
G01 X60.8131 Y12.4209 F120.00
G01 X60.7838 Y12.4137 F120.00
G01 X60.7766 Y12.4115 F120.00
G01 X60.7499 Y12.4019 F120.00
G01 X60.7209 Y12.3882 F120.00
G01 X60.6934 Y12.3717 F120.00
G01 X60.6707 Y12.3549 F120.00
G01 X60.6648 Y12.3502 F120.00
G01 X60.6439 Y12.3311 F120.00
G01 X60.6248 Y12.3102 F120.00
G01 X60.6201 Y12.3043 F120.00
G01 X60.6033 Y12.2816 F120.00
G01 X60.5868 Y12.2541 F120.00
G01 X60.5746 Y12.2285 F120.00
G01 X60.5717 Y12.2215 F120.00
G01 X60.5623 Y12.1949 F120.00
G01 X60.5545 Y12.1638 F120.00
G01 X60.5498 Y12.1320 F120.00
G01 X60.5482 Y12.1000 F120.00
G01 X60.5482 Y11.2981 F120.00
G01 X60.5495 Y11.2717 F120.00
G01 X60.5502 Y11.2642 F120.00
G01 X60.5545 Y11.2362 F120.00
G01 X60.5613 Y11.2088 F120.00
G01 X60.5635 Y11.2016 F120.00
G01 X60.5731 Y11.1749 F120.00
G01 X60.5877 Y11.1443 F120.00
G01 X60.6033 Y11.1184 F120.00
G01 X60.6224 Y11.0927 F120.00
G01 X60.6439 Y11.0689 F120.00
G01 X60.6677 Y11.0474 F120.00
G01 X60.6934 Y11.0283 F120.00
G01 X60.7209 Y11.0118 F120.00
G01 X60.7499 Y10.9981 F120.00
G01 X60.7819 Y10.9867 F120.00
G01 X60.8112 Y10.9795 F120.00
G01 X60.8392 Y10.9752 F120.00
G01 X60.8467 Y10.9745 F120.00
G01 X60.8731 Y10.9732 F120.00
G01 X61.2199 Y10.9732 F120.00
G01 X61.2199 Y4.8660 F120.00
G01 X60.3840 Y4.0301 F120.00
G01 X21.0268 Y4.0301 F120.00
G01 X21.0268 Y4.3769 F120.00
G01 X21.0255 Y4.4033 F120.00
G01 X21.0248 Y4.4108 F120.00
G01 X21.0205 Y4.4388 F120.00
G01 X21.0133 Y4.4681 F120.00
G01 X21.0019 Y4.5001 F120.00
G01 X20.9882 Y4.5291 F120.00
G01 X20.9717 Y4.5566 F120.00
G01 X20.9526 Y4.5823 F120.00
G01 X20.9311 Y4.6061 F120.00
G01 X20.9073 Y4.6276 F120.00
G01 X20.8816 Y4.6467 F120.00
G01 X20.8573 Y4.6614 F120.00
G01 X20.8507 Y4.6649 F120.00
G01 X20.8251 Y4.6769 F120.00
G01 X20.7984 Y4.6865 F120.00
G01 X20.7912 Y4.6887 F120.00
G01 X20.7638 Y4.6955 F120.00
G01 X20.7358 Y4.6998 F120.00
G01 X20.7283 Y4.7005 F120.00
G01 X20.7038 Y4.7017 F120.00
G01 X19.8981 Y4.7018 F120.00
G01 X19.8680 Y4.7002 F120.00
G01 X19.8362 Y4.6955 F120.00
G01 X19.8051 Y4.6877 F120.00
G01 X19.7785 Y4.6783 F120.00
G01 X19.7715 Y4.6754 F120.00
G01 X19.7493 Y4.6649 F120.00
G01 X19.7427 Y4.6614 F120.00
G01 X19.7184 Y4.6467 F120.00
G01 X19.6927 Y4.6276 F120.00
G01 X19.6689 Y4.6061 F120.00
G01 X19.6498 Y4.5852 F120.00
G01 X19.6451 Y4.5793 F120.00
G01 X19.6304 Y4.5596 F120.00
G01 X19.6263 Y4.5534 F120.00
G01 X19.6118 Y4.5291 F120.00
G01 X19.5981 Y4.5001 F120.00
G01 X19.5873 Y4.4699 F120.00
G01 X19.5795 Y4.4388 F120.00
G01 X19.5748 Y4.4070 F120.00
G01 X19.5732 Y4.3750 F120.00
G01 X19.5732 Y3.1250 F120.00
G01 X19.5748 Y3.0930 F120.00
G01 X19.5795 Y3.0612 F120.00
G01 X19.5873 Y3.0301 F120.00
G01 X19.5981 Y2.9999 F120.00
G01 X19.6118 Y2.9709 F120.00
G01 X19.6283 Y2.9434 F120.00
G01 X19.6474 Y2.9177 F120.00
G01 X19.6689 Y2.8939 F120.00
G01 X19.6927 Y2.8724 F120.00
G01 X19.7184 Y2.8533 F120.00
G01 X19.7459 Y2.8368 F120.00
G01 X19.7749 Y2.8231 F120.00
G01 X19.8051 Y2.8123 F120.00
G01 X19.8362 Y2.8045 F120.00
G01 X19.8680 Y2.7998 F120.00
G01 X19.9021 Y2.7982 F120.00
G01 X19.3840 Y2.2801 F120.00
G01 X7.3660 Y2.2801 F120.00
G01 X6.5301 Y3.1160 F120.00
G01 X6.5301 Y20.1340 F120.00
G01 X7.1160 Y20.7199 F120.00
G01 X8.7500 Y20.7199 F120.00
G01 X8.7775 Y20.7212 F120.00
G01 X8.8065 Y20.7257 F120.00
G01 X8.8277 Y20.7310 F120.00
G01 X8.8349 Y20.7331 F120.00
G01 X8.8572 Y20.7412 F120.00
G01 X8.8787 Y20.7513 F120.00
G01 X8.8853 Y20.7548 F120.00
G01 X8.9056 Y20.7671 F120.00
G01 X8.9247 Y20.7812 F120.00
G01 X8.9305 Y20.7859 F120.00
G01 X8.9481 Y20.8019 F120.00
G01 X9.4007 Y21.2547 F120.00
G01 X9.4165 Y21.2723 F120.00
G01 X9.4329 Y21.2944 F120.00
G01 X9.4470 Y21.3180 F120.00
G01 X9.4588 Y21.3428 F120.00
G01 X9.4680 Y21.3687 F120.00
G01 X9.4747 Y21.3954 F120.00
G01 X9.4788 Y21.4225 F120.00
G01 X9.4801 Y21.4481 F120.00
G01 X9.4801 Y23.5482 F120.00
G01 X9.6019 Y23.5482 F120.00
G01 X9.6320 Y23.5498 F120.00
G01 X9.6638 Y23.5545 F120.00
G01 X9.6949 Y23.5623 F120.00
G01 X9.7251 Y23.5731 F120.00
G01 X9.7541 Y23.5868 F120.00
G01 X9.7784 Y23.6013 F120.00
G01 X9.7846 Y23.6054 F120.00
G01 X9.8043 Y23.6201 F120.00
G01 X9.8102 Y23.6248 F120.00
G01 X9.8311 Y23.6439 F120.00
G01 X9.8502 Y23.6648 F120.00
G01 X9.8549 Y23.6707 F120.00
G01 X9.8717 Y23.6934 F120.00
G01 X9.8882 Y23.7209 F120.00
G01 X9.9019 Y23.7499 F120.00
G01 X9.9115 Y23.7766 F120.00
G01 X9.9137 Y23.7838 F120.00
G01 X9.9205 Y23.8112 F120.00
G01 X9.9248 Y23.8392 F120.00
G01 X9.9255 Y23.8467 F120.00
G01 X9.9268 Y23.8731 F120.00
G01 X9.9268 Y25.1250 F120.00
G01 X9.9252 Y25.1570 F120.00
G01 X9.9205 Y25.1888 F120.00
G01 X9.9127 Y25.2199 F120.00
G01 X9.9019 Y25.2501 F120.00
G01 X9.8899 Y25.2757 F120.00
G01 X9.8864 Y25.2823 F120.00
G01 X9.8717 Y25.3066 F120.00
G01 X9.8549 Y25.3293 F120.00
G01 X9.8502 Y25.3352 F120.00
G01 X9.8337 Y25.3534 F120.00
G01 X9.8284 Y25.3587 F120.00
G01 X9.8073 Y25.3776 F120.00
G01 X9.7846 Y25.3946 F120.00
G01 X9.7784 Y25.3987 F120.00
G01 X9.7573 Y25.4114 F120.00
G01 X9.7507 Y25.4149 F120.00
G01 X9.7251 Y25.4269 F120.00
G01 X9.6949 Y25.4377 F120.00
G01 X9.6674 Y25.4447 F120.00
G01 X9.6600 Y25.4462 F120.00
G01 X9.6320 Y25.4502 F120.00
G01 X9.6019 Y25.4518 F120.00
G01 X8.7981 Y25.4518 F120.00
G01 X8.7680 Y25.4502 F120.00
G01 X8.7362 Y25.4455 F120.00
G01 X8.7051 Y25.4377 F120.00
G01 X8.6732 Y25.4262 F120.00
G01 X8.6459 Y25.4132 F120.00
G01 X8.6216 Y25.3987 F120.00
G01 X8.6154 Y25.3946 F120.00
G01 X8.5957 Y25.3799 F120.00
G01 X8.5898 Y25.3752 F120.00
G01 X8.5689 Y25.3561 F120.00
G01 X8.5498 Y25.3352 F120.00
G01 X8.5451 Y25.3293 F120.00
G01 X8.5283 Y25.3066 F120.00
G01 X8.5118 Y25.2791 F120.00
G01 X8.4981 Y25.2501 F120.00
G01 X8.4873 Y25.2199 F120.00
G01 X8.4803 Y25.1924 F120.00
G01 X8.4788 Y25.1850 F120.00
G01 X8.4748 Y25.1570 F120.00
G01 X8.4732 Y25.1269 F120.00
G01 X8.4732 Y24.7801 F120.00
G01 X8.3660 Y24.7801 F120.00
G01 X7.5301 Y25.6160 F120.00
G01 X7.5301 Y28.8840 F120.00
G01 X8.1160 Y29.4699 F120.00
G01 X21.3840 Y29.4699 F120.00
G01 X21.9699 Y28.8840 F120.00
G01 X21.9699 Y24.7801 F120.00
G01 X21.0268 Y24.7801 F120.00
G01 X21.0268 Y25.1269 F120.00
G01 X21.0252 Y25.1570 F120.00
G01 X21.0212 Y25.1850 F120.00
G01 X21.0197 Y25.1924 F120.00
G01 X21.0137 Y25.2162 F120.00
G01 X21.0115 Y25.2234 F120.00
G01 X21.0033 Y25.2465 F120.00
G01 X21.0004 Y25.2535 F120.00
G01 X20.9882 Y25.2791 F120.00
G01 X20.9737 Y25.3034 F120.00
G01 X20.9696 Y25.3096 F120.00
G01 X20.9526 Y25.3323 F120.00
G01 X20.9311 Y25.3561 F120.00
G01 X20.9102 Y25.3752 F120.00
G01 X20.9043 Y25.3799 F120.00
G01 X20.8816 Y25.3967 F120.00
G01 X20.8573 Y25.4114 F120.00
G01 X20.8507 Y25.4149 F120.00
G01 X20.8251 Y25.4269 F120.00
G01 X20.7931 Y25.4383 F120.00
G01 X20.7638 Y25.4455 F120.00
G01 X20.7358 Y25.4498 F120.00
G01 X20.7283 Y25.4505 F120.00
G01 X20.7019 Y25.4518 F120.00
G01 X19.8981 Y25.4518 F120.00
G01 X19.8717 Y25.4505 F120.00
G01 X19.8642 Y25.4498 F120.00
G01 X19.8362 Y25.4455 F120.00
G01 X19.8088 Y25.4387 F120.00
G01 X19.8016 Y25.4365 F120.00
G01 X19.7749 Y25.4269 F120.00
G01 X19.7493 Y25.4149 F120.00
G01 X19.7427 Y25.4114 F120.00
G01 X19.7184 Y25.3967 F120.00
G01 X19.6957 Y25.3799 F120.00
G01 X19.6898 Y25.3752 F120.00
G01 X19.6716 Y25.3587 F120.00
G01 X19.6663 Y25.3534 F120.00
G01 X19.6474 Y25.3323 F120.00
G01 X19.6283 Y25.3066 F120.00
G01 X19.6136 Y25.2823 F120.00
G01 X19.6101 Y25.2757 F120.00
G01 X19.5981 Y25.2501 F120.00
G01 X19.5885 Y25.2234 F120.00
G01 X19.5863 Y25.2162 F120.00
G01 X19.5795 Y25.1888 F120.00
G01 X19.5748 Y25.1570 F120.00
G01 X19.5732 Y25.1250 F120.00
G01 X19.5732 Y23.8750 F120.00
G01 X19.5746 Y23.8448 F120.00
G01 X19.5795 Y23.8112 F120.00
G01 X19.5863 Y23.7838 F120.00
G01 X19.5885 Y23.7766 F120.00
G01 X19.5967 Y23.7535 F120.00
G01 X19.5996 Y23.7465 F120.00
G01 X19.6118 Y23.7209 F120.00
G01 X19.6283 Y23.6934 F120.00
G01 X19.6474 Y23.6677 F120.00
G01 X19.6689 Y23.6439 F120.00
G01 X19.6927 Y23.6224 F120.00
G01 X19.7154 Y23.6054 F120.00
G01 X19.7216 Y23.6013 F120.00
G01 X19.7427 Y23.5886 F120.00
G01 X19.7493 Y23.5851 F120.00
G01 X19.7749 Y23.5731 F120.00
G01 X19.8051 Y23.5623 F120.00
G01 X19.8362 Y23.5545 F120.00
G01 X19.8680 Y23.5498 F120.00
G01 X19.9000 Y23.5482 F120.00
G01 X20.7038 Y23.5483 F120.00
G01 X20.7283 Y23.5495 F120.00
G01 X20.7358 Y23.5502 F120.00
G01 X20.7638 Y23.5545 F120.00
G01 X20.7912 Y23.5613 F120.00
G01 X20.7984 Y23.5635 F120.00
G01 X20.8251 Y23.5731 F120.00
