(G-CODE GENERATED BY FLATCAM v8.994 - www.flatcam.org - Version Date: 2020/11/7)

(Name: Encoders-LCD-B_Cu.gbr_iso_combined_cnc)
(Type: G-code from Geometry)
(Units: MM)

(Created on Monday, 09 September 2024 at 09:20)

(This preprocessor is used with a motion controller loaded with GRBL firmware.)
(It is configured to be compatible with almost any version of GRBL firmware.)

(TOOL DIAMETER: 0.1536 mm)
(Feedrate_XY: 100.0 mm/min)
(Feedrate_Z: 40.0 mm/min)
(Feedrate rapids 1500.0 mm/min)

(Z_Cut: -0.1 mm)
(Z_Move: 2.0 mm)
(Z Start: None mm)
(Z End: 5.0 mm)
(X,Y End: None mm)
(Steps per circle: 64)
(Steps per circle: 64)
(Preprocessor Geometry: GRBL_11_no_M6)

(X range:  -54.5763 ...   54.5763  mm)
(Y range:  -37.5763 ...   37.5763  mm)

(Spindle Speed: 900.0 RPM)
G21
G90
G17
G94


G01 F100.00

M5             
G00 Z5.0000
G00 X0.0000 Y0.0000                
T1
(MSG, Change to Tool Dia = 0.1536)
M0
G00 Z5.0000
        
M03 S900.0
G01 F100.00
G00 X2.1732 Y5.2232
G01 F40.00
G01 Z-0.1000
G01 F100.00
G01 X1.8750 Y5.2232 F100.00
G01 X1.8467 Y5.2245 F100.00
G01 X1.8392 Y5.2252 F100.00
G01 X1.8150 Y5.2288 F100.00
G01 X1.8076 Y5.2303 F100.00
G01 X1.7801 Y5.2373 F100.00
G01 X1.7499 Y5.2481 F100.00
G01 X1.7209 Y5.2618 F100.00
G01 X1.6934 Y5.2783 F100.00
G01 X1.6677 Y5.2974 F100.00
G01 X1.6466 Y5.3163 F100.00
G01 X1.6413 Y5.3216 F100.00
G01 X1.6248 Y5.3398 F100.00
G01 X1.6201 Y5.3457 F100.00
G01 X1.6033 Y5.3684 F100.00
G01 X1.5868 Y5.3959 F100.00
G01 X1.5731 Y5.4249 F100.00
G01 X1.5635 Y5.4516 F100.00
G01 X1.5613 Y5.4588 F100.00
G01 X1.5541 Y5.4881 F100.00
G01 X1.5498 Y5.5180 F100.00
G01 X1.5483 Y5.5462 F100.00
G01 X1.5482 Y5.6232 F100.00
G01 X1.2018 Y5.6232 F100.00
G01 X1.2018 Y5.5039 F100.00
G01 X1.2110 Y5.4135 F100.00
G01 X1.2607 Y5.2636 F100.00
G01 X1.3433 Y5.1296 F100.00
G01 X1.4546 Y5.0183 F100.00
G01 X1.5886 Y4.9357 F100.00
G01 X1.7385 Y4.8860 F100.00
G01 X1.8289 Y4.8768 F100.00
G01 X2.1732 Y4.8768 F100.00
G01 X2.1732 Y5.2232 F100.00
G00 Z2.0000
G00 X1.5482 Y6.2768
G01 F40.00
G01 Z-0.1000
G01 F100.00
G01 X1.5482 Y6.3519 F100.00
G01 X1.5500 Y6.3839 F100.00
G01 X1.5545 Y6.4138 F100.00
G01 X1.5613 Y6.4412 F100.00
G01 X1.5635 Y6.4484 F100.00
G01 X1.5731 Y6.4751 F100.00
G01 X1.5868 Y6.5041 F100.00
G01 X1.6013 Y6.5284 F100.00
G01 X1.6054 Y6.5346 F100.00
G01 X1.6224 Y6.5573 F100.00
G01 X1.6439 Y6.5811 F100.00
G01 X1.6648 Y6.6002 F100.00
G01 X1.6707 Y6.6049 F100.00
G01 X1.6950 Y6.6228 F100.00
G01 X1.7209 Y6.6382 F100.00
G01 X1.7465 Y6.6504 F100.00
G01 X1.7535 Y6.6533 F100.00
G01 X1.7801 Y6.6627 F100.00
G01 X1.8076 Y6.6697 F100.00
G01 X1.8150 Y6.6712 F100.00
G01 X1.8411 Y6.6750 F100.00
G01 X1.8750 Y6.6768 F100.00
G01 X2.1732 Y6.6768 F100.00
G01 X2.1732 Y7.0232 F100.00
G01 X1.8289 Y7.0232 F100.00
G01 X1.7385 Y7.0140 F100.00
G01 X1.5886 Y6.9643 F100.00
G01 X1.4546 Y6.8817 F100.00
G01 X1.3433 Y6.7704 F100.00
G01 X1.2607 Y6.6364 F100.00
G01 X1.2110 Y6.4865 F100.00
G01 X1.2018 Y6.3961 F100.00
G01 X1.2018 Y6.2768 F100.00
G01 X1.5482 Y6.2768 F100.00
G00 Z2.0000
G00 X3.4518 Y5.6232
G01 F40.00
G01 Z-0.1000
G01 F100.00
G01 X3.4518 Y5.5481 F100.00
G01 X3.4500 Y5.5161 F100.00
G01 X3.4455 Y5.4862 F100.00
G01 X3.4387 Y5.4588 F100.00
G01 X3.4365 Y5.4516 F100.00
G01 X3.4269 Y5.4249 F100.00
G01 X3.4132 Y5.3959 F100.00
G01 X3.3987 Y5.3716 F100.00
G01 X3.3946 Y5.3654 F100.00
G01 X3.3776 Y5.3427 F100.00
G01 X3.3561 Y5.3189 F100.00
G01 X3.3352 Y5.2998 F100.00
G01 X3.3293 Y5.2951 F100.00
G01 X3.3050 Y5.2772 F100.00
G01 X3.2791 Y5.2618 F100.00
G01 X3.2535 Y5.2496 F100.00
G01 X3.2465 Y5.2467 F100.00
G01 X3.2199 Y5.2373 F100.00
G01 X3.1924 Y5.2303 F100.00
G01 X3.1850 Y5.2288 F100.00
G01 X3.1589 Y5.2250 F100.00
G01 X3.1250 Y5.2232 F100.00
G01 X2.8268 Y5.2232 F100.00
G01 X2.8268 Y4.8768 F100.00
G01 X3.1711 Y4.8768 F100.00
G01 X3.2615 Y4.8860 F100.00
G01 X3.4114 Y4.9357 F100.00
G01 X3.5454 Y5.0183 F100.00
G01 X3.6567 Y5.1296 F100.00
G01 X3.7393 Y5.2636 F100.00
G01 X3.7890 Y5.4135 F100.00
G01 X3.7982 Y5.5039 F100.00
G01 X3.7982 Y5.6232 F100.00
G01 X3.4518 Y5.6232 F100.00
G00 Z2.0000
G00 X3.7982 Y6.3961
G01 F40.00
G01 Z-0.1000
G01 F100.00
G01 X3.7890 Y6.4865 F100.00
G01 X3.7393 Y6.6364 F100.00
G01 X3.6567 Y6.7704 F100.00
G01 X3.5454 Y6.8817 F100.00
G01 X3.4114 Y6.9643 F100.00
G01 X3.2615 Y7.0140 F100.00
G01 X3.1711 Y7.0232 F100.00
G01 X2.8268 Y7.0232 F100.00
G01 X2.8268 Y6.6768 F100.00
G01 X3.1250 Y6.6768 F100.00
G01 X3.1589 Y6.6750 F100.00
G01 X3.1850 Y6.6712 F100.00
G01 X3.1924 Y6.6697 F100.00
G01 X3.2199 Y6.6627 F100.00
G01 X3.2465 Y6.6533 F100.00
G01 X3.2535 Y6.6504 F100.00
G01 X3.2791 Y6.6382 F100.00
G01 X3.3050 Y6.6228 F100.00
G01 X3.3293 Y6.6049 F100.00
G01 X3.3352 Y6.6002 F100.00
G01 X3.3561 Y6.5811 F100.00
G01 X3.3776 Y6.5573 F100.00
G01 X3.3946 Y6.5346 F100.00
G01 X3.3987 Y6.5284 F100.00
G01 X3.4132 Y6.5041 F100.00
G01 X3.4269 Y6.4751 F100.00
G01 X3.4365 Y6.4484 F100.00
G01 X3.4387 Y6.4412 F100.00
G01 X3.4455 Y6.4138 F100.00
G01 X3.4500 Y6.3839 F100.00
G01 X3.4518 Y6.3519 F100.00
G01 X3.4518 Y6.2768 F100.00
G01 X3.7982 Y6.2768 F100.00
G01 X3.7982 Y6.3961 F100.00
G00 Z2.0000
G00 X-1.2018 Y6.3961
G01 F40.00
G01 Z-0.1000
G01 F100.00
G01 X-1.2110 Y6.4865 F100.00
G01 X-1.2607 Y6.6364 F100.00
G01 X-1.3433 Y6.7704 F100.00
G01 X-1.4546 Y6.8817 F100.00
G01 X-1.5886 Y6.9643 F100.00
G01 X-1.7385 Y7.0140 F100.00
G01 X-1.8289 Y7.0232 F100.00
G01 X-2.1732 Y7.0232 F100.00
G01 X-2.1732 Y6.6768 F100.00
G01 X-1.8750 Y6.6768 F100.00
G01 X-1.8411 Y6.6750 F100.00
G01 X-1.8150 Y6.6712 F100.00
G01 X-1.8076 Y6.6697 F100.00
G01 X-1.7801 Y6.6627 F100.00
G01 X-1.7535 Y6.6533 F100.00
G01 X-1.7465 Y6.6504 F100.00
G01 X-1.7209 Y6.6382 F100.00
G01 X-1.6950 Y6.6228 F100.00
G01 X-1.6707 Y6.6049 F100.00
G01 X-1.6648 Y6.6002 F100.00
G01 X-1.6439 Y6.5811 F100.00
G01 X-1.6224 Y6.5573 F100.00
G01 X-1.6054 Y6.5346 F100.00
G01 X-1.6013 Y6.5284 F100.00
G01 X-1.5868 Y6.5041 F100.00
G01 X-1.5731 Y6.4751 F100.00
G01 X-1.5635 Y6.4484 F100.00
G01 X-1.5613 Y6.4412 F100.00
G01 X-1.5545 Y6.4138 F100.00
G01 X-1.5500 Y6.3839 F100.00
G01 X-1.5482 Y6.3519 F100.00
G01 X-1.5482 Y6.2768 F100.00
G01 X-1.2018 Y6.2768 F100.00
G01 X-1.2018 Y6.3961 F100.00
G00 Z2.0000
G00 X-1.5482 Y5.6232
G01 F40.00
G01 Z-0.1000
G01 F100.00
G01 X-1.5482 Y5.5481 F100.00
G01 X-1.5500 Y5.5161 F100.00
G01 X-1.5545 Y5.4862 F100.00
G01 X-1.5613 Y5.4588 F100.00
G01 X-1.5635 Y5.4516 F100.00
G01 X-1.5731 Y5.4249 F100.00
G01 X-1.5868 Y5.3959 F100.00
G01 X-1.6013 Y5.3716 F100.00
G01 X-1.6054 Y5.3654 F100.00
G01 X-1.6224 Y5.3427 F100.00
G01 X-1.6439 Y5.3189 F100.00
G01 X-1.6648 Y5.2998 F100.00
G01 X-1.6707 Y5.2951 F100.00
G01 X-1.6950 Y5.2772 F100.00
G01 X-1.7209 Y5.2618 F100.00
G01 X-1.7465 Y5.2496 F100.00
G01 X-1.7535 Y5.2467 F100.00
G01 X-1.7801 Y5.2373 F100.00
G01 X-1.8076 Y5.2303 F100.00
G01 X-1.8150 Y5.2288 F100.00
G01 X-1.8411 Y5.2250 F100.00
G01 X-1.8750 Y5.2232 F100.00
G01 X-2.1732 Y5.2232 F100.00
G01 X-2.1732 Y4.8768 F100.00
G01 X-1.8289 Y4.8768 F100.00
G01 X-1.7385 Y4.8860 F100.00
G01 X-1.5886 Y4.9357 F100.00
G01 X-1.4546 Y5.0183 F100.00
G01 X-1.3433 Y5.1296 F100.00
G01 X-1.2607 Y5.2636 F100.00
G01 X-1.2110 Y5.4135 F100.00
G01 X-1.2018 Y5.5039 F100.00
G01 X-1.2018 Y5.6232 F100.00
G01 X-1.5482 Y5.6232 F100.00
G00 Z2.0000
G00 X-2.8268 Y5.2232
G01 F40.00
G01 Z-0.1000
G01 F100.00
G01 X-3.1250 Y5.2232 F100.00
G01 X-3.1533 Y5.2245 F100.00
G01 X-3.1608 Y5.2252 F100.00
G01 X-3.1850 Y5.2288 F100.00
G01 X-3.1924 Y5.2303 F100.00
G01 X-3.2199 Y5.2373 F100.00
G01 X-3.2501 Y5.2481 F100.00
G01 X-3.2791 Y5.2618 F100.00
G01 X-3.3066 Y5.2783 F100.00
G01 X-3.3323 Y5.2974 F100.00
G01 X-3.3534 Y5.3163 F100.00
G01 X-3.3587 Y5.3216 F100.00
G01 X-3.3752 Y5.3398 F100.00
G01 X-3.3799 Y5.3457 F100.00
G01 X-3.3967 Y5.3684 F100.00
G01 X-3.4132 Y5.3959 F100.00
G01 X-3.4269 Y5.4249 F100.00
G01 X-3.4365 Y5.4516 F100.00
G01 X-3.4387 Y5.4588 F100.00
G01 X-3.4459 Y5.4881 F100.00
G01 X-3.4502 Y5.5180 F100.00
G01 X-3.4517 Y5.5462 F100.00
G01 X-3.4518 Y5.6232 F100.00
G01 X-3.7982 Y5.6232 F100.00
G01 X-3.7982 Y5.5039 F100.00
G01 X-3.7890 Y5.4135 F100.00
G01 X-3.7393 Y5.2636 F100.00
G01 X-3.6567 Y5.1296 F100.00
G01 X-3.5454 Y5.0183 F100.00
G01 X-3.4114 Y4.9357 F100.00
G01 X-3.2615 Y4.8860 F100.00
G01 X-3.1711 Y4.8768 F100.00
G01 X-2.8268 Y4.8768 F100.00
G01 X-2.8268 Y5.2232 F100.00
G00 Z2.0000
G00 X-3.4518 Y6.2768
G01 F40.00
G01 Z-0.1000
G01 F100.00
G01 X-3.4518 Y6.3519 F100.00
G01 X-3.4500 Y6.3839 F100.00
G01 X-3.4455 Y6.4138 F100.00
G01 X-3.4387 Y6.4412 F100.00
G01 X-3.4365 Y6.4484 F100.00
G01 X-3.4269 Y6.4751 F100.00
G01 X-3.4132 Y6.5041 F100.00
G01 X-3.3987 Y6.5284 F100.00
G01 X-3.3946 Y6.5346 F100.00
G01 X-3.3776 Y6.5573 F100.00
G01 X-3.3561 Y6.5811 F100.00
G01 X-3.3352 Y6.6002 F100.00
G01 X-3.3293 Y6.6049 F100.00
G01 X-3.3050 Y6.6228 F100.00
G01 X-3.2791 Y6.6382 F100.00
G01 X-3.2535 Y6.6504 F100.00
G01 X-3.2465 Y6.6533 F100.00
G01 X-3.2199 Y6.6627 F100.00
G01 X-3.1924 Y6.6697 F100.00
G01 X-3.1850 Y6.6712 F100.00
G01 X-3.1589 Y6.6750 F100.00
G01 X-3.1250 Y6.6768 F100.00
G01 X-2.8268 Y6.6768 F100.00
G01 X-2.8268 Y7.0232 F100.00
G01 X-3.1711 Y7.0232 F100.00
G01 X-3.2615 Y7.0140 F100.00
G01 X-3.4114 Y6.9643 F100.00
G01 X-3.5454 Y6.8817 F100.00
G01 X-3.6567 Y6.7704 F100.00
G01 X-3.7393 Y6.6364 F100.00
G01 X-3.7890 Y6.4865 F100.00
G01 X-3.7982 Y6.3961 F100.00
G01 X-3.7982 Y6.2768 F100.00
G01 X-3.4518 Y6.2768 F100.00
G00 Z2.0000
G00 X-6.4332 Y17.9490
G01 F40.00
G01 Z-0.1000
G01 F100.00
G01 X-6.1793 Y17.8387 F100.00
G01 X-5.9127 Y17.7640 F100.00
G01 X-5.6384 Y17.7263 F100.00
G01 X-5.3616 Y17.7263 F100.00
G01 X-5.0873 Y17.7640 F100.00
G01 X-4.8207 Y17.8387 F100.00
G01 X-4.5668 Y17.9490 F100.00
G01 X-4.4073 Y18.0460 F100.00
G01 X-4.3302 Y18.0928 F100.00
G01 X-4.1155 Y18.2676 F100.00
G01 X-3.9265 Y18.4699 F100.00
G01 X-3.7669 Y18.6961 F100.00
G01 X-3.6395 Y18.9419 F100.00
G01 X-3.5468 Y19.2027 F100.00
G01 X-3.4905 Y19.4738 F100.00
G01 X-3.4716 Y19.7500 F100.00
G01 X-3.4905 Y20.0262 F100.00
G01 X-3.5468 Y20.2973 F100.00
G01 X-3.6395 Y20.5581 F100.00
G01 X-3.7669 Y20.8039 F100.00
G01 X-3.9265 Y21.0301 F100.00
G01 X-4.1155 Y21.2325 F100.00
G01 X-4.3302 Y21.4072 F100.00
G01 X-4.5668 Y21.5510 F100.00
G01 X-4.8207 Y21.6613 F100.00
G01 X-4.8846 Y21.6792 F100.00
G01 X-5.0873 Y21.7360 F100.00
G01 X-5.3616 Y21.7737 F100.00
G01 X-5.6384 Y21.7737 F100.00
G01 X-5.7756 Y21.7549 F100.00
G01 X-5.9127 Y21.7360 F100.00
G01 X-6.1793 Y21.6613 F100.00
G01 X-6.4332 Y21.5510 F100.00
G01 X-6.6698 Y21.4072 F100.00
G01 X-6.8845 Y21.2324 F100.00
G01 X-7.0735 Y21.0301 F100.00
G01 X-7.2331 Y20.8039 F100.00
G01 X-7.3605 Y20.5581 F100.00
G01 X-7.4532 Y20.2973 F100.00
G01 X-7.5095 Y20.0262 F100.00
G01 X-7.5284 Y19.7500 F100.00
G01 X-7.5095 Y19.4738 F100.00
G01 X-7.4532 Y19.2027 F100.00
G01 X-7.3605 Y18.9419 F100.00
G01 X-7.2331 Y18.6961 F100.00
G01 X-7.0735 Y18.4699 F100.00
G01 X-6.8845 Y18.2676 F100.00
G01 X-6.6698 Y18.0928 F100.00
G01 X-6.4332 Y17.9490 F100.00
G00 Z2.0000
G00 X-7.1767 Y19.7538
G01 F40.00
G01 Z-0.1000
G01 F100.00
G01 X-7.1767 Y19.7462 F100.00
G01 X-7.1687 Y19.5856 F100.00
G01 X-7.1446 Y19.4229 F100.00
G01 X-7.1046 Y19.2633 F100.00
G01 X-7.0492 Y19.1083 F100.00
G01 X-6.9788 Y18.9596 F100.00
G01 X-6.8942 Y18.8184 F100.00
G01 X-6.7962 Y18.6862 F100.00
G01 X-6.6857 Y18.5643 F100.00
G01 X-6.5638 Y18.4538 F100.00
G01 X-6.4316 Y18.3558 F100.00
G01 X-6.2904 Y18.2712 F100.00
G01 X-6.1417 Y18.2008 F100.00
G01 X-5.9867 Y18.1454 F100.00
G01 X-5.8271 Y18.1054 F100.00
G01 X-5.6644 Y18.0813 F100.00
G01 X-5.5000 Y18.0732 F100.00
G01 X-5.3356 Y18.0813 F100.00
G01 X-5.1729 Y18.1054 F100.00
G01 X-5.0133 Y18.1454 F100.00
G01 X-4.8583 Y18.2008 F100.00
G01 X-4.7096 Y18.2712 F100.00
G01 X-4.5684 Y18.3558 F100.00
G01 X-4.4362 Y18.4538 F100.00
G01 X-4.3143 Y18.5643 F100.00
G01 X-4.2038 Y18.6862 F100.00
G01 X-4.1058 Y18.8184 F100.00
G01 X-4.0212 Y18.9596 F100.00
G01 X-3.9508 Y19.1083 F100.00
G01 X-3.8954 Y19.2633 F100.00
G01 X-3.8554 Y19.4229 F100.00
G01 X-3.8313 Y19.5856 F100.00
G01 X-3.8232 Y19.7500 F100.00
G01 X-3.8313 Y19.9144 F100.00
G01 X-3.8554 Y20.0771 F100.00
G01 X-3.8954 Y20.2367 F100.00
G01 X-3.9508 Y20.3917 F100.00
G01 X-4.0212 Y20.5404 F100.00
G01 X-4.1058 Y20.6816 F100.00
G01 X-4.2038 Y20.8138 F100.00
G01 X-4.3143 Y20.9357 F100.00
G01 X-4.4362 Y21.0462 F100.00
G01 X-4.5684 Y21.1442 F100.00
G01 X-4.7096 Y21.2288 F100.00
G01 X-4.8583 Y21.2992 F100.00
G01 X-5.0133 Y21.3546 F100.00
G01 X-5.1729 Y21.3946 F100.00
G01 X-5.3356 Y21.4187 F100.00
G01 X-5.5000 Y21.4268 F100.00
G01 X-5.6644 Y21.4187 F100.00
G01 X-5.8271 Y21.3946 F100.00
G01 X-5.9867 Y21.3546 F100.00
G01 X-6.1417 Y21.2992 F100.00
G01 X-6.2904 Y21.2288 F100.00
G01 X-6.4316 Y21.1442 F100.00
G01 X-6.5638 Y21.0462 F100.00
G01 X-6.6857 Y20.9357 F100.00
G01 X-6.7962 Y20.8138 F100.00
G01 X-6.8942 Y20.6816 F100.00
G01 X-6.9788 Y20.5404 F100.00
G01 X-7.0492 Y20.3917 F100.00
G01 X-7.1046 Y20.2367 F100.00
G01 X-7.1446 Y20.0771 F100.00
G01 X-7.1687 Y19.9144 F100.00
G01 X-7.1767 Y19.7538 F100.00
G00 Z2.0000
G00 X-5.7643 Y25.7732
G01 F40.00
G01 Z-0.1000
G01 F100.00
G01 X-5.8519 Y25.7732 F100.00
G01 X-5.8839 Y25.7750 F100.00
G01 X-5.9138 Y25.7795 F100.00
G01 X-5.9412 Y25.7863 F100.00
G01 X-5.9484 Y25.7885 F100.00
G01 X-5.9751 Y25.7981 F100.00
G01 X-6.0041 Y25.8118 F100.00
G01 X-6.0284 Y25.8263 F100.00
G01 X-6.0346 Y25.8304 F100.00
G01 X-6.0573 Y25.8474 F100.00
G01 X-6.0811 Y25.8689 F100.00
G01 X-6.1002 Y25.8898 F100.00
G01 X-6.1049 Y25.8957 F100.00
G01 X-6.1228 Y25.9200 F100.00
G01 X-6.1364 Y25.9427 F100.00
G01 X-6.1399 Y25.9493 F100.00
G01 X-6.1519 Y25.9749 F100.00
G01 X-6.1615 Y26.0016 F100.00
G01 X-6.1637 Y26.0088 F100.00
G01 X-6.1705 Y26.0362 F100.00
G01 X-6.1752 Y26.0680 F100.00
G01 X-6.1768 Y26.1000 F100.00
G01 X-6.1768 Y26.4232 F100.00
G01 X-6.5232 Y26.4232 F100.00
G01 X-6.5232 Y26.0539 F100.00
G01 X-6.5140 Y25.9635 F100.00
G01 X-6.4643 Y25.8136 F100.00
G01 X-6.3817 Y25.6796 F100.00
G01 X-6.2704 Y25.5683 F100.00
G01 X-6.1364 Y25.4857 F100.00
G01 X-5.9865 Y25.4360 F100.00
G01 X-5.8961 Y25.4268 F100.00
G01 X-5.7643 Y25.4268 F100.00
G01 X-5.7643 Y25.7732 F100.00
G00 Z2.0000
G00 X-4.6982 Y26.4232
G01 F40.00
G01 Z-0.1000
G01 F100.00
G01 X-4.6982 Y26.1000 F100.00
G01 X-4.6995 Y26.0717 F100.00
G01 X-4.7002 Y26.0642 F100.00
G01 X-4.7038 Y26.0400 F100.00
G01 X-4.7053 Y26.0326 F100.00
G01 X-4.7123 Y26.0051 F100.00
G01 X-4.7231 Y25.9749 F100.00
G01 X-4.7368 Y25.9459 F100.00
G01 X-4.7533 Y25.9184 F100.00
G01 X-4.7724 Y25.8927 F100.00
G01 X-4.7913 Y25.8716 F100.00
G01 X-4.7966 Y25.8663 F100.00
G01 X-4.8148 Y25.8498 F100.00
G01 X-4.8207 Y25.8451 F100.00
G01 X-4.8434 Y25.8283 F100.00
G01 X-4.8709 Y25.8118 F100.00
G01 X-4.8999 Y25.7981 F100.00
G01 X-4.9266 Y25.7885 F100.00
G01 X-4.9338 Y25.7863 F100.00
G01 X-4.9631 Y25.7791 F100.00
G01 X-4.9930 Y25.7748 F100.00
G01 X-5.0212 Y25.7733 F100.00
G01 X-5.1107 Y25.7732 F100.00
G01 X-5.1107 Y25.4268 F100.00
G01 X-4.9789 Y25.4268 F100.00
G01 X-4.8885 Y25.4360 F100.00
G01 X-4.7386 Y25.4857 F100.00
G01 X-4.6046 Y25.5683 F100.00
G01 X-4.4933 Y25.6796 F100.00
G01 X-4.4107 Y25.8136 F100.00
G01 X-4.3610 Y25.9635 F100.00
G01 X-4.3518 Y26.0539 F100.00
G01 X-4.3518 Y26.4232 F100.00
G01 X-4.6982 Y26.4232 F100.00
G00 Z2.0000
G00 X-4.3518 Y27.4461
G01 F40.00
G01 Z-0.1000
G01 F100.00
G01 X-4.3610 Y27.5365 F100.00
G01 X-4.4107 Y27.6864 F100.00
G01 X-4.4933 Y27.8204 F100.00
G01 X-4.6046 Y27.9317 F100.00
G01 X-4.7386 Y28.0143 F100.00
G01 X-4.8885 Y28.0640 F100.00
G01 X-4.9789 Y28.0732 F100.00
G01 X-5.1107 Y28.0732 F100.00
G01 X-5.1107 Y27.7268 F100.00
G01 X-5.0212 Y27.7267 F100.00
G01 X-4.9930 Y27.7252 F100.00
G01 X-4.9631 Y27.7209 F100.00
G01 X-4.9338 Y27.7137 F100.00
G01 X-4.9266 Y27.7115 F100.00
G01 X-4.8999 Y27.7019 F100.00
G01 X-4.8709 Y27.6882 F100.00
G01 X-4.8434 Y27.6717 F100.00
G01 X-4.8207 Y27.6549 F100.00
G01 X-4.8148 Y27.6502 F100.00
G01 X-4.7966 Y27.6337 F100.00
G01 X-4.7913 Y27.6284 F100.00
G01 X-4.7724 Y27.6073 F100.00
G01 X-4.7533 Y27.5816 F100.00
G01 X-4.7368 Y27.5541 F100.00
G01 X-4.7231 Y27.5251 F100.00
G01 X-4.7123 Y27.4949 F100.00
G01 X-4.7053 Y27.4674 F100.00
G01 X-4.7038 Y27.4600 F100.00
G01 X-4.7002 Y27.4358 F100.00
G01 X-4.6995 Y27.4283 F100.00
G01 X-4.6982 Y27.4000 F100.00
G01 X-4.6982 Y27.0768 F100.00
G01 X-4.3518 Y27.0768 F100.00
G01 X-4.3518 Y27.4461 F100.00
G00 Z2.0000
G00 X-3.1501 Y27.9623
G01 F40.00
G01 Z-0.1000
G01 F100.00
G01 X-2.8940 Y27.7062 F100.00
G01 X-2.8121 Y27.7448 F100.00
G01 X-2.7162 Y27.7793 F100.00
G01 X-2.7089 Y27.7814 F100.00
G01 X-2.6138 Y27.8053 F100.00
G01 X-2.6064 Y27.8068 F100.00
G01 X-2.5055 Y27.8216 F100.00
G01 X-2.4000 Y27.8268 F100.00
G01 X-2.2945 Y27.8216 F100.00
G01 X-2.1936 Y27.8068 F100.00
G01 X-2.1862 Y27.8053 F100.00
G01 X-2.0911 Y27.7814 F100.00
G01 X-2.0838 Y27.7793 F100.00
G01 X-1.9879 Y27.7448 F100.00
G01 X-1.9060 Y27.7062 F100.00
G01 X-1.6499 Y27.9623 F100.00
G01 X-1.8264 Y28.0578 F100.00
G01 X-2.0494 Y28.1344 F100.00
G01 X-2.2821 Y28.1732 F100.00
G01 X-2.5179 Y28.1732 F100.00
G01 X-2.7506 Y28.1344 F100.00
G01 X-2.9737 Y28.0578 F100.00
G01 X-3.1501 Y27.9623 F100.00
G00 Z2.0000
G00 X-3.3562 Y26.2560
G01 F40.00
G01 Z-0.1000
G01 F100.00
G01 X-3.3948 Y26.3379 F100.00
G01 X-3.4293 Y26.4338 F100.00
G01 X-3.4314 Y26.4411 F100.00
G01 X-3.4553 Y26.5362 F100.00
G01 X-3.4568 Y26.5436 F100.00
G01 X-3.4716 Y26.6445 F100.00
G01 X-3.4768 Y26.7500 F100.00
G01 X-3.4716 Y26.8555 F100.00
G01 X-3.4568 Y26.9564 F100.00
G01 X-3.4553 Y26.9638 F100.00
G01 X-3.4314 Y27.0589 F100.00
G01 X-3.4293 Y27.0662 F100.00
G01 X-3.3948 Y27.1621 F100.00
G01 X-3.3562 Y27.2440 F100.00
G01 X-3.6109 Y27.4987 F100.00
G01 X-3.6560 Y27.4297 F100.00
G01 X-3.7507 Y27.2137 F100.00
G01 X-3.8086 Y26.9850 F100.00
G01 X-3.8281 Y26.7500 F100.00
G01 X-3.8086 Y26.5149 F100.00
G01 X-3.7507 Y26.2863 F100.00
G01 X-3.6560 Y26.0703 F100.00
G01 X-3.6109 Y26.0013 F100.00
G01 X-3.3562 Y26.2560 F100.00
G00 Z2.0000
G00 X-3.1501 Y25.5377
G01 F40.00
G01 Z-0.1000
G01 F100.00
G01 X-2.9736 Y25.4422 F100.00
G01 X-2.7506 Y25.3656 F100.00
G01 X-2.5179 Y25.3268 F100.00
G01 X-2.2821 Y25.3268 F100.00
G01 X-2.0494 Y25.3656 F100.00
G01 X-1.8263 Y25.4422 F100.00
G01 X-1.6499 Y25.5377 F100.00
G01 X-1.9060 Y25.7938 F100.00
G01 X-1.9879 Y25.7552 F100.00
G01 X-2.0838 Y25.7207 F100.00
G01 X-2.0911 Y25.7186 F100.00
G01 X-2.1862 Y25.6947 F100.00
G01 X-2.1936 Y25.6932 F100.00
G01 X-2.2945 Y25.6784 F100.00
G01 X-2.4000 Y25.6732 F100.00
G01 X-2.5055 Y25.6784 F100.00
G01 X-2.6064 Y25.6932 F100.00
G01 X-2.6138 Y25.6947 F100.00
G01 X-2.7089 Y25.7186 F100.00
G01 X-2.7162 Y25.7207 F100.00
G01 X-2.8121 Y25.7552 F100.00
G01 X-2.8940 Y25.7938 F100.00
G01 X-3.1501 Y25.5377 F100.00
G00 Z2.0000
G00 X-1.4438 Y27.2440
G01 F40.00
G01 Z-0.1000
G01 F100.00
G01 X-1.4052 Y27.1621 F100.00
G01 X-1.3707 Y27.0662 F100.00
G01 X-1.3686 Y27.0589 F100.00
G01 X-1.3447 Y26.9638 F100.00
G01 X-1.3432 Y26.9564 F100.00
G01 X-1.3284 Y26.8555 F100.00
G01 X-1.3232 Y26.7500 F100.00
G01 X-1.3284 Y26.6445 F100.00
G01 X-1.3432 Y26.5436 F100.00
G01 X-1.3447 Y26.5362 F100.00
G01 X-1.3686 Y26.4411 F100.00
G01 X-1.3707 Y26.4338 F100.00
G01 X-1.4052 Y26.3379 F100.00
G01 X-1.4438 Y26.2560 F100.00
G01 X-1.1891 Y26.0013 F100.00
G01 X-1.1440 Y26.0703 F100.00
G01 X-1.0493 Y26.2863 F100.00
G01 X-0.9914 Y26.5150 F100.00
G01 X-0.9719 Y26.7500 F100.00
G01 X-0.9914 Y26.9851 F100.00
G01 X-1.0493 Y27.2137 F100.00
G01 X-1.1440 Y27.4297 F100.00
G01 X-1.1891 Y27.4987 F100.00
G01 X-1.4438 Y27.2440 F100.00
G00 Z2.0000
G00 X-6.1768 Y27.0768
G01 F40.00
G01 Z-0.1000
G01 F100.00
G01 X-6.1768 Y27.4000 F100.00
G01 X-6.1755 Y27.4283 F100.00
G01 X-6.1748 Y27.4358 F100.00
G01 X-6.1712 Y27.4600 F100.00
G01 X-6.1697 Y27.4674 F100.00
G01 X-6.1627 Y27.4949 F100.00
G01 X-6.1519 Y27.5251 F100.00
G01 X-6.1382 Y27.5541 F100.00
G01 X-6.1217 Y27.5816 F100.00
G01 X-6.1026 Y27.6073 F100.00
G01 X-6.0837 Y27.6284 F100.00
G01 X-6.0784 Y27.6337 F100.00
G01 X-6.0602 Y27.6502 F100.00
G01 X-6.0543 Y27.6549 F100.00
G01 X-6.0316 Y27.6717 F100.00
G01 X-6.0041 Y27.6882 F100.00
G01 X-5.9751 Y27.7019 F100.00
G01 X-5.9484 Y27.7115 F100.00
G01 X-5.9412 Y27.7137 F100.00
G01 X-5.9119 Y27.7209 F100.00
G01 X-5.8820 Y27.7252 F100.00
G01 X-5.8538 Y27.7267 F100.00
G01 X-5.7643 Y27.7268 F100.00
G01 X-5.7643 Y28.0732 F100.00
G01 X-5.8961 Y28.0732 F100.00
G01 X-5.9865 Y28.0640 F100.00
G01 X-6.1364 Y28.0143 F100.00
G01 X-6.2704 Y27.9317 F100.00
G01 X-6.3817 Y27.8204 F100.00
G01 X-6.4643 Y27.6864 F100.00
G01 X-6.5140 Y27.5365 F100.00
G01 X-6.5232 Y27.4461 F100.00
G01 X-6.5232 Y27.0768 F100.00
G01 X-6.1768 Y27.0768 F100.00
G00 Z2.0000
G00 X-9.3018 Y26.1000
G01 F40.00
G01 Z-0.1000
G01 F100.00
G01 X-9.3002 Y26.0680 F100.00
G01 X-9.2962 Y26.0400 F100.00
G01 X-9.2947 Y26.0326 F100.00
G01 X-9.2887 Y26.0088 F100.00
G01 X-9.2865 Y26.0016 F100.00
G01 X-9.2769 Y25.9749 F100.00
G01 X-9.2632 Y25.9459 F100.00
G01 X-9.2467 Y25.9184 F100.00
G01 X-9.2276 Y25.8927 F100.00
G01 X-9.2061 Y25.8689 F100.00
G01 X-9.1823 Y25.8474 F100.00
G01 X-9.1566 Y25.8283 F100.00
G01 X-9.1323 Y25.8136 F100.00
G01 X-9.1257 Y25.8101 F100.00
G01 X-9.1001 Y25.7981 F100.00
G01 X-9.0734 Y25.7885 F100.00
G01 X-9.0662 Y25.7863 F100.00
G01 X-9.0424 Y25.7803 F100.00
G01 X-9.0350 Y25.7788 F100.00
G01 X-9.0070 Y25.7748 F100.00
G01 X-8.9750 Y25.7732 F100.00
G01 X-8.1500 Y25.7732 F100.00
G01 X-8.1180 Y25.7748 F100.00
G01 X-8.0862 Y25.7795 F100.00
G01 X-8.0551 Y25.7873 F100.00
G01 X-8.0249 Y25.7981 F100.00
G01 X-7.9959 Y25.8118 F100.00
G01 X-7.9684 Y25.8283 F100.00
G01 X-7.9427 Y25.8474 F100.00
G01 X-7.9189 Y25.8689 F100.00
G01 X-7.8986 Y25.8912 F100.00
G01 X-7.8804 Y25.9154 F100.00
G01 X-7.8763 Y25.9216 F100.00
G01 X-7.8618 Y25.9459 F100.00
G01 X-7.8481 Y25.9749 F100.00
G01 X-7.8373 Y26.0051 F100.00
G01 X-7.8303 Y26.0326 F100.00
G01 X-7.8288 Y26.0400 F100.00
G01 X-7.8252 Y26.0642 F100.00
G01 X-7.8245 Y26.0717 F100.00
G01 X-7.8232 Y26.1000 F100.00
G01 X-7.8232 Y27.4019 F100.00
G01 X-7.8248 Y27.4320 F100.00
G01 X-7.8295 Y27.4638 F100.00
G01 X-7.8373 Y27.4949 F100.00
G01 X-7.8467 Y27.5215 F100.00
G01 X-7.8496 Y27.5285 F100.00
G01 X-7.8618 Y27.5541 F100.00
G01 X-7.8763 Y27.5784 F100.00
G01 X-7.8804 Y27.5846 F100.00
G01 X-7.8951 Y27.6043 F100.00
G01 X-7.8998 Y27.6102 F100.00
G01 X-7.9189 Y27.6311 F100.00
G01 X-7.9412 Y27.6514 F100.00
G01 X-7.9654 Y27.6696 F100.00
G01 X-7.9716 Y27.6737 F100.00
G01 X-7.9959 Y27.6882 F100.00
G01 X-8.0249 Y27.7019 F100.00
G01 X-8.0551 Y27.7127 F100.00
G01 X-8.0826 Y27.7197 F100.00
G01 X-8.0900 Y27.7212 F100.00
G01 X-8.1198 Y27.7254 F100.00
G01 X-8.1500 Y27.7268 F100.00
G01 X-8.9769 Y27.7268 F100.00
G01 X-9.0070 Y27.7252 F100.00
G01 X-9.0388 Y27.7205 F100.00
G01 X-9.0699 Y27.7127 F100.00
G01 X-9.0965 Y27.7033 F100.00
G01 X-9.1035 Y27.7004 F100.00
G01 X-9.1291 Y27.6882 F100.00
G01 X-9.1534 Y27.6737 F100.00
G01 X-9.1596 Y27.6696 F100.00
G01 X-9.1793 Y27.6549 F100.00
G01 X-9.1852 Y27.6502 F100.00
G01 X-9.2061 Y27.6311 F100.00
G01 X-9.2264 Y27.6088 F100.00
G01 X-9.2446 Y27.5846 F100.00
G01 X-9.2487 Y27.5784 F100.00
G01 X-9.2632 Y27.5541 F100.00
G01 X-9.2769 Y27.5251 F100.00
G01 X-9.2877 Y27.4949 F100.00
G01 X-9.2947 Y27.4674 F100.00
G01 X-9.2962 Y27.4600 F100.00
G01 X-9.2998 Y27.4358 F100.00
G01 X-9.3005 Y27.4283 F100.00
G01 X-9.3018 Y27.4000 F100.00
G01 X-9.3018 Y26.1000 F100.00
G00 Z2.0000
G00 X-9.6487 Y27.4461
G01 F40.00
G01 Z-0.1000
G01 F100.00
G01 X-9.6487 Y26.0539 F100.00
G01 X-9.6395 Y25.9634 F100.00
G01 X-9.5897 Y25.8133 F100.00
G01 X-9.5071 Y25.6793 F100.00
G01 X-9.3957 Y25.5679 F100.00
G01 X-9.2617 Y25.4853 F100.00
G01 X-9.1116 Y25.4355 F100.00
G01 X-9.0211 Y25.4263 F100.00
G01 X-8.1039 Y25.4263 F100.00
G01 X-8.0134 Y25.4355 F100.00
G01 X-7.8633 Y25.4853 F100.00
G01 X-7.7293 Y25.5679 F100.00
G01 X-7.6179 Y25.6793 F100.00
G01 X-7.5352 Y25.8135 F100.00
G01 X-7.4855 Y25.9634 F100.00
G01 X-7.4763 Y26.0539 F100.00
G01 X-7.4763 Y27.4461 F100.00
G01 X-7.4855 Y27.5366 F100.00
G01 X-7.5353 Y27.6867 F100.00
G01 X-7.6179 Y27.8207 F100.00
G01 X-7.7293 Y27.9321 F100.00
G01 X-7.8633 Y28.0147 F100.00
G01 X-8.0134 Y28.0645 F100.00
G01 X-8.1039 Y28.0737 F100.00
G01 X-9.0211 Y28.0737 F100.00
G01 X-9.1116 Y28.0645 F100.00
G01 X-9.2617 Y28.0147 F100.00
G01 X-9.3957 Y27.9321 F100.00
G01 X-9.5071 Y27.8207 F100.00
G01 X-9.5897 Y27.6867 F100.00
G01 X-9.6395 Y27.5366 F100.00
G01 X-9.6487 Y27.4461 F100.00
G00 Z2.0000
G00 X4.0233 Y19.7538
G01 F40.00
G01 Z-0.1000
G01 F100.00
G01 X4.0233 Y19.7462 F100.00
G01 X4.0313 Y19.5856 F100.00
G01 X4.0554 Y19.4229 F100.00
G01 X4.0954 Y19.2633 F100.00
G01 X4.1508 Y19.1083 F100.00
G01 X4.2212 Y18.9596 F100.00
G01 X4.3058 Y18.8184 F100.00
G01 X4.4038 Y18.6862 F100.00
G01 X4.5143 Y18.5643 F100.00
G01 X4.6362 Y18.4538 F100.00
G01 X4.7684 Y18.3558 F100.00
G01 X4.9096 Y18.2712 F100.00
G01 X5.0583 Y18.2008 F100.00
G01 X5.2133 Y18.1454 F100.00
G01 X5.3729 Y18.1054 F100.00
G01 X5.5356 Y18.0813 F100.00
G01 X5.7000 Y18.0732 F100.00
G01 X5.8644 Y18.0813 F100.00
G01 X6.0271 Y18.1054 F100.00
G01 X6.1867 Y18.1454 F100.00
G01 X6.3417 Y18.2008 F100.00
G01 X6.4904 Y18.2712 F100.00
G01 X6.6316 Y18.3558 F100.00
G01 X6.7638 Y18.4538 F100.00
G01 X6.8857 Y18.5643 F100.00
G01 X6.9962 Y18.6862 F100.00
G01 X7.0942 Y18.8184 F100.00
G01 X7.1788 Y18.9596 F100.00
G01 X7.2492 Y19.1083 F100.00
G01 X7.3046 Y19.2633 F100.00
G01 X7.3446 Y19.4229 F100.00
G01 X7.3687 Y19.5856 F100.00
G01 X7.3768 Y19.7500 F100.00
G01 X7.3687 Y19.9144 F100.00
G01 X7.3446 Y20.0771 F100.00
G01 X7.3046 Y20.2367 F100.00
G01 X7.2492 Y20.3917 F100.00
G01 X7.1788 Y20.5404 F100.00
G01 X7.0942 Y20.6816 F100.00
G01 X6.9962 Y20.8138 F100.00
G01 X6.8857 Y20.9357 F100.00
G01 X6.7638 Y21.0462 F100.00
G01 X6.6316 Y21.1442 F100.00
G01 X6.4904 Y21.2288 F100.00
G01 X6.3417 Y21.2992 F100.00
G01 X6.1867 Y21.3546 F100.00
G01 X6.0271 Y21.3946 F100.00
G01 X5.8644 Y21.4187 F100.00
G01 X5.7000 Y21.4268 F100.00
G01 X5.5356 Y21.4187 F100.00
G01 X5.3729 Y21.3946 F100.00
G01 X5.2133 Y21.3546 F100.00
G01 X5.0583 Y21.2992 F100.00
G01 X4.9096 Y21.2288 F100.00
G01 X4.7684 Y21.1442 F100.00
G01 X4.6362 Y21.0462 F100.00
G01 X4.5143 Y20.9357 F100.00
G01 X4.4038 Y20.8138 F100.00
G01 X4.3058 Y20.6816 F100.00
G01 X4.2212 Y20.5404 F100.00
G01 X4.1508 Y20.3917 F100.00
G01 X4.0954 Y20.2367 F100.00
G01 X4.0554 Y20.0771 F100.00
G01 X4.0313 Y19.9144 F100.00
G01 X4.0233 Y19.7538 F100.00
G00 Z2.0000
G00 X19.6466 Y19.0555
G01 F40.00
G01 Z-0.1000
G01 F100.00
G01 X9.2500 Y19.0555 F100.00
G01 X9.2238 Y19.0543 F100.00
G01 X9.2163 Y19.0536 F100.00
G01 X9.1904 Y19.0496 F100.00
G01 X9.1649 Y19.0434 F100.00
G01 X9.1577 Y19.0412 F100.00
G01 X9.1331 Y19.0323 F100.00
G01 X9.1093 Y19.0211 F100.00
G01 X9.1027 Y19.0176 F100.00
G01 X9.0803 Y19.0040 F100.00
G01 X9.0592 Y18.9885 F100.00
G01 X9.0533 Y18.9837 F100.00
G01 X9.0340 Y18.9660 F100.00
G01 X7.2840 Y17.2160 F100.00
G01 X7.2638 Y17.1938 F100.00
G01 X7.2481 Y17.1728 F100.00
G01 X7.2440 Y17.1665 F100.00
G01 X7.2315 Y17.1457 F100.00
G01 X7.2289 Y17.1407 F100.00
G01 X7.2177 Y17.1169 F100.00
G01 X7.2088 Y17.0923 F100.00
G01 X7.2071 Y17.0869 F100.00
G01 X7.2012 Y17.0633 F100.00
G01 X7.1997 Y17.0559 F100.00
G01 X7.1960 Y17.0299 F100.00
G01 X7.1945 Y17.0000 F100.00
G01 X7.1945 Y12.8765 F100.00
G01 X6.8735 Y12.5555 F100.00
G01 X3.6768 Y12.5555 F100.00
G01 X3.6766 Y13.2556 F100.00
G01 X3.6753 Y13.2650 F100.00
G01 X3.6723 Y13.2759 F100.00
G01 X3.6677 Y13.2862 F100.00
G01 X3.6617 Y13.2957 F100.00
G01 X3.6543 Y13.3043 F100.00
G01 X3.6457 Y13.3117 F100.00
G01 X3.6362 Y13.3177 F100.00
G01 X3.6259 Y13.3223 F100.00
G01 X3.6187 Y13.3245 F100.00
G01 X3.6131 Y13.3257 F100.00
G01 X3.6075 Y13.3264 F100.00
G01 X3.6000 Y13.3268 F100.00
G01 X1.5981 Y13.3268 F100.00
G01 X1.5906 Y13.3262 F100.00
G01 X1.5813 Y13.3245 F100.00
G01 X1.5724 Y13.3217 F100.00
G01 X1.5638 Y13.3177 F100.00
G01 X1.5558 Y13.3128 F100.00
G01 X1.5484 Y13.3069 F100.00
G01 X1.5431 Y13.3016 F100.00
G01 X1.5372 Y13.2942 F100.00
G01 X1.5332 Y13.2879 F100.00
G01 X1.5306 Y13.2828 F100.00
G01 X1.5265 Y13.2723 F100.00
G01 X1.5240 Y13.2613 F100.00
G01 X1.5232 Y13.2500 F100.00
G01 X1.5232 Y11.2500 F100.00
G01 X1.5240 Y11.2387 F100.00
G01 X1.5265 Y11.2277 F100.00
G01 X1.5306 Y11.2172 F100.00
G01 X1.5361 Y11.2073 F100.00
G01 X1.5395 Y11.2028 F100.00
G01 X1.5444 Y11.1970 F100.00
G01 X1.5528 Y11.1895 F100.00
G01 X1.5621 Y11.1832 F100.00
G01 X1.5724 Y11.1783 F100.00
G01 X1.5832 Y11.1751 F100.00
G01 X1.5944 Y11.1734 F100.00
G01 X2.1945 Y11.1732 F100.00
G01 X2.1945 Y9.7768 F100.00
G01 X1.8731 Y9.7768 F100.00
G01 X1.8430 Y9.7752 F100.00
G01 X1.8150 Y9.7712 F100.00
G01 X1.8076 Y9.7697 F100.00
G01 X1.7783 Y9.7622 F100.00
G01 X1.7499 Y9.7519 F100.00
G01 X1.7209 Y9.7382 F100.00
G01 X1.6934 Y9.7217 F100.00
G01 X1.6707 Y9.7049 F100.00
G01 X1.6648 Y9.7002 F100.00
G01 X1.6466 Y9.6837 F100.00
G01 X1.6413 Y9.6784 F100.00
G01 X1.6224 Y9.6573 F100.00
G01 X1.6054 Y9.6346 F100.00
G01 X1.6013 Y9.6284 F100.00
G01 X1.5868 Y9.6041 F100.00
G01 X1.5746 Y9.5785 F100.00
G01 X1.5717 Y9.5715 F100.00
G01 X1.5623 Y9.5449 F100.00
G01 X1.5545 Y9.5138 F100.00
G01 X1.5498 Y9.4820 F100.00
G01 X1.5482 Y9.4519 F100.00
G01 X1.5482 Y8.6481 F100.00
G01 X1.5495 Y8.6217 F100.00
G01 X1.5502 Y8.6142 F100.00
G01 X1.5545 Y8.5862 F100.00
G01 X1.5613 Y8.5588 F100.00
G01 X1.5635 Y8.5516 F100.00
G01 X1.5731 Y8.5249 F100.00
G01 X1.5851 Y8.4993 F100.00
G01 X1.5886 Y8.4927 F100.00
G01 X1.6033 Y8.4684 F100.00
G01 X1.6201 Y8.4457 F100.00
G01 X1.6248 Y8.4398 F100.00
G01 X1.6439 Y8.4189 F100.00
G01 X1.6648 Y8.3998 F100.00
G01 X1.6707 Y8.3951 F100.00
G01 X1.6934 Y8.3783 F100.00
G01 X1.7177 Y8.3636 F100.00
G01 X1.7243 Y8.3601 F100.00
G01 X1.7499 Y8.3481 F100.00
G01 X1.7766 Y8.3385 F100.00
G01 X1.7838 Y8.3363 F100.00
G01 X1.8112 Y8.3295 F100.00
G01 X1.8392 Y8.3252 F100.00
G01 X1.8467 Y8.3245 F100.00
G01 X1.8750 Y8.3232 F100.00
G01 X3.1250 Y8.3232 F100.00
G01 X3.1570 Y8.3248 F100.00
G01 X3.1888 Y8.3295 F100.00
G01 X3.2162 Y8.3363 F100.00
G01 X3.2234 Y8.3385 F100.00
G01 X3.2465 Y8.3467 F100.00
G01 X3.2535 Y8.3496 F100.00
G01 X3.2791 Y8.3618 F100.00
G01 X3.3034 Y8.3763 F100.00
G01 X3.3096 Y8.3804 F100.00
G01 X3.3323 Y8.3974 F100.00
G01 X3.3561 Y8.4189 F100.00
G01 X3.3776 Y8.4427 F100.00
G01 X3.3946 Y8.4654 F100.00
G01 X3.3987 Y8.4716 F100.00
G01 X3.4132 Y8.4959 F100.00
G01 X3.4254 Y8.5215 F100.00
G01 X3.4283 Y8.5285 F100.00
G01 X3.4377 Y8.5551 F100.00
G01 X3.4447 Y8.5826 F100.00
G01 X3.4462 Y8.5900 F100.00
G01 X3.4502 Y8.6180 F100.00
G01 X3.4518 Y8.6481 F100.00
G01 X3.4518 Y9.4519 F100.00
G01 X3.4502 Y9.4820 F100.00
G01 X3.4455 Y9.5138 F100.00
G01 X3.4377 Y9.5449 F100.00
G01 X3.4262 Y9.5768 F100.00
G01 X3.4132 Y9.6041 F100.00
G01 X3.3967 Y9.6316 F100.00
G01 X3.3776 Y9.6573 F100.00
G01 X3.3587 Y9.6784 F100.00
G01 X3.3534 Y9.6837 F100.00
G01 X3.3323 Y9.7026 F100.00
G01 X3.3096 Y9.7196 F100.00
G01 X3.3034 Y9.7237 F100.00
G01 X3.2823 Y9.7364 F100.00
G01 X3.2757 Y9.7399 F100.00
G01 X3.2501 Y9.7519 F100.00
G01 X3.2217 Y9.7622 F100.00
G01 X3.1924 Y9.7697 F100.00
G01 X3.1850 Y9.7712 F100.00
G01 X3.1570 Y9.7752 F100.00
G01 X3.1269 Y9.7768 F100.00
G01 X2.8055 Y9.7768 F100.00
G01 X2.8055 Y11.1732 F100.00
G01 X3.6019 Y11.1732 F100.00
G01 X3.6094 Y11.1738 F100.00
G01 X3.6168 Y11.1751 F100.00
G01 X3.6223 Y11.1765 F100.00
G01 X3.6294 Y11.1790 F100.00
G01 X3.6345 Y11.1814 F100.00
G01 X3.6411 Y11.1851 F100.00
G01 X3.6472 Y11.1895 F100.00
G01 X3.6516 Y11.1931 F100.00
G01 X3.6569 Y11.1984 F100.00
G01 X3.6617 Y11.2043 F100.00
G01 X3.6659 Y11.2105 F100.00
G01 X3.6694 Y11.2172 F100.00
G01 X3.6729 Y11.2259 F100.00
G01 X3.6749 Y11.2332 F100.00
G01 X3.6762 Y11.2406 F100.00
G01 X3.6768 Y11.2481 F100.00
G01 X3.6768 Y11.9445 F100.00
G01 X7.0000 Y11.9445 F100.00
G01 X7.0299 Y11.9460 F100.00
G01 X7.0559 Y11.9497 F100.00
G01 X7.0633 Y11.9512 F100.00
G01 X7.0905 Y11.9582 F100.00
G01 X7.1169 Y11.9677 F100.00
G01 X7.1407 Y11.9789 F100.00
G01 X7.1473 Y11.9824 F100.00
G01 X7.1697 Y11.9960 F100.00
G01 X7.1908 Y12.0115 F100.00
G01 X7.1967 Y12.0163 F100.00
G01 X7.2160 Y12.0340 F100.00
G01 X7.7160 Y12.5340 F100.00
G01 X7.7373 Y12.5577 F100.00
G01 X7.7540 Y12.5803 F100.00
G01 X7.7694 Y12.6060 F100.00
G01 X7.7823 Y12.6331 F100.00
G01 X7.7912 Y12.6577 F100.00
G01 X7.7929 Y12.6631 F100.00
G01 X7.7988 Y12.6867 F100.00
G01 X7.8003 Y12.6941 F100.00
G01 X7.8040 Y12.7201 F100.00
G01 X7.8055 Y12.7481 F100.00
G01 X7.8055 Y16.8735 F100.00
G01 X9.3765 Y18.4445 F100.00
G01 X19.6466 Y18.4445 F100.00
G01 X19.6540 Y18.4293 F100.00
G01 X19.6873 Y18.3740 F100.00
G01 X19.7245 Y18.3236 F100.00
G01 X19.7293 Y18.3178 F100.00
G01 X19.7714 Y18.2714 F100.00
G01 X19.8178 Y18.2293 F100.00
G01 X19.8236 Y18.2245 F100.00
G01 X19.8709 Y18.1894 F100.00
G01 X19.8772 Y18.1852 F100.00
G01 X19.9310 Y18.1531 F100.00
G01 X19.9876 Y18.1262 F100.00
G01 X19.9945 Y18.1234 F100.00
G01 X20.0535 Y18.1023 F100.00
G01 X20.1180 Y18.0862 F100.00
G01 X20.1799 Y18.0769 F100.00
G01 X20.1874 Y18.0762 F100.00
G01 X20.2500 Y18.0732 F100.00
G01 X20.3126 Y18.0762 F100.00
G01 X20.3201 Y18.0769 F100.00
G01 X20.3820 Y18.0862 F100.00
G01 X20.4465 Y18.1023 F100.00
G01 X20.5055 Y18.1234 F100.00
G01 X20.5124 Y18.1262 F100.00
G01 X20.5690 Y18.1531 F100.00
G01 X20.6228 Y18.1852 F100.00
G01 X20.6291 Y18.1894 F100.00
G01 X20.6794 Y18.2268 F100.00
G01 X20.7258 Y18.2688 F100.00
G01 X20.7312 Y18.2742 F100.00
G01 X20.7732 Y18.3206 F100.00
G01 X20.8106 Y18.3709 F100.00
G01 X20.8148 Y18.3772 F100.00
G01 X20.8469 Y18.4310 F100.00
G01 X20.8753 Y18.4910 F100.00
G01 X20.8977 Y18.5535 F100.00
G01 X20.9138 Y18.6180 F100.00
G01 X20.9235 Y18.6837 F100.00
G01 X20.9268 Y18.7500 F100.00
G01 X20.9235 Y18.8163 F100.00
G01 X20.9138 Y18.8820 F100.00
G01 X20.8977 Y18.9465 F100.00
G01 X20.8753 Y19.0090 F100.00
G01 X20.8469 Y19.0690 F100.00
G01 X20.8127 Y19.1260 F100.00
G01 X20.7732 Y19.1794 F100.00
G01 X20.7286 Y19.2286 F100.00
G01 X20.6794 Y19.2732 F100.00
G01 X20.6260 Y19.3127 F100.00
G01 X20.5690 Y19.3469 F100.00
G01 X20.5090 Y19.3753 F100.00
G01 X20.4465 Y19.3977 F100.00
G01 X20.3820 Y19.4138 F100.00
G01 X20.3163 Y19.4235 F100.00
G01 X20.2500 Y19.4268 F100.00
G01 X20.1837 Y19.4235 F100.00
G01 X20.1180 Y19.4138 F100.00
G01 X20.0535 Y19.3977 F100.00
G01 X19.9910 Y19.3753 F100.00
G01 X19.9310 Y19.3469 F100.00
G01 X19.8740 Y19.3127 F100.00
G01 X19.8206 Y19.2732 F100.00
G01 X19.7714 Y19.2286 F100.00
G01 X19.7256 Y19.1779 F100.00
G01 X19.6862 Y19.1244 F100.00
G01 X19.6540 Y19.0707 F100.00
G01 X19.6466 Y19.0555 F100.00
G00 Z2.0000
G00 X23.5532 Y23.1732
G01 F40.00
G01 Z-0.1000
G01 F100.00
G01 X23.2068 Y23.1732 F100.00
G01 X23.2068 Y22.6089 F100.00
G01 X23.2160 Y22.5185 F100.00
G01 X23.2657 Y22.3686 F100.00
G01 X23.3483 Y22.2346 F100.00
G01 X23.4596 Y22.1233 F100.00
G01 X23.5936 Y22.0407 F100.00
G01 X23.7435 Y21.9910 F100.00
G01 X23.8339 Y21.9818 F100.00
G01 X24.1732 Y21.9818 F100.00
G01 X24.1732 Y22.3282 F100.00
G01 X23.8781 Y22.3282 F100.00
G01 X23.8480 Y22.3298 F100.00
G01 X23.8200 Y22.3338 F100.00
G01 X23.8126 Y22.3353 F100.00
G01 X23.7851 Y22.3423 F100.00
G01 X23.7549 Y22.3531 F100.00
G01 X23.7259 Y22.3668 F100.00
G01 X23.6984 Y22.3833 F100.00
G01 X23.6727 Y22.4024 F100.00
G01 X23.6489 Y22.4239 F100.00
G01 X23.6274 Y22.4477 F100.00
G01 X23.6083 Y22.4734 F100.00
G01 X23.5918 Y22.5009 F100.00
G01 X23.5781 Y22.5299 F100.00
G01 X23.5673 Y22.5601 F100.00
G01 X23.5595 Y22.5912 F100.00
G01 X23.5552 Y22.6192 F100.00
G01 X23.5545 Y22.6267 F100.00
G01 X23.5532 Y22.6550 F100.00
G01 X23.5532 Y23.1732 F100.00
G00 Z2.0000
G00 X24.1732 Y24.6718
G01 F40.00
G01 Z-0.1000
G01 F100.00
G01 X24.1732 Y25.0182 F100.00
G01 X23.8339 Y25.0182 F100.00
G01 X23.7435 Y25.0090 F100.00
G01 X23.5936 Y24.9593 F100.00
G01 X23.4596 Y24.8767 F100.00
G01 X23.3483 Y24.7654 F100.00
G01 X23.2657 Y24.6314 F100.00
G01 X23.2160 Y24.4815 F100.00
G01 X23.2068 Y24.3911 F100.00
G01 X23.2068 Y23.8268 F100.00
G01 X23.5532 Y23.8268 F100.00
G01 X23.5532 Y24.3450 F100.00
G01 X23.5548 Y24.3770 F100.00
G01 X23.5588 Y24.4050 F100.00
G01 X23.5603 Y24.4124 F100.00
G01 X23.5663 Y24.4362 F100.00
G01 X23.5685 Y24.4434 F100.00
G01 X23.5781 Y24.4701 F100.00
G01 X23.5901 Y24.4957 F100.00
G01 X23.5936 Y24.5023 F100.00
G01 X23.6083 Y24.5266 F100.00
G01 X23.6274 Y24.5523 F100.00
G01 X23.6489 Y24.5761 F100.00
G01 X23.6712 Y24.5964 F100.00
G01 X23.6954 Y24.6146 F100.00
G01 X23.7016 Y24.6187 F100.00
G01 X23.7259 Y24.6332 F100.00
G01 X23.7515 Y24.6454 F100.00
G01 X23.7585 Y24.6483 F100.00
G01 X23.7851 Y24.6577 F100.00
G01 X23.8126 Y24.6647 F100.00
G01 X23.8200 Y24.6662 F100.00
G01 X23.8480 Y24.6702 F100.00
G01 X23.8781 Y24.6718 F100.00
G01 X24.1732 Y24.6718 F100.00
G00 Z2.0000
G00 X29.1945 Y26.1466
G01 F40.00
G01 Z-0.1000
G01 F100.00
G01 X29.1945 Y24.5889 F100.00
G01 X29.1337 Y24.5600 F100.00
G01 X29.0540 Y24.5122 F100.00
G01 X28.9794 Y24.4569 F100.00
G01 X28.9092 Y24.3931 F100.00
G01 X28.8481 Y24.3256 F100.00
G01 X28.7928 Y24.2510 F100.00
G01 X28.7450 Y24.1713 F100.00
G01 X28.7046 Y24.0856 F100.00
G01 X28.6740 Y23.9998 F100.00
G01 X28.6522 Y23.9134 F100.00
G01 X28.6507 Y23.9060 F100.00
G01 X28.6376 Y23.8159 F100.00
G01 X28.6332 Y23.7250 F100.00
G01 X28.6332 Y23.2750 F100.00
G01 X28.6380 Y23.1803 F100.00
G01 X28.6514 Y23.0903 F100.00
G01 X28.6740 Y23.0002 F100.00
G01 X28.7053 Y22.9127 F100.00
G01 X28.7450 Y22.8287 F100.00
G01 X28.7928 Y22.7490 F100.00
G01 X28.8481 Y22.6744 F100.00
G01 X28.9105 Y22.6055 F100.00
G01 X28.9794 Y22.5431 F100.00
G01 X29.0540 Y22.4878 F100.00
G01 X29.1337 Y22.4400 F100.00
G01 X29.2177 Y22.4003 F100.00
G01 X29.3052 Y22.3690 F100.00
G01 X29.3953 Y22.3464 F100.00
G01 X29.4872 Y22.3328 F100.00
G01 X29.5800 Y22.3282 F100.00
G01 X29.6747 Y22.3330 F100.00
G01 X29.7647 Y22.3464 F100.00
G01 X29.8548 Y22.3690 F100.00
G01 X29.9423 Y22.4003 F100.00
G01 X30.0263 Y22.4400 F100.00
G01 X30.1060 Y22.4878 F100.00
G01 X30.1806 Y22.5431 F100.00
G01 X30.2495 Y22.6055 F100.00
G01 X30.3094 Y22.6715 F100.00
G01 X30.3142 Y22.6773 F100.00
G01 X30.3672 Y22.7490 F100.00
G01 X30.4131 Y22.8254 F100.00
G01 X30.4167 Y22.8320 F100.00
G01 X30.4532 Y22.9092 F100.00
G01 X30.4561 Y22.9162 F100.00
G01 X30.4860 Y23.0002 F100.00
G01 X30.5086 Y23.0903 F100.00
G01 X30.5222 Y23.1822 F100.00
G01 X30.5268 Y23.2731 F100.00
G01 X30.5268 Y23.7250 F100.00
G01 X30.5220 Y23.8197 F100.00
G01 X30.5086 Y23.9097 F100.00
G01 X30.4860 Y23.9998 F100.00
G01 X30.4547 Y24.0873 F100.00
G01 X30.4150 Y24.1713 F100.00
G01 X30.3672 Y24.2510 F100.00
G01 X30.3119 Y24.3256 F100.00
G01 X30.2495 Y24.3945 F100.00
G01 X30.1792 Y24.4581 F100.00
G01 X30.1060 Y24.5122 F100.00
G01 X30.0246 Y24.5609 F100.00
G01 X29.9406 Y24.6004 F100.00
G01 X29.8566 Y24.6305 F100.00
G01 X29.8055 Y24.6435 F100.00
G01 X29.8055 Y26.1466 F100.00
G01 X29.8207 Y26.1540 F100.00
G01 X29.8760 Y26.1873 F100.00
G01 X29.9264 Y26.2245 F100.00
G01 X29.9322 Y26.2293 F100.00
G01 X29.9786 Y26.2714 F100.00
G01 X30.0207 Y26.3178 F100.00
G01 X30.0255 Y26.3236 F100.00
G01 X30.0606 Y26.3709 F100.00
G01 X30.0648 Y26.3772 F100.00
G01 X30.0969 Y26.4310 F100.00
G01 X30.1238 Y26.4876 F100.00
G01 X30.1266 Y26.4945 F100.00
G01 X30.1477 Y26.5535 F100.00
G01 X30.1638 Y26.6180 F100.00
G01 X30.1731 Y26.6799 F100.00
G01 X30.1738 Y26.6874 F100.00
G01 X30.1768 Y26.7500 F100.00
G01 X30.1738 Y26.8126 F100.00
G01 X30.1731 Y26.8201 F100.00
G01 X30.1638 Y26.8820 F100.00
G01 X30.1477 Y26.9465 F100.00
G01 X30.1266 Y27.0055 F100.00
G01 X30.1238 Y27.0124 F100.00
G01 X30.0969 Y27.0690 F100.00
G01 X30.0648 Y27.1228 F100.00
G01 X30.0606 Y27.1291 F100.00
G01 X30.0232 Y27.1794 F100.00
G01 X29.9812 Y27.2258 F100.00
G01 X29.9758 Y27.2312 F100.00
G01 X29.9294 Y27.2732 F100.00
G01 X29.8791 Y27.3106 F100.00
G01 X29.8728 Y27.3148 F100.00
G01 X29.8190 Y27.3469 F100.00
G01 X29.7590 Y27.3753 F100.00
G01 X29.6965 Y27.3977 F100.00
G01 X29.6320 Y27.4138 F100.00
G01 X29.5663 Y27.4235 F100.00
G01 X29.5000 Y27.4268 F100.00
G01 X29.4337 Y27.4235 F100.00
G01 X29.3680 Y27.4138 F100.00
G01 X29.3035 Y27.3977 F100.00
G01 X29.2410 Y27.3753 F100.00
G01 X29.1810 Y27.3469 F100.00
G01 X29.1240 Y27.3127 F100.00
G01 X29.0706 Y27.2732 F100.00
G01 X29.0214 Y27.2286 F100.00
G01 X28.9768 Y27.1794 F100.00
G01 X28.9373 Y27.1260 F100.00
G01 X28.9031 Y27.0690 F100.00
G01 X28.8747 Y27.0090 F100.00
G01 X28.8523 Y26.9465 F100.00
G01 X28.8362 Y26.8820 F100.00
G01 X28.8265 Y26.8163 F100.00
G01 X28.8232 Y26.7500 F100.00
G01 X28.8265 Y26.6837 F100.00
G01 X28.8362 Y26.6180 F100.00
G01 X28.8523 Y26.5535 F100.00
G01 X28.8747 Y26.4910 F100.00
G01 X28.9031 Y26.4310 F100.00
G01 X28.9373 Y26.3740 F100.00
G01 X28.9768 Y26.3206 F100.00
G01 X29.0214 Y26.2714 F100.00
G01 X29.0721 Y26.2256 F100.00
G01 X29.1256 Y26.1862 F100.00
G01 X29.1793 Y26.1540 F100.00
G01 X29.1945 Y26.1466 F100.00
G00 Z2.0000
G00 X31.8145 Y22.3798
G01 F40.00
G01 Z-0.1000
G01 F100.00
G01 X31.8145 Y20.3800 F100.00
G01 X31.8160 Y20.3501 F100.00
G01 X31.8204 Y20.3204 F100.00
G01 X31.8276 Y20.2913 F100.00
G01 X31.8385 Y20.2614 F100.00
G01 X31.8506 Y20.2360 F100.00
G01 X31.8660 Y20.2103 F100.00
G01 X31.8838 Y20.1862 F100.00
G01 X31.9040 Y20.1640 F100.00
G01 X33.5995 Y18.4685 F100.00
G01 X33.5995 Y16.5291 F100.00
G01 X33.5892 Y16.5213 F100.00
G01 X33.5746 Y16.5080 F100.00
G01 X33.5587 Y16.4908 F100.00
G01 X33.5435 Y16.4704 F100.00
G01 X33.5324 Y16.4520 F100.00
G01 X33.5214 Y16.4291 F100.00
G01 X33.5135 Y16.4070 F100.00
G01 X33.5078 Y16.3842 F100.00
G01 X33.5048 Y16.3647 F100.00
G01 X33.5041 Y16.3572 F100.00
G01 X33.5032 Y16.3375 F100.00
G01 X33.5032 Y14.8375 F100.00
G01 X33.5041 Y14.8178 F100.00
G01 X33.5048 Y14.8103 F100.00
G01 X33.5078 Y14.7908 F100.00
G01 X33.5125 Y14.7717 F100.00
G01 X33.5147 Y14.7645 F100.00
G01 X33.5214 Y14.7459 F100.00
G01 X33.5298 Y14.7281 F100.00
G01 X33.5333 Y14.7214 F100.00
G01 X33.5435 Y14.7046 F100.00
G01 X33.5575 Y14.6857 F100.00
G01 X33.5733 Y14.6683 F100.00
G01 X33.5878 Y14.6550 F100.00
G01 X33.5937 Y14.6502 F100.00
G01 X33.6096 Y14.6385 F100.00
G01 X33.6264 Y14.6283 F100.00
G01 X33.6331 Y14.6248 F100.00
G01 X33.6509 Y14.6164 F100.00
G01 X33.6712 Y14.6091 F100.00
G01 X33.6921 Y14.6036 F100.00
G01 X33.6995 Y14.6022 F100.00
G01 X33.7190 Y14.5994 F100.00
G01 X33.7425 Y14.5982 F100.00
G01 X34.0694 Y14.5982 F100.00
G01 X34.0910 Y14.5994 F100.00
G01 X34.1105 Y14.6022 F100.00
G01 X34.1179 Y14.6036 F100.00
G01 X34.1370 Y14.6085 F100.00
G01 X34.1591 Y14.6164 F100.00
G01 X34.1769 Y14.6248 F100.00
G01 X34.1836 Y14.6283 F100.00
G01 X34.2004 Y14.6385 F100.00
G01 X34.2193 Y14.6525 F100.00
G01 X34.2340 Y14.6657 F100.00
G01 X34.2380 Y14.6696 F100.00
G01 X34.2500 Y14.6828 F100.00
G01 X34.2548 Y14.6887 F100.00
G01 X34.2665 Y14.7046 F100.00
G01 X34.2785 Y14.7247 F100.00
G01 X34.2886 Y14.7459 F100.00
G01 X34.2953 Y14.7645 F100.00
G01 X34.2975 Y14.7717 F100.00
G01 X34.3025 Y14.7927 F100.00
G01 X34.3056 Y14.8140 F100.00
G01 X34.3068 Y14.8356 F100.00
G01 X34.3068 Y16.3375 F100.00
G01 X34.3059 Y16.3572 F100.00
G01 X34.3052 Y16.3647 F100.00
G01 X34.3022 Y16.3842 F100.00
G01 X34.2965 Y16.4070 F100.00
G01 X34.2886 Y16.4291 F100.00
G01 X34.2776 Y16.4520 F100.00
G01 X34.2665 Y16.4704 F100.00
G01 X34.2513 Y16.4908 F100.00
G01 X34.2354 Y16.5080 F100.00
G01 X34.2208 Y16.5213 F100.00
G01 X34.2105 Y16.5291 F100.00
G01 X34.2105 Y18.5950 F100.00
G01 X34.2090 Y18.6249 F100.00
G01 X34.2050 Y18.6527 F100.00
G01 X34.1984 Y18.6801 F100.00
G01 X34.1962 Y18.6873 F100.00
G01 X34.1873 Y18.7119 F100.00
G01 X34.1744 Y18.7390 F100.00
G01 X34.1610 Y18.7615 F100.00
G01 X34.1569 Y18.7678 F100.00
G01 X34.1412 Y18.7888 F100.00
G01 X34.1223 Y18.8097 F100.00
G01 X32.4255 Y20.5065 F100.00
G01 X32.4255 Y22.3798 F100.00
G01 X32.4823 Y22.4003 F100.00
G01 X32.5680 Y22.4409 F100.00
G01 X32.6460 Y22.4878 F100.00
G01 X32.7221 Y22.5443 F100.00
G01 X32.7895 Y22.6055 F100.00
G01 X32.8519 Y22.6744 F100.00
G01 X32.9072 Y22.7490 F100.00
G01 X32.9531 Y22.8254 F100.00
G01 X32.9567 Y22.8320 F100.00
G01 X32.9947 Y22.9127 F100.00
G01 X33.0260 Y23.0002 F100.00
G01 X33.0486 Y23.0903 F100.00
G01 X33.0620 Y23.1803 F100.00
G01 X33.0668 Y23.2750 F100.00
G01 X33.0668 Y23.7269 F100.00
G01 X33.0622 Y23.8178 F100.00
G01 X33.0486 Y23.9097 F100.00
G01 X33.0260 Y23.9998 F100.00
G01 X32.9961 Y24.0838 F100.00
G01 X32.9932 Y24.0908 F100.00
G01 X32.9567 Y24.1680 F100.00
G01 X32.9531 Y24.1746 F100.00
G01 X32.9072 Y24.2510 F100.00
G01 X32.8519 Y24.3256 F100.00
G01 X32.7895 Y24.3945 F100.00
G01 X32.7235 Y24.4544 F100.00
G01 X32.7177 Y24.4592 F100.00
G01 X32.6491 Y24.5101 F100.00
G01 X32.6428 Y24.5143 F100.00
G01 X32.5663 Y24.5600 F100.00
G01 X32.4823 Y24.5997 F100.00
G01 X32.3948 Y24.6310 F100.00
G01 X32.3066 Y24.6532 F100.00
G01 X32.2128 Y24.6672 F100.00
G01 X32.1200 Y24.6718 F100.00
G01 X32.0272 Y24.6672 F100.00
G01 X31.9353 Y24.6536 F100.00
G01 X31.8452 Y24.6310 F100.00
G01 X31.7577 Y24.5997 F100.00
G01 X31.6737 Y24.5600 F100.00
G01 X31.5940 Y24.5122 F100.00
G01 X31.5194 Y24.4569 F100.00
G01 X31.4505 Y24.3945 F100.00
G01 X31.3881 Y24.3256 F100.00
G01 X31.3328 Y24.2510 F100.00
G01 X31.2850 Y24.1713 F100.00
G01 X31.2453 Y24.0873 F100.00
G01 X31.2140 Y23.9998 F100.00
G01 X31.1918 Y23.9116 F100.00
G01 X31.1778 Y23.8178 F100.00
G01 X31.1732 Y23.7269 F100.00
G01 X31.1732 Y23.2750 F100.00
G01 X31.1775 Y23.1860 F100.00
G01 X31.1782 Y23.1785 F100.00
G01 X31.1907 Y23.0940 F100.00
G01 X31.1922 Y23.0866 F100.00
G01 X31.2140 Y23.0002 F100.00
G01 X31.2453 Y22.9127 F100.00
G01 X31.2850 Y22.8287 F100.00
G01 X31.3328 Y22.7490 F100.00
G01 X31.3881 Y22.6744 F100.00
G01 X31.4519 Y22.6042 F100.00
G01 X31.5194 Y22.5431 F100.00
G01 X31.5956 Y22.4867 F100.00
G01 X31.6754 Y22.4391 F100.00
G01 X31.7577 Y22.4003 F100.00
G01 X31.8145 Y22.3798 F100.00
G00 Z2.0000
G00 X34.3545 Y22.3798
G01 F40.00
G01 Z-0.1000
G01 F100.00
G01 X34.3545 Y19.8400 F100.00
G01 X34.3560 Y19.8101 F100.00
G01 X34.3600 Y19.7823 F100.00
G01 X34.3666 Y19.7549 F100.00
G01 X34.3688 Y19.7477 F100.00
G01 X34.3777 Y19.7231 F100.00
G01 X34.3889 Y19.6993 F100.00
G01 X34.3924 Y19.6927 F100.00
G01 X34.4060 Y19.6703 F100.00
G01 X34.4250 Y19.6447 F100.00
G01 X34.4440 Y19.6240 F100.00
G01 X34.8695 Y19.1985 F100.00
G01 X34.8695 Y16.5291 F100.00
G01 X34.8592 Y16.5213 F100.00
G01 X34.8446 Y16.5080 F100.00
G01 X34.8287 Y16.4908 F100.00
G01 X34.8135 Y16.4704 F100.00
G01 X34.8024 Y16.4520 F100.00
G01 X34.7914 Y16.4291 F100.00
G01 X34.7835 Y16.4070 F100.00
G01 X34.7778 Y16.3842 F100.00
G01 X34.7748 Y16.3647 F100.00
G01 X34.7741 Y16.3572 F100.00
G01 X34.7732 Y16.3375 F100.00
G01 X34.7732 Y14.8375 F100.00
G01 X34.7746 Y14.8122 F100.00
G01 X34.7778 Y14.7908 F100.00
G01 X34.7825 Y14.7717 F100.00
G01 X34.7847 Y14.7645 F100.00
G01 X34.7914 Y14.7459 F100.00
G01 X34.7998 Y14.7281 F100.00
G01 X34.8033 Y14.7214 F100.00
G01 X34.8135 Y14.7046 F100.00
G01 X34.8252 Y14.6887 F100.00
G01 X34.8300 Y14.6828 F100.00
G01 X34.8433 Y14.6683 F100.00
G01 X34.8578 Y14.6550 F100.00
G01 X34.8637 Y14.6502 F100.00
G01 X34.8796 Y14.6385 F100.00
G01 X34.8980 Y14.6274 F100.00
G01 X34.9175 Y14.6179 F100.00
G01 X34.9244 Y14.6151 F100.00
G01 X34.9430 Y14.6085 F100.00
G01 X34.9658 Y14.6028 F100.00
G01 X34.9890 Y14.5994 F100.00
G01 X35.0106 Y14.5982 F100.00
G01 X35.3375 Y14.5982 F100.00
G01 X35.3628 Y14.5996 F100.00
G01 X35.3842 Y14.6028 F100.00
G01 X35.4070 Y14.6085 F100.00
G01 X35.4291 Y14.6164 F100.00
G01 X35.4503 Y14.6265 F100.00
G01 X35.4704 Y14.6385 F100.00
G01 X35.4893 Y14.6525 F100.00
G01 X35.5067 Y14.6683 F100.00
G01 X35.5200 Y14.6828 F100.00
G01 X35.5248 Y14.6887 F100.00
G01 X35.5354 Y14.7030 F100.00
G01 X35.5385 Y14.7077 F100.00
G01 X35.5494 Y14.7264 F100.00
G01 X35.5578 Y14.7442 F100.00
G01 X35.5599 Y14.7494 F100.00
G01 X35.5665 Y14.7680 F100.00
G01 X35.5722 Y14.7908 F100.00
G01 X35.5756 Y14.8140 F100.00
G01 X35.5768 Y14.8356 F100.00
G01 X35.5768 Y16.3375 F100.00
G01 X35.5759 Y16.3572 F100.00
G01 X35.5752 Y16.3647 F100.00
G01 X35.5722 Y16.3842 F100.00
G01 X35.5665 Y16.4070 F100.00
G01 X35.5586 Y16.4291 F100.00
G01 X35.5476 Y16.4520 F100.00
G01 X35.5365 Y16.4704 F100.00
G01 X35.5213 Y16.4908 F100.00
G01 X35.5054 Y16.5080 F100.00
G01 X35.4908 Y16.5213 F100.00
G01 X35.4805 Y16.5291 F100.00
G01 X35.4805 Y19.3250 F100.00
G01 X35.4793 Y19.3512 F100.00
G01 X35.4788 Y19.3568 F100.00
G01 X35.4753 Y19.3809 F100.00
G01 X35.4738 Y19.3883 F100.00
G01 X35.4674 Y19.4137 F100.00
G01 X35.4573 Y19.4419 F100.00
G01 X35.4461 Y19.4657 F100.00
G01 X35.4426 Y19.4723 F100.00
G01 X35.4290 Y19.4947 F100.00
G01 X35.4112 Y19.5188 F100.00
G01 X35.3910 Y19.5410 F100.00
G01 X34.9655 Y19.9665 F100.00
G01 X34.9655 Y22.3798 F100.00
G01 X35.0223 Y22.4003 F100.00
G01 X35.1046 Y22.4391 F100.00
G01 X35.1844 Y22.4867 F100.00
G01 X35.2606 Y22.5431 F100.00
G01 X35.3281 Y22.6042 F100.00
G01 X35.3919 Y22.6744 F100.00
G01 X35.4472 Y22.7490 F100.00
G01 X35.4950 Y22.8287 F100.00
G01 X35.5340 Y22.9109 F100.00
G01 X35.5660 Y23.0002 F100.00
G01 X35.5878 Y23.0866 F100.00
G01 X35.5893 Y23.0940 F100.00
G01 X35.6024 Y23.1841 F100.00
G01 X35.6068 Y23.2750 F100.00
G01 X35.6068 Y23.7250 F100.00
G01 X35.6025 Y23.8140 F100.00
G01 X35.6018 Y23.8215 F100.00
G01 X35.5893 Y23.9060 F100.00
G01 X35.5878 Y23.9134 F100.00
G01 X35.5660 Y23.9998 F100.00
G01 X35.5347 Y24.0873 F100.00
G01 X35.4950 Y24.1713 F100.00
G01 X35.4493 Y24.2478 F100.00
G01 X35.4451 Y24.2541 F100.00
G01 X35.3942 Y24.3227 F100.00
G01 X35.3894 Y24.3285 F100.00
G01 X35.3295 Y24.3945 F100.00
G01 X35.2606 Y24.4569 F100.00
G01 X35.1860 Y24.5122 F100.00
G01 X35.1096 Y24.5581 F100.00
G01 X35.1030 Y24.5617 F100.00
G01 X35.0258 Y24.5982 F100.00
G01 X35.0188 Y24.6011 F100.00
G01 X34.9348 Y24.6310 F100.00
G01 X34.8466 Y24.6532 F100.00
G01 X34.7528 Y24.6672 F100.00
G01 X34.6600 Y24.6718 F100.00
G01 X34.5672 Y24.6672 F100.00
G01 X34.4753 Y24.6536 F100.00
G01 X34.3852 Y24.6310 F100.00
G01 X34.2977 Y24.5997 F100.00
G01 X34.2137 Y24.5600 F100.00
G01 X34.1340 Y24.5122 F100.00
G01 X34.0594 Y24.4569 F100.00
G01 X33.9905 Y24.3945 F100.00
G01 X33.9281 Y24.3256 F100.00
G01 X33.8728 Y24.2510 F100.00
G01 X33.8250 Y24.1713 F100.00
G01 X33.7853 Y24.0873 F100.00
G01 X33.7540 Y23.9998 F100.00
G01 X33.7318 Y23.9116 F100.00
G01 X33.7178 Y23.8178 F100.00
G01 X33.7132 Y23.7269 F100.00
G01 X33.7132 Y23.2750 F100.00
G01 X33.7175 Y23.1860 F100.00
G01 X33.7182 Y23.1785 F100.00
G01 X33.7307 Y23.0940 F100.00
G01 X33.7322 Y23.0866 F100.00
G01 X33.7540 Y23.0002 F100.00
G01 X33.7853 Y22.9127 F100.00
G01 X33.8250 Y22.8287 F100.00
G01 X33.8728 Y22.7490 F100.00
G01 X33.9281 Y22.6744 F100.00
G01 X33.9919 Y22.6042 F100.00
G01 X34.0594 Y22.5431 F100.00
G01 X34.1356 Y22.4867 F100.00
G01 X34.2154 Y22.4391 F100.00
G01 X34.2977 Y22.4003 F100.00
G01 X34.3545 Y22.3798 F100.00
G00 Z2.0000
G00 X30.4606 Y18.1073
G01 F40.00
G01 Z-0.1000
G01 F100.00
G01 X31.0595 Y17.5085 F100.00
G01 X31.0595 Y16.5291 F100.00
G01 X31.0492 Y16.5213 F100.00
G01 X31.0346 Y16.5080 F100.00
G01 X31.0187 Y16.4908 F100.00
G01 X31.0035 Y16.4704 F100.00
G01 X30.9906 Y16.4486 F100.00
G01 X30.9822 Y16.4308 F100.00
G01 X30.9801 Y16.4256 F100.00
G01 X30.9735 Y16.4070 F100.00
G01 X30.9686 Y16.3879 F100.00
G01 X30.9675 Y16.3823 F100.00
G01 X30.9646 Y16.3628 F100.00
G01 X30.9632 Y16.3394 F100.00
G01 X30.9632 Y14.8375 F100.00
G01 X30.9644 Y14.8140 F100.00
G01 X30.9672 Y14.7945 F100.00
G01 X30.9686 Y14.7871 F100.00
G01 X30.9741 Y14.7662 F100.00
G01 X30.9807 Y14.7477 F100.00
G01 X30.9829 Y14.7425 F100.00
G01 X30.9915 Y14.7247 F100.00
G01 X31.0015 Y14.7077 F100.00
G01 X31.0057 Y14.7015 F100.00
G01 X31.0175 Y14.6857 F100.00
G01 X31.0333 Y14.6683 F100.00
G01 X31.0478 Y14.6550 F100.00
G01 X31.0537 Y14.6502 F100.00
G01 X31.0696 Y14.6385 F100.00
G01 X31.0864 Y14.6283 F100.00
G01 X31.0931 Y14.6248 F100.00
G01 X31.1109 Y14.6164 F100.00
G01 X31.1295 Y14.6097 F100.00
G01 X31.1367 Y14.6075 F100.00
G01 X31.1558 Y14.6028 F100.00
G01 X31.1753 Y14.5998 F100.00
G01 X31.1809 Y14.5992 F100.00
G01 X31.2006 Y14.5982 F100.00
G01 X31.5275 Y14.5982 F100.00
G01 X31.5510 Y14.5994 F100.00
G01 X31.5705 Y14.6022 F100.00
G01 X31.5779 Y14.6036 F100.00
G01 X31.5988 Y14.6091 F100.00
G01 X31.6191 Y14.6164 F100.00
G01 X31.6386 Y14.6256 F100.00
G01 X31.6573 Y14.6365 F100.00
G01 X31.6635 Y14.6407 F100.00
G01 X31.6793 Y14.6525 F100.00
G01 X31.6967 Y14.6683 F100.00
G01 X31.7125 Y14.6857 F100.00
G01 X31.7243 Y14.7015 F100.00
G01 X31.7275 Y14.7061 F100.00
G01 X31.7367 Y14.7214 F100.00
G01 X31.7402 Y14.7281 F100.00
G01 X31.7486 Y14.7459 F100.00
G01 X31.7565 Y14.7680 F100.00
G01 X31.7614 Y14.7871 F100.00
G01 X31.7628 Y14.7945 F100.00
G01 X31.7656 Y14.8140 F100.00
G01 X31.7668 Y14.8356 F100.00
G01 X31.7667 Y16.3413 F100.00
G01 X31.7658 Y16.3591 F100.00
G01 X31.7652 Y16.3647 F100.00
G01 X31.7622 Y16.3842 F100.00
G01 X31.7575 Y16.4033 F100.00
G01 X31.7559 Y16.4088 F100.00
G01 X31.7493 Y16.4273 F100.00
G01 X31.7394 Y16.4486 F100.00
G01 X31.7265 Y16.4704 F100.00
G01 X31.7113 Y16.4908 F100.00
G01 X31.6954 Y16.5080 F100.00
G01 X31.6808 Y16.5213 F100.00
G01 X31.6705 Y16.5291 F100.00
G01 X31.6705 Y17.6350 F100.00
G01 X31.6690 Y17.6649 F100.00
G01 X31.6653 Y17.6909 F100.00
G01 X31.6638 Y17.6983 F100.00
G01 X31.6568 Y17.7255 F100.00
G01 X31.6486 Y17.7484 F100.00
G01 X31.6457 Y17.7554 F100.00
G01 X31.6344 Y17.7790 F100.00
G01 X31.6210 Y17.8015 F100.00
G01 X31.6169 Y17.8078 F100.00
G01 X31.6012 Y17.8288 F100.00
G01 X31.5823 Y17.8497 F100.00
G01 X30.8927 Y18.5394 F100.00
G01 X30.8982 Y18.5553 F100.00
G01 X30.9138 Y18.6180 F100.00
G01 X30.9231 Y18.6799 F100.00
G01 X30.9238 Y18.6874 F100.00
G01 X30.9268 Y18.7500 F100.00
G01 X30.9238 Y18.8126 F100.00
G01 X30.9231 Y18.8201 F100.00
G01 X30.9134 Y18.8839 F100.00
G01 X30.8977 Y18.9465 F100.00
G01 X30.8766 Y19.0055 F100.00
G01 X30.8738 Y19.0124 F100.00
G01 X30.8469 Y19.0690 F100.00
G01 X30.8148 Y19.1228 F100.00
G01 X30.8106 Y19.1291 F100.00
G01 X30.7732 Y19.1794 F100.00
G01 X30.7299 Y19.2272 F100.00
G01 X30.6822 Y19.2707 F100.00
G01 X30.6764 Y19.2755 F100.00
G01 X30.6260 Y19.3127 F100.00
G01 X30.5723 Y19.3450 F100.00
G01 X30.5657 Y19.3486 F100.00
G01 X30.5090 Y19.3753 F100.00
G01 X30.4500 Y19.3965 F100.00
G01 X30.4428 Y19.3987 F100.00
G01 X30.3820 Y19.4138 F100.00
G01 X30.3201 Y19.4231 F100.00
G01 X30.3126 Y19.4238 F100.00
G01 X30.2500 Y19.4268 F100.00
G01 X30.1874 Y19.4238 F100.00
G01 X30.1799 Y19.4231 F100.00
G01 X30.1180 Y19.4138 F100.00
G01 X30.0535 Y19.3977 F100.00
G01 X29.9910 Y19.3753 F100.00
G01 X29.9310 Y19.3469 F100.00
G01 X29.8740 Y19.3127 F100.00
G01 X29.8206 Y19.2732 F100.00
G01 X29.7714 Y19.2286 F100.00
G01 X29.7268 Y19.1794 F100.00
G01 X29.6873 Y19.1260 F100.00
G01 X29.6531 Y19.0690 F100.00
G01 X29.6247 Y19.0090 F100.00
G01 X29.6023 Y18.9465 F100.00
G01 X29.5862 Y18.8820 F100.00
G01 X29.5765 Y18.8163 F100.00
G01 X29.5732 Y18.7500 F100.00
G01 X29.5765 Y18.6837 F100.00
G01 X29.5862 Y18.6180 F100.00
G01 X29.6023 Y18.5535 F100.00
G01 X29.6247 Y18.4910 F100.00
G01 X29.6531 Y18.4310 F100.00
G01 X29.6873 Y18.3740 F100.00
G01 X29.7268 Y18.3206 F100.00
G01 X29.7714 Y18.2714 F100.00
G01 X29.8206 Y18.2268 F100.00
G01 X29.8740 Y18.1873 F100.00
G01 X29.9310 Y18.1531 F100.00
G01 X29.9910 Y18.1247 F100.00
G01 X30.0535 Y18.1023 F100.00
G01 X30.1180 Y18.0862 F100.00
G01 X30.1837 Y18.0765 F100.00
G01 X30.2500 Y18.0732 F100.00
G01 X30.3182 Y18.0767 F100.00
G01 X30.3839 Y18.0866 F100.00
G01 X30.4447 Y18.1018 F100.00
G01 X30.4606 Y18.1073 F100.00
G00 Z2.0000
G00 X30.3628 Y16.9187
G01 F40.00
G01 Z-0.1000
G01 F100.00
G01 X30.4522 Y16.8908 F100.00
G01 X30.4628 Y16.8883 F100.00
G01 X30.4737 Y16.8874 F100.00
G01 X30.5436 Y16.8862 F100.00
G01 X30.5550 Y16.8869 F100.00
G01 X30.5625 Y16.8883 F100.00
G01 X30.5680 Y16.8898 F100.00
G01 X30.5752 Y16.8925 F100.00
G01 X30.5804 Y16.8949 F100.00
G01 X30.6447 Y16.9345 F100.00
G01 X30.6510 Y16.9389 F100.00
G01 X30.6568 Y16.9438 F100.00
G01 X30.6621 Y16.9493 F100.00
G01 X30.6679 Y16.9568 F100.00
G01 X30.6736 Y16.9668 F100.00
G01 X30.7037 Y17.0298 F100.00
G01 X30.7065 Y17.0367 F100.00
G01 X30.7087 Y17.0439 F100.00
G01 X30.7105 Y17.0531 F100.00
G01 X30.7127 Y17.0805 F100.00
G01 X30.7127 Y17.2816 F100.00
G01 X30.7124 Y17.2889 F100.00
G01 X30.7113 Y17.2962 F100.00
G01 X30.7101 Y17.3015 F100.00
G01 X30.6894 Y17.3721 F100.00
G01 X30.6851 Y17.3826 F100.00
G01 X30.6794 Y17.3923 F100.00
G01 X30.6594 Y17.4175 F100.00
G01 X30.6539 Y17.4236 F100.00
G01 X30.4074 Y17.6700 F100.00
G01 X30.4017 Y17.6747 F100.00
G01 X30.3941 Y17.6797 F100.00
G01 X30.3295 Y17.7150 F100.00
G01 X30.3191 Y17.7194 F100.00
G01 X30.3100 Y17.7219 F100.00
G01 X30.3026 Y17.7230 F100.00
G01 X30.2721 Y17.7262 F100.00
G01 X30.1551 Y17.7263 F100.00
G01 X29.9687 Y17.7612 F100.00
G01 X29.7917 Y17.8297 F100.00
G01 X29.6304 Y17.9296 F100.00
G01 X29.4902 Y18.0574 F100.00
G01 X29.3759 Y18.2088 F100.00
G01 X29.2913 Y18.3786 F100.00
G01 X29.2394 Y18.5611 F100.00
G01 X29.2219 Y18.7500 F100.00
G01 X29.2394 Y18.9389 F100.00
G01 X29.2913 Y19.1214 F100.00
G01 X29.3584 Y19.2561 F100.00
G01 X29.3759 Y19.2912 F100.00
G01 X29.4902 Y19.4426 F100.00
G01 X29.6304 Y19.5704 F100.00
G01 X29.7917 Y19.6703 F100.00
G01 X29.9687 Y19.7388 F100.00
G01 X30.1551 Y19.7737 F100.00
G01 X30.3449 Y19.7737 F100.00
G01 X30.5313 Y19.7388 F100.00
G01 X30.7083 Y19.6703 F100.00
G01 X30.8696 Y19.5704 F100.00
G01 X31.0098 Y19.4426 F100.00
G01 X31.1241 Y19.2912 F100.00
G01 X31.2087 Y19.1214 F100.00
G01 X31.2606 Y18.9389 F100.00
G01 X31.2781 Y18.7500 F100.00
G01 X31.2775 Y18.7399 F100.00
G01 X31.2783 Y18.7290 F100.00
G01 X31.2932 Y18.6532 F100.00
G01 X31.2947 Y18.6478 F100.00
G01 X31.2974 Y18.6408 F100.00
G01 X31.3026 Y18.6308 F100.00
G01 X31.3281 Y18.5956 F100.00
G01 X31.3358 Y18.5867 F100.00
G01 X31.8717 Y18.0508 F100.00
G01 X31.9431 Y17.9440 F100.00
G01 X31.9922 Y17.8253 F100.00
G01 X32.0173 Y17.6993 F100.00
G01 X32.0173 Y17.0826 F100.00
G01 X32.0176 Y17.0753 F100.00
G01 X32.0187 Y17.0680 F100.00
G01 X32.0204 Y17.0609 F100.00
G01 X32.0407 Y16.9921 F100.00
G01 X32.0449 Y16.9815 F100.00
G01 X32.0508 Y16.9716 F100.00
G01 X32.0554 Y16.9656 F100.00
G01 X32.0621 Y16.9587 F100.00
G01 X32.1178 Y16.9105 F100.00
G01 X32.1271 Y16.9039 F100.00
G01 X32.1338 Y16.9003 F100.00
G01 X32.1391 Y16.8981 F100.00
G01 X32.1463 Y16.8957 F100.00
G01 X32.1557 Y16.8937 F100.00
G01 X32.2267 Y16.8836 F100.00
G01 X32.2379 Y16.8830 F100.00
G01 X32.2435 Y16.8834 F100.00
G01 X32.2509 Y16.8845 F100.00
G01 X32.2759 Y16.8903 F100.00
G01 X32.3672 Y16.9187 F100.00
G01 X32.4224 Y16.9237 F100.00
G01 X32.8476 Y16.9237 F100.00
G01 X32.9028 Y16.9187 F100.00
G01 X32.9922 Y16.8908 F100.00
G01 X33.0028 Y16.8883 F100.00
G01 X33.0137 Y16.8874 F100.00
G01 X33.0893 Y16.8863 F100.00
G01 X33.0969 Y16.8872 F100.00
G01 X33.1062 Y16.8892 F100.00
G01 X33.1152 Y16.8925 F100.00
G01 X33.1237 Y16.8967 F100.00
G01 X33.1879 Y16.9366 F100.00
G01 X33.1925 Y16.9400 F100.00
G01 X33.1982 Y16.9451 F100.00
G01 X33.2057 Y16.9537 F100.00
G01 X33.2100 Y16.9601 F100.00
G01 X33.2136 Y16.9668 F100.00
G01 X33.2437 Y17.0298 F100.00
G01 X33.2465 Y17.0367 F100.00
G01 X33.2492 Y17.0457 F100.00
G01 X33.2505 Y17.0531 F100.00
G01 X33.2527 Y17.0805 F100.00
G01 X33.2527 Y18.2435 F100.00
G01 X33.2519 Y18.2526 F100.00
G01 X33.2501 Y18.2615 F100.00
G01 X33.2281 Y18.3357 F100.00
G01 X33.2243 Y18.3443 F100.00
G01 X33.2183 Y18.3539 F100.00
G01 X33.1994 Y18.3775 F100.00
G01 X33.1939 Y18.3836 F100.00
G01 X31.6133 Y19.9642 F100.00
G01 X31.5419 Y20.0710 F100.00
G01 X31.4928 Y20.1897 F100.00
G01 X31.4677 Y20.3158 F100.00
G01 X31.4677 Y22.0475 F100.00
G01 X31.4672 Y22.0566 F100.00
G01 X31.4659 Y22.0638 F100.00
G01 X31.4437 Y22.1398 F100.00
G01 X31.4417 Y22.1451 F100.00
G01 X31.4383 Y22.1520 F100.00
G01 X31.4343 Y22.1584 F100.00
G01 X31.4296 Y22.1644 F100.00
G01 X31.3956 Y22.2006 F100.00
G01 X31.3878 Y22.2078 F100.00
G01 X31.2772 Y22.2882 F100.00
G01 X31.1332 Y22.4322 F100.00
G01 X31.0125 Y22.5984 F100.00
G01 X31.0067 Y22.6055 F100.00
G01 X31.0014 Y22.6106 F100.00
G01 X30.9419 Y22.6568 F100.00
G01 X30.9356 Y22.6611 F100.00
G01 X30.9272 Y22.6657 F100.00
G01 X30.9184 Y22.6691 F100.00
G01 X30.9091 Y22.6714 F100.00
G01 X30.9016 Y22.6725 F100.00
G01 X30.8300 Y22.6786 F100.00
G01 X30.8205 Y22.6786 F100.00
G01 X30.8092 Y22.6770 F100.00
G01 X30.8000 Y22.6744 F100.00
G01 X30.7912 Y22.6707 F100.00
G01 X30.7244 Y22.6354 F100.00
G01 X30.7166 Y22.6301 F100.00
G01 X30.7094 Y22.6238 F100.00
G01 X30.6889 Y22.6002 F100.00
G01 X30.5668 Y22.4322 F100.00
G01 X30.4228 Y22.2882 F100.00
G01 X30.2580 Y22.1685 F100.00
G01 X30.0766 Y22.0761 F100.00
G01 X29.8829 Y22.0132 F100.00
G01 X29.6818 Y21.9813 F100.00
G01 X29.4782 Y21.9813 F100.00
G01 X29.2771 Y22.0132 F100.00
G01 X29.0834 Y22.0761 F100.00
G01 X28.9020 Y22.1685 F100.00
G01 X28.7372 Y22.2882 F100.00
G01 X28.5932 Y22.4322 F100.00
G01 X28.4714 Y22.5999 F100.00
G01 X28.4641 Y22.6081 F100.00
G01 X28.4572 Y22.6141 F100.00
G01 X28.3988 Y22.6590 F100.00
G01 X28.3923 Y22.6631 F100.00
G01 X28.3872 Y22.6657 F100.00
G01 X28.3765 Y22.6697 F100.00
G01 X28.3691 Y22.6714 F100.00
G01 X28.3635 Y22.6723 F100.00
G01 X28.2881 Y22.6787 F100.00
G01 X28.2805 Y22.6786 F100.00
G01 X28.2729 Y22.6777 F100.00
G01 X28.2655 Y22.6761 F100.00
G01 X28.2582 Y22.6738 F100.00
G01 X28.2495 Y22.6699 F100.00
G01 X28.1861 Y22.6363 F100.00
G01 X28.1781 Y22.6312 F100.00
G01 X28.1708 Y22.6251 F100.00
G01 X28.1655 Y22.6196 F100.00
G01 X28.1476 Y22.5984 F100.00
G01 X28.0268 Y22.4322 F100.00
G01 X27.8828 Y22.2882 F100.00
G01 X27.7751 Y22.2100 F100.00
G01 X27.7680 Y22.2042 F100.00
G01 X27.7629 Y22.1989 F100.00
G01 X27.7156 Y22.1379 F100.00
G01 X27.7114 Y22.1315 F100.00
G01 X27.7079 Y22.1248 F100.00
G01 X27.7044 Y22.1159 F100.00
G01 X27.7024 Y22.1085 F100.00
G01 X27.6933 Y22.0599 F100.00
G01 X27.6923 Y22.0475 F100.00
G01 X27.6923 Y19.8134 F100.00
G01 X27.6926 Y19.8061 F100.00
G01 X27.6934 Y19.8006 F100.00
G01 X27.6949 Y19.7935 F100.00
G01 X27.7162 Y19.7211 F100.00
G01 X27.7183 Y19.7158 F100.00
G01 X27.7216 Y19.7091 F100.00
G01 X27.7245 Y19.7042 F100.00
G01 X27.7290 Y19.6981 F100.00
G01 X27.7456 Y19.6775 F100.00
G01 X27.7511 Y19.6714 F100.00
G01 X28.0617 Y19.3608 F100.00
G01 X28.1331 Y19.2540 F100.00
G01 X28.1822 Y19.1353 F100.00
G01 X28.2073 Y19.0093 F100.00
G01 X28.2073 Y17.0807 F100.00
G01 X28.2081 Y17.0716 F100.00
G01 X28.2099 Y17.0627 F100.00
G01 X28.2319 Y16.9884 F100.00
G01 X28.2349 Y16.9815 F100.00
G01 X28.2387 Y16.9748 F100.00
G01 X28.2430 Y16.9685 F100.00
G01 X28.2493 Y16.9614 F100.00
G01 X28.3078 Y16.9105 F100.00
G01 X28.3123 Y16.9070 F100.00
G01 X28.3187 Y16.9029 F100.00
G01 X28.3238 Y16.9003 F100.00
G01 X28.3309 Y16.8974 F100.00
G01 X28.3419 Y16.8944 F100.00
G01 X28.4204 Y16.8832 F100.00
G01 X28.4297 Y16.8831 F100.00
G01 X28.4372 Y16.8839 F100.00
G01 X28.4639 Y16.8897 F100.00
G01 X28.5572 Y16.9187 F100.00
G01 X28.6124 Y16.9237 F100.00
G01 X29.0376 Y16.9237 F100.00
G01 X29.0928 Y16.9187 F100.00
G01 X29.2298 Y16.8760 F100.00
G01 X29.3561 Y16.7997 F100.00
G01 X29.3609 Y16.7970 F100.00
G01 X29.3676 Y16.7940 F100.00
G01 X29.3762 Y16.7911 F100.00
G01 X29.4456 Y16.7728 F100.00
G01 X29.4531 Y16.7714 F100.00
G01 X29.4607 Y16.7708 F100.00
G01 X29.4720 Y16.7712 F100.00
G01 X29.4814 Y16.7729 F100.00
G01 X29.5458 Y16.7917 F100.00
G01 X29.5526 Y16.7940 F100.00
G01 X29.5592 Y16.7970 F100.00
G01 X29.5639 Y16.7997 F100.00
G01 X29.6901 Y16.8760 F100.00
G01 X29.8272 Y16.9187 F100.00
G01 X29.8824 Y16.9237 F100.00
G01 X30.3076 Y16.9237 F100.00
G01 X30.3628 Y16.9187 F100.00
G00 Z2.0000
G00 X29.7910 Y14.6448
G01 F40.00
G01 Z-0.1000
G01 F100.00
G01 X29.7954 Y14.6154 F100.00
G01 X29.8026 Y14.5863 F100.00
G01 X29.8127 Y14.5581 F100.00
G01 X29.8239 Y14.5343 F100.00
G01 X29.8274 Y14.5277 F100.00
G01 X29.8399 Y14.5068 F100.00
G01 X29.8431 Y14.5022 F100.00
G01 X29.8588 Y14.4812 F100.00
G01 X29.8790 Y14.4590 F100.00
G01 X31.5553 Y12.7827 F100.00
G01 X31.5733 Y12.7663 F100.00
G01 X31.5792 Y12.7615 F100.00
G01 X31.6003 Y12.7460 F100.00
G01 X31.6227 Y12.7324 F100.00
G01 X31.6293 Y12.7289 F100.00
G01 X31.6531 Y12.7177 F100.00
G01 X31.6831 Y12.7071 F100.00
G01 X31.7104 Y12.7004 F100.00
G01 X31.7363 Y12.6964 F100.00
G01 X31.7438 Y12.6957 F100.00
G01 X31.7700 Y12.6945 F100.00
G01 X39.8735 Y12.6945 F100.00
G01 X41.1945 Y11.3735 F100.00
G01 X41.1945 Y-19.7500 F100.00
G01 X41.1958 Y-19.7781 F100.00
G01 X41.2004 Y-19.8096 F100.00
G01 X41.2066 Y-19.8351 F100.00
G01 X41.2082 Y-19.8405 F100.00
G01 X41.2164 Y-19.8634 F100.00
G01 X41.2193 Y-19.8704 F100.00
G01 X41.2306 Y-19.8940 F100.00
G01 X41.2460 Y-19.9197 F100.00
G01 X41.2638 Y-19.9438 F100.00
G01 X41.2827 Y-19.9647 F100.00
G01 X43.4445 Y-22.1265 F100.00
G01 X43.4445 Y-25.1235 F100.00
G01 X40.5340 Y-28.0340 F100.00
G01 X40.5163 Y-28.0533 F100.00
G01 X40.5115 Y-28.0592 F100.00
G01 X40.4960 Y-28.0803 F100.00
G01 X40.4824 Y-28.1027 F100.00
G01 X40.4789 Y-28.1093 F100.00
G01 X40.4677 Y-28.1331 F100.00
G01 X40.4571 Y-28.1631 F100.00
G01 X40.4512 Y-28.1867 F100.00
G01 X40.4497 Y-28.1941 F100.00
G01 X40.4460 Y-28.2201 F100.00
G01 X40.4446 Y-28.2462 F100.00
G01 X40.4445 Y-28.8826 F100.00
G01 X40.4306 Y-28.9060 F100.00
G01 X40.4193 Y-28.9296 F100.00
G01 X40.4164 Y-28.9366 F100.00
G01 X40.4076 Y-28.9613 F100.00
G01 X40.4012 Y-28.9867 F100.00
G01 X40.3997 Y-28.9941 F100.00
G01 X40.3960 Y-29.0201 F100.00
G01 X40.3946 Y-29.0462 F100.00
G01 X40.3945 Y-30.2982 F100.00
G01 X40.2981 Y-30.2982 F100.00
G01 X40.2661 Y-30.3000 F100.00
G01 X40.2400 Y-30.3038 F100.00
G01 X40.2326 Y-30.3053 F100.00
G01 X40.2051 Y-30.3123 F100.00
G01 X40.1767 Y-30.3224 F100.00
G01 X40.1493 Y-30.3351 F100.00
G01 X40.1427 Y-30.3386 F100.00
G01 X40.1184 Y-30.3533 F100.00
G01 X40.0927 Y-30.3724 F100.00
G01 X40.0716 Y-30.3913 F100.00
G01 X40.0663 Y-30.3966 F100.00
G01 X40.0474 Y-30.4177 F100.00
G01 X40.0283 Y-30.4434 F100.00
G01 X40.0118 Y-30.4709 F100.00
G01 X39.9996 Y-30.4965 F100.00
G01 X39.9967 Y-30.5035 F100.00
G01 X39.9873 Y-30.5301 F100.00
G01 X39.9803 Y-30.5576 F100.00
G01 X39.9788 Y-30.5650 F100.00
G01 X39.9748 Y-30.5930 F100.00
G01 X39.9732 Y-30.6250 F100.00
G01 X39.9732 Y-30.9445 F100.00
G01 X38.5768 Y-30.9445 F100.00
G01 X38.5766 Y-30.2444 F100.00
G01 X38.5749 Y-30.2332 F100.00
G01 X38.5735 Y-30.2277 F100.00
G01 X38.5710 Y-30.2206 F100.00
G01 X38.5677 Y-30.2138 F100.00
G01 X38.5649 Y-30.2089 F100.00
G01 X38.5605 Y-30.2028 F100.00
G01 X38.5569 Y-30.1984 F100.00
G01 X38.5530 Y-30.1944 F100.00
G01 X38.5472 Y-30.1895 F100.00
G01 X38.5379 Y-30.1832 F100.00
G01 X38.5311 Y-30.1798 F100.00
G01 X38.5259 Y-30.1777 F100.00
G01 X38.5150 Y-30.1747 F100.00
G01 X38.5075 Y-30.1736 F100.00
G01 X38.5000 Y-30.1732 F100.00
G01 X36.4981 Y-30.1732 F100.00
G01 X36.4925 Y-30.1736 F100.00
G01 X36.4850 Y-30.1747 F100.00
G01 X36.4777 Y-30.1765 F100.00
G01 X36.4706 Y-30.1790 F100.00
G01 X36.4638 Y-30.1823 F100.00
G01 X36.4573 Y-30.1861 F100.00
G01 X36.4513 Y-30.1906 F100.00
G01 X36.4457 Y-30.1957 F100.00
G01 X36.4406 Y-30.2013 F100.00
G01 X36.4361 Y-30.2073 F100.00
G01 X36.4323 Y-30.2138 F100.00
G01 X36.4290 Y-30.2206 F100.00
G01 X36.4265 Y-30.2277 F100.00
G01 X36.4247 Y-30.2350 F100.00
G01 X36.4236 Y-30.2425 F100.00
G01 X36.4232 Y-30.2500 F100.00
G01 X36.4232 Y-32.2519 F100.00
G01 X36.4243 Y-32.2631 F100.00
G01 X36.4271 Y-32.2741 F100.00
G01 X36.4314 Y-32.2845 F100.00
G01 X36.4372 Y-32.2942 F100.00
G01 X36.4444 Y-32.3030 F100.00
G01 X36.4528 Y-32.3105 F100.00
G01 X36.4621 Y-32.3168 F100.00
G01 X36.4706 Y-32.3210 F100.00
G01 X36.4777 Y-32.3235 F100.00
G01 X36.4850 Y-32.3253 F100.00
G01 X36.4925 Y-32.3264 F100.00
G01 X36.5000 Y-32.3268 F100.00
G01 X38.5000 Y-32.3268 F100.00
G01 X38.5075 Y-32.3264 F100.00
G01 X38.5131 Y-32.3257 F100.00
G01 X38.5187 Y-32.3245 F100.00
G01 X38.5259 Y-32.3223 F100.00
G01 X38.5362 Y-32.3177 F100.00
G01 X38.5457 Y-32.3117 F100.00
G01 X38.5543 Y-32.3043 F100.00
G01 X38.5617 Y-32.2957 F100.00
G01 X38.5668 Y-32.2879 F100.00
G01 X38.5717 Y-32.2776 F100.00
G01 X38.5749 Y-32.2668 F100.00
G01 X38.5766 Y-32.2556 F100.00
G01 X38.5768 Y-31.5555 F100.00
G01 X39.9732 Y-31.5555 F100.00
G01 X39.9732 Y-31.8769 F100.00
G01 X39.9748 Y-31.9070 F100.00
G01 X39.9788 Y-31.9350 F100.00
G01 X39.9803 Y-31.9424 F100.00
G01 X39.9867 Y-31.9681 F100.00
G01 X39.9981 Y-32.0001 F100.00
G01 X40.0118 Y-32.0291 F100.00
G01 X40.0283 Y-32.0566 F100.00
G01 X40.0474 Y-32.0823 F100.00
G01 X40.0689 Y-32.1061 F100.00
G01 X40.0927 Y-32.1276 F100.00
G01 X40.1184 Y-32.1467 F100.00
G01 X40.1459 Y-32.1632 F100.00
G01 X40.1749 Y-32.1769 F100.00
G01 X40.2016 Y-32.1865 F100.00
G01 X40.2088 Y-32.1887 F100.00
G01 X40.2362 Y-32.1955 F100.00
G01 X40.2642 Y-32.1998 F100.00
G01 X40.2717 Y-32.2005 F100.00
G01 X40.2981 Y-32.2018 F100.00
G01 X41.1000 Y-32.2018 F100.00
G01 X41.1320 Y-32.2002 F100.00
G01 X41.1600 Y-32.1962 F100.00
G01 X41.1674 Y-32.1947 F100.00
G01 X41.1949 Y-32.1877 F100.00
G01 X41.2215 Y-32.1783 F100.00
G01 X41.2285 Y-32.1754 F100.00
G01 X41.2541 Y-32.1632 F100.00
G01 X41.2784 Y-32.1487 F100.00
G01 X41.2846 Y-32.1446 F100.00
G01 X41.3073 Y-32.1276 F100.00
G01 X41.3311 Y-32.1061 F100.00
G01 X41.3526 Y-32.0823 F100.00
G01 X41.3696 Y-32.0596 F100.00
G01 X41.3737 Y-32.0534 F100.00
G01 X41.3882 Y-32.0291 F100.00
G01 X41.4019 Y-32.0001 F100.00
G01 X41.4115 Y-31.9734 F100.00
G01 X41.4137 Y-31.9662 F100.00
G01 X41.4209 Y-31.9369 F100.00
G01 X41.4252 Y-31.9070 F100.00
G01 X41.4268 Y-31.8750 F100.00
G01 X41.4268 Y-30.6231 F100.00
G01 X41.4252 Y-30.5930 F100.00
G01 X41.4212 Y-30.5650 F100.00
G01 X41.4197 Y-30.5576 F100.00
G01 X41.4127 Y-30.5301 F100.00
G01 X41.4033 Y-30.5035 F100.00
G01 X41.4004 Y-30.4965 F100.00
G01 X41.3899 Y-30.4743 F100.00
G01 X41.3864 Y-30.4677 F100.00
G01 X41.3717 Y-30.4434 F100.00
G01 X41.3526 Y-30.4177 F100.00
G01 X41.3311 Y-30.3939 F100.00
G01 X41.3058 Y-30.3712 F100.00
G01 X41.2816 Y-30.3533 F100.00
G01 X41.2573 Y-30.3386 F100.00
G01 X41.2507 Y-30.3351 F100.00
G01 X41.2251 Y-30.3231 F100.00
G01 X41.1984 Y-30.3135 F100.00
G01 X41.1912 Y-30.3113 F100.00
G01 X41.1674 Y-30.3053 F100.00
G01 X41.1600 Y-30.3038 F100.00
G01 X41.1320 Y-30.2998 F100.00
G01 X41.1038 Y-30.2983 F100.00
G01 X41.0055 Y-30.2982 F100.00
G01 X41.0055 Y-29.1674 F100.00
G01 X41.0176 Y-29.1473 F100.00
G01 X41.0211 Y-29.1407 F100.00
G01 X41.0323 Y-29.1169 F100.00
G01 X41.0412 Y-29.0923 F100.00
G01 X41.0434 Y-29.0851 F100.00
G01 X41.0496 Y-29.0596 F100.00
G01 X41.0542 Y-29.0281 F100.00
G01 X41.0555 Y-29.0000 F100.00
G01 X41.0555 Y-28.3765 F100.00
G01 X43.9673 Y-25.4647 F100.00
G01 X43.9862 Y-25.4438 F100.00
G01 X44.0040 Y-25.4197 F100.00
G01 X44.0194 Y-25.3940 F100.00
G01 X44.0323 Y-25.3669 F100.00
G01 X44.0424 Y-25.3387 F100.00
G01 X44.0496 Y-25.3096 F100.00
G01 X44.0540 Y-25.2799 F100.00
G01 X44.0555 Y-25.2519 F100.00
G01 X44.0555 Y-22.0000 F100.00
G01 X44.0540 Y-21.9701 F100.00
G01 X44.0496 Y-21.9404 F100.00
G01 X44.0424 Y-21.9113 F100.00
G01 X44.0330 Y-21.8848 F100.00
G01 X44.0194 Y-21.8560 F100.00
G01 X44.0040 Y-21.8303 F100.00
G01 X43.9862 Y-21.8062 F100.00
G01 X43.9660 Y-21.7840 F100.00
G01 X41.8055 Y-19.6235 F100.00
G01 X41.8055 Y11.5000 F100.00
G01 X41.8040 Y11.5299 F100.00
G01 X41.8003 Y11.5559 F100.00
G01 X41.7988 Y11.5633 F100.00
G01 X41.7924 Y11.5887 F100.00
G01 X41.7836 Y11.6134 F100.00
G01 X41.7807 Y11.6204 F100.00
G01 X41.7694 Y11.6440 F100.00
G01 X41.7560 Y11.6665 F100.00
G01 X41.7519 Y11.6728 F100.00
G01 X41.7362 Y11.6938 F100.00
G01 X41.7173 Y11.7147 F100.00
G01 X40.2160 Y13.2160 F100.00
G01 X40.1967 Y13.2337 F100.00
G01 X40.1908 Y13.2385 F100.00
G01 X40.1697 Y13.2540 F100.00
G01 X40.1440 Y13.2694 F100.00
G01 X40.1169 Y13.2823 F100.00
G01 X40.0923 Y13.2912 F100.00
G01 X40.0851 Y13.2934 F100.00
G01 X40.0577 Y13.3000 F100.00
G01 X40.0299 Y13.3040 F100.00
G01 X40.0000 Y13.3055 F100.00
G01 X31.8965 Y13.3055 F100.00
G01 X30.4714 Y14.7306 F100.00
G01 X30.4786 Y14.7459 F100.00
G01 X30.4853 Y14.7645 F100.00
G01 X30.4870 Y14.7698 F100.00
G01 X30.4914 Y14.7871 F100.00
G01 X30.4925 Y14.7927 F100.00
G01 X30.4954 Y14.8122 F100.00
G01 X30.4968 Y14.8356 F100.00
G01 X30.4968 Y16.3375 F100.00
G01 X30.4958 Y16.3591 F100.00
G01 X30.4928 Y16.3805 F100.00
G01 X30.4914 Y16.3879 F100.00
G01 X30.4865 Y16.4070 F100.00
G01 X30.4786 Y16.4291 F100.00
G01 X30.4702 Y16.4469 F100.00
G01 X30.4667 Y16.4536 F100.00
G01 X30.4565 Y16.4704 F100.00
G01 X30.4425 Y16.4893 F100.00
G01 X30.4267 Y16.5067 F100.00
G01 X30.4122 Y16.5200 F100.00
G01 X30.4063 Y16.5248 F100.00
G01 X30.3904 Y16.5365 F100.00
G01 X30.3703 Y16.5485 F100.00
G01 X30.3525 Y16.5571 F100.00
G01 X30.3473 Y16.5593 F100.00
G01 X30.3305 Y16.5653 F100.00
G01 X30.3233 Y16.5675 F100.00
G01 X30.3042 Y16.5722 F100.00
G01 X30.2847 Y16.5752 F100.00
G01 X30.2772 Y16.5759 F100.00
G01 X30.2575 Y16.5768 F100.00
G01 X29.9306 Y16.5768 F100.00
G01 X29.9109 Y16.5758 F100.00
G01 X29.9053 Y16.5752 F100.00
G01 X29.8858 Y16.5722 F100.00
G01 X29.8667 Y16.5675 F100.00
G01 X29.8595 Y16.5653 F100.00
G01 X29.8409 Y16.5586 F100.00
G01 X29.8231 Y16.5502 F100.00
G01 X29.8164 Y16.5467 F100.00
G01 X29.7996 Y16.5365 F100.00
G01 X29.7837 Y16.5248 F100.00
G01 X29.7778 Y16.5200 F100.00
G01 X29.7633 Y16.5067 F100.00
G01 X29.7500 Y16.4922 F100.00
G01 X29.7452 Y16.4863 F100.00
G01 X29.7335 Y16.4704 F100.00
G01 X29.7233 Y16.4536 F100.00
G01 X29.7198 Y16.4469 F100.00
G01 X29.7114 Y16.4291 F100.00
G01 X29.7030 Y16.4052 F100.00
G01 X29.6978 Y16.3842 F100.00
G01 X29.6948 Y16.3647 F100.00
G01 X29.6941 Y16.3572 F100.00
G01 X29.6932 Y16.3375 F100.00
G01 X29.6932 Y14.8375 F100.00
G01 X29.6941 Y14.8178 F100.00
G01 X29.6948 Y14.8103 F100.00
G01 X29.6978 Y14.7908 F100.00
G01 X29.7035 Y14.7680 F100.00
G01 X29.7114 Y14.7459 F100.00
G01 X29.7224 Y14.7230 F100.00
G01 X29.7335 Y14.7046 F100.00
G01 X29.7487 Y14.6842 F100.00
G01 X29.7646 Y14.6670 F100.00
G01 X29.7792 Y14.6537 F100.00
G01 X29.7910 Y14.6448 F100.00
G00 Z2.0000
G00 X28.5195 Y14.6459
G01 F40.00
G01 Z-0.1000
G01 F100.00
G01 X28.5195 Y12.7015 F100.00
G01 X28.1235 Y12.3055 F100.00
G01 X25.7500 Y12.3055 F100.00
G01 X25.7201 Y12.3040 F100.00
G01 X25.6941 Y12.3003 F100.00
G01 X25.6867 Y12.2988 F100.00
G01 X25.6595 Y12.2918 F100.00
G01 X25.6366 Y12.2836 F100.00
G01 X25.6296 Y12.2807 F100.00
G01 X25.6060 Y12.2694 F100.00
G01 X25.5835 Y12.2560 F100.00
G01 X25.5772 Y12.2519 F100.00
G01 X25.5562 Y12.2362 F100.00
G01 X25.5353 Y12.2173 F100.00
G01 X24.5340 Y11.2160 F100.00
G01 X24.5163 Y11.1967 F100.00
G01 X24.5115 Y11.1908 F100.00
G01 X24.4960 Y11.1697 F100.00
G01 X24.4806 Y11.1440 F100.00
G01 X24.4693 Y11.1204 F100.00
G01 X24.4664 Y11.1134 F100.00
G01 X24.4576 Y11.0887 F100.00
G01 X24.4507 Y11.0614 F100.00
G01 X24.4460 Y11.0299 F100.00
G01 X24.4445 Y11.0000 F100.00
G01 X24.4445 Y-9.8735 F100.00
G01 X22.8735 Y-11.4445 F100.00
G01 X-24.7500 Y-11.4445 F100.00
G01 X-24.7799 Y-11.4460 F100.00
G01 X-24.8096 Y-11.4504 F100.00
G01 X-24.8387 Y-11.4576 F100.00
G01 X-24.8652 Y-11.4670 F100.00
G01 X-24.8940 Y-11.4806 F100.00
G01 X-24.9197 Y-11.4960 F100.00
G01 X-24.9438 Y-11.5138 F100.00
G01 X-24.9647 Y-11.5327 F100.00
G01 X-26.2173 Y-12.7853 F100.00
G01 X-26.2362 Y-12.8062 F100.00
G01 X-26.2540 Y-12.8303 F100.00
G01 X-26.2694 Y-12.8560 F100.00
G01 X-26.2807 Y-12.8796 F100.00
G01 X-26.2830 Y-12.8848 F100.00
G01 X-26.2912 Y-12.9077 F100.00
G01 X-26.2934 Y-12.9149 F100.00
G01 X-26.2996 Y-12.9404 F100.00
G01 X-26.3040 Y-12.9701 F100.00
G01 X-26.3055 Y-13.0000 F100.00
G01 X-26.3055 Y-25.8735 F100.00
G01 X-28.5160 Y-28.0840 F100.00
G01 X-28.5362 Y-28.1062 F100.00
G01 X-28.5540 Y-28.1303 F100.00
G01 X-28.5694 Y-28.1560 F100.00
G01 X-28.5807 Y-28.1796 F100.00
G01 X-28.5836 Y-28.1866 F100.00
G01 X-28.5924 Y-28.2113 F100.00
G01 X-28.5996 Y-28.2404 F100.00
G01 X-28.6040 Y-28.2701 F100.00
G01 X-28.6055 Y-28.2981 F100.00
G01 X-28.6055 Y-29.7982 F100.00
G01 X-28.7038 Y-29.7983 F100.00
G01 X-28.7320 Y-29.7998 F100.00
G01 X-28.7638 Y-29.8045 F100.00
G01 X-28.7949 Y-29.8123 F100.00
G01 X-28.8251 Y-29.8231 F100.00
G01 X-28.8541 Y-29.8368 F100.00
G01 X-28.8831 Y-29.8543 F100.00
G01 X-28.9073 Y-29.8724 F100.00
G01 X-28.9284 Y-29.8913 F100.00
G01 X-28.9337 Y-29.8966 F100.00
G01 X-28.9526 Y-29.9177 F100.00
G01 X-28.9696 Y-29.9404 F100.00
G01 X-28.9737 Y-29.9466 F100.00
G01 X-28.9864 Y-29.9677 F100.00
G01 X-28.9899 Y-29.9743 F100.00
G01 X-29.0019 Y-29.9999 F100.00
G01 X-29.0127 Y-30.0301 F100.00
G01 X-29.0205 Y-30.0612 F100.00
G01 X-29.0252 Y-30.0930 F100.00
G01 X-29.0268 Y-30.1250 F100.00
G01 X-29.0267 Y-31.3788 F100.00
G01 X-29.0252 Y-31.4070 F100.00
G01 X-29.0205 Y-31.4388 F100.00
G01 X-29.0127 Y-31.4699 F100.00
G01 X-29.0033 Y-31.4965 F100.00
G01 X-29.0004 Y-31.5035 F100.00
G01 X-28.9899 Y-31.5257 F100.00
G01 X-28.9864 Y-31.5323 F100.00
G01 X-28.9717 Y-31.5566 F100.00
G01 X-28.9526 Y-31.5823 F100.00
G01 X-28.9311 Y-31.6061 F100.00
G01 X-28.9073 Y-31.6276 F100.00
G01 X-28.8816 Y-31.6467 F100.00
G01 X-28.8541 Y-31.6632 F100.00
G01 X-28.8251 Y-31.6769 F100.00
G01 X-28.7949 Y-31.6877 F100.00
G01 X-28.7638 Y-31.6955 F100.00
G01 X-28.7339 Y-31.7000 F100.00
G01 X-28.7000 Y-31.7018 F100.00
G01 X-27.8962 Y-31.7017 F100.00
G01 X-27.8717 Y-31.7005 F100.00
G01 X-27.8642 Y-31.6998 F100.00
G01 X-27.8362 Y-31.6955 F100.00
G01 X-27.8088 Y-31.6887 F100.00
G01 X-27.8016 Y-31.6865 F100.00
G01 X-27.7749 Y-31.6769 F100.00
G01 X-27.7493 Y-31.6649 F100.00
G01 X-27.7427 Y-31.6614 F100.00
G01 X-27.7184 Y-31.6467 F100.00
G01 X-27.6957 Y-31.6299 F100.00
G01 X-27.6898 Y-31.6252 F100.00
G01 X-27.6689 Y-31.6061 F100.00
G01 X-27.6498 Y-31.5852 F100.00
G01 X-27.6451 Y-31.5793 F100.00
G01 X-27.6283 Y-31.5566 F100.00
G01 X-27.6136 Y-31.5323 F100.00
G01 X-27.6101 Y-31.5257 F100.00
G01 X-27.5981 Y-31.5001 F100.00
G01 X-27.5885 Y-31.4734 F100.00
G01 X-27.5863 Y-31.4662 F100.00
G01 X-27.5795 Y-31.4388 F100.00
G01 X-27.5752 Y-31.4108 F100.00
G01 X-27.5745 Y-31.4033 F100.00
G01 X-27.5732 Y-31.3769 F100.00
G01 X-27.5732 Y-30.1250 F100.00
G01 X-27.5750 Y-30.0911 F100.00
G01 X-27.5795 Y-30.0612 F100.00
G01 X-27.5863 Y-30.0338 F100.00
G01 X-27.5885 Y-30.0266 F100.00
G01 X-27.5967 Y-30.0035 F100.00
G01 X-27.5996 Y-29.9965 F100.00
G01 X-27.6118 Y-29.9709 F100.00
G01 X-27.6263 Y-29.9466 F100.00
G01 X-27.6304 Y-29.9404 F100.00
G01 X-27.6474 Y-29.9177 F100.00
G01 X-27.6689 Y-29.8939 F100.00
G01 X-27.6927 Y-29.8724 F100.00
G01 X-27.7169 Y-29.8543 F100.00
G01 X-27.7459 Y-29.8368 F100.00
G01 X-27.7749 Y-29.8231 F100.00
G01 X-27.8051 Y-29.8123 F100.00
G01 X-27.8362 Y-29.8045 F100.00
G01 X-27.8680 Y-29.7998 F100.00
G01 X-27.8962 Y-29.7983 F100.00
G01 X-27.9945 Y-29.7982 F100.00
G01 X-27.9945 Y-28.4265 F100.00
G01 X-25.7827 Y-26.2147 F100.00
G01 X-25.7638 Y-26.1938 F100.00
G01 X-25.7481 Y-26.1728 F100.00
G01 X-25.7440 Y-26.1665 F100.00
G01 X-25.7306 Y-26.1440 F100.00
G01 X-25.7193 Y-26.1204 F100.00
G01 X-25.7164 Y-26.1134 F100.00
G01 X-25.7076 Y-26.0887 F100.00
G01 X-25.7007 Y-26.0614 F100.00
G01 X-25.6960 Y-26.0299 F100.00
G01 X-25.6945 Y-26.0000 F100.00
G01 X-25.6945 Y-13.1265 F100.00
G01 X-24.6235 Y-12.0555 F100.00
G01 X23.0000 Y-12.0555 F100.00
G01 X23.0299 Y-12.0540 F100.00
G01 X23.0559 Y-12.0503 F100.00
G01 X23.0633 Y-12.0488 F100.00
G01 X23.0869 Y-12.0429 F100.00
G01 X23.0923 Y-12.0412 F100.00
G01 X23.1169 Y-12.0323 F100.00
G01 X23.1440 Y-12.0194 F100.00
G01 X23.1697 Y-12.0040 F100.00
G01 X23.1938 Y-11.9862 F100.00
G01 X23.2160 Y-11.9660 F100.00
G01 X24.9673 Y-10.2147 F100.00
G01 X24.9862 Y-10.1938 F100.00
G01 X25.0040 Y-10.1697 F100.00
G01 X25.0194 Y-10.1440 F100.00
G01 X25.0307 Y-10.1204 F100.00
G01 X25.0330 Y-10.1152 F100.00
G01 X25.0412 Y-10.0923 F100.00
G01 X25.0434 Y-10.0851 F100.00
G01 X25.0496 Y-10.0596 F100.00
G01 X25.0542 Y-10.0281 F100.00
G01 X25.0555 Y-10.0000 F100.00
G01 X25.0555 Y10.8735 F100.00
G01 X25.8765 Y11.6945 F100.00
G01 X28.2500 Y11.6945 F100.00
G01 X28.2799 Y11.6960 F100.00
G01 X28.3114 Y11.7007 F100.00
G01 X28.3387 Y11.7076 F100.00
G01 X28.3634 Y11.7164 F100.00
G01 X28.3704 Y11.7193 F100.00
G01 X28.3940 Y11.7306 F100.00
G01 X28.4165 Y11.7440 F100.00
G01 X28.4228 Y11.7481 F100.00
G01 X28.4438 Y11.7638 F100.00
G01 X28.4633 Y11.7814 F100.00
G01 X29.0410 Y12.3590 F100.00
G01 X29.0612 Y12.3812 F100.00
G01 X29.0780 Y12.4037 F100.00
G01 X29.0926 Y12.4277 F100.00
G01 X29.0961 Y12.4343 F100.00
G01 X29.1073 Y12.4581 F100.00
G01 X29.1174 Y12.4863 F100.00
G01 X29.1238 Y12.5117 F100.00
G01 X29.1253 Y12.5191 F100.00
G01 X29.1290 Y12.5451 F100.00
G01 X29.1305 Y12.5731 F100.00
G01 X29.1305 Y14.6459 F100.00
G01 X29.1408 Y14.6537 F100.00
G01 X29.1554 Y14.6670 F100.00
G01 X29.1713 Y14.6842 F100.00
G01 X29.1865 Y14.7046 F100.00
G01 X29.1994 Y14.7264 F100.00
G01 X29.2093 Y14.7477 F100.00
G01 X29.2159 Y14.7662 F100.00
G01 X29.2175 Y14.7717 F100.00
G01 X29.2222 Y14.7908 F100.00
G01 X29.2252 Y14.8103 F100.00
G01 X29.2258 Y14.8159 F100.00
G01 X29.2267 Y14.8337 F100.00
G01 X29.2268 Y16.3375 F100.00
G01 X29.2256 Y16.3610 F100.00
G01 X29.2228 Y16.3805 F100.00
G01 X29.2218 Y16.3860 F100.00
G01 X29.2175 Y16.4033 F100.00
G01 X29.2153 Y16.4105 F100.00
G01 X29.2086 Y16.4291 F100.00
G01 X29.1985 Y16.4503 F100.00
G01 X29.1865 Y16.4704 F100.00
G01 X29.1748 Y16.4863 F100.00
G01 X29.1700 Y16.4922 F100.00
G01 X29.1580 Y16.5054 F100.00
G01 X29.1540 Y16.5093 F100.00
G01 X29.1393 Y16.5225 F100.00
G01 X29.1204 Y16.5365 F100.00
G01 X29.1003 Y16.5485 F100.00
G01 X29.0825 Y16.5571 F100.00
G01 X29.0756 Y16.5599 F100.00
G01 X29.0552 Y16.5670 F100.00
G01 X29.0342 Y16.5722 F100.00
G01 X29.0147 Y16.5752 F100.00
G01 X29.0072 Y16.5759 F100.00
G01 X28.9875 Y16.5768 F100.00
G01 X28.6606 Y16.5768 F100.00
G01 X28.6409 Y16.5758 F100.00
G01 X28.6353 Y16.5752 F100.00
G01 X28.6158 Y16.5722 F100.00
G01 X28.5967 Y16.5675 F100.00
G01 X28.5895 Y16.5653 F100.00
G01 X28.5709 Y16.5586 F100.00
G01 X28.5531 Y16.5502 F100.00
G01 X28.5464 Y16.5467 F100.00
G01 X28.5296 Y16.5365 F100.00
G01 X28.5137 Y16.5248 F100.00
G01 X28.5078 Y16.5200 F100.00
G01 X28.4933 Y16.5067 F100.00
G01 X28.4800 Y16.4922 F100.00
G01 X28.4752 Y16.4863 F100.00
G01 X28.4635 Y16.4704 F100.00
G01 X28.4533 Y16.4536 F100.00
G01 X28.4498 Y16.4469 F100.00
G01 X28.4414 Y16.4291 F100.00
G01 X28.4330 Y16.4052 F100.00
G01 X28.4278 Y16.3842 F100.00
G01 X28.4248 Y16.3647 F100.00
G01 X28.4241 Y16.3572 F100.00
G01 X28.4232 Y16.3375 F100.00
G01 X28.4232 Y14.8375 F100.00
G01 X28.4241 Y14.8178 F100.00
G01 X28.4248 Y14.8103 F100.00
G01 X28.4278 Y14.7908 F100.00
G01 X28.4335 Y14.7680 F100.00
G01 X28.4414 Y14.7459 F100.00
G01 X28.4524 Y14.7230 F100.00
G01 X28.4635 Y14.7046 F100.00
G01 X28.4787 Y14.6842 F100.00
G01 X28.4946 Y14.6670 F100.00
G01 X28.5092 Y14.6537 F100.00
G01 X28.5195 Y14.6459 F100.00
G00 Z2.0000
G00 X32.3295 Y14.6459
G01 F40.00
G01 Z-0.1000
G01 F100.00
G01 X32.3295 Y14.1150 F100.00
G01 X32.3307 Y14.0888 F100.00
G01 X32.3314 Y14.0813 F100.00
G01 X32.3354 Y14.0554 F100.00
G01 X32.3426 Y14.0263 F100.00
G01 X32.3527 Y13.9981 F100.00
G01 X32.3665 Y13.9693 F100.00
G01 X32.3810 Y13.9453 F100.00
G01 X32.3965 Y13.9242 F100.00
G01 X32.4013 Y13.9183 F100.00
G01 X32.4177 Y13.9003 F100.00
G01 X32.7840 Y13.5340 F100.00
G01 X32.8062 Y13.5138 F100.00
G01 X32.8303 Y13.4960 F100.00
G01 X32.8527 Y13.4824 F100.00
G01 X32.8593 Y13.4789 F100.00
G01 X32.8814 Y13.4685 F100.00
G01 X32.8866 Y13.4664 F100.00
G01 X32.9113 Y13.4576 F100.00
G01 X32.9404 Y13.4504 F100.00
G01 X32.9701 Y13.4460 F100.00
G01 X32.9981 Y13.4445 F100.00
G01 X38.2500 Y13.4445 F100.00
G01 X38.2799 Y13.4460 F100.00
G01 X38.3059 Y13.4497 F100.00
G01 X38.3133 Y13.4512 F100.00
G01 X38.3369 Y13.4571 F100.00
G01 X38.3423 Y13.4588 F100.00
G01 X38.3669 Y13.4677 F100.00
G01 X38.3940 Y13.4806 F100.00
G01 X38.4165 Y13.4940 F100.00
G01 X38.4228 Y13.4981 F100.00
G01 X38.4438 Y13.5138 F100.00
G01 X38.4647 Y13.5327 F100.00
G01 X39.2173 Y14.2853 F100.00
G01 X39.2362 Y14.3062 F100.00
G01 X39.2519 Y14.3272 F100.00
G01 X39.2560 Y14.3335 F100.00
G01 X39.2694 Y14.3560 F100.00
G01 X39.2807 Y14.3796 F100.00
G01 X39.2836 Y14.3866 F100.00
G01 X39.2918 Y14.4095 F100.00
G01 X39.2988 Y14.4367 F100.00
G01 X39.3003 Y14.4441 F100.00
G01 X39.3040 Y14.4701 F100.00
G01 X39.3055 Y14.5000 F100.00
G01 X39.3055 Y27.2500 F100.00
G01 X39.3043 Y27.2762 F100.00
G01 X39.3036 Y27.2837 F100.00
G01 X39.2996 Y27.3096 F100.00
G01 X39.2924 Y27.3387 F100.00
G01 X39.2823 Y27.3669 F100.00
G01 X39.2711 Y27.3907 F100.00
G01 X39.2676 Y27.3973 F100.00
G01 X39.2551 Y27.4182 F100.00
G01 X39.2519 Y27.4228 F100.00
G01 X39.2362 Y27.4438 F100.00
G01 X39.2173 Y27.4647 F100.00
G01 X37.2160 Y29.4660 F100.00
G01 X37.1938 Y29.4862 F100.00
G01 X37.1697 Y29.5040 F100.00
G01 X37.1440 Y29.5194 F100.00
G01 X37.1169 Y29.5323 F100.00
G01 X37.0887 Y29.5424 F100.00
G01 X37.0596 Y29.5496 F100.00
G01 X37.0299 Y29.5540 F100.00
G01 X37.0000 Y29.5555 F100.00
G01 X6.2500 Y29.5555 F100.00
G01 X6.2219 Y29.5542 F100.00
G01 X6.1941 Y29.5503 F100.00
G01 X6.1867 Y29.5488 F100.00
G01 X6.1613 Y29.5424 F100.00
G01 X6.1331 Y29.5323 F100.00
G01 X6.1060 Y29.5194 F100.00
G01 X6.0835 Y29.5060 F100.00
G01 X6.0787 Y29.5030 F100.00
G01 X6.0592 Y29.4885 F100.00
G01 X6.0533 Y29.4837 F100.00
G01 X6.0340 Y29.4660 F100.00
G01 X5.4827 Y28.9147 F100.00
G01 X5.4638 Y28.8938 F100.00
G01 X5.4481 Y28.8728 F100.00
G01 X5.4440 Y28.8665 F100.00
G01 X5.4297 Y28.8423 F100.00
G01 X5.4193 Y28.8204 F100.00
G01 X5.4164 Y28.8134 F100.00
G01 X5.4076 Y28.7887 F100.00
G01 X5.4012 Y28.7633 F100.00
G01 X5.3997 Y28.7559 F100.00
G01 X5.3960 Y28.7299 F100.00
G01 X5.3945 Y28.7019 F100.00
G01 X5.3945 Y27.7018 F100.00
G01 X5.2981 Y27.7018 F100.00
G01 X5.2661 Y27.7000 F100.00
G01 X5.2400 Y27.6962 F100.00
G01 X5.2326 Y27.6947 F100.00
G01 X5.2051 Y27.6877 F100.00
G01 X5.1767 Y27.6776 F100.00
G01 X5.1493 Y27.6649 F100.00
G01 X5.1427 Y27.6614 F100.00
G01 X5.1184 Y27.6467 F100.00
G01 X5.0927 Y27.6276 F100.00
G01 X5.0716 Y27.6087 F100.00
G01 X5.0663 Y27.6034 F100.00
G01 X5.0474 Y27.5823 F100.00
G01 X5.0283 Y27.5566 F100.00
G01 X5.0118 Y27.5291 F100.00
G01 X4.9996 Y27.5035 F100.00
G01 X4.9967 Y27.4965 F100.00
G01 X4.9873 Y27.4699 F100.00
G01 X4.9803 Y27.4424 F100.00
G01 X4.9788 Y27.4350 F100.00
G01 X4.9748 Y27.4070 F100.00
G01 X4.9732 Y27.3750 F100.00
G01 X4.9732 Y27.0555 F100.00
G01 X3.6323 Y27.0555 F100.00
G01 X3.6293 Y27.0662 F100.00
G01 X3.5962 Y27.1586 F100.00
G01 X3.5933 Y27.1655 F100.00
G01 X3.5497 Y27.2576 F100.00
G01 X3.4953 Y27.3482 F100.00
G01 X3.4324 Y27.4331 F100.00
G01 X3.3640 Y27.5087 F100.00
G01 X3.3587 Y27.5140 F100.00
G01 X3.2860 Y27.5799 F100.00
G01 X3.2801 Y27.5847 F100.00
G01 X3.1982 Y27.6453 F100.00
G01 X3.1076 Y27.6997 F100.00
G01 X3.0121 Y27.7448 F100.00
G01 X2.9162 Y27.7793 F100.00
G01 X2.9089 Y27.7814 F100.00
G01 X2.8138 Y27.8053 F100.00
G01 X2.8064 Y27.8068 F100.00
G01 X2.7055 Y27.8216 F100.00
G01 X2.6019 Y27.8268 F100.00
G01 X2.4982 Y27.8219 F100.00
G01 X2.4907 Y27.8212 F100.00
G01 X2.3899 Y27.8061 F100.00
G01 X2.2874 Y27.7804 F100.00
G01 X2.1914 Y27.7462 F100.00
G01 X2.1845 Y27.7433 F100.00
G01 X2.0924 Y27.6997 F100.00
G01 X2.0018 Y27.6453 F100.00
G01 X1.9199 Y27.5847 F100.00
G01 X1.9140 Y27.5799 F100.00
G01 X1.8386 Y27.5114 F100.00
G01 X1.7676 Y27.4331 F100.00
G01 X1.7068 Y27.3513 F100.00
G01 X1.7027 Y27.3451 F100.00
G01 X1.6503 Y27.2576 F100.00
G01 X1.6052 Y27.1621 F100.00
G01 X1.5696 Y27.0626 F100.00
G01 X1.5439 Y26.9601 F100.00
G01 X1.5284 Y26.8555 F100.00
G01 X1.5232 Y26.7500 F100.00
G01 X1.5284 Y26.6445 F100.00
G01 X1.5439 Y26.5399 F100.00
G01 X1.5696 Y26.4374 F100.00
G01 X1.6038 Y26.3414 F100.00
G01 X1.6067 Y26.3345 F100.00
G01 X1.6503 Y26.2424 F100.00
G01 X1.7027 Y26.1549 F100.00
G01 X1.7068 Y26.1487 F100.00
G01 X1.7653 Y26.0699 F100.00
G01 X1.7701 Y26.0640 F100.00
G01 X1.8386 Y25.9886 F100.00
G01 X1.9140 Y25.9201 F100.00
G01 X1.9199 Y25.9153 F100.00
G01 X2.0018 Y25.8547 F100.00
G01 X2.0924 Y25.8003 F100.00
G01 X2.1879 Y25.7552 F100.00
G01 X2.2874 Y25.7196 F100.00
G01 X2.3899 Y25.6939 F100.00
G01 X2.4945 Y25.6784 F100.00
G01 X2.6000 Y25.6732 F100.00
G01 X2.7055 Y25.6784 F100.00
G01 X2.8101 Y25.6939 F100.00
G01 X2.9126 Y25.7196 F100.00
G01 X3.0121 Y25.7552 F100.00
G01 X3.1076 Y25.8003 F100.00
G01 X3.1982 Y25.8547 F100.00
G01 X3.2831 Y25.9176 F100.00
G01 X3.3614 Y25.9886 F100.00
G01 X3.4324 Y26.0669 F100.00
G01 X3.4953 Y26.1518 F100.00
G01 X3.5497 Y26.2424 F100.00
G01 X3.5948 Y26.3379 F100.00
G01 X3.6293 Y26.4338 F100.00
G01 X3.6323 Y26.4445 F100.00
G01 X4.9732 Y26.4445 F100.00
G01 X4.9732 Y26.1231 F100.00
G01 X4.9748 Y26.0930 F100.00
G01 X4.9788 Y26.0650 F100.00
G01 X4.9803 Y26.0576 F100.00
G01 X4.9867 Y26.0319 F100.00
G01 X4.9981 Y25.9999 F100.00
G01 X5.0118 Y25.9709 F100.00
G01 X5.0283 Y25.9434 F100.00
G01 X5.0474 Y25.9177 F100.00
G01 X5.0689 Y25.8939 F100.00
G01 X5.0927 Y25.8724 F100.00
G01 X5.1184 Y25.8533 F100.00
G01 X5.1443 Y25.8377 F100.00
G01 X5.1749 Y25.8231 F100.00
G01 X5.2016 Y25.8135 F100.00
G01 X5.2088 Y25.8113 F100.00
G01 X5.2362 Y25.8045 F100.00
G01 X5.2642 Y25.8002 F100.00
G01 X5.2717 Y25.7995 F100.00
G01 X5.2962 Y25.7983 F100.00
G01 X6.1000 Y25.7982 F100.00
G01 X6.1283 Y25.7995 F100.00
G01 X6.1358 Y25.8002 F100.00
G01 X6.1600 Y25.8038 F100.00
G01 X6.1674 Y25.8053 F100.00
G01 X6.1949 Y25.8123 F100.00
G01 X6.2251 Y25.8231 F100.00
G01 X6.2541 Y25.8368 F100.00
G01 X6.2784 Y25.8513 F100.00
G01 X6.2846 Y25.8554 F100.00
G01 X6.3043 Y25.8701 F100.00
G01 X6.3102 Y25.8748 F100.00
G01 X6.3311 Y25.8939 F100.00
G01 X6.3526 Y25.9177 F100.00
G01 X6.3717 Y25.9434 F100.00
G01 X6.3864 Y25.9677 F100.00
G01 X6.3899 Y25.9743 F100.00
G01 X6.4004 Y25.9965 F100.00
G01 X6.4033 Y26.0035 F100.00
G01 X6.4127 Y26.0301 F100.00
G01 X6.4205 Y26.0612 F100.00
G01 X6.4252 Y26.0930 F100.00
G01 X6.4268 Y26.1250 F100.00
G01 X6.4267 Y27.3788 F100.00
G01 X6.4252 Y27.4070 F100.00
G01 X6.4212 Y27.4350 F100.00
G01 X6.4197 Y27.4424 F100.00
G01 X6.4127 Y27.4699 F100.00
G01 X6.4033 Y27.4965 F100.00
G01 X6.4004 Y27.5035 F100.00
G01 X6.3899 Y27.5257 F100.00
G01 X6.3864 Y27.5323 F100.00
G01 X6.3717 Y27.5566 F100.00
G01 X6.3526 Y27.5823 F100.00
G01 X6.3311 Y27.6061 F100.00
G01 X6.3058 Y27.6288 F100.00
G01 X6.2816 Y27.6467 F100.00
G01 X6.2573 Y27.6614 F100.00
G01 X6.2507 Y27.6649 F100.00
G01 X6.2251 Y27.6769 F100.00
G01 X6.1984 Y27.6865 F100.00
G01 X6.1912 Y27.6887 F100.00
G01 X6.1674 Y27.6947 F100.00
G01 X6.1600 Y27.6962 F100.00
G01 X6.1320 Y27.7002 F100.00
G01 X6.1038 Y27.7017 F100.00
G01 X6.0055 Y27.7018 F100.00
G01 X6.0055 Y28.5735 F100.00
G01 X6.3765 Y28.9445 F100.00
G01 X36.8735 Y28.9445 F100.00
G01 X38.6945 Y27.1235 F100.00
G01 X38.6945 Y14.6265 F100.00
G01 X38.1235 Y14.0555 F100.00
G01 X33.1265 Y14.0555 F100.00
G01 X32.9405 Y14.2415 F100.00
G01 X32.9405 Y14.6459 F100.00
G01 X32.9508 Y14.6537 F100.00
G01 X32.9654 Y14.6670 F100.00
G01 X32.9813 Y14.6842 F100.00
G01 X32.9965 Y14.7046 F100.00
G01 X33.0094 Y14.7264 F100.00
G01 X33.0193 Y14.7477 F100.00
G01 X33.0259 Y14.7662 F100.00
G01 X33.0275 Y14.7717 F100.00
G01 X33.0322 Y14.7908 F100.00
G01 X33.0352 Y14.8103 F100.00
G01 X33.0358 Y14.8159 F100.00
G01 X33.0367 Y14.8337 F100.00
G01 X33.0368 Y16.3375 F100.00
G01 X33.0354 Y16.3628 F100.00
G01 X33.0322 Y16.3842 F100.00
G01 X33.0265 Y16.4070 F100.00
G01 X33.0186 Y16.4291 F100.00
G01 X33.0085 Y16.4503 F100.00
G01 X32.9965 Y16.4704 F100.00
G01 X32.9825 Y16.4893 F100.00
G01 X32.9667 Y16.5067 F100.00
G01 X32.9522 Y16.5200 F100.00
G01 X32.9463 Y16.5248 F100.00
G01 X32.9320 Y16.5354 F100.00
G01 X32.9273 Y16.5385 F100.00
G01 X32.9086 Y16.5494 F100.00
G01 X32.8908 Y16.5578 F100.00
G01 X32.8856 Y16.5599 F100.00
G01 X32.8670 Y16.5665 F100.00
G01 X32.8442 Y16.5722 F100.00
G01 X32.8210 Y16.5756 F100.00
G01 X32.7975 Y16.5768 F100.00
G01 X32.4706 Y16.5768 F100.00
G01 X32.4490 Y16.5756 F100.00
G01 X32.4295 Y16.5728 F100.00
G01 X32.4221 Y16.5714 F100.00
G01 X32.4012 Y16.5659 F100.00
G01 X32.3827 Y16.5593 F100.00
G01 X32.3775 Y16.5571 F100.00
G01 X32.3597 Y16.5485 F100.00
G01 X32.3427 Y16.5385 F100.00
G01 X32.3365 Y16.5343 F100.00
G01 X32.3207 Y16.5225 F100.00
G01 X32.3060 Y16.5093 F100.00
G01 X32.3007 Y16.5040 F100.00
G01 X32.2875 Y16.4893 F100.00
G01 X32.2757 Y16.4735 F100.00
G01 X32.2715 Y16.4673 F100.00
G01 X32.2615 Y16.4503 F100.00
G01 X32.2529 Y16.4325 F100.00
G01 X32.2501 Y16.4256 F100.00
G01 X32.2435 Y16.4070 F100.00
G01 X32.2386 Y16.3879 F100.00
G01 X32.2372 Y16.3805 F100.00
G01 X32.2344 Y16.3610 F100.00
G01 X32.2332 Y16.3375 F100.00
G01 X32.2332 Y14.8375 F100.00
G01 X32.2341 Y14.8178 F100.00
G01 X32.2348 Y14.8103 F100.00
G01 X32.2378 Y14.7908 F100.00
G01 X32.2435 Y14.7680 F100.00
G01 X32.2514 Y14.7459 F100.00
G01 X32.2624 Y14.7230 F100.00
G01 X32.2735 Y14.7046 F100.00
G01 X32.2887 Y14.6842 F100.00
G01 X32.3046 Y14.6670 F100.00
G01 X32.3192 Y14.6537 F100.00
G01 X32.3295 Y14.6459 F100.00
G00 Z2.0000
G00 X36.1395 Y16.5291
G01 F40.00
G01 Z-0.1000
G01 F100.00
G01 X36.1292 Y16.5213 F100.00
G01 X36.1146 Y16.5080 F100.00
G01 X36.0987 Y16.4908 F100.00
G01 X36.0835 Y16.4704 F100.00
G01 X36.0724 Y16.4520 F100.00
G01 X36.0614 Y16.4291 F100.00
G01 X36.0535 Y16.4070 F100.00
G01 X36.0478 Y16.3842 F100.00
G01 X36.0448 Y16.3647 F100.00
G01 X36.0441 Y16.3572 F100.00
G01 X36.0432 Y16.3375 F100.00
G01 X36.0432 Y14.8375 F100.00
G01 X36.0441 Y14.8178 F100.00
G01 X36.0448 Y14.8103 F100.00
G01 X36.0478 Y14.7908 F100.00
G01 X36.0530 Y14.7698 F100.00
G01 X36.0614 Y14.7459 F100.00
G01 X36.0698 Y14.7281 F100.00
G01 X36.0733 Y14.7214 F100.00
G01 X36.0835 Y14.7046 F100.00
G01 X36.0952 Y14.6887 F100.00
G01 X36.1000 Y14.6828 F100.00
G01 X36.1133 Y14.6683 F100.00
G01 X36.1278 Y14.6550 F100.00
G01 X36.1337 Y14.6502 F100.00
G01 X36.1496 Y14.6385 F100.00
G01 X36.1664 Y14.6283 F100.00
G01 X36.1731 Y14.6248 F100.00
G01 X36.1909 Y14.6164 F100.00
G01 X36.2095 Y14.6097 F100.00
G01 X36.2167 Y14.6075 F100.00
G01 X36.2358 Y14.6028 F100.00
G01 X36.2553 Y14.5998 F100.00
G01 X36.2609 Y14.5992 F100.00
G01 X36.2806 Y14.5982 F100.00
G01 X36.6075 Y14.5982 F100.00
G01 X36.6272 Y14.5991 F100.00
G01 X36.6347 Y14.5998 F100.00
G01 X36.6542 Y14.6028 F100.00
G01 X36.6752 Y14.6080 F100.00
G01 X36.6956 Y14.6151 F100.00
G01 X36.7025 Y14.6179 F100.00
G01 X36.7203 Y14.6265 F100.00
G01 X36.7404 Y14.6385 F100.00
G01 X36.7593 Y14.6525 F100.00
G01 X36.7740 Y14.6657 F100.00
G01 X36.7780 Y14.6696 F100.00
G01 X36.7900 Y14.6828 F100.00
G01 X36.7948 Y14.6887 F100.00
G01 X36.8065 Y14.7046 F100.00
G01 X36.8185 Y14.7247 F100.00
G01 X36.8286 Y14.7459 F100.00
G01 X36.8353 Y14.7645 F100.00
G01 X36.8375 Y14.7717 F100.00
G01 X36.8425 Y14.7927 F100.00
G01 X36.8456 Y14.8140 F100.00
G01 X36.8468 Y14.8356 F100.00
G01 X36.8468 Y16.3375 F100.00
G01 X36.8459 Y16.3572 F100.00
G01 X36.8452 Y16.3647 F100.00
G01 X36.8422 Y16.3842 F100.00
G01 X36.8365 Y16.4070 F100.00
G01 X36.8286 Y16.4291 F100.00
G01 X36.8176 Y16.4520 F100.00
G01 X36.8065 Y16.4704 F100.00
G01 X36.7913 Y16.4908 F100.00
G01 X36.7754 Y16.5080 F100.00
G01 X36.7608 Y16.5213 F100.00
G01 X36.7505 Y16.5291 F100.00
G01 X36.7505 Y19.0685 F100.00
G01 X37.4673 Y19.7853 F100.00
G01 X37.4862 Y19.8062 F100.00
G01 X37.5019 Y19.8272 F100.00
G01 X37.5060 Y19.8335 F100.00
G01 X37.5194 Y19.8560 F100.00
G01 X37.5307 Y19.8796 F100.00
G01 X37.5336 Y19.8866 F100.00
G01 X37.5418 Y19.9095 F100.00
G01 X37.5496 Y19.9404 F100.00
G01 X37.5540 Y19.9701 F100.00
G01 X37.5555 Y20.0000 F100.00
G01 X37.5543 Y20.0262 F100.00
G01 X37.5536 Y20.0337 F100.00
G01 X37.5500 Y20.0577 F100.00
G01 X37.5488 Y20.0633 F100.00
G01 X37.5424 Y20.0887 F100.00
G01 X37.5336 Y20.1134 F100.00
G01 X37.5307 Y20.1204 F100.00
G01 X37.5194 Y20.1440 F100.00
G01 X37.5055 Y20.1674 F100.00
G01 X37.5055 Y22.3798 F100.00
G01 X37.5623 Y22.4003 F100.00
G01 X37.6446 Y22.4391 F100.00
G01 X37.7276 Y22.4888 F100.00
G01 X37.8006 Y22.5431 F100.00
G01 X37.8668 Y22.6029 F100.00
G01 X37.8721 Y22.6082 F100.00
G01 X37.9331 Y22.6758 F100.00
G01 X37.9872 Y22.7490 F100.00
G01 X38.0331 Y22.8254 F100.00
G01 X38.0367 Y22.8320 F100.00
G01 X38.0747 Y22.9127 F100.00
G01 X38.1060 Y23.0002 F100.00
G01 X38.1278 Y23.0866 F100.00
G01 X38.1293 Y23.0940 F100.00
G01 X38.1424 Y23.1841 F100.00
G01 X38.1468 Y23.2750 F100.00
G01 X38.1468 Y23.7250 F100.00
G01 X38.1422 Y23.8178 F100.00
G01 X38.1286 Y23.9097 F100.00
G01 X38.1060 Y23.9998 F100.00
G01 X38.0747 Y24.0873 F100.00
G01 X38.0341 Y24.1730 F100.00
G01 X37.9893 Y24.2478 F100.00
G01 X37.9851 Y24.2541 F100.00
G01 X37.9319 Y24.3256 F100.00
G01 X37.8721 Y24.3918 F100.00
G01 X37.8668 Y24.3971 F100.00
G01 X37.8006 Y24.4569 F100.00
G01 X37.7260 Y24.5122 F100.00
G01 X37.6463 Y24.5600 F100.00
G01 X37.5658 Y24.5982 F100.00
G01 X37.5588 Y24.6011 F100.00
G01 X37.4748 Y24.6310 F100.00
G01 X37.3884 Y24.6528 F100.00
G01 X37.3810 Y24.6543 F100.00
G01 X37.2965 Y24.6668 F100.00
G01 X37.2890 Y24.6675 F100.00
G01 X37.2000 Y24.6718 F100.00
G01 X37.1072 Y24.6672 F100.00
G01 X37.0153 Y24.6536 F100.00
G01 X36.9252 Y24.6310 F100.00
G01 X36.8377 Y24.5997 F100.00
G01 X36.7537 Y24.5600 F100.00
G01 X36.6740 Y24.5122 F100.00
G01 X36.5994 Y24.4569 F100.00
G01 X36.5305 Y24.3945 F100.00
G01 X36.4681 Y24.3256 F100.00
G01 X36.4128 Y24.2510 F100.00
G01 X36.3650 Y24.1713 F100.00
G01 X36.3253 Y24.0873 F100.00
G01 X36.2940 Y23.9998 F100.00
G01 X36.2714 Y23.9097 F100.00
G01 X36.2582 Y23.8215 F100.00
G01 X36.2575 Y23.8140 F100.00
G01 X36.2532 Y23.7250 F100.00
G01 X36.2532 Y23.2750 F100.00
G01 X36.2576 Y23.1841 F100.00
G01 X36.2707 Y23.0940 F100.00
G01 X36.2722 Y23.0866 F100.00
G01 X36.2940 Y23.0002 F100.00
G01 X36.3260 Y22.9109 F100.00
G01 X36.3650 Y22.8287 F100.00
G01 X36.4128 Y22.7490 F100.00
G01 X36.4681 Y22.6744 F100.00
G01 X36.5319 Y22.6042 F100.00
G01 X36.5994 Y22.5431 F100.00
G01 X36.6756 Y22.4867 F100.00
G01 X36.7554 Y22.4391 F100.00
G01 X36.8377 Y22.4003 F100.00
G01 X36.8945 Y22.3798 F100.00
G01 X36.8945 Y20.0765 F100.00
G01 X36.2264 Y19.4083 F100.00
G01 X36.2088 Y19.3888 F100.00
G01 X36.1931 Y19.3678 F100.00
G01 X36.1890 Y19.3615 F100.00
G01 X36.1756 Y19.3390 F100.00
G01 X36.1643 Y19.3154 F100.00
G01 X36.1614 Y19.3084 F100.00
G01 X36.1526 Y19.2837 F100.00
G01 X36.1457 Y19.2564 F100.00
G01 X36.1410 Y19.2249 F100.00
G01 X36.1395 Y19.1950 F100.00
G01 X36.1395 Y16.5291 F100.00
G00 Z2.0000
G00 X36.7718 Y8.4887
G01 F40.00
G01 Z-0.1000
G01 F100.00
G01 X36.7718 Y8.1002 F100.00
G01 X36.8496 Y8.1245 F100.00
G01 X36.9714 Y8.1981 F100.00
G01 X37.0719 Y8.2986 F100.00
G01 X37.1455 Y8.4204 F100.00
G01 X37.1882 Y8.5573 F100.00
G01 X37.1932 Y8.6124 F100.00
G01 X37.1932 Y9.0857 F100.00
G01 X36.8468 Y9.0857 F100.00
G01 X36.8468 Y8.6625 F100.00
G01 X36.8454 Y8.6372 F100.00
G01 X36.8422 Y8.6158 F100.00
G01 X36.8365 Y8.5930 F100.00
G01 X36.8286 Y8.5709 F100.00
G01 X36.8194 Y8.5514 F100.00
G01 X36.8065 Y8.5296 F100.00
G01 X36.7948 Y8.5137 F100.00
G01 X36.7913 Y8.5092 F100.00
G01 X36.7793 Y8.4960 F100.00
G01 X36.7718 Y8.4887 F100.00
G00 Z2.0000
G00 X35.5018 Y8.4887
G01 F40.00
G01 Z-0.1000
G01 F100.00
G01 X35.5018 Y8.1002 F100.00
G01 X35.5796 Y8.1245 F100.00
G01 X35.7061 Y8.2009 F100.00
G01 X35.7157 Y8.2059 F100.00
G01 X35.7242 Y8.2089 F100.00
G01 X35.7868 Y8.2272 F100.00
G01 X35.7980 Y8.2294 F100.00
G01 X35.8074 Y8.2298 F100.00
G01 X35.8150 Y8.2294 F100.00
G01 X35.8244 Y8.2278 F100.00
G01 X35.8938 Y8.2095 F100.00
G01 X35.9041 Y8.2059 F100.00
G01 X35.9139 Y8.2009 F100.00
G01 X36.0404 Y8.1245 F100.00
G01 X36.1182 Y8.1002 F100.00
G01 X36.1182 Y8.4887 F100.00
G01 X36.1107 Y8.4960 F100.00
G01 X36.0987 Y8.5092 F100.00
G01 X36.0952 Y8.5137 F100.00
G01 X36.0825 Y8.5311 F100.00
G01 X36.0724 Y8.5480 F100.00
G01 X36.0698 Y8.5531 F100.00
G01 X36.0614 Y8.5709 F100.00
G01 X36.0535 Y8.5930 F100.00
G01 X36.0478 Y8.6158 F100.00
G01 X36.0442 Y8.6409 F100.00
G01 X36.0432 Y8.6625 F100.00
G01 X36.0432 Y9.0857 F100.00
G01 X35.5768 Y9.0857 F100.00
G01 X35.5768 Y8.6625 F100.00
G01 X35.5754 Y8.6372 F100.00
G01 X35.5722 Y8.6158 F100.00
G01 X35.5665 Y8.5930 F100.00
G01 X35.5586 Y8.5709 F100.00
G01 X35.5494 Y8.5514 F100.00
G01 X35.5365 Y8.5296 F100.00
G01 X35.5248 Y8.5137 F100.00
G01 X35.5213 Y8.5092 F100.00
G01 X35.5093 Y8.4960 F100.00
G01 X35.5018 Y8.4887 F100.00
G00 Z2.0000
G00 X34.2318 Y8.4887
G01 F40.00
G01 Z-0.1000
G01 F100.00
G01 X34.2318 Y8.1002 F100.00
G01 X34.3096 Y8.1245 F100.00
G01 X34.4361 Y8.2009 F100.00
G01 X34.4457 Y8.2059 F100.00
G01 X34.4542 Y8.2089 F100.00
G01 X34.5168 Y8.2272 F100.00
G01 X34.5280 Y8.2294 F100.00
G01 X34.5374 Y8.2298 F100.00
G01 X34.5450 Y8.2294 F100.00
G01 X34.5544 Y8.2278 F100.00
G01 X34.6238 Y8.2095 F100.00
G01 X34.6341 Y8.2059 F100.00
G01 X34.6439 Y8.2009 F100.00
G01 X34.7704 Y8.1245 F100.00
G01 X34.8482 Y8.1002 F100.00
G01 X34.8482 Y8.4887 F100.00
G01 X34.8407 Y8.4960 F100.00
G01 X34.8287 Y8.5092 F100.00
G01 X34.8252 Y8.5137 F100.00
G01 X34.8125 Y8.5311 F100.00
G01 X34.8024 Y8.5480 F100.00
G01 X34.7998 Y8.5531 F100.00
G01 X34.7914 Y8.5709 F100.00
G01 X34.7835 Y8.5930 F100.00
G01 X34.7778 Y8.6158 F100.00
G01 X34.7742 Y8.6409 F100.00
G01 X34.7732 Y8.6625 F100.00
G01 X34.7732 Y9.0857 F100.00
G01 X34.3068 Y9.0857 F100.00
G01 X34.3068 Y8.6625 F100.00
G01 X34.3054 Y8.6372 F100.00
G01 X34.3022 Y8.6158 F100.00
G01 X34.2965 Y8.5930 F100.00
G01 X34.2886 Y8.5709 F100.00
G01 X34.2794 Y8.5514 F100.00
G01 X34.2665 Y8.5296 F100.00
G01 X34.2548 Y8.5137 F100.00
G01 X34.2513 Y8.5092 F100.00
G01 X34.2393 Y8.4960 F100.00
G01 X34.2318 Y8.4887 F100.00
G00 Z2.0000
G00 X32.7975 Y8.4232
G01 F40.00
G01 Z-0.1000
G01 F100.00
G01 X32.8210 Y8.4244 F100.00
G01 X32.8442 Y8.4278 F100.00
G01 X32.8670 Y8.4335 F100.00
G01 X32.8856 Y8.4401 F100.00
G01 X32.8908 Y8.4422 F100.00
G01 X32.9086 Y8.4506 F100.00
G01 X32.9273 Y8.4615 F100.00
G01 X32.9320 Y8.4646 F100.00
G01 X32.9463 Y8.4752 F100.00
G01 X32.9522 Y8.4800 F100.00
G01 X32.9667 Y8.4933 F100.00
G01 X32.9825 Y8.5107 F100.00
G01 X32.9965 Y8.5296 F100.00
G01 X33.0085 Y8.5497 F100.00
G01 X33.0186 Y8.5709 F100.00
G01 X33.0265 Y8.5930 F100.00
G01 X33.0322 Y8.6158 F100.00
G01 X33.0354 Y8.6372 F100.00
G01 X33.0368 Y8.6625 F100.00
