(G-CODE GENERATED BY FLATCAM v8.994 - www.flatcam.org - Version Date: 2020/11/7)

(Name: Encoders-LCD-Edge_Cuts.gbr_cutout_cnc)
(Type: G-code from Geometry)
(Units: MM)

(Created on Monday, 09 September 2024 at 16:05)

(This preprocessor is used with a motion controller loaded with GRBL firmware.)
(It is configured to be compatible with almost any version of GRBL firmware.)

(TOOL DIAMETER: 2.4 mm)
(Feedrate_XY: 120.0 mm/min)
(Feedrate_Z: 60.0 mm/min)
(Feedrate rapids 1500.0 mm/min)

(Z_Cut: -1.8 mm)
(DepthPerCut: 0.2 mm <=>9 passes)
(Z_Move: 2.0 mm)
(Z Start: None mm)
(Z End: 5.0 mm)
(X,Y End: None mm)
(Steps per circle: 64)
(Steps per circle: 64)
(Preprocessor Geometry: GRBL_11_no_M6)

(X range:  -56.4251 ...   56.4251  mm)
(Y range:  -39.4251 ...   39.4251  mm)

(Spindle Speed: 900.0 RPM)
G21
G90
G17
G94


G01 F120.00

M5             
G00 Z5.0000
G00 X0.0000 Y0.0000                
T1
(MSG, Change to Tool Dia = 2.4000)
M0
G00 Z5.0000
        
M03 S900.0
G01 F120.00
G00 X-3.1000 Y-39.4251
G01 F60.00
G01 Z-0.2000
G01 F120.00
G01 X-52.0000 Y-39.4251 F120.00
G01 X-52.0319 Y-39.4247 F120.00
G01 X-52.0699 Y-39.4233 F120.00
G01 X-52.3640 Y-39.4089 F120.00
G01 X-52.4276 Y-39.4042 F120.00
G01 X-52.4398 Y-39.4030 F120.00
G01 X-52.5032 Y-39.3952 F120.00
G01 X-52.7944 Y-39.3520 F120.00
G01 X-52.8572 Y-39.3411 F120.00
G01 X-52.8693 Y-39.3387 F120.00
G01 X-52.9315 Y-39.3247 F120.00
G01 X-53.2171 Y-39.2532 F120.00
G01 X-53.2786 Y-39.2362 F120.00
G01 X-53.2904 Y-39.2326 F120.00
G01 X-53.3509 Y-39.2126 F120.00
G01 X-53.6281 Y-39.1134 F120.00
G01 X-53.6877 Y-39.0904 F120.00
G01 X-53.6990 Y-39.0857 F120.00
G01 X-53.7573 Y-39.0599 F120.00
G01 X-54.0235 Y-38.9340 F120.00
G01 X-54.0805 Y-38.9053 F120.00
G01 X-54.0913 Y-38.8995 F120.00
G01 X-54.1468 Y-38.8681 F120.00
G01 X-54.3993 Y-38.7167 F120.00
G01 X-54.4532 Y-38.6826 F120.00
G01 X-54.4635 Y-38.6758 F120.00
G01 X-54.5156 Y-38.6390 F120.00
G01 X-54.7521 Y-38.4637 F120.00
G01 X-54.8024 Y-38.4244 F120.00
G01 X-54.8119 Y-38.4166 F120.00
G01 X-54.8602 Y-38.3749 F120.00
G01 X-55.0783 Y-38.1772 F120.00
G01 X-55.1245 Y-38.1332 F120.00
G01 X-55.1332 Y-38.1245 F120.00
G01 X-55.1772 Y-38.0783 F120.00
G01 X-55.3749 Y-37.8602 F120.00
G01 X-55.4166 Y-37.8119 F120.00
G01 X-55.4244 Y-37.8024 F120.00
G01 X-55.4637 Y-37.7521 F120.00
G01 X-55.6390 Y-37.5156 F120.00
G01 X-55.6758 Y-37.4635 F120.00
G01 X-55.6826 Y-37.4532 F120.00
G01 X-55.7167 Y-37.3993 F120.00
G01 X-55.8681 Y-37.1468 F120.00
G01 X-55.8995 Y-37.0913 F120.00
G01 X-55.9053 Y-37.0805 F120.00
G01 X-55.9340 Y-37.0235 F120.00
G01 X-56.0599 Y-36.7573 F120.00
G01 X-56.0857 Y-36.6990 F120.00
G01 X-56.0904 Y-36.6877 F120.00
G01 X-56.1134 Y-36.6281 F120.00
G01 X-56.2126 Y-36.3509 F120.00
G01 X-56.2326 Y-36.2904 F120.00
G01 X-56.2362 Y-36.2786 F120.00
G01 X-56.2532 Y-36.2171 F120.00
G01 X-56.3247 Y-35.9315 F120.00
G01 X-56.3387 Y-35.8693 F120.00
G01 X-56.3411 Y-35.8572 F120.00
G01 X-56.3520 Y-35.7944 F120.00
G01 X-56.3952 Y-35.5032 F120.00
G01 X-56.4030 Y-35.4398 F120.00
G01 X-56.4042 Y-35.4276 F120.00
G01 X-56.4089 Y-35.3640 F120.00
G01 X-56.4233 Y-35.0699 F120.00
G01 X-56.4247 Y-35.0319 F120.00
G01 X-56.4251 Y-35.0000 F120.00
G01 X-56.4251 Y-3.1000 F120.00
G00 X-56.4251 Y-3.1000
G01 F60.00
G01 Z-0.4000
G01 F120.00
G01 X-56.4251 Y-35.0000 F120.00
G01 X-56.4247 Y-35.0319 F120.00
G01 X-56.4233 Y-35.0699 F120.00
G01 X-56.4089 Y-35.3640 F120.00
G01 X-56.4042 Y-35.4276 F120.00
G01 X-56.4030 Y-35.4398 F120.00
G01 X-56.3952 Y-35.5032 F120.00
G01 X-56.3520 Y-35.7944 F120.00
G01 X-56.3411 Y-35.8572 F120.00
G01 X-56.3387 Y-35.8693 F120.00
G01 X-56.3247 Y-35.9315 F120.00
G01 X-56.2532 Y-36.2171 F120.00
G01 X-56.2362 Y-36.2786 F120.00
G01 X-56.2326 Y-36.2904 F120.00
G01 X-56.2126 Y-36.3509 F120.00
G01 X-56.1134 Y-36.6281 F120.00
G01 X-56.0904 Y-36.6877 F120.00
G01 X-56.0857 Y-36.6990 F120.00
G01 X-56.0599 Y-36.7573 F120.00
G01 X-55.9340 Y-37.0235 F120.00
G01 X-55.9053 Y-37.0805 F120.00
G01 X-55.8995 Y-37.0913 F120.00
G01 X-55.8681 Y-37.1468 F120.00
G01 X-55.7167 Y-37.3993 F120.00
G01 X-55.6826 Y-37.4532 F120.00
G01 X-55.6758 Y-37.4635 F120.00
G01 X-55.6390 Y-37.5156 F120.00
G01 X-55.4637 Y-37.7521 F120.00
G01 X-55.4244 Y-37.8024 F120.00
G01 X-55.4166 Y-37.8119 F120.00
G01 X-55.3749 Y-37.8602 F120.00
G01 X-55.1772 Y-38.0783 F120.00
G01 X-55.1332 Y-38.1245 F120.00
G01 X-55.1245 Y-38.1332 F120.00
G01 X-55.0783 Y-38.1772 F120.00
G01 X-54.8602 Y-38.3749 F120.00
G01 X-54.8119 Y-38.4166 F120.00
G01 X-54.8024 Y-38.4244 F120.00
G01 X-54.7521 Y-38.4637 F120.00
G01 X-54.5156 Y-38.6390 F120.00
G01 X-54.4635 Y-38.6758 F120.00
G01 X-54.4532 Y-38.6826 F120.00
G01 X-54.3993 Y-38.7167 F120.00
G01 X-54.1468 Y-38.8681 F120.00
G01 X-54.0913 Y-38.8995 F120.00
G01 X-54.0805 Y-38.9053 F120.00
G01 X-54.0235 Y-38.9340 F120.00
G01 X-53.7573 Y-39.0599 F120.00
G01 X-53.6990 Y-39.0857 F120.00
G01 X-53.6877 Y-39.0904 F120.00
G01 X-53.6281 Y-39.1134 F120.00
G01 X-53.3509 Y-39.2126 F120.00
G01 X-53.2904 Y-39.2326 F120.00
G01 X-53.2786 Y-39.2362 F120.00
G01 X-53.2171 Y-39.2532 F120.00
G01 X-52.9315 Y-39.3247 F120.00
G01 X-52.8693 Y-39.3387 F120.00
G01 X-52.8572 Y-39.3411 F120.00
G01 X-52.7944 Y-39.3520 F120.00
G01 X-52.5032 Y-39.3952 F120.00
G01 X-52.4398 Y-39.4030 F120.00
G01 X-52.4276 Y-39.4042 F120.00
G01 X-52.3640 Y-39.4089 F120.00
G01 X-52.0699 Y-39.4233 F120.00
G01 X-52.0319 Y-39.4247 F120.00
G01 X-52.0000 Y-39.4251 F120.00
G01 X-3.1000 Y-39.4251 F120.00
G00 X-3.1000 Y-39.4251
G01 F60.00
G01 Z-0.6000
G01 F120.00
G01 X-52.0000 Y-39.4251 F120.00
G01 X-52.0319 Y-39.4247 F120.00
G01 X-52.0699 Y-39.4233 F120.00
G01 X-52.3640 Y-39.4089 F120.00
G01 X-52.4276 Y-39.4042 F120.00
G01 X-52.4398 Y-39.4030 F120.00
G01 X-52.5032 Y-39.3952 F120.00
G01 X-52.7944 Y-39.3520 F120.00
G01 X-52.8572 Y-39.3411 F120.00
G01 X-52.8693 Y-39.3387 F120.00
G01 X-52.9315 Y-39.3247 F120.00
G01 X-53.2171 Y-39.2532 F120.00
G01 X-53.2786 Y-39.2362 F120.00
G01 X-53.2904 Y-39.2326 F120.00
G01 X-53.3509 Y-39.2126 F120.00
G01 X-53.6281 Y-39.1134 F120.00
G01 X-53.6877 Y-39.0904 F120.00
G01 X-53.6990 Y-39.0857 F120.00
G01 X-53.7573 Y-39.0599 F120.00
G01 X-54.0235 Y-38.9340 F120.00
G01 X-54.0805 Y-38.9053 F120.00
G01 X-54.0913 Y-38.8995 F120.00
G01 X-54.1468 Y-38.8681 F120.00
G01 X-54.3993 Y-38.7167 F120.00
G01 X-54.4532 Y-38.6826 F120.00
G01 X-54.4635 Y-38.6758 F120.00
G01 X-54.5156 Y-38.6390 F120.00
G01 X-54.7521 Y-38.4637 F120.00
G01 X-54.8024 Y-38.4244 F120.00
G01 X-54.8119 Y-38.4166 F120.00
G01 X-54.8602 Y-38.3749 F120.00
G01 X-55.0783 Y-38.1772 F120.00
G01 X-55.1245 Y-38.1332 F120.00
G01 X-55.1332 Y-38.1245 F120.00
G01 X-55.1772 Y-38.0783 F120.00
G01 X-55.3749 Y-37.8602 F120.00
G01 X-55.4166 Y-37.8119 F120.00
G01 X-55.4244 Y-37.8024 F120.00
G01 X-55.4637 Y-37.7521 F120.00
G01 X-55.6390 Y-37.5156 F120.00
G01 X-55.6758 Y-37.4635 F120.00
G01 X-55.6826 Y-37.4532 F120.00
G01 X-55.7167 Y-37.3993 F120.00
G01 X-55.8681 Y-37.1468 F120.00
G01 X-55.8995 Y-37.0913 F120.00
G01 X-55.9053 Y-37.0805 F120.00
G01 X-55.9340 Y-37.0235 F120.00
G01 X-56.0599 Y-36.7573 F120.00
G01 X-56.0857 Y-36.6990 F120.00
G01 X-56.0904 Y-36.6877 F120.00
G01 X-56.1134 Y-36.6281 F120.00
G01 X-56.2126 Y-36.3509 F120.00
G01 X-56.2326 Y-36.2904 F120.00
G01 X-56.2362 Y-36.2786 F120.00
G01 X-56.2532 Y-36.2171 F120.00
G01 X-56.3247 Y-35.9315 F120.00
G01 X-56.3387 Y-35.8693 F120.00
G01 X-56.3411 Y-35.8572 F120.00
G01 X-56.3520 Y-35.7944 F120.00
G01 X-56.3952 Y-35.5032 F120.00
G01 X-56.4030 Y-35.4398 F120.00
G01 X-56.4042 Y-35.4276 F120.00
G01 X-56.4089 Y-35.3640 F120.00
G01 X-56.4233 Y-35.0699 F120.00
G01 X-56.4247 Y-35.0319 F120.00
G01 X-56.4251 Y-35.0000 F120.00
G01 X-56.4251 Y-3.1000 F120.00
G00 X-56.4251 Y-3.1000
G01 F60.00
G01 Z-0.8000
G01 F120.00
G01 X-56.4251 Y-35.0000 F120.00
G01 X-56.4247 Y-35.0319 F120.00
G01 X-56.4233 Y-35.0699 F120.00
G01 X-56.4089 Y-35.3640 F120.00
G01 X-56.4042 Y-35.4276 F120.00
G01 X-56.4030 Y-35.4398 F120.00
G01 X-56.3952 Y-35.5032 F120.00
G01 X-56.3520 Y-35.7944 F120.00
G01 X-56.3411 Y-35.8572 F120.00
G01 X-56.3387 Y-35.8693 F120.00
G01 X-56.3247 Y-35.9315 F120.00
G01 X-56.2532 Y-36.2171 F120.00
G01 X-56.2362 Y-36.2786 F120.00
G01 X-56.2326 Y-36.2904 F120.00
G01 X-56.2126 Y-36.3509 F120.00
G01 X-56.1134 Y-36.6281 F120.00
G01 X-56.0904 Y-36.6877 F120.00
G01 X-56.0857 Y-36.6990 F120.00
G01 X-56.0599 Y-36.7573 F120.00
G01 X-55.9340 Y-37.0235 F120.00
G01 X-55.9053 Y-37.0805 F120.00
G01 X-55.8995 Y-37.0913 F120.00
G01 X-55.8681 Y-37.1468 F120.00
G01 X-55.7167 Y-37.3993 F120.00
G01 X-55.6826 Y-37.4532 F120.00
G01 X-55.6758 Y-37.4635 F120.00
G01 X-55.6390 Y-37.5156 F120.00
G01 X-55.4637 Y-37.7521 F120.00
G01 X-55.4244 Y-37.8024 F120.00
G01 X-55.4166 Y-37.8119 F120.00
G01 X-55.3749 Y-37.8602 F120.00
G01 X-55.1772 Y-38.0783 F120.00
G01 X-55.1332 Y-38.1245 F120.00
G01 X-55.1245 Y-38.1332 F120.00
G01 X-55.0783 Y-38.1772 F120.00
G01 X-54.8602 Y-38.3749 F120.00
G01 X-54.8119 Y-38.4166 F120.00
G01 X-54.8024 Y-38.4244 F120.00
G01 X-54.7521 Y-38.4637 F120.00
G01 X-54.5156 Y-38.6390 F120.00
G01 X-54.4635 Y-38.6758 F120.00
G01 X-54.4532 Y-38.6826 F120.00
G01 X-54.3993 Y-38.7167 F120.00
G01 X-54.1468 Y-38.8681 F120.00
G01 X-54.0913 Y-38.8995 F120.00
G01 X-54.0805 Y-38.9053 F120.00
G01 X-54.0235 Y-38.9340 F120.00
G01 X-53.7573 Y-39.0599 F120.00
G01 X-53.6990 Y-39.0857 F120.00
G01 X-53.6877 Y-39.0904 F120.00
G01 X-53.6281 Y-39.1134 F120.00
G01 X-53.3509 Y-39.2126 F120.00
G01 X-53.2904 Y-39.2326 F120.00
G01 X-53.2786 Y-39.2362 F120.00
G01 X-53.2171 Y-39.2532 F120.00
G01 X-52.9315 Y-39.3247 F120.00
G01 X-52.8693 Y-39.3387 F120.00
G01 X-52.8572 Y-39.3411 F120.00
G01 X-52.7944 Y-39.3520 F120.00
G01 X-52.5032 Y-39.3952 F120.00
G01 X-52.4398 Y-39.4030 F120.00
G01 X-52.4276 Y-39.4042 F120.00
G01 X-52.3640 Y-39.4089 F120.00
G01 X-52.0699 Y-39.4233 F120.00
G01 X-52.0319 Y-39.4247 F120.00
G01 X-52.0000 Y-39.4251 F120.00
G01 X-3.1000 Y-39.4251 F120.00
G00 X-3.1000 Y-39.4251
G01 F60.00
G01 Z-1.0000
G01 F120.00
G01 X-52.0000 Y-39.4251 F120.00
G01 X-52.0319 Y-39.4247 F120.00
G01 X-52.0699 Y-39.4233 F120.00
G01 X-52.3640 Y-39.4089 F120.00
G01 X-52.4276 Y-39.4042 F120.00
G01 X-52.4398 Y-39.4030 F120.00
G01 X-52.5032 Y-39.3952 F120.00
G01 X-52.7944 Y-39.3520 F120.00
G01 X-52.8572 Y-39.3411 F120.00
G01 X-52.8693 Y-39.3387 F120.00
G01 X-52.9315 Y-39.3247 F120.00
G01 X-53.2171 Y-39.2532 F120.00
G01 X-53.2786 Y-39.2362 F120.00
G01 X-53.2904 Y-39.2326 F120.00
G01 X-53.3509 Y-39.2126 F120.00
G01 X-53.6281 Y-39.1134 F120.00
G01 X-53.6877 Y-39.0904 F120.00
G01 X-53.6990 Y-39.0857 F120.00
G01 X-53.7573 Y-39.0599 F120.00
G01 X-54.0235 Y-38.9340 F120.00
G01 X-54.0805 Y-38.9053 F120.00
G01 X-54.0913 Y-38.8995 F120.00
G01 X-54.1468 Y-38.8681 F120.00
G01 X-54.3993 Y-38.7167 F120.00
G01 X-54.4532 Y-38.6826 F120.00
G01 X-54.4635 Y-38.6758 F120.00
G01 X-54.5156 Y-38.6390 F120.00
G01 X-54.7521 Y-38.4637 F120.00
G01 X-54.8024 Y-38.4244 F120.00
G01 X-54.8119 Y-38.4166 F120.00
G01 X-54.8602 Y-38.3749 F120.00
G01 X-55.0783 Y-38.1772 F120.00
G01 X-55.1245 Y-38.1332 F120.00
G01 X-55.1332 Y-38.1245 F120.00
G01 X-55.1772 Y-38.0783 F120.00
G01 X-55.3749 Y-37.8602 F120.00
G01 X-55.4166 Y-37.8119 F120.00
G01 X-55.4244 Y-37.8024 F120.00
G01 X-55.4637 Y-37.7521 F120.00
G01 X-55.6390 Y-37.5156 F120.00
G01 X-55.6758 Y-37.4635 F120.00
G01 X-55.6826 Y-37.4532 F120.00
G01 X-55.7167 Y-37.3993 F120.00
G01 X-55.8681 Y-37.1468 F120.00
G01 X-55.8995 Y-37.0913 F120.00
G01 X-55.9053 Y-37.0805 F120.00
G01 X-55.9340 Y-37.0235 F120.00
G01 X-56.0599 Y-36.7573 F120.00
G01 X-56.0857 Y-36.6990 F120.00
G01 X-56.0904 Y-36.6877 F120.00
G01 X-56.1134 Y-36.6281 F120.00
G01 X-56.2126 Y-36.3509 F120.00
G01 X-56.2326 Y-36.2904 F120.00
G01 X-56.2362 Y-36.2786 F120.00
G01 X-56.2532 Y-36.2171 F120.00
G01 X-56.3247 Y-35.9315 F120.00
G01 X-56.3387 Y-35.8693 F120.00
G01 X-56.3411 Y-35.8572 F120.00
G01 X-56.3520 Y-35.7944 F120.00
G01 X-56.3952 Y-35.5032 F120.00
G01 X-56.4030 Y-35.4398 F120.00
G01 X-56.4042 Y-35.4276 F120.00
G01 X-56.4089 Y-35.3640 F120.00
G01 X-56.4233 Y-35.0699 F120.00
G01 X-56.4247 Y-35.0319 F120.00
G01 X-56.4251 Y-35.0000 F120.00
G01 X-56.4251 Y-3.1000 F120.00
G00 X-56.4251 Y-3.1000
G01 F60.00
G01 Z-1.2000
G01 F120.00
G01 X-56.4251 Y-35.0000 F120.00
G01 X-56.4247 Y-35.0319 F120.00
G01 X-56.4233 Y-35.0699 F120.00
G01 X-56.4089 Y-35.3640 F120.00
G01 X-56.4042 Y-35.4276 F120.00
G01 X-56.4030 Y-35.4398 F120.00
G01 X-56.3952 Y-35.5032 F120.00
G01 X-56.3520 Y-35.7944 F120.00
G01 X-56.3411 Y-35.8572 F120.00
G01 X-56.3387 Y-35.8693 F120.00
G01 X-56.3247 Y-35.9315 F120.00
G01 X-56.2532 Y-36.2171 F120.00
G01 X-56.2362 Y-36.2786 F120.00
G01 X-56.2326 Y-36.2904 F120.00
G01 X-56.2126 Y-36.3509 F120.00
G01 X-56.1134 Y-36.6281 F120.00
G01 X-56.0904 Y-36.6877 F120.00
G01 X-56.0857 Y-36.6990 F120.00
G01 X-56.0599 Y-36.7573 F120.00
G01 X-55.9340 Y-37.0235 F120.00
G01 X-55.9053 Y-37.0805 F120.00
G01 X-55.8995 Y-37.0913 F120.00
G01 X-55.8681 Y-37.1468 F120.00
G01 X-55.7167 Y-37.3993 F120.00
G01 X-55.6826 Y-37.4532 F120.00
G01 X-55.6758 Y-37.4635 F120.00
G01 X-55.6390 Y-37.5156 F120.00
G01 X-55.4637 Y-37.7521 F120.00
G01 X-55.4244 Y-37.8024 F120.00
G01 X-55.4166 Y-37.8119 F120.00
G01 X-55.3749 Y-37.8602 F120.00
G01 X-55.1772 Y-38.0783 F120.00
G01 X-55.1332 Y-38.1245 F120.00
G01 X-55.1245 Y-38.1332 F120.00
G01 X-55.0783 Y-38.1772 F120.00
G01 X-54.8602 Y-38.3749 F120.00
G01 X-54.8119 Y-38.4166 F120.00
G01 X-54.8024 Y-38.4244 F120.00
G01 X-54.7521 Y-38.4637 F120.00
G01 X-54.5156 Y-38.6390 F120.00
G01 X-54.4635 Y-38.6758 F120.00
G01 X-54.4532 Y-38.6826 F120.00
G01 X-54.3993 Y-38.7167 F120.00
G01 X-54.1468 Y-38.8681 F120.00
G01 X-54.0913 Y-38.8995 F120.00
G01 X-54.0805 Y-38.9053 F120.00
G01 X-54.0235 Y-38.9340 F120.00
G01 X-53.7573 Y-39.0599 F120.00
G01 X-53.6990 Y-39.0857 F120.00
G01 X-53.6877 Y-39.0904 F120.00
G01 X-53.6281 Y-39.1134 F120.00
G01 X-53.3509 Y-39.2126 F120.00
G01 X-53.2904 Y-39.2326 F120.00
G01 X-53.2786 Y-39.2362 F120.00
G01 X-53.2171 Y-39.2532 F120.00
G01 X-52.9315 Y-39.3247 F120.00
G01 X-52.8693 Y-39.3387 F120.00
G01 X-52.8572 Y-39.3411 F120.00
G01 X-52.7944 Y-39.3520 F120.00
G01 X-52.5032 Y-39.3952 F120.00
G01 X-52.4398 Y-39.4030 F120.00
G01 X-52.4276 Y-39.4042 F120.00
G01 X-52.3640 Y-39.4089 F120.00
G01 X-52.0699 Y-39.4233 F120.00
G01 X-52.0319 Y-39.4247 F120.00
G01 X-52.0000 Y-39.4251 F120.00
G01 X-3.1000 Y-39.4251 F120.00
G00 X-3.1000 Y-39.4251
G01 F60.00
G01 Z-1.4000
G01 F120.00
G01 X-52.0000 Y-39.4251 F120.00
G01 X-52.0319 Y-39.4247 F120.00
G01 X-52.0699 Y-39.4233 F120.00
G01 X-52.3640 Y-39.4089 F120.00
G01 X-52.4276 Y-39.4042 F120.00
G01 X-52.4398 Y-39.4030 F120.00
G01 X-52.5032 Y-39.3952 F120.00
G01 X-52.7944 Y-39.3520 F120.00
G01 X-52.8572 Y-39.3411 F120.00
G01 X-52.8693 Y-39.3387 F120.00
G01 X-52.9315 Y-39.3247 F120.00
G01 X-53.2171 Y-39.2532 F120.00
G01 X-53.2786 Y-39.2362 F120.00
G01 X-53.2904 Y-39.2326 F120.00
G01 X-53.3509 Y-39.2126 F120.00
G01 X-53.6281 Y-39.1134 F120.00
G01 X-53.6877 Y-39.0904 F120.00
G01 X-53.6990 Y-39.0857 F120.00
G01 X-53.7573 Y-39.0599 F120.00
G01 X-54.0235 Y-38.9340 F120.00
G01 X-54.0805 Y-38.9053 F120.00
G01 X-54.0913 Y-38.8995 F120.00
G01 X-54.1468 Y-38.8681 F120.00
G01 X-54.3993 Y-38.7167 F120.00
G01 X-54.4532 Y-38.6826 F120.00
G01 X-54.4635 Y-38.6758 F120.00
G01 X-54.5156 Y-38.6390 F120.00
G01 X-54.7521 Y-38.4637 F120.00
G01 X-54.8024 Y-38.4244 F120.00
G01 X-54.8119 Y-38.4166 F120.00
G01 X-54.8602 Y-38.3749 F120.00
G01 X-55.0783 Y-38.1772 F120.00
G01 X-55.1245 Y-38.1332 F120.00
G01 X-55.1332 Y-38.1245 F120.00
G01 X-55.1772 Y-38.0783 F120.00
G01 X-55.3749 Y-37.8602 F120.00
G01 X-55.4166 Y-37.8119 F120.00
G01 X-55.4244 Y-37.8024 F120.00
G01 X-55.4637 Y-37.7521 F120.00
G01 X-55.6390 Y-37.5156 F120.00
G01 X-55.6758 Y-37.4635 F120.00
G01 X-55.6826 Y-37.4532 F120.00
G01 X-55.7167 Y-37.3993 F120.00
G01 X-55.8681 Y-37.1468 F120.00
G01 X-55.8995 Y-37.0913 F120.00
G01 X-55.9053 Y-37.0805 F120.00
G01 X-55.9340 Y-37.0235 F120.00
G01 X-56.0599 Y-36.7573 F120.00
G01 X-56.0857 Y-36.6990 F120.00
G01 X-56.0904 Y-36.6877 F120.00
G01 X-56.1134 Y-36.6281 F120.00
G01 X-56.2126 Y-36.3509 F120.00
G01 X-56.2326 Y-36.2904 F120.00
G01 X-56.2362 Y-36.2786 F120.00
G01 X-56.2532 Y-36.2171 F120.00
G01 X-56.3247 Y-35.9315 F120.00
G01 X-56.3387 Y-35.8693 F120.00
G01 X-56.3411 Y-35.8572 F120.00
G01 X-56.3520 Y-35.7944 F120.00
G01 X-56.3952 Y-35.5032 F120.00
G01 X-56.4030 Y-35.4398 F120.00
G01 X-56.4042 Y-35.4276 F120.00
G01 X-56.4089 Y-35.3640 F120.00
G01 X-56.4233 Y-35.0699 F120.00
G01 X-56.4247 Y-35.0319 F120.00
G01 X-56.4251 Y-35.0000 F120.00
G01 X-56.4251 Y-3.1000 F120.00
G00 X-56.4251 Y-3.1000
G01 F60.00
G01 Z-1.6000
G01 F120.00
G01 X-56.4251 Y-35.0000 F120.00
G01 X-56.4247 Y-35.0319 F120.00
G01 X-56.4233 Y-35.0699 F120.00
G01 X-56.4089 Y-35.3640 F120.00
G01 X-56.4042 Y-35.4276 F120.00
G01 X-56.4030 Y-35.4398 F120.00
G01 X-56.3952 Y-35.5032 F120.00
G01 X-56.3520 Y-35.7944 F120.00
G01 X-56.3411 Y-35.8572 F120.00
G01 X-56.3387 Y-35.8693 F120.00
G01 X-56.3247 Y-35.9315 F120.00
G01 X-56.2532 Y-36.2171 F120.00
G01 X-56.2362 Y-36.2786 F120.00
G01 X-56.2326 Y-36.2904 F120.00
G01 X-56.2126 Y-36.3509 F120.00
G01 X-56.1134 Y-36.6281 F120.00
G01 X-56.0904 Y-36.6877 F120.00
G01 X-56.0857 Y-36.6990 F120.00
G01 X-56.0599 Y-36.7573 F120.00
G01 X-55.9340 Y-37.0235 F120.00
G01 X-55.9053 Y-37.0805 F120.00
G01 X-55.8995 Y-37.0913 F120.00
G01 X-55.8681 Y-37.1468 F120.00
G01 X-55.7167 Y-37.3993 F120.00
G01 X-55.6826 Y-37.4532 F120.00
G01 X-55.6758 Y-37.4635 F120.00
G01 X-55.6390 Y-37.5156 F120.00
G01 X-55.4637 Y-37.7521 F120.00
G01 X-55.4244 Y-37.8024 F120.00
G01 X-55.4166 Y-37.8119 F120.00
G01 X-55.3749 Y-37.8602 F120.00
G01 X-55.1772 Y-38.0783 F120.00
G01 X-55.1332 Y-38.1245 F120.00
G01 X-55.1245 Y-38.1332 F120.00
G01 X-55.0783 Y-38.1772 F120.00
G01 X-54.8602 Y-38.3749 F120.00
G01 X-54.8119 Y-38.4166 F120.00
G01 X-54.8024 Y-38.4244 F120.00
G01 X-54.7521 Y-38.4637 F120.00
G01 X-54.5156 Y-38.6390 F120.00
G01 X-54.4635 Y-38.6758 F120.00
G01 X-54.4532 Y-38.6826 F120.00
G01 X-54.3993 Y-38.7167 F120.00
G01 X-54.1468 Y-38.8681 F120.00
G01 X-54.0913 Y-38.8995 F120.00
G01 X-54.0805 Y-38.9053 F120.00
G01 X-54.0235 Y-38.9340 F120.00
G01 X-53.7573 Y-39.0599 F120.00
G01 X-53.6990 Y-39.0857 F120.00
G01 X-53.6877 Y-39.0904 F120.00
G01 X-53.6281 Y-39.1134 F120.00
G01 X-53.3509 Y-39.2126 F120.00
G01 X-53.2904 Y-39.2326 F120.00
G01 X-53.2786 Y-39.2362 F120.00
G01 X-53.2171 Y-39.2532 F120.00
G01 X-52.9315 Y-39.3247 F120.00
G01 X-52.8693 Y-39.3387 F120.00
G01 X-52.8572 Y-39.3411 F120.00
G01 X-52.7944 Y-39.3520 F120.00
G01 X-52.5032 Y-39.3952 F120.00
G01 X-52.4398 Y-39.4030 F120.00
G01 X-52.4276 Y-39.4042 F120.00
G01 X-52.3640 Y-39.4089 F120.00
G01 X-52.0699 Y-39.4233 F120.00
G01 X-52.0319 Y-39.4247 F120.00
G01 X-52.0000 Y-39.4251 F120.00
G01 X-3.1000 Y-39.4251 F120.00
G00 X-3.1000 Y-39.4251
G01 F60.00
G01 Z-1.8000
G01 F120.00
G01 X-52.0000 Y-39.4251 F120.00
G01 X-52.0319 Y-39.4247 F120.00
G01 X-52.0699 Y-39.4233 F120.00
G01 X-52.3640 Y-39.4089 F120.00
G01 X-52.4276 Y-39.4042 F120.00
G01 X-52.4398 Y-39.4030 F120.00
G01 X-52.5032 Y-39.3952 F120.00
G01 X-52.7944 Y-39.3520 F120.00
G01 X-52.8572 Y-39.3411 F120.00
G01 X-52.8693 Y-39.3387 F120.00
G01 X-52.9315 Y-39.3247 F120.00
G01 X-53.2171 Y-39.2532 F120.00
G01 X-53.2786 Y-39.2362 F120.00
G01 X-53.2904 Y-39.2326 F120.00
G01 X-53.3509 Y-39.2126 F120.00
G01 X-53.6281 Y-39.1134 F120.00
G01 X-53.6877 Y-39.0904 F120.00
G01 X-53.6990 Y-39.0857 F120.00
G01 X-53.7573 Y-39.0599 F120.00
G01 X-54.0235 Y-38.9340 F120.00
G01 X-54.0805 Y-38.9053 F120.00
G01 X-54.0913 Y-38.8995 F120.00
G01 X-54.1468 Y-38.8681 F120.00
G01 X-54.3993 Y-38.7167 F120.00
G01 X-54.4532 Y-38.6826 F120.00
G01 X-54.4635 Y-38.6758 F120.00
G01 X-54.5156 Y-38.6390 F120.00
G01 X-54.7521 Y-38.4637 F120.00
G01 X-54.8024 Y-38.4244 F120.00
G01 X-54.8119 Y-38.4166 F120.00
G01 X-54.8602 Y-38.3749 F120.00
G01 X-55.0783 Y-38.1772 F120.00
G01 X-55.1245 Y-38.1332 F120.00
G01 X-55.1332 Y-38.1245 F120.00
G01 X-55.1772 Y-38.0783 F120.00
G01 X-55.3749 Y-37.8602 F120.00
G01 X-55.4166 Y-37.8119 F120.00
G01 X-55.4244 Y-37.8024 F120.00
G01 X-55.4637 Y-37.7521 F120.00
G01 X-55.6390 Y-37.5156 F120.00
G01 X-55.6758 Y-37.4635 F120.00
G01 X-55.6826 Y-37.4532 F120.00
G01 X-55.7167 Y-37.3993 F120.00
G01 X-55.8681 Y-37.1468 F120.00
G01 X-55.8995 Y-37.0913 F120.00
G01 X-55.9053 Y-37.0805 F120.00
G01 X-55.9340 Y-37.0235 F120.00
G01 X-56.0599 Y-36.7573 F120.00
G01 X-56.0857 Y-36.6990 F120.00
G01 X-56.0904 Y-36.6877 F120.00
G01 X-56.1134 Y-36.6281 F120.00
G01 X-56.2126 Y-36.3509 F120.00
G01 X-56.2326 Y-36.2904 F120.00
G01 X-56.2362 Y-36.2786 F120.00
G01 X-56.2532 Y-36.2171 F120.00
G01 X-56.3247 Y-35.9315 F120.00
G01 X-56.3387 Y-35.8693 F120.00
G01 X-56.3411 Y-35.8572 F120.00
G01 X-56.3520 Y-35.7944 F120.00
G01 X-56.3952 Y-35.5032 F120.00
G01 X-56.4030 Y-35.4398 F120.00
G01 X-56.4042 Y-35.4276 F120.00
G01 X-56.4089 Y-35.3640 F120.00
G01 X-56.4233 Y-35.0699 F120.00
G01 X-56.4247 Y-35.0319 F120.00
G01 X-56.4251 Y-35.0000 F120.00
G01 X-56.4251 Y-3.1000 F120.00
G00 Z2.0000
G00 X-56.4251 Y3.3000
G01 F60.00
G01 Z-0.2000
G01 F120.00
G01 X-56.4251 Y35.0000 F120.00
G01 X-56.4245 Y35.0380 F120.00
G01 X-56.4233 Y35.0699 F120.00
G01 X-56.4089 Y35.3640 F120.00
G01 X-56.4042 Y35.4276 F120.00
G01 X-56.4030 Y35.4398 F120.00
G01 X-56.3952 Y35.5032 F120.00
G01 X-56.3520 Y35.7944 F120.00
G01 X-56.3411 Y35.8572 F120.00
G01 X-56.3387 Y35.8693 F120.00
G01 X-56.3247 Y35.9315 F120.00
G01 X-56.2532 Y36.2171 F120.00
G01 X-56.2362 Y36.2786 F120.00
G01 X-56.2326 Y36.2904 F120.00
G01 X-56.2126 Y36.3509 F120.00
G01 X-56.1134 Y36.6281 F120.00
G01 X-56.0904 Y36.6877 F120.00
G01 X-56.0857 Y36.6990 F120.00
G01 X-56.0599 Y36.7573 F120.00
G01 X-55.9340 Y37.0235 F120.00
G01 X-55.9053 Y37.0805 F120.00
G01 X-55.8995 Y37.0913 F120.00
G01 X-55.8681 Y37.1468 F120.00
G01 X-55.7167 Y37.3993 F120.00
G01 X-55.6826 Y37.4532 F120.00
G01 X-55.6758 Y37.4635 F120.00
G01 X-55.6390 Y37.5156 F120.00
G01 X-55.4637 Y37.7521 F120.00
G01 X-55.4244 Y37.8024 F120.00
G01 X-55.4166 Y37.8119 F120.00
G01 X-55.3749 Y37.8602 F120.00
G01 X-55.1772 Y38.0783 F120.00
G01 X-55.1332 Y38.1245 F120.00
G01 X-55.1245 Y38.1332 F120.00
G01 X-55.0783 Y38.1772 F120.00
G01 X-54.8602 Y38.3749 F120.00
G01 X-54.8119 Y38.4166 F120.00
G01 X-54.8024 Y38.4244 F120.00
G01 X-54.7521 Y38.4637 F120.00
G01 X-54.5156 Y38.6390 F120.00
G01 X-54.4635 Y38.6758 F120.00
G01 X-54.4532 Y38.6826 F120.00
G01 X-54.3993 Y38.7167 F120.00
G01 X-54.1468 Y38.8681 F120.00
G01 X-54.0913 Y38.8995 F120.00
G01 X-54.0805 Y38.9053 F120.00
G01 X-54.0235 Y38.9340 F120.00
G01 X-53.7573 Y39.0599 F120.00
G01 X-53.6990 Y39.0857 F120.00
G01 X-53.6877 Y39.0904 F120.00
G01 X-53.6281 Y39.1134 F120.00
G01 X-53.3509 Y39.2126 F120.00
G01 X-53.2904 Y39.2326 F120.00
G01 X-53.2786 Y39.2362 F120.00
G01 X-53.2171 Y39.2532 F120.00
G01 X-52.9315 Y39.3247 F120.00
G01 X-52.8693 Y39.3387 F120.00
G01 X-52.8572 Y39.3411 F120.00
G01 X-52.7944 Y39.3520 F120.00
G01 X-52.5032 Y39.3952 F120.00
G01 X-52.4398 Y39.4030 F120.00
G01 X-52.4276 Y39.4042 F120.00
G01 X-52.3640 Y39.4089 F120.00
G01 X-52.0699 Y39.4233 F120.00
G01 X-52.0319 Y39.4247 F120.00
G01 X-52.0000 Y39.4251 F120.00
G01 X-3.1000 Y39.4251 F120.00
G00 X-3.1000 Y39.4251
G01 F60.00
G01 Z-0.4000
G01 F120.00
G01 X-52.0000 Y39.4251 F120.00
G01 X-52.0319 Y39.4247 F120.00
G01 X-52.0699 Y39.4233 F120.00
G01 X-52.3640 Y39.4089 F120.00
G01 X-52.4276 Y39.4042 F120.00
G01 X-52.4398 Y39.4030 F120.00
G01 X-52.5032 Y39.3952 F120.00
G01 X-52.7944 Y39.3520 F120.00
G01 X-52.8572 Y39.3411 F120.00
G01 X-52.8693 Y39.3387 F120.00
G01 X-52.9315 Y39.3247 F120.00
G01 X-53.2171 Y39.2532 F120.00
G01 X-53.2786 Y39.2362 F120.00
G01 X-53.2904 Y39.2326 F120.00
G01 X-53.3509 Y39.2126 F120.00
G01 X-53.6281 Y39.1134 F120.00
G01 X-53.6877 Y39.0904 F120.00
G01 X-53.6990 Y39.0857 F120.00
G01 X-53.7573 Y39.0599 F120.00
G01 X-54.0235 Y38.9340 F120.00
G01 X-54.0805 Y38.9053 F120.00
G01 X-54.0913 Y38.8995 F120.00
G01 X-54.1468 Y38.8681 F120.00
G01 X-54.3993 Y38.7167 F120.00
G01 X-54.4532 Y38.6826 F120.00
G01 X-54.4635 Y38.6758 F120.00
G01 X-54.5156 Y38.6390 F120.00
G01 X-54.7521 Y38.4637 F120.00
G01 X-54.8024 Y38.4244 F120.00
G01 X-54.8119 Y38.4166 F120.00
G01 X-54.8602 Y38.3749 F120.00
G01 X-55.0783 Y38.1772 F120.00
G01 X-55.1245 Y38.1332 F120.00
G01 X-55.1332 Y38.1245 F120.00
G01 X-55.1772 Y38.0783 F120.00
G01 X-55.3749 Y37.8602 F120.00
G01 X-55.4166 Y37.8119 F120.00
G01 X-55.4244 Y37.8024 F120.00
G01 X-55.4637 Y37.7521 F120.00
G01 X-55.6390 Y37.5156 F120.00
G01 X-55.6758 Y37.4635 F120.00
G01 X-55.6826 Y37.4532 F120.00
G01 X-55.7167 Y37.3993 F120.00
G01 X-55.8681 Y37.1468 F120.00
G01 X-55.8995 Y37.0913 F120.00
G01 X-55.9053 Y37.0805 F120.00
G01 X-55.9340 Y37.0235 F120.00
G01 X-56.0599 Y36.7573 F120.00
G01 X-56.0857 Y36.6990 F120.00
G01 X-56.0904 Y36.6877 F120.00
G01 X-56.1134 Y36.6281 F120.00
G01 X-56.2126 Y36.3509 F120.00
G01 X-56.2326 Y36.2904 F120.00
G01 X-56.2362 Y36.2786 F120.00
G01 X-56.2532 Y36.2171 F120.00
G01 X-56.3247 Y35.9315 F120.00
G01 X-56.3387 Y35.8693 F120.00
G01 X-56.3411 Y35.8572 F120.00
G01 X-56.3520 Y35.7944 F120.00
G01 X-56.3952 Y35.5032 F120.00
G01 X-56.4030 Y35.4398 F120.00
G01 X-56.4042 Y35.4276 F120.00
G01 X-56.4089 Y35.3640 F120.00
G01 X-56.4233 Y35.0699 F120.00
G01 X-56.4245 Y35.0380 F120.00
G01 X-56.4251 Y35.0000 F120.00
G01 X-56.4251 Y3.3000 F120.00
G00 X-56.4251 Y3.3000
G01 F60.00
G01 Z-0.6000
G01 F120.00
G01 X-56.4251 Y35.0000 F120.00
G01 X-56.4245 Y35.0380 F120.00
G01 X-56.4233 Y35.0699 F120.00
G01 X-56.4089 Y35.3640 F120.00
G01 X-56.4042 Y35.4276 F120.00
G01 X-56.4030 Y35.4398 F120.00
G01 X-56.3952 Y35.5032 F120.00
G01 X-56.3520 Y35.7944 F120.00
G01 X-56.3411 Y35.8572 F120.00
G01 X-56.3387 Y35.8693 F120.00
G01 X-56.3247 Y35.9315 F120.00
G01 X-56.2532 Y36.2171 F120.00
G01 X-56.2362 Y36.2786 F120.00
G01 X-56.2326 Y36.2904 F120.00
G01 X-56.2126 Y36.3509 F120.00
G01 X-56.1134 Y36.6281 F120.00
G01 X-56.0904 Y36.6877 F120.00
G01 X-56.0857 Y36.6990 F120.00
G01 X-56.0599 Y36.7573 F120.00
G01 X-55.9340 Y37.0235 F120.00
G01 X-55.9053 Y37.0805 F120.00
G01 X-55.8995 Y37.0913 F120.00
G01 X-55.8681 Y37.1468 F120.00
G01 X-55.7167 Y37.3993 F120.00
G01 X-55.6826 Y37.4532 F120.00
G01 X-55.6758 Y37.4635 F120.00
G01 X-55.6390 Y37.5156 F120.00
G01 X-55.4637 Y37.7521 F120.00
G01 X-55.4244 Y37.8024 F120.00
G01 X-55.4166 Y37.8119 F120.00
G01 X-55.3749 Y37.8602 F120.00
G01 X-55.1772 Y38.0783 F120.00
G01 X-55.1332 Y38.1245 F120.00
G01 X-55.1245 Y38.1332 F120.00
G01 X-55.0783 Y38.1772 F120.00
G01 X-54.8602 Y38.3749 F120.00
G01 X-54.8119 Y38.4166 F120.00
G01 X-54.8024 Y38.4244 F120.00
G01 X-54.7521 Y38.4637 F120.00
G01 X-54.5156 Y38.6390 F120.00
G01 X-54.4635 Y38.6758 F120.00
G01 X-54.4532 Y38.6826 F120.00
G01 X-54.3993 Y38.7167 F120.00
G01 X-54.1468 Y38.8681 F120.00
G01 X-54.0913 Y38.8995 F120.00
G01 X-54.0805 Y38.9053 F120.00
G01 X-54.0235 Y38.9340 F120.00
G01 X-53.7573 Y39.0599 F120.00
G01 X-53.6990 Y39.0857 F120.00
G01 X-53.6877 Y39.0904 F120.00
G01 X-53.6281 Y39.1134 F120.00
G01 X-53.3509 Y39.2126 F120.00
G01 X-53.2904 Y39.2326 F120.00
G01 X-53.2786 Y39.2362 F120.00
G01 X-53.2171 Y39.2532 F120.00
G01 X-52.9315 Y39.3247 F120.00
G01 X-52.8693 Y39.3387 F120.00
G01 X-52.8572 Y39.3411 F120.00
G01 X-52.7944 Y39.3520 F120.00
G01 X-52.5032 Y39.3952 F120.00
G01 X-52.4398 Y39.4030 F120.00
G01 X-52.4276 Y39.4042 F120.00
G01 X-52.3640 Y39.4089 F120.00
G01 X-52.0699 Y39.4233 F120.00
G01 X-52.0319 Y39.4247 F120.00
G01 X-52.0000 Y39.4251 F120.00
G01 X-3.1000 Y39.4251 F120.00
G00 X-3.1000 Y39.4251
G01 F60.00
G01 Z-0.8000
G01 F120.00
G01 X-52.0000 Y39.4251 F120.00
G01 X-52.0319 Y39.4247 F120.00
G01 X-52.0699 Y39.4233 F120.00
G01 X-52.3640 Y39.4089 F120.00
G01 X-52.4276 Y39.4042 F120.00
G01 X-52.4398 Y39.4030 F120.00
G01 X-52.5032 Y39.3952 F120.00
G01 X-52.7944 Y39.3520 F120.00
G01 X-52.8572 Y39.3411 F120.00
G01 X-52.8693 Y39.3387 F120.00
G01 X-52.9315 Y39.3247 F120.00
G01 X-53.2171 Y39.2532 F120.00
G01 X-53.2786 Y39.2362 F120.00
G01 X-53.2904 Y39.2326 F120.00
G01 X-53.3509 Y39.2126 F120.00
G01 X-53.6281 Y39.1134 F120.00
G01 X-53.6877 Y39.0904 F120.00
G01 X-53.6990 Y39.0857 F120.00
G01 X-53.7573 Y39.0599 F120.00
G01 X-54.0235 Y38.9340 F120.00
G01 X-54.0805 Y38.9053 F120.00
G01 X-54.0913 Y38.8995 F120.00
G01 X-54.1468 Y38.8681 F120.00
G01 X-54.3993 Y38.7167 F120.00
G01 X-54.4532 Y38.6826 F120.00
G01 X-54.4635 Y38.6758 F120.00
G01 X-54.5156 Y38.6390 F120.00
G01 X-54.7521 Y38.4637 F120.00
G01 X-54.8024 Y38.4244 F120.00
G01 X-54.8119 Y38.4166 F120.00
G01 X-54.8602 Y38.3749 F120.00
G01 X-55.0783 Y38.1772 F120.00
G01 X-55.1245 Y38.1332 F120.00
G01 X-55.1332 Y38.1245 F120.00
G01 X-55.1772 Y38.0783 F120.00
G01 X-55.3749 Y37.8602 F120.00
G01 X-55.4166 Y37.8119 F120.00
G01 X-55.4244 Y37.8024 F120.00
G01 X-55.4637 Y37.7521 F120.00
G01 X-55.6390 Y37.5156 F120.00
G01 X-55.6758 Y37.4635 F120.00
G01 X-55.6826 Y37.4532 F120.00
G01 X-55.7167 Y37.3993 F120.00
G01 X-55.8681 Y37.1468 F120.00
G01 X-55.8995 Y37.0913 F120.00
G01 X-55.9053 Y37.0805 F120.00
G01 X-55.9340 Y37.0235 F120.00
G01 X-56.0599 Y36.7573 F120.00
G01 X-56.0857 Y36.6990 F120.00
G01 X-56.0904 Y36.6877 F120.00
G01 X-56.1134 Y36.6281 F120.00
G01 X-56.2126 Y36.3509 F120.00
G01 X-56.2326 Y36.2904 F120.00
G01 X-56.2362 Y36.2786 F120.00
G01 X-56.2532 Y36.2171 F120.00
G01 X-56.3247 Y35.9315 F120.00
G01 X-56.3387 Y35.8693 F120.00
G01 X-56.3411 Y35.8572 F120.00
G01 X-56.3520 Y35.7944 F120.00
G01 X-56.3952 Y35.5032 F120.00
G01 X-56.4030 Y35.4398 F120.00
G01 X-56.4042 Y35.4276 F120.00
G01 X-56.4089 Y35.3640 F120.00
G01 X-56.4233 Y35.0699 F120.00
G01 X-56.4245 Y35.0380 F120.00
G01 X-56.4251 Y35.0000 F120.00
G01 X-56.4251 Y3.3000 F120.00
G00 X-56.4251 Y3.3000
G01 F60.00
G01 Z-1.0000
G01 F120.00
G01 X-56.4251 Y35.0000 F120.00
G01 X-56.4245 Y35.0380 F120.00
G01 X-56.4233 Y35.0699 F120.00
G01 X-56.4089 Y35.3640 F120.00
G01 X-56.4042 Y35.4276 F120.00
G01 X-56.4030 Y35.4398 F120.00
G01 X-56.3952 Y35.5032 F120.00
G01 X-56.3520 Y35.7944 F120.00
G01 X-56.3411 Y35.8572 F120.00
G01 X-56.3387 Y35.8693 F120.00
G01 X-56.3247 Y35.9315 F120.00
G01 X-56.2532 Y36.2171 F120.00
G01 X-56.2362 Y36.2786 F120.00
G01 X-56.2326 Y36.2904 F120.00
G01 X-56.2126 Y36.3509 F120.00
G01 X-56.1134 Y36.6281 F120.00
G01 X-56.0904 Y36.6877 F120.00
G01 X-56.0857 Y36.6990 F120.00
G01 X-56.0599 Y36.7573 F120.00
G01 X-55.9340 Y37.0235 F120.00
G01 X-55.9053 Y37.0805 F120.00
G01 X-55.8995 Y37.0913 F120.00
G01 X-55.8681 Y37.1468 F120.00
G01 X-55.7167 Y37.3993 F120.00
G01 X-55.6826 Y37.4532 F120.00
G01 X-55.6758 Y37.4635 F120.00
G01 X-55.6390 Y37.5156 F120.00
G01 X-55.4637 Y37.7521 F120.00
G01 X-55.4244 Y37.8024 F120.00
G01 X-55.4166 Y37.8119 F120.00
G01 X-55.3749 Y37.8602 F120.00
G01 X-55.1772 Y38.0783 F120.00
G01 X-55.1332 Y38.1245 F120.00
G01 X-55.1245 Y38.1332 F120.00
G01 X-55.0783 Y38.1772 F120.00
G01 X-54.8602 Y38.3749 F120.00
G01 X-54.8119 Y38.4166 F120.00
G01 X-54.8024 Y38.4244 F120.00
G01 X-54.7521 Y38.4637 F120.00
G01 X-54.5156 Y38.6390 F120.00
G01 X-54.4635 Y38.6758 F120.00
G01 X-54.4532 Y38.6826 F120.00
G01 X-54.3993 Y38.7167 F120.00
G01 X-54.1468 Y38.8681 F120.00
G01 X-54.0913 Y38.8995 F120.00
G01 X-54.0805 Y38.9053 F120.00
G01 X-54.0235 Y38.9340 F120.00
G01 X-53.7573 Y39.0599 F120.00
G01 X-53.6990 Y39.0857 F120.00
G01 X-53.6877 Y39.0904 F120.00
G01 X-53.6281 Y39.1134 F120.00
G01 X-53.3509 Y39.2126 F120.00
G01 X-53.2904 Y39.2326 F120.00
G01 X-53.2786 Y39.2362 F120.00
G01 X-53.2171 Y39.2532 F120.00
G01 X-52.9315 Y39.3247 F120.00
G01 X-52.8693 Y39.3387 F120.00
G01 X-52.8572 Y39.3411 F120.00
G01 X-52.7944 Y39.3520 F120.00
G01 X-52.5032 Y39.3952 F120.00
G01 X-52.4398 Y39.4030 F120.00
G01 X-52.4276 Y39.4042 F120.00
G01 X-52.3640 Y39.4089 F120.00
G01 X-52.0699 Y39.4233 F120.00
G01 X-52.0319 Y39.4247 F120.00
G01 X-52.0000 Y39.4251 F120.00
G01 X-3.1000 Y39.4251 F120.00
G00 X-3.1000 Y39.4251
G01 F60.00
G01 Z-1.2000
G01 F120.00
G01 X-52.0000 Y39.4251 F120.00
G01 X-52.0319 Y39.4247 F120.00
G01 X-52.0699 Y39.4233 F120.00
G01 X-52.3640 Y39.4089 F120.00
G01 X-52.4276 Y39.4042 F120.00
G01 X-52.4398 Y39.4030 F120.00
G01 X-52.5032 Y39.3952 F120.00
G01 X-52.7944 Y39.3520 F120.00
G01 X-52.8572 Y39.3411 F120.00
G01 X-52.8693 Y39.3387 F120.00
G01 X-52.9315 Y39.3247 F120.00
G01 X-53.2171 Y39.2532 F120.00
G01 X-53.2786 Y39.2362 F120.00
G01 X-53.2904 Y39.2326 F120.00
G01 X-53.3509 Y39.2126 F120.00
G01 X-53.6281 Y39.1134 F120.00
G01 X-53.6877 Y39.0904 F120.00
G01 X-53.6990 Y39.0857 F120.00
G01 X-53.7573 Y39.0599 F120.00
G01 X-54.0235 Y38.9340 F120.00
G01 X-54.0805 Y38.9053 F120.00
G01 X-54.0913 Y38.8995 F120.00
G01 X-54.1468 Y38.8681 F120.00
G01 X-54.3993 Y38.7167 F120.00
G01 X-54.4532 Y38.6826 F120.00
G01 X-54.4635 Y38.6758 F120.00
G01 X-54.5156 Y38.6390 F120.00
G01 X-54.7521 Y38.4637 F120.00
G01 X-54.8024 Y38.4244 F120.00
G01 X-54.8119 Y38.4166 F120.00
G01 X-54.8602 Y38.3749 F120.00
G01 X-55.0783 Y38.1772 F120.00
G01 X-55.1245 Y38.1332 F120.00
G01 X-55.1332 Y38.1245 F120.00
G01 X-55.1772 Y38.0783 F120.00
G01 X-55.3749 Y37.8602 F120.00
G01 X-55.4166 Y37.8119 F120.00
G01 X-55.4244 Y37.8024 F120.00
G01 X-55.4637 Y37.7521 F120.00
G01 X-55.6390 Y37.5156 F120.00
G01 X-55.6758 Y37.4635 F120.00
G01 X-55.6826 Y37.4532 F120.00
G01 X-55.7167 Y37.3993 F120.00
G01 X-55.8681 Y37.1468 F120.00
G01 X-55.8995 Y37.0913 F120.00
G01 X-55.9053 Y37.0805 F120.00
G01 X-55.9340 Y37.0235 F120.00
G01 X-56.0599 Y36.7573 F120.00
G01 X-56.0857 Y36.6990 F120.00
G01 X-56.0904 Y36.6877 F120.00
G01 X-56.1134 Y36.6281 F120.00
G01 X-56.2126 Y36.3509 F120.00
G01 X-56.2326 Y36.2904 F120.00
G01 X-56.2362 Y36.2786 F120.00
G01 X-56.2532 Y36.2171 F120.00
G01 X-56.3247 Y35.9315 F120.00
G01 X-56.3387 Y35.8693 F120.00
G01 X-56.3411 Y35.8572 F120.00
G01 X-56.3520 Y35.7944 F120.00
G01 X-56.3952 Y35.5032 F120.00
G01 X-56.4030 Y35.4398 F120.00
G01 X-56.4042 Y35.4276 F120.00
G01 X-56.4089 Y35.3640 F120.00
G01 X-56.4233 Y35.0699 F120.00
G01 X-56.4245 Y35.0380 F120.00
G01 X-56.4251 Y35.0000 F120.00
G01 X-56.4251 Y3.3000 F120.00
G00 X-56.4251 Y3.3000
G01 F60.00
G01 Z-1.4000
G01 F120.00
G01 X-56.4251 Y35.0000 F120.00
G01 X-56.4245 Y35.0380 F120.00
G01 X-56.4233 Y35.0699 F120.00
G01 X-56.4089 Y35.3640 F120.00
G01 X-56.4042 Y35.4276 F120.00
G01 X-56.4030 Y35.4398 F120.00
G01 X-56.3952 Y35.5032 F120.00
G01 X-56.3520 Y35.7944 F120.00
G01 X-56.3411 Y35.8572 F120.00
G01 X-56.3387 Y35.8693 F120.00
G01 X-56.3247 Y35.9315 F120.00
G01 X-56.2532 Y36.2171 F120.00
G01 X-56.2362 Y36.2786 F120.00
G01 X-56.2326 Y36.2904 F120.00
G01 X-56.2126 Y36.3509 F120.00
G01 X-56.1134 Y36.6281 F120.00
G01 X-56.0904 Y36.6877 F120.00
G01 X-56.0857 Y36.6990 F120.00
G01 X-56.0599 Y36.7573 F120.00
G01 X-55.9340 Y37.0235 F120.00
G01 X-55.9053 Y37.0805 F120.00
G01 X-55.8995 Y37.0913 F120.00
G01 X-55.8681 Y37.1468 F120.00
G01 X-55.7167 Y37.3993 F120.00
G01 X-55.6826 Y37.4532 F120.00
G01 X-55.6758 Y37.4635 F120.00
G01 X-55.6390 Y37.5156 F120.00
G01 X-55.4637 Y37.7521 F120.00
G01 X-55.4244 Y37.8024 F120.00
G01 X-55.4166 Y37.8119 F120.00
G01 X-55.3749 Y37.8602 F120.00
G01 X-55.1772 Y38.0783 F120.00
G01 X-55.1332 Y38.1245 F120.00
G01 X-55.1245 Y38.1332 F120.00
G01 X-55.0783 Y38.1772 F120.00
G01 X-54.8602 Y38.3749 F120.00
G01 X-54.8119 Y38.4166 F120.00
G01 X-54.8024 Y38.4244 F120.00
G01 X-54.7521 Y38.4637 F120.00
G01 X-54.5156 Y38.6390 F120.00
G01 X-54.4635 Y38.6758 F120.00
G01 X-54.4532 Y38.6826 F120.00
G01 X-54.3993 Y38.7167 F120.00
G01 X-54.1468 Y38.8681 F120.00
G01 X-54.0913 Y38.8995 F120.00
G01 X-54.0805 Y38.9053 F120.00
G01 X-54.0235 Y38.9340 F120.00
G01 X-53.7573 Y39.0599 F120.00
G01 X-53.6990 Y39.0857 F120.00
G01 X-53.6877 Y39.0904 F120.00
G01 X-53.6281 Y39.1134 F120.00
G01 X-53.3509 Y39.2126 F120.00
G01 X-53.2904 Y39.2326 F120.00
G01 X-53.2786 Y39.2362 F120.00
G01 X-53.2171 Y39.2532 F120.00
G01 X-52.9315 Y39.3247 F120.00
G01 X-52.8693 Y39.3387 F120.00
G01 X-52.8572 Y39.3411 F120.00
G01 X-52.7944 Y39.3520 F120.00
G01 X-52.5032 Y39.3952 F120.00
G01 X-52.4398 Y39.4030 F120.00
G01 X-52.4276 Y39.4042 F120.00
G01 X-52.3640 Y39.4089 F120.00
G01 X-52.0699 Y39.4233 F120.00
G01 X-52.0319 Y39.4247 F120.00
G01 X-52.0000 Y39.4251 F120.00
G01 X-3.1000 Y39.4251 F120.00
G00 X-3.1000 Y39.4251
G01 F60.00
G01 Z-1.6000
G01 F120.00
G01 X-52.0000 Y39.4251 F120.00
G01 X-52.0319 Y39.4247 F120.00
G01 X-52.0699 Y39.4233 F120.00
G01 X-52.3640 Y39.4089 F120.00
G01 X-52.4276 Y39.4042 F120.00
G01 X-52.4398 Y39.4030 F120.00
G01 X-52.5032 Y39.3952 F120.00
G01 X-52.7944 Y39.3520 F120.00
G01 X-52.8572 Y39.3411 F120.00
G01 X-52.8693 Y39.3387 F120.00
G01 X-52.9315 Y39.3247 F120.00
G01 X-53.2171 Y39.2532 F120.00
G01 X-53.2786 Y39.2362 F120.00
G01 X-53.2904 Y39.2326 F120.00
G01 X-53.3509 Y39.2126 F120.00
G01 X-53.6281 Y39.1134 F120.00
G01 X-53.6877 Y39.0904 F120.00
G01 X-53.6990 Y39.0857 F120.00
G01 X-53.7573 Y39.0599 F120.00
G01 X-54.0235 Y38.9340 F120.00
G01 X-54.0805 Y38.9053 F120.00
G01 X-54.0913 Y38.8995 F120.00
G01 X-54.1468 Y38.8681 F120.00
G01 X-54.3993 Y38.7167 F120.00
G01 X-54.4532 Y38.6826 F120.00
G01 X-54.4635 Y38.6758 F120.00
G01 X-54.5156 Y38.6390 F120.00
G01 X-54.7521 Y38.4637 F120.00
G01 X-54.8024 Y38.4244 F120.00
G01 X-54.8119 Y38.4166 F120.00
G01 X-54.8602 Y38.3749 F120.00
G01 X-55.0783 Y38.1772 F120.00
G01 X-55.1245 Y38.1332 F120.00
G01 X-55.1332 Y38.1245 F120.00
G01 X-55.1772 Y38.0783 F120.00
G01 X-55.3749 Y37.8602 F120.00
G01 X-55.4166 Y37.8119 F120.00
G01 X-55.4244 Y37.8024 F120.00
G01 X-55.4637 Y37.7521 F120.00
G01 X-55.6390 Y37.5156 F120.00
G01 X-55.6758 Y37.4635 F120.00
G01 X-55.6826 Y37.4532 F120.00
G01 X-55.7167 Y37.3993 F120.00
G01 X-55.8681 Y37.1468 F120.00
G01 X-55.8995 Y37.0913 F120.00
G01 X-55.9053 Y37.0805 F120.00
G01 X-55.9340 Y37.0235 F120.00
G01 X-56.0599 Y36.7573 F120.00
G01 X-56.0857 Y36.6990 F120.00
G01 X-56.0904 Y36.6877 F120.00
G01 X-56.1134 Y36.6281 F120.00
G01 X-56.2126 Y36.3509 F120.00
G01 X-56.2326 Y36.2904 F120.00
G01 X-56.2362 Y36.2786 F120.00
G01 X-56.2532 Y36.2171 F120.00
G01 X-56.3247 Y35.9315 F120.00
G01 X-56.3387 Y35.8693 F120.00
G01 X-56.3411 Y35.8572 F120.00
G01 X-56.3520 Y35.7944 F120.00
G01 X-56.3952 Y35.5032 F120.00
G01 X-56.4030 Y35.4398 F120.00
G01 X-56.4042 Y35.4276 F120.00
G01 X-56.4089 Y35.3640 F120.00
G01 X-56.4233 Y35.0699 F120.00
G01 X-56.4245 Y35.0380 F120.00
G01 X-56.4251 Y35.0000 F120.00
G01 X-56.4251 Y3.3000 F120.00
G00 X-56.4251 Y3.3000
G01 F60.00
G01 Z-1.8000
G01 F120.00
G01 X-56.4251 Y35.0000 F120.00
G01 X-56.4245 Y35.0380 F120.00
G01 X-56.4233 Y35.0699 F120.00
G01 X-56.4089 Y35.3640 F120.00
G01 X-56.4042 Y35.4276 F120.00
G01 X-56.4030 Y35.4398 F120.00
G01 X-56.3952 Y35.5032 F120.00
G01 X-56.3520 Y35.7944 F120.00
G01 X-56.3411 Y35.8572 F120.00
G01 X-56.3387 Y35.8693 F120.00
G01 X-56.3247 Y35.9315 F120.00
G01 X-56.2532 Y36.2171 F120.00
G01 X-56.2362 Y36.2786 F120.00
G01 X-56.2326 Y36.2904 F120.00
G01 X-56.2126 Y36.3509 F120.00
G01 X-56.1134 Y36.6281 F120.00
G01 X-56.0904 Y36.6877 F120.00
G01 X-56.0857 Y36.6990 F120.00
G01 X-56.0599 Y36.7573 F120.00
G01 X-55.9340 Y37.0235 F120.00
G01 X-55.9053 Y37.0805 F120.00
G01 X-55.8995 Y37.0913 F120.00
G01 X-55.8681 Y37.1468 F120.00
G01 X-55.7167 Y37.3993 F120.00
G01 X-55.6826 Y37.4532 F120.00
G01 X-55.6758 Y37.4635 F120.00
G01 X-55.6390 Y37.5156 F120.00
G01 X-55.4637 Y37.7521 F120.00
G01 X-55.4244 Y37.8024 F120.00
G01 X-55.4166 Y37.8119 F120.00
G01 X-55.3749 Y37.8602 F120.00
G01 X-55.1772 Y38.0783 F120.00
G01 X-55.1332 Y38.1245 F120.00
G01 X-55.1245 Y38.1332 F120.00
G01 X-55.0783 Y38.1772 F120.00
G01 X-54.8602 Y38.3749 F120.00
G01 X-54.8119 Y38.4166 F120.00
G01 X-54.8024 Y38.4244 F120.00
G01 X-54.7521 Y38.4637 F120.00
G01 X-54.5156 Y38.6390 F120.00
G01 X-54.4635 Y38.6758 F120.00
G01 X-54.4532 Y38.6826 F120.00
G01 X-54.3993 Y38.7167 F120.00
G01 X-54.1468 Y38.8681 F120.00
G01 X-54.0913 Y38.8995 F120.00
G01 X-54.0805 Y38.9053 F120.00
G01 X-54.0235 Y38.9340 F120.00
G01 X-53.7573 Y39.0599 F120.00
G01 X-53.6990 Y39.0857 F120.00
G01 X-53.6877 Y39.0904 F120.00
G01 X-53.6281 Y39.1134 F120.00
G01 X-53.3509 Y39.2126 F120.00
G01 X-53.2904 Y39.2326 F120.00
G01 X-53.2786 Y39.2362 F120.00
G01 X-53.2171 Y39.2532 F120.00
G01 X-52.9315 Y39.3247 F120.00
G01 X-52.8693 Y39.3387 F120.00
G01 X-52.8572 Y39.3411 F120.00
G01 X-52.7944 Y39.3520 F120.00
G01 X-52.5032 Y39.3952 F120.00
G01 X-52.4398 Y39.4030 F120.00
G01 X-52.4276 Y39.4042 F120.00
G01 X-52.3640 Y39.4089 F120.00
G01 X-52.0699 Y39.4233 F120.00
G01 X-52.0319 Y39.4247 F120.00
G01 X-52.0000 Y39.4251 F120.00
G01 X-3.1000 Y39.4251 F120.00
G00 Z2.0000
G00 X3.3000 Y39.4251
G01 F60.00
G01 Z-0.2000
G01 F120.00
G01 X52.0000 Y39.4251 F120.00
G01 X52.0319 Y39.4247 F120.00
G01 X52.0699 Y39.4233 F120.00
G01 X52.3640 Y39.4089 F120.00
G01 X52.4276 Y39.4042 F120.00
G01 X52.4398 Y39.4030 F120.00
G01 X52.5032 Y39.3952 F120.00
G01 X52.7944 Y39.3520 F120.00
G01 X52.8572 Y39.3411 F120.00
G01 X52.8693 Y39.3387 F120.00
G01 X52.9315 Y39.3247 F120.00
G01 X53.2171 Y39.2532 F120.00
G01 X53.2786 Y39.2362 F120.00
G01 X53.2904 Y39.2326 F120.00
G01 X53.3509 Y39.2126 F120.00
G01 X53.6281 Y39.1134 F120.00
G01 X53.6877 Y39.0904 F120.00
G01 X53.6990 Y39.0857 F120.00
G01 X53.7573 Y39.0599 F120.00
G01 X54.0235 Y38.9340 F120.00
G01 X54.0805 Y38.9053 F120.00
G01 X54.0913 Y38.8995 F120.00
G01 X54.1468 Y38.8681 F120.00
G01 X54.3993 Y38.7167 F120.00
G01 X54.4532 Y38.6826 F120.00
G01 X54.4635 Y38.6758 F120.00
G01 X54.5156 Y38.6390 F120.00
G01 X54.7521 Y38.4637 F120.00
G01 X54.8024 Y38.4244 F120.00
G01 X54.8119 Y38.4166 F120.00
G01 X54.8602 Y38.3749 F120.00
G01 X55.0783 Y38.1772 F120.00
G01 X55.1245 Y38.1332 F120.00
G01 X55.1332 Y38.1245 F120.00
G01 X55.1772 Y38.0783 F120.00
G01 X55.3749 Y37.8602 F120.00
G01 X55.4166 Y37.8119 F120.00
G01 X55.4244 Y37.8024 F120.00
G01 X55.4637 Y37.7521 F120.00
G01 X55.6390 Y37.5156 F120.00
G01 X55.6758 Y37.4635 F120.00
G01 X55.6826 Y37.4532 F120.00
G01 X55.7167 Y37.3993 F120.00
G01 X55.8681 Y37.1468 F120.00
G01 X55.8995 Y37.0913 F120.00
G01 X55.9053 Y37.0805 F120.00
G01 X55.9340 Y37.0235 F120.00
G01 X56.0599 Y36.7573 F120.00
G01 X56.0857 Y36.6990 F120.00
G01 X56.0904 Y36.6877 F120.00
G01 X56.1134 Y36.6281 F120.00
G01 X56.2126 Y36.3509 F120.00
G01 X56.2326 Y36.2904 F120.00
G01 X56.2362 Y36.2786 F120.00
G01 X56.2532 Y36.2171 F120.00
G01 X56.3247 Y35.9315 F120.00
G01 X56.3387 Y35.8693 F120.00
G01 X56.3411 Y35.8572 F120.00
G01 X56.3520 Y35.7944 F120.00
G01 X56.3952 Y35.5032 F120.00
G01 X56.4030 Y35.4398 F120.00
G01 X56.4042 Y35.4276 F120.00
G01 X56.4089 Y35.3640 F120.00
G01 X56.4233 Y35.0699 F120.00
G01 X56.4251 Y35.0000 F120.00
G01 X56.4251 Y3.3000 F120.00
G00 X56.4251 Y3.3000
G01 F60.00
G01 Z-0.4000
G01 F120.00
G01 X56.4251 Y35.0000 F120.00
G01 X56.4233 Y35.0699 F120.00
G01 X56.4089 Y35.3640 F120.00
G01 X56.4042 Y35.4276 F120.00
G01 X56.4030 Y35.4398 F120.00
G01 X56.3952 Y35.5032 F120.00
G01 X56.3520 Y35.7944 F120.00
G01 X56.3411 Y35.8572 F120.00
G01 X56.3387 Y35.8693 F120.00
G01 X56.3247 Y35.9315 F120.00
G01 X56.2532 Y36.2171 F120.00
G01 X56.2362 Y36.2786 F120.00
G01 X56.2326 Y36.2904 F120.00
G01 X56.2126 Y36.3509 F120.00
G01 X56.1134 Y36.6281 F120.00
G01 X56.0904 Y36.6877 F120.00
G01 X56.0857 Y36.6990 F120.00
G01 X56.0599 Y36.7573 F120.00
G01 X55.9340 Y37.0235 F120.00
G01 X55.9053 Y37.0805 F120.00
G01 X55.8995 Y37.0913 F120.00
G01 X55.8681 Y37.1468 F120.00
G01 X55.7167 Y37.3993 F120.00
G01 X55.6826 Y37.4532 F120.00
G01 X55.6758 Y37.4635 F120.00
G01 X55.6390 Y37.5156 F120.00
G01 X55.4637 Y37.7521 F120.00
G01 X55.4244 Y37.8024 F120.00
G01 X55.4166 Y37.8119 F120.00
G01 X55.3749 Y37.8602 F120.00
G01 X55.1772 Y38.0783 F120.00
G01 X55.1332 Y38.1245 F120.00
G01 X55.1245 Y38.1332 F120.00
G01 X55.0783 Y38.1772 F120.00
G01 X54.8602 Y38.3749 F120.00
G01 X54.8119 Y38.4166 F120.00
G01 X54.8024 Y38.4244 F120.00
G01 X54.7521 Y38.4637 F120.00
G01 X54.5156 Y38.6390 F120.00
G01 X54.4635 Y38.6758 F120.00
G01 X54.4532 Y38.6826 F120.00
G01 X54.3993 Y38.7167 F120.00
G01 X54.1468 Y38.8681 F120.00
G01 X54.0913 Y38.8995 F120.00
G01 X54.0805 Y38.9053 F120.00
G01 X54.0235 Y38.9340 F120.00
G01 X53.7573 Y39.0599 F120.00
G01 X53.6990 Y39.0857 F120.00
G01 X53.6877 Y39.0904 F120.00
G01 X53.6281 Y39.1134 F120.00
G01 X53.3509 Y39.2126 F120.00
G01 X53.2904 Y39.2326 F120.00
G01 X53.2786 Y39.2362 F120.00
G01 X53.2171 Y39.2532 F120.00
G01 X52.9315 Y39.3247 F120.00
G01 X52.8693 Y39.3387 F120.00
G01 X52.8572 Y39.3411 F120.00
G01 X52.7944 Y39.3520 F120.00
G01 X52.5032 Y39.3952 F120.00
G01 X52.4398 Y39.4030 F120.00
G01 X52.4276 Y39.4042 F120.00
G01 X52.3640 Y39.4089 F120.00
G01 X52.0699 Y39.4233 F120.00
G01 X52.0319 Y39.4247 F120.00
G01 X52.0000 Y39.4251 F120.00
G01 X3.3000 Y39.4251 F120.00
G00 X3.3000 Y39.4251
G01 F60.00
G01 Z-0.6000
G01 F120.00
G01 X52.0000 Y39.4251 F120.00
G01 X52.0319 Y39.4247 F120.00
G01 X52.0699 Y39.4233 F120.00
G01 X52.3640 Y39.4089 F120.00
G01 X52.4276 Y39.4042 F120.00
G01 X52.4398 Y39.4030 F120.00
G01 X52.5032 Y39.3952 F120.00
G01 X52.7944 Y39.3520 F120.00
G01 X52.8572 Y39.3411 F120.00
G01 X52.8693 Y39.3387 F120.00
G01 X52.9315 Y39.3247 F120.00
G01 X53.2171 Y39.2532 F120.00
G01 X53.2786 Y39.2362 F120.00
G01 X53.2904 Y39.2326 F120.00
G01 X53.3509 Y39.2126 F120.00
G01 X53.6281 Y39.1134 F120.00
G01 X53.6877 Y39.0904 F120.00
G01 X53.6990 Y39.0857 F120.00
G01 X53.7573 Y39.0599 F120.00
G01 X54.0235 Y38.9340 F120.00
G01 X54.0805 Y38.9053 F120.00
G01 X54.0913 Y38.8995 F120.00
G01 X54.1468 Y38.8681 F120.00
G01 X54.3993 Y38.7167 F120.00
G01 X54.4532 Y38.6826 F120.00
G01 X54.4635 Y38.6758 F120.00
G01 X54.5156 Y38.6390 F120.00
G01 X54.7521 Y38.4637 F120.00
G01 X54.8024 Y38.4244 F120.00
G01 X54.8119 Y38.4166 F120.00
G01 X54.8602 Y38.3749 F120.00
G01 X55.0783 Y38.1772 F120.00
G01 X55.1245 Y38.1332 F120.00
G01 X55.1332 Y38.1245 F120.00
G01 X55.1772 Y38.0783 F120.00
G01 X55.3749 Y37.8602 F120.00
G01 X55.4166 Y37.8119 F120.00
G01 X55.4244 Y37.8024 F120.00
G01 X55.4637 Y37.7521 F120.00
G01 X55.6390 Y37.5156 F120.00
G01 X55.6758 Y37.4635 F120.00
G01 X55.6826 Y37.4532 F120.00
G01 X55.7167 Y37.3993 F120.00
G01 X55.8681 Y37.1468 F120.00
G01 X55.8995 Y37.0913 F120.00
G01 X55.9053 Y37.0805 F120.00
G01 X55.9340 Y37.0235 F120.00
G01 X56.0599 Y36.7573 F120.00
G01 X56.0857 Y36.6990 F120.00
G01 X56.0904 Y36.6877 F120.00
G01 X56.1134 Y36.6281 F120.00
G01 X56.2126 Y36.3509 F120.00
G01 X56.2326 Y36.2904 F120.00
G01 X56.2362 Y36.2786 F120.00
G01 X56.2532 Y36.2171 F120.00
G01 X56.3247 Y35.9315 F120.00
G01 X56.3387 Y35.8693 F120.00
G01 X56.3411 Y35.8572 F120.00
G01 X56.3520 Y35.7944 F120.00
G01 X56.3952 Y35.5032 F120.00
G01 X56.4030 Y35.4398 F120.00
G01 X56.4042 Y35.4276 F120.00
G01 X56.4089 Y35.3640 F120.00
G01 X56.4233 Y35.0699 F120.00
G01 X56.4251 Y35.0000 F120.00
G01 X56.4251 Y3.3000 F120.00
G00 X56.4251 Y3.3000
G01 F60.00
G01 Z-0.8000
G01 F120.00
G01 X56.4251 Y35.0000 F120.00
G01 X56.4233 Y35.0699 F120.00
G01 X56.4089 Y35.3640 F120.00
G01 X56.4042 Y35.4276 F120.00
G01 X56.4030 Y35.4398 F120.00
G01 X56.3952 Y35.5032 F120.00
G01 X56.3520 Y35.7944 F120.00
G01 X56.3411 Y35.8572 F120.00
G01 X56.3387 Y35.8693 F120.00
G01 X56.3247 Y35.9315 F120.00
G01 X56.2532 Y36.2171 F120.00
G01 X56.2362 Y36.2786 F120.00
G01 X56.2326 Y36.2904 F120.00
G01 X56.2126 Y36.3509 F120.00
G01 X56.1134 Y36.6281 F120.00
G01 X56.0904 Y36.6877 F120.00
G01 X56.0857 Y36.6990 F120.00
G01 X56.0599 Y36.7573 F120.00
G01 X55.9340 Y37.0235 F120.00
G01 X55.9053 Y37.0805 F120.00
G01 X55.8995 Y37.0913 F120.00
G01 X55.8681 Y37.1468 F120.00
G01 X55.7167 Y37.3993 F120.00
G01 X55.6826 Y37.4532 F120.00
G01 X55.6758 Y37.4635 F120.00
G01 X55.6390 Y37.5156 F120.00
G01 X55.4637 Y37.7521 F120.00
G01 X55.4244 Y37.8024 F120.00
G01 X55.4166 Y37.8119 F120.00
G01 X55.3749 Y37.8602 F120.00
G01 X55.1772 Y38.0783 F120.00
G01 X55.1332 Y38.1245 F120.00
G01 X55.1245 Y38.1332 F120.00
G01 X55.0783 Y38.1772 F120.00
G01 X54.8602 Y38.3749 F120.00
G01 X54.8119 Y38.4166 F120.00
G01 X54.8024 Y38.4244 F120.00
G01 X54.7521 Y38.4637 F120.00
G01 X54.5156 Y38.6390 F120.00
G01 X54.4635 Y38.6758 F120.00
G01 X54.4532 Y38.6826 F120.00
G01 X54.3993 Y38.7167 F120.00
G01 X54.1468 Y38.8681 F120.00
G01 X54.0913 Y38.8995 F120.00
G01 X54.0805 Y38.9053 F120.00
G01 X54.0235 Y38.9340 F120.00
G01 X53.7573 Y39.0599 F120.00
G01 X53.6990 Y39.0857 F120.00
G01 X53.6877 Y39.0904 F120.00
G01 X53.6281 Y39.1134 F120.00
G01 X53.3509 Y39.2126 F120.00
G01 X53.2904 Y39.2326 F120.00
G01 X53.2786 Y39.2362 F120.00
G01 X53.2171 Y39.2532 F120.00
G01 X52.9315 Y39.3247 F120.00
G01 X52.8693 Y39.3387 F120.00
G01 X52.8572 Y39.3411 F120.00
G01 X52.7944 Y39.3520 F120.00
G01 X52.5032 Y39.3952 F120.00
G01 X52.4398 Y39.4030 F120.00
G01 X52.4276 Y39.4042 F120.00
G01 X52.3640 Y39.4089 F120.00
G01 X52.0699 Y39.4233 F120.00
G01 X52.0319 Y39.4247 F120.00
G01 X52.0000 Y39.4251 F120.00
G01 X3.3000 Y39.4251 F120.00
G00 X3.3000 Y39.4251
G01 F60.00
G01 Z-1.0000
G01 F120.00
G01 X52.0000 Y39.4251 F120.00
G01 X52.0319 Y39.4247 F120.00
G01 X52.0699 Y39.4233 F120.00
G01 X52.3640 Y39.4089 F120.00
G01 X52.4276 Y39.4042 F120.00
G01 X52.4398 Y39.4030 F120.00
G01 X52.5032 Y39.3952 F120.00
G01 X52.7944 Y39.3520 F120.00
G01 X52.8572 Y39.3411 F120.00
G01 X52.8693 Y39.3387 F120.00
G01 X52.9315 Y39.3247 F120.00
G01 X53.2171 Y39.2532 F120.00
G01 X53.2786 Y39.2362 F120.00
G01 X53.2904 Y39.2326 F120.00
G01 X53.3509 Y39.2126 F120.00
G01 X53.6281 Y39.1134 F120.00
G01 X53.6877 Y39.0904 F120.00
G01 X53.6990 Y39.0857 F120.00
G01 X53.7573 Y39.0599 F120.00
G01 X54.0235 Y38.9340 F120.00
G01 X54.0805 Y38.9053 F120.00
G01 X54.0913 Y38.8995 F120.00
G01 X54.1468 Y38.8681 F120.00
G01 X54.3993 Y38.7167 F120.00
G01 X54.4532 Y38.6826 F120.00
G01 X54.4635 Y38.6758 F120.00
G01 X54.5156 Y38.6390 F120.00
G01 X54.7521 Y38.4637 F120.00
G01 X54.8024 Y38.4244 F120.00
G01 X54.8119 Y38.4166 F120.00
G01 X54.8602 Y38.3749 F120.00
G01 X55.0783 Y38.1772 F120.00
G01 X55.1245 Y38.1332 F120.00
G01 X55.1332 Y38.1245 F120.00
G01 X55.1772 Y38.0783 F120.00
G01 X55.3749 Y37.8602 F120.00
G01 X55.4166 Y37.8119 F120.00
G01 X55.4244 Y37.8024 F120.00
G01 X55.4637 Y37.7521 F120.00
G01 X55.6390 Y37.5156 F120.00
G01 X55.6758 Y37.4635 F120.00
G01 X55.6826 Y37.4532 F120.00
G01 X55.7167 Y37.3993 F120.00
G01 X55.8681 Y37.1468 F120.00
G01 X55.8995 Y37.0913 F120.00
G01 X55.9053 Y37.0805 F120.00
G01 X55.9340 Y37.0235 F120.00
G01 X56.0599 Y36.7573 F120.00
G01 X56.0857 Y36.6990 F120.00
G01 X56.0904 Y36.6877 F120.00
G01 X56.1134 Y36.6281 F120.00
G01 X56.2126 Y36.3509 F120.00
G01 X56.2326 Y36.2904 F120.00
G01 X56.2362 Y36.2786 F120.00
G01 X56.2532 Y36.2171 F120.00
G01 X56.3247 Y35.9315 F120.00
G01 X56.3387 Y35.8693 F120.00
G01 X56.3411 Y35.8572 F120.00
G01 X56.3520 Y35.7944 F120.00
G01 X56.3952 Y35.5032 F120.00
G01 X56.4030 Y35.4398 F120.00
G01 X56.4042 Y35.4276 F120.00
G01 X56.4089 Y35.3640 F120.00
G01 X56.4233 Y35.0699 F120.00
G01 X56.4251 Y35.0000 F120.00
G01 X56.4251 Y3.3000 F120.00
G00 X56.4251 Y3.3000
G01 F60.00
G01 Z-1.2000
G01 F120.00
G01 X56.4251 Y35.0000 F120.00
G01 X56.4233 Y35.0699 F120.00
G01 X56.4089 Y35.3640 F120.00
G01 X56.4042 Y35.4276 F120.00
G01 X56.4030 Y35.4398 F120.00
G01 X56.3952 Y35.5032 F120.00
G01 X56.3520 Y35.7944 F120.00
G01 X56.3411 Y35.8572 F120.00
G01 X56.3387 Y35.8693 F120.00
G01 X56.3247 Y35.9315 F120.00
G01 X56.2532 Y36.2171 F120.00
G01 X56.2362 Y36.2786 F120.00
G01 X56.2326 Y36.2904 F120.00
G01 X56.2126 Y36.3509 F120.00
G01 X56.1134 Y36.6281 F120.00
G01 X56.0904 Y36.6877 F120.00
G01 X56.0857 Y36.6990 F120.00
G01 X56.0599 Y36.7573 F120.00
G01 X55.9340 Y37.0235 F120.00
G01 X55.9053 Y37.0805 F120.00
G01 X55.8995 Y37.0913 F120.00
G01 X55.8681 Y37.1468 F120.00
G01 X55.7167 Y37.3993 F120.00
G01 X55.6826 Y37.4532 F120.00
G01 X55.6758 Y37.4635 F120.00
G01 X55.6390 Y37.5156 F120.00
G01 X55.4637 Y37.7521 F120.00
G01 X55.4244 Y37.8024 F120.00
G01 X55.4166 Y37.8119 F120.00
G01 X55.3749 Y37.8602 F120.00
G01 X55.1772 Y38.0783 F120.00
G01 X55.1332 Y38.1245 F120.00
G01 X55.1245 Y38.1332 F120.00
G01 X55.0783 Y38.1772 F120.00
G01 X54.8602 Y38.3749 F120.00
G01 X54.8119 Y38.4166 F120.00
G01 X54.8024 Y38.4244 F120.00
G01 X54.7521 Y38.4637 F120.00
G01 X54.5156 Y38.6390 F120.00
G01 X54.4635 Y38.6758 F120.00
G01 X54.4532 Y38.6826 F120.00
G01 X54.3993 Y38.7167 F120.00
G01 X54.1468 Y38.8681 F120.00
G01 X54.0913 Y38.8995 F120.00
G01 X54.0805 Y38.9053 F120.00
G01 X54.0235 Y38.9340 F120.00
G01 X53.7573 Y39.0599 F120.00
G01 X53.6990 Y39.0857 F120.00
G01 X53.6877 Y39.0904 F120.00
G01 X53.6281 Y39.1134 F120.00
G01 X53.3509 Y39.2126 F120.00
G01 X53.2904 Y39.2326 F120.00
G01 X53.2786 Y39.2362 F120.00
G01 X53.2171 Y39.2532 F120.00
G01 X52.9315 Y39.3247 F120.00
G01 X52.8693 Y39.3387 F120.00
G01 X52.8572 Y39.3411 F120.00
G01 X52.7944 Y39.3520 F120.00
G01 X52.5032 Y39.3952 F120.00
G01 X52.4398 Y39.4030 F120.00
G01 X52.4276 Y39.4042 F120.00
G01 X52.3640 Y39.4089 F120.00
G01 X52.0699 Y39.4233 F120.00
G01 X52.0319 Y39.4247 F120.00
G01 X52.0000 Y39.4251 F120.00
G01 X3.3000 Y39.4251 F120.00
G00 X3.3000 Y39.4251
G01 F60.00
G01 Z-1.4000
G01 F120.00
G01 X52.0000 Y39.4251 F120.00
G01 X52.0319 Y39.4247 F120.00
G01 X52.0699 Y39.4233 F120.00
G01 X52.3640 Y39.4089 F120.00
G01 X52.4276 Y39.4042 F120.00
G01 X52.4398 Y39.4030 F120.00
G01 X52.5032 Y39.3952 F120.00
G01 X52.7944 Y39.3520 F120.00
G01 X52.8572 Y39.3411 F120.00
G01 X52.8693 Y39.3387 F120.00
G01 X52.9315 Y39.3247 F120.00
G01 X53.2171 Y39.2532 F120.00
G01 X53.2786 Y39.2362 F120.00
G01 X53.2904 Y39.2326 F120.00
G01 X53.3509 Y39.2126 F120.00
G01 X53.6281 Y39.1134 F120.00
G01 X53.6877 Y39.0904 F120.00
G01 X53.6990 Y39.0857 F120.00
G01 X53.7573 Y39.0599 F120.00
G01 X54.0235 Y38.9340 F120.00
G01 X54.0805 Y38.9053 F120.00
G01 X54.0913 Y38.8995 F120.00
G01 X54.1468 Y38.8681 F120.00
G01 X54.3993 Y38.7167 F120.00
G01 X54.4532 Y38.6826 F120.00
G01 X54.4635 Y38.6758 F120.00
G01 X54.5156 Y38.6390 F120.00
G01 X54.7521 Y38.4637 F120.00
G01 X54.8024 Y38.4244 F120.00
G01 X54.8119 Y38.4166 F120.00
G01 X54.8602 Y38.3749 F120.00
G01 X55.0783 Y38.1772 F120.00
G01 X55.1245 Y38.1332 F120.00
G01 X55.1332 Y38.1245 F120.00
G01 X55.1772 Y38.0783 F120.00
G01 X55.3749 Y37.8602 F120.00
G01 X55.4166 Y37.8119 F120.00
G01 X55.4244 Y37.8024 F120.00
G01 X55.4637 Y37.7521 F120.00
G01 X55.6390 Y37.5156 F120.00
G01 X55.6758 Y37.4635 F120.00
G01 X55.6826 Y37.4532 F120.00
G01 X55.7167 Y37.3993 F120.00
G01 X55.8681 Y37.1468 F120.00
G01 X55.8995 Y37.0913 F120.00
G01 X55.9053 Y37.0805 F120.00
G01 X55.9340 Y37.0235 F120.00
G01 X56.0599 Y36.7573 F120.00
G01 X56.0857 Y36.6990 F120.00
G01 X56.0904 Y36.6877 F120.00
G01 X56.1134 Y36.6281 F120.00
G01 X56.2126 Y36.3509 F120.00
G01 X56.2326 Y36.2904 F120.00
G01 X56.2362 Y36.2786 F120.00
G01 X56.2532 Y36.2171 F120.00
G01 X56.3247 Y35.9315 F120.00
G01 X56.3387 Y35.8693 F120.00
G01 X56.3411 Y35.8572 F120.00
G01 X56.3520 Y35.7944 F120.00
G01 X56.3952 Y35.5032 F120.00
G01 X56.4030 Y35.4398 F120.00
G01 X56.4042 Y35.4276 F120.00
G01 X56.4089 Y35.3640 F120.00
G01 X56.4233 Y35.0699 F120.00
G01 X56.4251 Y35.0000 F120.00
G01 X56.4251 Y3.3000 F120.00
G00 X56.4251 Y3.3000
G01 F60.00
G01 Z-1.6000
G01 F120.00
G01 X56.4251 Y35.0000 F120.00
G01 X56.4233 Y35.0699 F120.00
G01 X56.4089 Y35.3640 F120.00
G01 X56.4042 Y35.4276 F120.00
G01 X56.4030 Y35.4398 F120.00
G01 X56.3952 Y35.5032 F120.00
G01 X56.3520 Y35.7944 F120.00
G01 X56.3411 Y35.8572 F120.00
G01 X56.3387 Y35.8693 F120.00
G01 X56.3247 Y35.9315 F120.00
G01 X56.2532 Y36.2171 F120.00
G01 X56.2362 Y36.2786 F120.00
G01 X56.2326 Y36.2904 F120.00
G01 X56.2126 Y36.3509 F120.00
G01 X56.1134 Y36.6281 F120.00
G01 X56.0904 Y36.6877 F120.00
G01 X56.0857 Y36.6990 F120.00
G01 X56.0599 Y36.7573 F120.00
G01 X55.9340 Y37.0235 F120.00
G01 X55.9053 Y37.0805 F120.00
G01 X55.8995 Y37.0913 F120.00
G01 X55.8681 Y37.1468 F120.00
G01 X55.7167 Y37.3993 F120.00
G01 X55.6826 Y37.4532 F120.00
G01 X55.6758 Y37.4635 F120.00
G01 X55.6390 Y37.5156 F120.00
G01 X55.4637 Y37.7521 F120.00
G01 X55.4244 Y37.8024 F120.00
G01 X55.4166 Y37.8119 F120.00
G01 X55.3749 Y37.8602 F120.00
G01 X55.1772 Y38.0783 F120.00
G01 X55.1332 Y38.1245 F120.00
G01 X55.1245 Y38.1332 F120.00
G01 X55.0783 Y38.1772 F120.00
G01 X54.8602 Y38.3749 F120.00
G01 X54.8119 Y38.4166 F120.00
G01 X54.8024 Y38.4244 F120.00
G01 X54.7521 Y38.4637 F120.00
G01 X54.5156 Y38.6390 F120.00
G01 X54.4635 Y38.6758 F120.00
G01 X54.4532 Y38.6826 F120.00
G01 X54.3993 Y38.7167 F120.00
G01 X54.1468 Y38.8681 F120.00
G01 X54.0913 Y38.8995 F120.00
G01 X54.0805 Y38.9053 F120.00
G01 X54.0235 Y38.9340 F120.00
G01 X53.7573 Y39.0599 F120.00
G01 X53.6990 Y39.0857 F120.00
G01 X53.6877 Y39.0904 F120.00
G01 X53.6281 Y39.1134 F120.00
G01 X53.3509 Y39.2126 F120.00
G01 X53.2904 Y39.2326 F120.00
G01 X53.2786 Y39.2362 F120.00
G01 X53.2171 Y39.2532 F120.00
G01 X52.9315 Y39.3247 F120.00
G01 X52.8693 Y39.3387 F120.00
G01 X52.8572 Y39.3411 F120.00
G01 X52.7944 Y39.3520 F120.00
G01 X52.5032 Y39.3952 F120.00
G01 X52.4398 Y39.4030 F120.00
G01 X52.4276 Y39.4042 F120.00
G01 X52.3640 Y39.4089 F120.00
G01 X52.0699 Y39.4233 F120.00
G01 X52.0319 Y39.4247 F120.00
G01 X52.0000 Y39.4251 F120.00
G01 X3.3000 Y39.4251 F120.00
G00 X3.3000 Y39.4251
G01 F60.00
G01 Z-1.8000
G01 F120.00
G01 X52.0000 Y39.4251 F120.00
G01 X52.0319 Y39.4247 F120.00
G01 X52.0699 Y39.4233 F120.00
G01 X52.3640 Y39.4089 F120.00
G01 X52.4276 Y39.4042 F120.00
G01 X52.4398 Y39.4030 F120.00
G01 X52.5032 Y39.3952 F120.00
G01 X52.7944 Y39.3520 F120.00
G01 X52.8572 Y39.3411 F120.00
G01 X52.8693 Y39.3387 F120.00
G01 X52.9315 Y39.3247 F120.00
G01 X53.2171 Y39.2532 F120.00
G01 X53.2786 Y39.2362 F120.00
G01 X53.2904 Y39.2326 F120.00
G01 X53.3509 Y39.2126 F120.00
G01 X53.6281 Y39.1134 F120.00
G01 X53.6877 Y39.0904 F120.00
G01 X53.6990 Y39.0857 F120.00
G01 X53.7573 Y39.0599 F120.00
G01 X54.0235 Y38.9340 F120.00
G01 X54.0805 Y38.9053 F120.00
G01 X54.0913 Y38.8995 F120.00
G01 X54.1468 Y38.8681 F120.00
G01 X54.3993 Y38.7167 F120.00
G01 X54.4532 Y38.6826 F120.00
G01 X54.4635 Y38.6758 F120.00
G01 X54.5156 Y38.6390 F120.00
G01 X54.7521 Y38.4637 F120.00
G01 X54.8024 Y38.4244 F120.00
G01 X54.8119 Y38.4166 F120.00
G01 X54.8602 Y38.3749 F120.00
G01 X55.0783 Y38.1772 F120.00
G01 X55.1245 Y38.1332 F120.00
G01 X55.1332 Y38.1245 F120.00
G01 X55.1772 Y38.0783 F120.00
G01 X55.3749 Y37.8602 F120.00
G01 X55.4166 Y37.8119 F120.00
G01 X55.4244 Y37.8024 F120.00
G01 X55.4637 Y37.7521 F120.00
G01 X55.6390 Y37.5156 F120.00
G01 X55.6758 Y37.4635 F120.00
G01 X55.6826 Y37.4532 F120.00
G01 X55.7167 Y37.3993 F120.00
G01 X55.8681 Y37.1468 F120.00
G01 X55.8995 Y37.0913 F120.00
G01 X55.9053 Y37.0805 F120.00
G01 X55.9340 Y37.0235 F120.00
G01 X56.0599 Y36.7573 F120.00
G01 X56.0857 Y36.6990 F120.00
G01 X56.0904 Y36.6877 F120.00
G01 X56.1134 Y36.6281 F120.00
G01 X56.2126 Y36.3509 F120.00
G01 X56.2326 Y36.2904 F120.00
G01 X56.2362 Y36.2786 F120.00
G01 X56.2532 Y36.2171 F120.00
G01 X56.3247 Y35.9315 F120.00
G01 X56.3387 Y35.8693 F120.00
G01 X56.3411 Y35.8572 F120.00
G01 X56.3520 Y35.7944 F120.00
G01 X56.3952 Y35.5032 F120.00
G01 X56.4030 Y35.4398 F120.00
G01 X56.4042 Y35.4276 F120.00
G01 X56.4089 Y35.3640 F120.00
G01 X56.4233 Y35.0699 F120.00
G01 X56.4251 Y35.0000 F120.00
G01 X56.4251 Y3.3000 F120.00
G00 Z2.0000
G00 X56.4251 Y-3.1000
G01 F60.00
G01 Z-0.2000
G01 F120.00
G01 X56.4251 Y-35.0000 F120.00
G01 X56.4245 Y-35.0380 F120.00
G01 X56.4233 Y-35.0699 F120.00
G01 X56.4089 Y-35.3640 F120.00
G01 X56.4042 Y-35.4276 F120.00
G01 X56.4030 Y-35.4398 F120.00
G01 X56.3952 Y-35.5032 F120.00
G01 X56.3520 Y-35.7944 F120.00
G01 X56.3411 Y-35.8572 F120.00
G01 X56.3387 Y-35.8693 F120.00
G01 X56.3247 Y-35.9315 F120.00
G01 X56.2532 Y-36.2171 F120.00
G01 X56.2362 Y-36.2786 F120.00
G01 X56.2326 Y-36.2904 F120.00
G01 X56.2126 Y-36.3509 F120.00
G01 X56.1134 Y-36.6281 F120.00
G01 X56.0904 Y-36.6877 F120.00
G01 X56.0857 Y-36.6990 F120.00
G01 X56.0599 Y-36.7573 F120.00
G01 X55.9340 Y-37.0235 F120.00
G01 X55.9053 Y-37.0805 F120.00
G01 X55.8995 Y-37.0913 F120.00
G01 X55.8681 Y-37.1468 F120.00
G01 X55.7167 Y-37.3993 F120.00
G01 X55.6826 Y-37.4532 F120.00
G01 X55.6758 Y-37.4635 F120.00
G01 X55.6390 Y-37.5156 F120.00
G01 X55.4637 Y-37.7521 F120.00
G01 X55.4244 Y-37.8024 F120.00
G01 X55.4166 Y-37.8119 F120.00
G01 X55.3749 Y-37.8602 F120.00
G01 X55.1772 Y-38.0783 F120.00
G01 X55.1332 Y-38.1245 F120.00
G01 X55.1245 Y-38.1332 F120.00
G01 X55.0783 Y-38.1772 F120.00
G01 X54.8602 Y-38.3749 F120.00
G01 X54.8119 Y-38.4166 F120.00
G01 X54.8024 Y-38.4244 F120.00
G01 X54.7521 Y-38.4637 F120.00
G01 X54.5156 Y-38.6390 F120.00
G01 X54.4635 Y-38.6758 F120.00
G01 X54.4532 Y-38.6826 F120.00
G01 X54.3993 Y-38.7167 F120.00
G01 X54.1468 Y-38.8681 F120.00
G01 X54.0913 Y-38.8995 F120.00
G01 X54.0805 Y-38.9053 F120.00
G01 X54.0235 Y-38.9340 F120.00
G01 X53.7573 Y-39.0599 F120.00
G01 X53.6990 Y-39.0857 F120.00
G01 X53.6877 Y-39.0904 F120.00
G01 X53.6281 Y-39.1134 F120.00
G01 X53.3509 Y-39.2126 F120.00
G01 X53.2904 Y-39.2326 F120.00
G01 X53.2786 Y-39.2362 F120.00
G01 X53.2171 Y-39.2532 F120.00
G01 X52.9315 Y-39.3247 F120.00
G01 X52.8693 Y-39.3387 F120.00
G01 X52.8572 Y-39.3411 F120.00
G01 X52.7944 Y-39.3520 F120.00
G01 X52.5032 Y-39.3952 F120.00
G01 X52.4398 Y-39.4030 F120.00
G01 X52.4276 Y-39.4042 F120.00
G01 X52.3640 Y-39.4089 F120.00
G01 X52.0699 Y-39.4233 F120.00
G01 X52.0319 Y-39.4247 F120.00
G01 X52.0000 Y-39.4251 F120.00
G01 X3.3000 Y-39.4251 F120.00
G00 X3.3000 Y-39.4251
G01 F60.00
G01 Z-0.4000
G01 F120.00
G01 X52.0000 Y-39.4251 F120.00
G01 X52.0319 Y-39.4247 F120.00
G01 X52.0699 Y-39.4233 F120.00
G01 X52.3640 Y-39.4089 F120.00
G01 X52.4276 Y-39.4042 F120.00
G01 X52.4398 Y-39.4030 F120.00
G01 X52.5032 Y-39.3952 F120.00
G01 X52.7944 Y-39.3520 F120.00
G01 X52.8572 Y-39.3411 F120.00
G01 X52.8693 Y-39.3387 F120.00
G01 X52.9315 Y-39.3247 F120.00
G01 X53.2171 Y-39.2532 F120.00
G01 X53.2786 Y-39.2362 F120.00
G01 X53.2904 Y-39.2326 F120.00
G01 X53.3509 Y-39.2126 F120.00
G01 X53.6281 Y-39.1134 F120.00
G01 X53.6877 Y-39.0904 F120.00
G01 X53.6990 Y-39.0857 F120.00
G01 X53.7573 Y-39.0599 F120.00
G01 X54.0235 Y-38.9340 F120.00
G01 X54.0805 Y-38.9053 F120.00
G01 X54.0913 Y-38.8995 F120.00
G01 X54.1468 Y-38.8681 F120.00
G01 X54.3993 Y-38.7167 F120.00
G01 X54.4532 Y-38.6826 F120.00
G01 X54.4635 Y-38.6758 F120.00
G01 X54.5156 Y-38.6390 F120.00
G01 X54.7521 Y-38.4637 F120.00
G01 X54.8024 Y-38.4244 F120.00
G01 X54.8119 Y-38.4166 F120.00
G01 X54.8602 Y-38.3749 F120.00
G01 X55.0783 Y-38.1772 F120.00
G01 X55.1245 Y-38.1332 F120.00
G01 X55.1332 Y-38.1245 F120.00
G01 X55.1772 Y-38.0783 F120.00
G01 X55.3749 Y-37.8602 F120.00
G01 X55.4166 Y-37.8119 F120.00
G01 X55.4244 Y-37.8024 F120.00
G01 X55.4637 Y-37.7521 F120.00
G01 X55.6390 Y-37.5156 F120.00
G01 X55.6758 Y-37.4635 F120.00
G01 X55.6826 Y-37.4532 F120.00
G01 X55.7167 Y-37.3993 F120.00
G01 X55.8681 Y-37.1468 F120.00
G01 X55.8995 Y-37.0913 F120.00
G01 X55.9053 Y-37.0805 F120.00
G01 X55.9340 Y-37.0235 F120.00
G01 X56.0599 Y-36.7573 F120.00
G01 X56.0857 Y-36.6990 F120.00
G01 X56.0904 Y-36.6877 F120.00
G01 X56.1134 Y-36.6281 F120.00
G01 X56.2126 Y-36.3509 F120.00
G01 X56.2326 Y-36.2904 F120.00
G01 X56.2362 Y-36.2786 F120.00
G01 X56.2532 Y-36.2171 F120.00
G01 X56.3247 Y-35.9315 F120.00
G01 X56.3387 Y-35.8693 F120.00
G01 X56.3411 Y-35.8572 F120.00
G01 X56.3520 Y-35.7944 F120.00
G01 X56.3952 Y-35.5032 F120.00
G01 X56.4030 Y-35.4398 F120.00
G01 X56.4042 Y-35.4276 F120.00
G01 X56.4089 Y-35.3640 F120.00
G01 X56.4233 Y-35.0699 F120.00
G01 X56.4245 Y-35.0380 F120.00
G01 X56.4251 Y-35.0000 F120.00
G01 X56.4251 Y-3.1000 F120.00
G00 X56.4251 Y-3.1000
G01 F60.00
G01 Z-0.6000
G01 F120.00
G01 X56.4251 Y-35.0000 F120.00
G01 X56.4245 Y-35.0380 F120.00
G01 X56.4233 Y-35.0699 F120.00
G01 X56.4089 Y-35.3640 F120.00
G01 X56.4042 Y-35.4276 F120.00
G01 X56.4030 Y-35.4398 F120.00
G01 X56.3952 Y-35.5032 F120.00
G01 X56.3520 Y-35.7944 F120.00
G01 X56.3411 Y-35.8572 F120.00
G01 X56.3387 Y-35.8693 F120.00
G01 X56.3247 Y-35.9315 F120.00
G01 X56.2532 Y-36.2171 F120.00
G01 X56.2362 Y-36.2786 F120.00
G01 X56.2326 Y-36.2904 F120.00
G01 X56.2126 Y-36.3509 F120.00
G01 X56.1134 Y-36.6281 F120.00
G01 X56.0904 Y-36.6877 F120.00
G01 X56.0857 Y-36.6990 F120.00
G01 X56.0599 Y-36.7573 F120.00
G01 X55.9340 Y-37.0235 F120.00
G01 X55.9053 Y-37.0805 F120.00
G01 X55.8995 Y-37.0913 F120.00
G01 X55.8681 Y-37.1468 F120.00
G01 X55.7167 Y-37.3993 F120.00
G01 X55.6826 Y-37.4532 F120.00
G01 X55.6758 Y-37.4635 F120.00
G01 X55.6390 Y-37.5156 F120.00
G01 X55.4637 Y-37.7521 F120.00
G01 X55.4244 Y-37.8024 F120.00
G01 X55.4166 Y-37.8119 F120.00
G01 X55.3749 Y-37.8602 F120.00
G01 X55.1772 Y-38.0783 F120.00
G01 X55.1332 Y-38.1245 F120.00
G01 X55.1245 Y-38.1332 F120.00
G01 X55.0783 Y-38.1772 F120.00
G01 X54.8602 Y-38.3749 F120.00
G01 X54.8119 Y-38.4166 F120.00
G01 X54.8024 Y-38.4244 F120.00
G01 X54.7521 Y-38.4637 F120.00
G01 X54.5156 Y-38.6390 F120.00
G01 X54.4635 Y-38.6758 F120.00
G01 X54.4532 Y-38.6826 F120.00
G01 X54.3993 Y-38.7167 F120.00
G01 X54.1468 Y-38.8681 F120.00
G01 X54.0913 Y-38.8995 F120.00
G01 X54.0805 Y-38.9053 F120.00
G01 X54.0235 Y-38.9340 F120.00
G01 X53.7573 Y-39.0599 F120.00
G01 X53.6990 Y-39.0857 F120.00
G01 X53.6877 Y-39.0904 F120.00
G01 X53.6281 Y-39.1134 F120.00
G01 X53.3509 Y-39.2126 F120.00
G01 X53.2904 Y-39.2326 F120.00
G01 X53.2786 Y-39.2362 F120.00
G01 X53.2171 Y-39.2532 F120.00
G01 X52.9315 Y-39.3247 F120.00
G01 X52.8693 Y-39.3387 F120.00
G01 X52.8572 Y-39.3411 F120.00
G01 X52.7944 Y-39.3520 F120.00
G01 X52.5032 Y-39.3952 F120.00
G01 X52.4398 Y-39.4030 F120.00
G01 X52.4276 Y-39.4042 F120.00
G01 X52.3640 Y-39.4089 F120.00
G01 X52.0699 Y-39.4233 F120.00
G01 X52.0319 Y-39.4247 F120.00
G01 X52.0000 Y-39.4251 F120.00
G01 X3.3000 Y-39.4251 F120.00
G00 X3.3000 Y-39.4251
G01 F60.00
G01 Z-0.8000
G01 F120.00
G01 X52.0000 Y-39.4251 F120.00
G01 X52.0319 Y-39.4247 F120.00
G01 X52.0699 Y-39.4233 F120.00
G01 X52.3640 Y-39.4089 F120.00
G01 X52.4276 Y-39.4042 F120.00
G01 X52.4398 Y-39.4030 F120.00
G01 X52.5032 Y-39.3952 F120.00
G01 X52.7944 Y-39.3520 F120.00
G01 X52.8572 Y-39.3411 F120.00
G01 X52.8693 Y-39.3387 F120.00
G01 X52.9315 Y-39.3247 F120.00
G01 X53.2171 Y-39.2532 F120.00
G01 X53.2786 Y-39.2362 F120.00
G01 X53.2904 Y-39.2326 F120.00
G01 X53.3509 Y-39.2126 F120.00
G01 X53.6281 Y-39.1134 F120.00
G01 X53.6877 Y-39.0904 F120.00
G01 X53.6990 Y-39.0857 F120.00
G01 X53.7573 Y-39.0599 F120.00
G01 X54.0235 Y-38.9340 F120.00
G01 X54.0805 Y-38.9053 F120.00
G01 X54.0913 Y-38.8995 F120.00
G01 X54.1468 Y-38.8681 F120.00
G01 X54.3993 Y-38.7167 F120.00
G01 X54.4532 Y-38.6826 F120.00
G01 X54.4635 Y-38.6758 F120.00
G01 X54.5156 Y-38.6390 F120.00
G01 X54.7521 Y-38.4637 F120.00
G01 X54.8024 Y-38.4244 F120.00
G01 X54.8119 Y-38.4166 F120.00
G01 X54.8602 Y-38.3749 F120.00
G01 X55.0783 Y-38.1772 F120.00
G01 X55.1245 Y-38.1332 F120.00
G01 X55.1332 Y-38.1245 F120.00
G01 X55.1772 Y-38.0783 F120.00
G01 X55.3749 Y-37.8602 F120.00
G01 X55.4166 Y-37.8119 F120.00
G01 X55.4244 Y-37.8024 F120.00
G01 X55.4637 Y-37.7521 F120.00
G01 X55.6390 Y-37.5156 F120.00
G01 X55.6758 Y-37.4635 F120.00
G01 X55.6826 Y-37.4532 F120.00
G01 X55.7167 Y-37.3993 F120.00
G01 X55.8681 Y-37.1468 F120.00
G01 X55.8995 Y-37.0913 F120.00
G01 X55.9053 Y-37.0805 F120.00
G01 X55.9340 Y-37.0235 F120.00
G01 X56.0599 Y-36.7573 F120.00
G01 X56.0857 Y-36.6990 F120.00
G01 X56.0904 Y-36.6877 F120.00
G01 X56.1134 Y-36.6281 F120.00
G01 X56.2126 Y-36.3509 F120.00
G01 X56.2326 Y-36.2904 F120.00
G01 X56.2362 Y-36.2786 F120.00
G01 X56.2532 Y-36.2171 F120.00
G01 X56.3247 Y-35.9315 F120.00
G01 X56.3387 Y-35.8693 F120.00
G01 X56.3411 Y-35.8572 F120.00
G01 X56.3520 Y-35.7944 F120.00
G01 X56.3952 Y-35.5032 F120.00
G01 X56.4030 Y-35.4398 F120.00
G01 X56.4042 Y-35.4276 F120.00
G01 X56.4089 Y-35.3640 F120.00
G01 X56.4233 Y-35.0699 F120.00
G01 X56.4245 Y-35.0380 F120.00
G01 X56.4251 Y-35.0000 F120.00
G01 X56.4251 Y-3.1000 F120.00
G00 X56.4251 Y-3.1000
G01 F60.00
G01 Z-1.0000
G01 F120.00
G01 X56.4251 Y-35.0000 F120.00
G01 X56.4245 Y-35.0380 F120.00
G01 X56.4233 Y-35.0699 F120.00
G01 X56.4089 Y-35.3640 F120.00
G01 X56.4042 Y-35.4276 F120.00
G01 X56.4030 Y-35.4398 F120.00
G01 X56.3952 Y-35.5032 F120.00
G01 X56.3520 Y-35.7944 F120.00
G01 X56.3411 Y-35.8572 F120.00
G01 X56.3387 Y-35.8693 F120.00
G01 X56.3247 Y-35.9315 F120.00
G01 X56.2532 Y-36.2171 F120.00
G01 X56.2362 Y-36.2786 F120.00
G01 X56.2326 Y-36.2904 F120.00
G01 X56.2126 Y-36.3509 F120.00
G01 X56.1134 Y-36.6281 F120.00
G01 X56.0904 Y-36.6877 F120.00
G01 X56.0857 Y-36.6990 F120.00
G01 X56.0599 Y-36.7573 F120.00
G01 X55.9340 Y-37.0235 F120.00
G01 X55.9053 Y-37.0805 F120.00
G01 X55.8995 Y-37.0913 F120.00
G01 X55.8681 Y-37.1468 F120.00
G01 X55.7167 Y-37.3993 F120.00
G01 X55.6826 Y-37.4532 F120.00
G01 X55.6758 Y-37.4635 F120.00
G01 X55.6390 Y-37.5156 F120.00
G01 X55.4637 Y-37.7521 F120.00
G01 X55.4244 Y-37.8024 F120.00
G01 X55.4166 Y-37.8119 F120.00
G01 X55.3749 Y-37.8602 F120.00
G01 X55.1772 Y-38.0783 F120.00
G01 X55.1332 Y-38.1245 F120.00
G01 X55.1245 Y-38.1332 F120.00
G01 X55.0783 Y-38.1772 F120.00
G01 X54.8602 Y-38.3749 F120.00
G01 X54.8119 Y-38.4166 F120.00
G01 X54.8024 Y-38.4244 F120.00
G01 X54.7521 Y-38.4637 F120.00
G01 X54.5156 Y-38.6390 F120.00
G01 X54.4635 Y-38.6758 F120.00
G01 X54.4532 Y-38.6826 F120.00
G01 X54.3993 Y-38.7167 F120.00
G01 X54.1468 Y-38.8681 F120.00
G01 X54.0913 Y-38.8995 F120.00
G01 X54.0805 Y-38.9053 F120.00
G01 X54.0235 Y-38.9340 F120.00
G01 X53.7573 Y-39.0599 F120.00
G01 X53.6990 Y-39.0857 F120.00
G01 X53.6877 Y-39.0904 F120.00
G01 X53.6281 Y-39.1134 F120.00
G01 X53.3509 Y-39.2126 F120.00
G01 X53.2904 Y-39.2326 F120.00
G01 X53.2786 Y-39.2362 F120.00
G01 X53.2171 Y-39.2532 F120.00
G01 X52.9315 Y-39.3247 F120.00
G01 X52.8693 Y-39.3387 F120.00
G01 X52.8572 Y-39.3411 F120.00
G01 X52.7944 Y-39.3520 F120.00
G01 X52.5032 Y-39.3952 F120.00
G01 X52.4398 Y-39.4030 F120.00
G01 X52.4276 Y-39.4042 F120.00
G01 X52.3640 Y-39.4089 F120.00
G01 X52.0699 Y-39.4233 F120.00
G01 X52.0319 Y-39.4247 F120.00
G01 X52.0000 Y-39.4251 F120.00
G01 X3.3000 Y-39.4251 F120.00
G00 X3.3000 Y-39.4251
G01 F60.00
G01 Z-1.2000
G01 F120.00
G01 X52.0000 Y-39.4251 F120.00
G01 X52.0319 Y-39.4247 F120.00
G01 X52.0699 Y-39.4233 F120.00
G01 X52.3640 Y-39.4089 F120.00
G01 X52.4276 Y-39.4042 F120.00
G01 X52.4398 Y-39.4030 F120.00
G01 X52.5032 Y-39.3952 F120.00
G01 X52.7944 Y-39.3520 F120.00
G01 X52.8572 Y-39.3411 F120.00
G01 X52.8693 Y-39.3387 F120.00
G01 X52.9315 Y-39.3247 F120.00
G01 X53.2171 Y-39.2532 F120.00
G01 X53.2786 Y-39.2362 F120.00
G01 X53.2904 Y-39.2326 F120.00
G01 X53.3509 Y-39.2126 F120.00
G01 X53.6281 Y-39.1134 F120.00
G01 X53.6877 Y-39.0904 F120.00
G01 X53.6990 Y-39.0857 F120.00
G01 X53.7573 Y-39.0599 F120.00
G01 X54.0235 Y-38.9340 F120.00
G01 X54.0805 Y-38.9053 F120.00
G01 X54.0913 Y-38.8995 F120.00
G01 X54.1468 Y-38.8681 F120.00
G01 X54.3993 Y-38.7167 F120.00
G01 X54.4532 Y-38.6826 F120.00
G01 X54.4635 Y-38.6758 F120.00
G01 X54.5156 Y-38.6390 F120.00
G01 X54.7521 Y-38.4637 F120.00
G01 X54.8024 Y-38.4244 F120.00
G01 X54.8119 Y-38.4166 F120.00
G01 X54.8602 Y-38.3749 F120.00
G01 X55.0783 Y-38.1772 F120.00
G01 X55.1245 Y-38.1332 F120.00
G01 X55.1332 Y-38.1245 F120.00
G01 X55.1772 Y-38.0783 F120.00
G01 X55.3749 Y-37.8602 F120.00
G01 X55.4166 Y-37.8119 F120.00
G01 X55.4244 Y-37.8024 F120.00
G01 X55.4637 Y-37.7521 F120.00
G01 X55.6390 Y-37.5156 F120.00
G01 X55.6758 Y-37.4635 F120.00
G01 X55.6826 Y-37.4532 F120.00
G01 X55.7167 Y-37.3993 F120.00
G01 X55.8681 Y-37.1468 F120.00
G01 X55.8995 Y-37.0913 F120.00
G01 X55.9053 Y-37.0805 F120.00
G01 X55.9340 Y-37.0235 F120.00
G01 X56.0599 Y-36.7573 F120.00
G01 X56.0857 Y-36.6990 F120.00
G01 X56.0904 Y-36.6877 F120.00
G01 X56.1134 Y-36.6281 F120.00
G01 X56.2126 Y-36.3509 F120.00
G01 X56.2326 Y-36.2904 F120.00
G01 X56.2362 Y-36.2786 F120.00
G01 X56.2532 Y-36.2171 F120.00
G01 X56.3247 Y-35.9315 F120.00
G01 X56.3387 Y-35.8693 F120.00
G01 X56.3411 Y-35.8572 F120.00
G01 X56.3520 Y-35.7944 F120.00
G01 X56.3952 Y-35.5032 F120.00
G01 X56.4030 Y-35.4398 F120.00
G01 X56.4042 Y-35.4276 F120.00
G01 X56.4089 Y-35.3640 F120.00
G01 X56.4233 Y-35.0699 F120.00
G01 X56.4245 Y-35.0380 F120.00
G01 X56.4251 Y-35.0000 F120.00
G01 X56.4251 Y-3.1000 F120.00
G00 X56.4251 Y-3.1000
G01 F60.00
G01 Z-1.4000
G01 F120.00
G01 X56.4251 Y-35.0000 F120.00
G01 X56.4245 Y-35.0380 F120.00
G01 X56.4233 Y-35.0699 F120.00
G01 X56.4089 Y-35.3640 F120.00
G01 X56.4042 Y-35.4276 F120.00
G01 X56.4030 Y-35.4398 F120.00
G01 X56.3952 Y-35.5032 F120.00
G01 X56.3520 Y-35.7944 F120.00
G01 X56.3411 Y-35.8572 F120.00
G01 X56.3387 Y-35.8693 F120.00
G01 X56.3247 Y-35.9315 F120.00
G01 X56.2532 Y-36.2171 F120.00
G01 X56.2362 Y-36.2786 F120.00
G01 X56.2326 Y-36.2904 F120.00
G01 X56.2126 Y-36.3509 F120.00
G01 X56.1134 Y-36.6281 F120.00
G01 X56.0904 Y-36.6877 F120.00
G01 X56.0857 Y-36.6990 F120.00
G01 X56.0599 Y-36.7573 F120.00
G01 X55.9340 Y-37.0235 F120.00
G01 X55.9053 Y-37.0805 F120.00
G01 X55.8995 Y-37.0913 F120.00
G01 X55.8681 Y-37.1468 F120.00
G01 X55.7167 Y-37.3993 F120.00
G01 X55.6826 Y-37.4532 F120.00
G01 X55.6758 Y-37.4635 F120.00
G01 X55.6390 Y-37.5156 F120.00
G01 X55.4637 Y-37.7521 F120.00
G01 X55.4244 Y-37.8024 F120.00
G01 X55.4166 Y-37.8119 F120.00
G01 X55.3749 Y-37.8602 F120.00
G01 X55.1772 Y-38.0783 F120.00
G01 X55.1332 Y-38.1245 F120.00
G01 X55.1245 Y-38.1332 F120.00
G01 X55.0783 Y-38.1772 F120.00
G01 X54.8602 Y-38.3749 F120.00
G01 X54.8119 Y-38.4166 F120.00
G01 X54.8024 Y-38.4244 F120.00
G01 X54.7521 Y-38.4637 F120.00
G01 X54.5156 Y-38.6390 F120.00
G01 X54.4635 Y-38.6758 F120.00
G01 X54.4532 Y-38.6826 F120.00
G01 X54.3993 Y-38.7167 F120.00
G01 X54.1468 Y-38.8681 F120.00
G01 X54.0913 Y-38.8995 F120.00
G01 X54.0805 Y-38.9053 F120.00
G01 X54.0235 Y-38.9340 F120.00
G01 X53.7573 Y-39.0599 F120.00
G01 X53.6990 Y-39.0857 F120.00
G01 X53.6877 Y-39.0904 F120.00
G01 X53.6281 Y-39.1134 F120.00
G01 X53.3509 Y-39.2126 F120.00
G01 X53.2904 Y-39.2326 F120.00
G01 X53.2786 Y-39.2362 F120.00
G01 X53.2171 Y-39.2532 F120.00
G01 X52.9315 Y-39.3247 F120.00
G01 X52.8693 Y-39.3387 F120.00
G01 X52.8572 Y-39.3411 F120.00
G01 X52.7944 Y-39.3520 F120.00
G01 X52.5032 Y-39.3952 F120.00
G01 X52.4398 Y-39.4030 F120.00
G01 X52.4276 Y-39.4042 F120.00
G01 X52.3640 Y-39.4089 F120.00
G01 X52.0699 Y-39.4233 F120.00
G01 X52.0319 Y-39.4247 F120.00
G01 X52.0000 Y-39.4251 F120.00
G01 X3.3000 Y-39.4251 F120.00
G00 X3.3000 Y-39.4251
G01 F60.00
G01 Z-1.6000
G01 F120.00
G01 X52.0000 Y-39.4251 F120.00
G01 X52.0319 Y-39.4247 F120.00
G01 X52.0699 Y-39.4233 F120.00
G01 X52.3640 Y-39.4089 F120.00
G01 X52.4276 Y-39.4042 F120.00
G01 X52.4398 Y-39.4030 F120.00
G01 X52.5032 Y-39.3952 F120.00
G01 X52.7944 Y-39.3520 F120.00
G01 X52.8572 Y-39.3411 F120.00
G01 X52.8693 Y-39.3387 F120.00
G01 X52.9315 Y-39.3247 F120.00
G01 X53.2171 Y-39.2532 F120.00
G01 X53.2786 Y-39.2362 F120.00
G01 X53.2904 Y-39.2326 F120.00
G01 X53.3509 Y-39.2126 F120.00
G01 X53.6281 Y-39.1134 F120.00
G01 X53.6877 Y-39.0904 F120.00
G01 X53.6990 Y-39.0857 F120.00
G01 X53.7573 Y-39.0599 F120.00
G01 X54.0235 Y-38.9340 F120.00
G01 X54.0805 Y-38.9053 F120.00
G01 X54.0913 Y-38.8995 F120.00
G01 X54.1468 Y-38.8681 F120.00
G01 X54.3993 Y-38.7167 F120.00
G01 X54.4532 Y-38.6826 F120.00
G01 X54.4635 Y-38.6758 F120.00
G01 X54.5156 Y-38.6390 F120.00
G01 X54.7521 Y-38.4637 F120.00
G01 X54.8024 Y-38.4244 F120.00
G01 X54.8119 Y-38.4166 F120.00
G01 X54.8602 Y-38.3749 F120.00
G01 X55.0783 Y-38.1772 F120.00
G01 X55.1245 Y-38.1332 F120.00
G01 X55.1332 Y-38.1245 F120.00
G01 X55.1772 Y-38.0783 F120.00
G01 X55.3749 Y-37.8602 F120.00
G01 X55.4166 Y-37.8119 F120.00
G01 X55.4244 Y-37.8024 F120.00
G01 X55.4637 Y-37.7521 F120.00
G01 X55.6390 Y-37.5156 F120.00
G01 X55.6758 Y-37.4635 F120.00
G01 X55.6826 Y-37.4532 F120.00
G01 X55.7167 Y-37.3993 F120.00
G01 X55.8681 Y-37.1468 F120.00
G01 X55.8995 Y-37.0913 F120.00
G01 X55.9053 Y-37.0805 F120.00
G01 X55.9340 Y-37.0235 F120.00
G01 X56.0599 Y-36.7573 F120.00
G01 X56.0857 Y-36.6990 F120.00
G01 X56.0904 Y-36.6877 F120.00
G01 X56.1134 Y-36.6281 F120.00
G01 X56.2126 Y-36.3509 F120.00
G01 X56.2326 Y-36.2904 F120.00
G01 X56.2362 Y-36.2786 F120.00
G01 X56.2532 Y-36.2171 F120.00
G01 X56.3247 Y-35.9315 F120.00
G01 X56.3387 Y-35.8693 F120.00
G01 X56.3411 Y-35.8572 F120.00
G01 X56.3520 Y-35.7944 F120.00
G01 X56.3952 Y-35.5032 F120.00
G01 X56.4030 Y-35.4398 F120.00
G01 X56.4042 Y-35.4276 F120.00
G01 X56.4089 Y-35.3640 F120.00
G01 X56.4233 Y-35.0699 F120.00
G01 X56.4245 Y-35.0380 F120.00
G01 X56.4251 Y-35.0000 F120.00
G01 X56.4251 Y-3.1000 F120.00
G00 X56.4251 Y-3.1000
G01 F60.00
G01 Z-1.8000
G01 F120.00
G01 X56.4251 Y-35.0000 F120.00
G01 X56.4245 Y-35.0380 F120.00
G01 X56.4233 Y-35.0699 F120.00
G01 X56.4089 Y-35.3640 F120.00
G01 X56.4042 Y-35.4276 F120.00
G01 X56.4030 Y-35.4398 F120.00
G01 X56.3952 Y-35.5032 F120.00
G01 X56.3520 Y-35.7944 F120.00
G01 X56.3411 Y-35.8572 F120.00
G01 X56.3387 Y-35.8693 F120.00
G01 X56.3247 Y-35.9315 F120.00
G01 X56.2532 Y-36.2171 F120.00
G01 X56.2362 Y-36.2786 F120.00
G01 X56.2326 Y-36.2904 F120.00
G01 X56.2126 Y-36.3509 F120.00
G01 X56.1134 Y-36.6281 F120.00
G01 X56.0904 Y-36.6877 F120.00
G01 X56.0857 Y-36.6990 F120.00
G01 X56.0599 Y-36.7573 F120.00
G01 X55.9340 Y-37.0235 F120.00
G01 X55.9053 Y-37.0805 F120.00
G01 X55.8995 Y-37.0913 F120.00
G01 X55.8681 Y-37.1468 F120.00
G01 X55.7167 Y-37.3993 F120.00
G01 X55.6826 Y-37.4532 F120.00
G01 X55.6758 Y-37.4635 F120.00
G01 X55.6390 Y-37.5156 F120.00
G01 X55.4637 Y-37.7521 F120.00
G01 X55.4244 Y-37.8024 F120.00
G01 X55.4166 Y-37.8119 F120.00
G01 X55.3749 Y-37.8602 F120.00
G01 X55.1772 Y-38.0783 F120.00
G01 X55.1332 Y-38.1245 F120.00
G01 X55.1245 Y-38.1332 F120.00
G01 X55.0783 Y-38.1772 F120.00
G01 X54.8602 Y-38.3749 F120.00
G01 X54.8119 Y-38.4166 F120.00
G01 X54.8024 Y-38.4244 F120.00
G01 X54.7521 Y-38.4637 F120.00
G01 X54.5156 Y-38.6390 F120.00
G01 X54.4635 Y-38.6758 F120.00
G01 X54.4532 Y-38.6826 F120.00
G01 X54.3993 Y-38.7167 F120.00
G01 X54.1468 Y-38.8681 F120.00
G01 X54.0913 Y-38.8995 F120.00
G01 X54.0805 Y-38.9053 F120.00
G01 X54.0235 Y-38.9340 F120.00
G01 X53.7573 Y-39.0599 F120.00
G01 X53.6990 Y-39.0857 F120.00
G01 X53.6877 Y-39.0904 F120.00
G01 X53.6281 Y-39.1134 F120.00
G01 X53.3509 Y-39.2126 F120.00
G01 X53.2904 Y-39.2326 F120.00
G01 X53.2786 Y-39.2362 F120.00
G01 X53.2171 Y-39.2532 F120.00
G01 X52.9315 Y-39.3247 F120.00
G01 X52.8693 Y-39.3387 F120.00
G01 X52.8572 Y-39.3411 F120.00
G01 X52.7944 Y-39.3520 F120.00
G01 X52.5032 Y-39.3952 F120.00
G01 X52.4398 Y-39.4030 F120.00
G01 X52.4276 Y-39.4042 F120.00
G01 X52.3640 Y-39.4089 F120.00
G01 X52.0699 Y-39.4233 F120.00
G01 X52.0319 Y-39.4247 F120.00
G01 X52.0000 Y-39.4251 F120.00
G01 X3.3000 Y-39.4251 F120.00
G00 Z2.0000
G01 F120.00

M5             
G00 Z5.0000
G00 X0.0000 Y0.0000                
T9999
(MSG, Change to Tool Dia = 2.4000)
M0
G00 Z5.0000
        
M03 S900.0
G01 F120.00
G00 X-3.1000 Y-39.4251
G01 F60.00
G01 Z-0.2000
G01 F120.00
G01 X3.3000 Y-39.4251 F120.00
G00 X3.3000 Y-39.4251
G01 F60.00
G01 Z-0.4000
G01 F120.00
G01 X-3.1000 Y-39.4251 F120.00
G00 X-3.1000 Y-39.4251
G01 F60.00
G01 Z-0.6000
G01 F120.00
G01 X3.3000 Y-39.4251 F120.00
G00 X3.3000 Y-39.4251
G01 F60.00
G01 Z-0.8000
G01 F120.00
G01 X-3.1000 Y-39.4251 F120.00
G00 X-3.1000 Y-39.4251
G01 F60.00
G01 Z-1.0000
G01 F120.00
G01 X3.3000 Y-39.4251 F120.00
G00 X3.3000 Y-39.4251
G01 F60.00
G01 Z-1.2000
G01 F120.00
G01 X-3.1000 Y-39.4251 F120.00
G00 X-3.1000 Y-39.4251
G01 F60.00
G01 Z-1.4000
G01 F120.00
G01 X3.3000 Y-39.4251 F120.00
G00 X3.3000 Y-39.4251
G01 F60.00
G01 Z-1.6000
G01 F120.00
G01 X-3.1000 Y-39.4251 F120.00
G00 X-3.1000 Y-39.4251
G01 F60.00
G01 Z-1.8000
G01 F120.00
G01 X3.3000 Y-39.4251 F120.00
G00 Z2.0000
G00 X-56.4251 Y-3.1000
G01 F60.00
G01 Z-0.2000
G01 F120.00
G01 X-56.4251 Y3.3000 F120.00
G00 X-56.4251 Y3.3000
G01 F60.00
G01 Z-0.4000
G01 F120.00
G01 X-56.4251 Y-3.1000 F120.00
G00 X-56.4251 Y-3.1000
G01 F60.00
G01 Z-0.6000
G01 F120.00
G01 X-56.4251 Y3.3000 F120.00
G00 X-56.4251 Y3.3000
G01 F60.00
G01 Z-0.8000
G01 F120.00
G01 X-56.4251 Y-3.1000 F120.00
G00 X-56.4251 Y-3.1000
G01 F60.00
G01 Z-1.0000
G01 F120.00
G01 X-56.4251 Y3.3000 F120.00
G00 X-56.4251 Y3.3000
G01 F60.00
G01 Z-1.2000
G01 F120.00
G01 X-56.4251 Y-3.1000 F120.00
G00 X-56.4251 Y-3.1000
G01 F60.00
G01 Z-1.4000
G01 F120.00
G01 X-56.4251 Y3.3000 F120.00
G00 X-56.4251 Y3.3000
G01 F60.00
G01 Z-1.6000
G01 F120.00
G01 X-56.4251 Y-3.1000 F120.00
G00 X-56.4251 Y-3.1000
G01 F60.00
G01 Z-1.8000
G01 F120.00
G01 X-56.4251 Y3.3000 F120.00
G00 Z2.0000
G00 X-3.1000 Y39.4251
G01 F60.00
G01 Z-0.2000
G01 F120.00
G01 X3.3000 Y39.4251 F120.00
G00 X3.3000 Y39.4251
G01 F60.00
G01 Z-0.4000
G01 F120.00
G01 X-3.1000 Y39.4251 F120.00
G00 X-3.1000 Y39.4251
G01 F60.00
G01 Z-0.6000
G01 F120.00
G01 X3.3000 Y39.4251 F120.00
G00 X3.3000 Y39.4251
G01 F60.00
G01 Z-0.8000
G01 F120.00
G01 X-3.1000 Y39.4251 F120.00
G00 X-3.1000 Y39.4251
G01 F60.00
G01 Z-1.0000
G01 F120.00
G01 X3.3000 Y39.4251 F120.00
G00 X3.3000 Y39.4251
G01 F60.00
G01 Z-1.2000
G01 F120.00
G01 X-3.1000 Y39.4251 F120.00
G00 X-3.1000 Y39.4251
G01 F60.00
G01 Z-1.4000
G01 F120.00
G01 X3.3000 Y39.4251 F120.00
G00 X3.3000 Y39.4251
G01 F60.00
G01 Z-1.6000
G01 F120.00
G01 X-3.1000 Y39.4251 F120.00
G00 X-3.1000 Y39.4251
G01 F60.00
G01 Z-1.8000
G01 F120.00
G01 X3.3000 Y39.4251 F120.00
G00 Z2.0000
G00 X56.4251 Y3.3000
G01 F60.00
G01 Z-0.2000
G01 F120.00
G01 X56.4251 Y-3.1000 F120.00
G00 X56.4251 Y-3.1000
G01 F60.00
G01 Z-0.4000
G01 F120.00
G01 X56.4251 Y3.3000 F120.00
G00 X56.4251 Y3.3000
G01 F60.00
G01 Z-0.6000
G01 F120.00
G01 X56.4251 Y-3.1000 F120.00
G00 X56.4251 Y-3.1000
G01 F60.00
G01 Z-0.8000
G01 F120.00
G01 X56.4251 Y3.3000 F120.00
G00 X56.4251 Y3.3000
G01 F60.00
G01 Z-1.0000
G01 F120.00
G01 X56.4251 Y-3.1000 F120.00
G00 X56.4251 Y-3.1000
G01 F60.00
G01 Z-1.2000
G01 F120.00
G01 X56.4251 Y3.3000 F120.00
G00 X56.4251 Y3.3000
G01 F60.00
G01 Z-1.4000
G01 F120.00
G01 X56.4251 Y-3.1000 F120.00
G00 X56.4251 Y-3.1000
G01 F60.00
G01 Z-1.6000
G01 F120.00
G01 X56.4251 Y3.3000 F120.00
G00 X56.4251 Y3.3000
G01 F60.00
G01 Z-1.8000
G01 F120.00
G01 X56.4251 Y-3.1000 F120.00
G00 Z2.0000
M05
G00 Z2.0000
G00 Z5.00


