(G-CODE GENERATED BY FLATCAM v8.994 - www.flatcam.org - Version Date: 2020/11/7)

(Name: Encoders-LCD-B_Cu.gbr_ncc_cnc)
(Type: G-code from Geometry)
(Units: MM)

(Created on Tuesday, 11 February 2025 at 21:23)

(This preprocessor is used with a motion controller loaded with GRBL firmware.)
(It is configured to be compatible with almost any version of GRBL firmware.)

(TOOL DIAMETER: 0.1536 mm)
(Feedrate_XY: 120.0 mm/min)
(Feedrate_Z: 40.0 mm/min)
(Feedrate rapids 1500.0 mm/min)

(Z_Cut: -0.1 mm)
(Z_Move: 2.0 mm)
(Z Start: None mm)
(Z End: 15.0 mm)
(X,Y End: None mm)
(Steps per circle: 64)
(Steps per circle: 64)
(Preprocessor Geometry: GRBL_11_no_M6)

(X range:  -50.4227 ...   50.4227  mm)
(Y range:  -38.4227 ...   38.4227  mm)

(Spindle Speed: 900.0 RPM)
G21
G90
G17
G94


G01 F120.00

M5             
G00 Z15.0000
G00 X0.0000 Y0.0000                
T1
(MSG, Change to Tool Dia = 0.1536)
M0
G00 Z15.0000
        
M03 S900.0
G01 F120.00
G00 X0.0402 Y-0.4565
G01 F40.00
G01 Z-0.1000
G01 F120.00
G01 X0.0395 Y-0.5147 F120.00
G01 X0.0288 Y-0.8033 F120.00
G01 X0.1210 Y-0.8033 F120.00
G01 X0.1316 Y-0.5170 F120.00
G01 X0.1323 Y-0.4565 F120.00
G01 X0.2245 Y-0.4565 F120.00
G01 X0.2237 Y-0.5192 F120.00
G01 X0.2133 Y-0.8033 F120.00
G01 X0.3055 Y-0.8033 F120.00
G01 X0.3159 Y-0.5215 F120.00
G01 X0.3166 Y-0.4565 F120.00
G01 X0.4088 Y-0.4565 F120.00
G01 X0.4080 Y-0.5238 F120.00
G01 X0.3977 Y-0.8033 F120.00
G01 X0.4899 Y-0.8033 F120.00
G01 X0.5001 Y-0.5260 F120.00
G01 X0.5010 Y-0.4565 F120.00
G01 X0.5931 Y-0.4565 F120.00
G01 X0.5922 Y-0.5283 F120.00
G01 X0.5821 Y-0.8033 F120.00
G01 X0.6743 Y-0.8033 F120.00
G01 X0.6844 Y-0.5306 F120.00
G01 X0.6853 Y-0.4565 F120.00
G01 X0.7774 Y-0.4565 F120.00
G01 X0.7765 Y-0.5328 F120.00
G01 X0.7665 Y-0.8033 F120.00
G01 X0.8588 Y-0.8033 F120.00
G01 X0.8686 Y-0.5351 F120.00
G01 X0.8696 Y-0.4565 F120.00
G01 X0.9618 Y-0.4565 F120.00
G01 X0.9608 Y-0.5373 F120.00
G01 X0.9510 Y-0.8033 F120.00
G01 X1.0432 Y-0.8033 F120.00
G01 X1.0529 Y-0.5396 F120.00
G01 X1.0539 Y-0.4565 F120.00
G01 X1.1461 Y-0.4565 F120.00
G01 X1.1450 Y-0.5419 F120.00
G01 X1.1354 Y-0.8033 F120.00
G01 X1.2276 Y-0.8033 F120.00
G01 X1.2372 Y-0.5441 F120.00
G01 X1.2382 Y-0.4565 F120.00
G01 X1.3304 Y-0.4565 F120.00
G01 X1.3293 Y-0.5464 F120.00
G01 X1.3198 Y-0.8033 F120.00
G01 X1.4121 Y-0.8033 F120.00
G01 X1.4214 Y-0.5486 F120.00
G01 X1.4226 Y-0.4565 F120.00
G01 X1.5147 Y-0.4565 F120.00
G01 X1.5136 Y-0.5509 F120.00
G01 X1.5043 Y-0.8033 F120.00
G01 X1.5965 Y-0.8033 F120.00
G01 X1.6057 Y-0.5532 F120.00
G01 X1.6069 Y-0.4565 F120.00
G01 X1.6990 Y-0.4565 F120.00
G01 X1.6978 Y-0.5554 F120.00
G01 X1.6887 Y-0.8033 F120.00
G01 X1.7809 Y-0.8033 F120.00
G01 X1.7900 Y-0.5577 F120.00
G01 X1.7912 Y-0.4565 F120.00
G01 X1.8834 Y-0.4565 F120.00
G01 X1.8821 Y-0.5600 F120.00
G01 X1.8731 Y-0.8033 F120.00
G01 X1.9654 Y-0.8033 F120.00
G01 X1.9742 Y-0.5622 F120.00
G01 X1.9755 Y-0.4565 F120.00
G01 X2.0677 Y-0.4565 F120.00
G01 X2.0664 Y-0.5645 F120.00
G01 X2.0576 Y-0.8033 F120.00
G01 X2.1498 Y-0.8033 F120.00
G01 X2.1585 Y-0.5667 F120.00
G01 X2.1598 Y-0.4565 F120.00
G01 X2.2520 Y-0.4565 F120.00
G01 X2.2506 Y-0.5690 F120.00
G01 X2.2420 Y-0.8033 F120.00
G01 X2.3342 Y-0.8033 F120.00
G01 X2.3428 Y-0.5713 F120.00
G01 X2.3442 Y-0.4565 F120.00
G01 X2.4363 Y-0.4565 F120.00
G01 X2.4349 Y-0.5735 F120.00
G01 X2.4264 Y-0.8033 F120.00
G01 X2.5186 Y-0.8033 F120.00
G01 X2.5270 Y-0.5758 F120.00
G01 X2.5285 Y-0.4565 F120.00
G01 X2.6206 Y-0.4565 F120.00
G01 X2.6192 Y-0.5780 F120.00
G01 X2.6109 Y-0.8033 F120.00
G01 X2.7031 Y-0.8033 F120.00
G01 X2.7113 Y-0.5803 F120.00
G01 X2.7128 Y-0.4565 F120.00
G01 X2.8050 Y-0.4565 F120.00
G01 X2.8034 Y-0.5826 F120.00
G01 X2.7953 Y-0.8033 F120.00
G01 X2.8875 Y-0.8033 F120.00
G01 X2.8956 Y-0.5848 F120.00
G01 X2.8971 Y-0.4565 F120.00
G01 X2.9893 Y-0.4565 F120.00
G01 X2.9877 Y-0.5871 F120.00
G01 X2.9797 Y-0.8033 F120.00
G01 X3.0719 Y-0.8033 F120.00
G01 X3.0798 Y-0.5894 F120.00
G01 X3.0814 Y-0.4565 F120.00
G01 X3.1736 Y-0.4565 F120.00
G01 X3.1720 Y-0.5916 F120.00
G01 X3.1642 Y-0.8033 F120.00
G01 X3.2564 Y-0.8033 F120.00
G01 X3.2641 Y-0.5939 F120.00
G01 X3.2658 Y-0.4565 F120.00
G01 X3.3579 Y-0.4565 F120.00
G01 X3.3562 Y-0.5961 F120.00
G01 X3.3486 Y-0.8033 F120.00
G01 X3.4408 Y-0.8033 F120.00
G01 X3.4483 Y-0.5984 F120.00
G01 X3.4501 Y-0.4565 F120.00
G01 X3.5422 Y-0.4565 F120.00
G01 X3.5405 Y-0.6007 F120.00
G01 X3.5330 Y-0.8033 F120.00
G01 X3.6252 Y-0.8033 F120.00
G01 X3.6326 Y-0.6029 F120.00
G01 X3.6344 Y-0.4565 F120.00
G01 X3.7266 Y-0.4565 F120.00
G01 X3.7247 Y-0.6052 F120.00
G01 X3.7174 Y-0.8033 F120.00
G01 X3.8097 Y-0.8033 F120.00
G01 X3.8169 Y-0.6075 F120.00
G01 X3.8187 Y-0.4565 F120.00
G01 X3.9109 Y-0.4565 F120.00
G01 X3.9090 Y-0.6097 F120.00
G01 X3.9019 Y-0.8033 F120.00
G01 X3.9941 Y-0.8033 F120.00
G01 X4.0011 Y-0.6120 F120.00
G01 X4.0030 Y-0.4565 F120.00
G01 X4.0952 Y-0.4565 F120.00
G01 X4.0933 Y-0.6142 F120.00
G01 X4.0863 Y-0.8033 F120.00
G01 X4.1785 Y-0.8033 F120.00
G01 X4.1854 Y-0.6165 F120.00
G01 X4.1874 Y-0.4565 F120.00
G01 X4.2795 Y-0.4565 F120.00
G01 X4.2775 Y-0.6188 F120.00
G01 X4.2707 Y-0.8033 F120.00
G01 X4.3630 Y-0.8033 F120.00
G01 X4.3697 Y-0.6210 F120.00
G01 X4.3717 Y-0.4565 F120.00
G01 X4.4638 Y-0.4570 F120.00
G01 X4.4618 Y-0.6233 F120.00
G01 X4.4550 Y-0.8089 F120.00
G00 Z2.0000
G00 X4.5457 Y-0.8478
G01 F40.00
G01 Z-0.1000
G01 F120.00
G01 X4.5539 Y-0.6255 F120.00
G01 X4.5558 Y-0.4753 F120.00
G01 X4.6475 Y-0.5086 F120.00
G01 X4.6461 Y-0.6278 F120.00
G01 X4.6349 Y-0.9307 F120.00
G00 Z2.0000
G00 X4.7238 Y-1.0197
G01 F40.00
G01 Z-0.1000
G01 F120.00
G01 X4.7382 Y-0.6301 F120.00
G01 X4.7391 Y-0.5598 F120.00
G01 X4.8302 Y-0.6356 F120.00
G01 X4.8128 Y-1.1086 F120.00
G00 Z2.0000
G00 X4.9015 Y-1.1974
G01 F40.00
G01 Z-0.1000
G01 F120.00
G01 X4.9192 Y-0.7245 F120.00
G01 X5.0081 Y-0.8134 F120.00
G01 X4.9941 Y-1.1940 F120.00
G01 X4.9885 Y-1.2843 F120.00
G00 Z2.0000
G00 X5.0755 Y-1.3713
G01 F40.00
G01 Z-0.1000
G01 F120.00
G01 X5.0861 Y-1.1986 F120.00
G01 X5.0970 Y-0.9024 F120.00
G01 X5.1860 Y-0.9913 F120.00
G01 X5.1782 Y-1.2031 F120.00
G01 X5.1625 Y-1.4583 F120.00
G00 Z2.0000
G00 X5.2495 Y-1.5453
G01 F40.00
G01 Z-0.1000
G01 F120.00
G01 X5.2702 Y-1.2076 F120.00
G01 X5.2749 Y-1.0803 F120.00
G01 X5.3639 Y-1.1692 F120.00
G01 X5.3623 Y-1.2121 F120.00
G01 X5.3365 Y-1.6323 F120.00
G00 Z2.0000
G00 X5.4234 Y-1.7193
G01 F40.00
G01 Z-0.1000
G01 F120.00
G01 X5.4518 Y-1.2572 F120.00
G00 Z2.0000
G00 X5.5388 Y-1.3442
G01 F40.00
G01 Z-0.1000
G01 F120.00
G01 X5.5113 Y-1.7912 F120.00
G01 X5.5092 Y-1.8161 F120.00
G01 X5.7986 Y-1.6240 F120.00
G01 X5.7871 Y-1.8116 F120.00
G01 X5.7375 Y-2.3873 F120.00
G01 X5.6738 Y-2.9617 F120.00
G01 X5.5960 Y-3.5344 F120.00
G01 X5.5457 Y-3.8472 F120.00
G01 X5.8925 Y-4.0122 F120.00
G01 X5.8674 Y-4.1680 F120.00
G01 X5.7600 Y-4.7450 F120.00
G01 X5.6678 Y-5.1805 F120.00
G00 Z2.0000
G00 X5.6551 Y-4.7956
G01 F40.00
G01 Z-0.1000
G01 F120.00
G01 X5.6696 Y-4.7270 F120.00
G01 X5.7766 Y-4.1522 F120.00
G01 X5.8695 Y-3.5750 F120.00
G01 X5.8925 Y-3.4057 F120.00
G01 X5.5457 Y-3.2202 F120.00
G01 X5.5823 Y-2.9504 F120.00
G01 X5.6458 Y-2.3783 F120.00
G01 X5.6952 Y-1.8048 F120.00
G01 X5.7128 Y-1.5181 F120.00
G00 Z2.0000
G00 X5.6258 Y-1.4311
G01 F40.00
G01 Z-0.1000
G01 F120.00
G01 X5.6033 Y-1.7980 F120.00
G01 X5.5541 Y-2.3693 F120.00
G01 X5.5457 Y-2.4448 F120.00
G01 X5.8925 Y-2.6617 F120.00
G01 X5.8567 Y-2.9843 F120.00
G01 X5.7783 Y-3.5614 F120.00
G01 X5.6858 Y-4.1365 F120.00
G01 X5.5823 Y-4.6926 F120.00
G00 Z2.0000
G00 X5.5457 Y-4.3857
G01 F40.00
G01 Z-0.1000
G01 F120.00
G01 X5.5950 Y-4.1207 F120.00
G01 X5.6872 Y-3.5479 F120.00
G01 X5.7653 Y-2.9730 F120.00
G01 X5.8292 Y-2.3964 F120.00
G01 X5.8789 Y-1.8194 F120.00
G00 Z2.0000
G00 X6.3405 Y-1.8203
G01 F40.00
G01 Z-0.1000
G01 F120.00
G01 X6.3748 Y-1.2619 F120.00
G01 X6.3966 Y-0.6708 F120.00
G01 X6.4038 Y-0.0793 F120.00
G01 X6.3966 Y0.5121 F120.00
G01 X6.3748 Y1.1032 F120.00
G01 X6.3405 Y1.6617 F120.00
G01 X6.6873 Y1.9398 F120.00
G01 X6.6547 Y2.3190 F120.00
G01 X6.5885 Y2.9159 F120.00
G01 X6.5076 Y3.5109 F120.00
G01 X6.4122 Y4.1038 F120.00
G01 X6.3405 Y4.4892 F120.00
G01 X6.6873 Y4.6403 F120.00
G01 X6.6639 Y4.7661 F120.00
G01 X6.5376 Y5.3625 F120.00
G01 X6.3968 Y5.9556 F120.00
G01 X6.3405 Y6.1691 F120.00
G01 X6.3405 Y6.5307 F120.00
G01 X6.4862 Y5.9780 F120.00
G01 X6.6275 Y5.3827 F120.00
G01 X6.6873 Y5.1004 F120.00
G01 X6.3405 Y4.9588 F120.00
G01 X6.3927 Y4.7122 F120.00
G01 X6.5030 Y4.1196 F120.00
G01 X6.5988 Y3.5245 F120.00
G01 X6.6799 Y2.9271 F120.00
G01 X6.6873 Y2.8606 F120.00
G01 X6.3405 Y2.6436 F120.00
G01 X6.3795 Y2.2919 F120.00
G01 X6.4304 Y1.7003 F120.00
G01 X6.4669 Y1.1077 F120.00
G01 X6.4887 Y0.5144 F120.00
G01 X6.4960 Y-0.0793 F120.00
G01 X6.4887 Y-0.6730 F120.00
G01 X6.4669 Y-1.2664 F120.00
G01 X6.4304 Y-1.8590 F120.00
G01 X6.3795 Y-2.4506 F120.00
G01 X6.3405 Y-2.8023 F120.00
G01 X6.6873 Y-3.0193 F120.00
G01 X6.6799 Y-3.0858 F120.00
G01 X6.5988 Y-3.6831 F120.00
G01 X6.5030 Y-4.2783 F120.00
G01 X6.3927 Y-4.8709 F120.00
G01 X6.2679 Y-5.4606 F120.00
G01 X6.1286 Y-6.0471 F120.00
G01 X5.9750 Y-6.6300 F120.00
G01 X5.8071 Y-7.2089 F120.00
G01 X5.6250 Y-7.7836 F120.00
G01 X5.5866 Y-7.8952 F120.00
G01 X5.7326 Y-7.7493 F120.00
G01 X5.8953 Y-7.2357 F120.00
G01 X6.0638 Y-6.6546 F120.00
G01 X6.2180 Y-6.0695 F120.00
G01 X6.3578 Y-5.4808 F120.00
G01 X6.4831 Y-4.8889 F120.00
G01 X6.5939 Y-4.2940 F120.00
G01 X6.6873 Y-3.7132 F120.00
G01 X6.3405 Y-3.5308 F120.00
G01 X6.4055 Y-3.0520 F120.00
G01 X6.4712 Y-2.4596 F120.00
G01 X6.5224 Y-1.8658 F120.00
G01 X6.5589 Y-1.2709 F120.00
G01 X6.5808 Y-0.6753 F120.00
G01 X6.5882 Y-0.0793 F120.00
G01 X6.5808 Y0.5166 F120.00
G01 X6.5589 Y1.1122 F120.00
G01 X6.5224 Y1.7071 F120.00
G01 X6.4712 Y2.3009 F120.00
G01 X6.4055 Y2.8933 F120.00
G01 X6.3405 Y3.3721 F120.00
G01 X6.6873 Y3.5545 F120.00
G01 X6.5939 Y4.1354 F120.00
G01 X6.4831 Y4.7302 F120.00
G01 X6.3578 Y5.3221 F120.00
G01 X6.3405 Y5.3949 F120.00
G01 X6.6873 Y5.5299 F120.00
G01 X6.5756 Y6.0004 F120.00
G01 X6.4191 Y6.5942 F120.00
G01 X6.3405 Y6.8651 F120.00
G01 X6.3405 Y7.1960 F120.00
G01 X6.5079 Y6.6188 F120.00
G01 X6.6650 Y6.0228 F120.00
G01 X6.6873 Y5.9287 F120.00
G01 X6.6873 Y6.2996 F120.00
G01 X6.5967 Y6.6434 F120.00
G01 X6.4244 Y7.2375 F120.00
G01 X6.3405 Y7.5024 F120.00
G01 X6.3405 Y7.8075 F120.00
G01 X6.5126 Y7.2643 F120.00
G01 X6.6873 Y6.6612 F120.00
G01 X6.6873 Y6.9927 F120.00
G01 X6.6008 Y7.2910 F120.00
G01 X6.4126 Y7.8851 F120.00
G01 X6.3405 Y8.0946 F120.00
G01 X6.3405 Y8.3779 F120.00
G01 X6.5001 Y7.9140 F120.00
G01 X6.6873 Y7.3230 F120.00
G01 X6.6873 Y7.6282 F120.00
G01 X6.5876 Y7.9429 F120.00
G01 X6.3834 Y8.5364 F120.00
G01 X6.3405 Y8.6519 F120.00
G01 X6.3405 Y8.9164 F120.00
G01 X6.4702 Y8.5675 F120.00
G01 X6.6751 Y7.9718 F120.00
G01 X6.6873 Y7.9333 F120.00
G01 X6.6873 Y8.2196 F120.00
G01 X6.5570 Y8.5985 F120.00
G01 X6.3405 Y9.1809 F120.00
G01 X6.3405 Y9.4298 F120.00
G01 X6.4227 Y9.2243 F120.00
G01 X6.6437 Y8.6296 F120.00
G01 X6.6873 Y8.5029 F120.00
G01 X6.6873 Y8.7768 F120.00
G01 X6.5087 Y9.2574 F120.00
G01 X6.3405 Y9.6780 F120.00
G01 X6.3405 Y9.9233 F120.00
G01 X6.3574 Y9.8839 F120.00
G01 X6.5947 Y9.2906 F120.00
G01 X6.6873 Y9.0413 F120.00
G01 X6.6873 Y9.3058 F120.00
G01 X6.6806 Y9.3238 F120.00
G01 X6.4425 Y9.9192 F120.00
G01 X6.3405 Y10.1572 F120.00
G01 X6.3405 Y10.3911 F120.00
G01 X6.5277 Y9.9544 F120.00
G01 X6.6873 Y9.5553 F120.00
G01 X6.6873 Y9.8034 F120.00
G01 X6.6128 Y9.9897 F120.00
G01 X6.3584 Y10.5832 F120.00
G01 X6.3405 Y10.6223 F120.00
G01 X6.3405 Y10.8436 F120.00
G01 X6.4426 Y10.6206 F120.00
G01 X6.6873 Y10.0498 F120.00
G01 X6.6873 Y10.2837 F120.00
G01 X6.5269 Y10.6579 F120.00
G01 X6.3405 Y11.0649 F120.00
G01 X6.3405 Y11.2862 F120.00
G01 X6.6112 Y10.6953 F120.00
G01 X6.6873 Y10.5176 F120.00
G01 X6.6873 Y10.7503 F120.00
G01 X6.4227 Y11.3280 F120.00
G01 X6.3405 Y11.4964 F120.00
G01 X6.3405 Y11.7065 F120.00
G01 X6.5060 Y11.3674 F120.00
G01 X6.6873 Y10.9716 F120.00
G01 X6.6873 Y11.1929 F120.00
G01 X6.5893 Y11.4068 F120.00
G01 X6.3405 Y11.9166 F120.00
G01 X6.3405 Y12.1216 F120.00
G01 X6.3825 Y12.0407 F120.00
G01 X6.6727 Y11.4462 F120.00
G01 X6.6873 Y11.4142 F120.00
G01 X6.6873 Y11.6263 F120.00
G01 X6.4648 Y12.0822 F120.00
G01 X6.3405 Y12.3217 F120.00
G01 X6.3405 Y12.5218 F120.00
G01 X6.5471 Y12.1236 F120.00
G01 X6.6873 Y11.8364 F120.00
G01 X6.6873 Y12.0465 F120.00
G01 X6.6294 Y12.1651 F120.00
G01 X6.3405 Y12.7219 F120.00
G01 X6.3405 Y12.9151 F120.00
G01 X6.4029 Y12.8018 F120.00
G01 X6.6873 Y12.2536 F120.00
G01 X6.6873 Y12.4537 F120.00
G01 X6.4842 Y12.8452 F120.00
G01 X6.3405 Y13.1062 F120.00
G01 X6.3405 Y13.2974 F120.00
G01 X6.5654 Y12.8887 F120.00
G01 X6.6873 Y12.6538 F120.00
G01 X6.6873 Y12.8539 F120.00
G01 X6.6467 Y12.9321 F120.00
G01 X6.3405 Y13.4885 F120.00
G01 X6.3405 Y13.6736 F120.00
G01 X6.4003 Y13.5710 F120.00
G01 X6.6873 Y13.0495 F120.00
G01 X6.6873 Y13.2406 F120.00
G01 X6.4804 Y13.6164 F120.00
G01 X6.3405 Y13.8566 F120.00
G01 X6.3405 Y14.0396 F120.00
G01 X6.5606 Y13.6619 F120.00
G01 X6.6873 Y13.4317 F120.00
G01 X6.6873 Y13.6228 F120.00
G01 X6.6408 Y13.7073 F120.00
G01 X6.3405 Y14.2226 F120.00
G01 X6.3405 Y14.4025 F120.00
G01 X6.3742 Y14.3478 F120.00
G01 X6.6873 Y13.8105 F120.00
G01 X6.6873 Y13.9936 F120.00
G01 X6.4532 Y14.3952 F120.00
G01 X6.3405 Y14.5781 F120.00
G01 X6.3405 Y14.7538 F120.00
G01 X6.5323 Y14.4425 F120.00
G01 X6.6873 Y14.1766 F120.00
G01 X6.6873 Y14.3596 F120.00
G01 X6.6113 Y14.4899 F120.00
G01 X6.3405 Y14.9295 F120.00
G01 X6.3405 Y15.1051 F120.00
G01 X6.6873 Y14.5423 F120.00
G01 X6.6873 Y14.7180 F120.00
G01 X6.4022 Y15.1807 F120.00
G01 X6.3405 Y15.2755 F120.00
G01 X6.3405 Y15.4445 F120.00
G01 X6.4801 Y15.2300 F120.00
G01 X6.6873 Y14.8936 F120.00
G01 X6.6873 Y15.0693 F120.00
G01 X6.5579 Y15.2793 F120.00
G01 X6.3405 Y15.6135 F120.00
G01 X6.3405 Y15.7825 F120.00
G01 X6.6358 Y15.3286 F120.00
G01 X6.6873 Y15.2450 F120.00
G01 X6.6873 Y15.4184 F120.00
G01 X6.3405 Y15.9515 F120.00
G01 X6.3405 Y16.1154 F120.00
G01 X6.4036 Y16.0235 F120.00
G01 X6.6873 Y15.5874 F120.00
G01 X6.6873 Y15.7563 F120.00
G01 X6.4802 Y16.0747 F120.00
G01 X6.3405 Y16.2783 F120.00
G01 X6.3405 Y16.4412 F120.00
G01 X6.5568 Y16.1259 F120.00
G01 X6.6873 Y15.9253 F120.00
G01 X6.6873 Y16.0943 F120.00
G01 X6.6335 Y16.1771 F120.00
G01 X6.3405 Y16.6041 F120.00
G01 X6.3405 Y16.7670 F120.00
G01 X6.6873 Y16.2615 F120.00
G01 X6.6873 Y16.4244 F120.00
G01 X6.3779 Y16.8754 F120.00
G01 X6.3405 Y16.9271 F120.00
G01 X6.3405 Y17.0844 F120.00
G01 X6.4532 Y16.9285 F120.00
G01 X6.6873 Y16.5873 F120.00
G01 X6.6873 Y16.7502 F120.00
G01 X6.5286 Y16.9815 F120.00
G01 X6.3405 Y17.2417 F120.00
G01 X6.3405 Y17.3991 F120.00
G01 X6.6039 Y17.0346 F120.00
G01 X6.6873 Y16.9131 F120.00
G01 X6.6873 Y17.0760 F120.00
G01 X6.6793 Y17.0877 F120.00
G01 X6.3405 Y17.5564 F120.00
G01 X6.3405 Y17.7137 F120.00
G01 X6.6873 Y17.2339 F120.00
G01 X6.6873 Y17.3912 F120.00
G01 X6.3987 Y17.7905 F120.00
G01 X6.3405 Y17.8670 F120.00
G01 X6.3405 Y18.0192 F120.00
G01 X6.4727 Y17.8454 F120.00
G01 X6.6873 Y17.5485 F120.00
G01 X6.6873 Y17.7058 F120.00
G01 X6.5467 Y17.9003 F120.00
G01 X6.3405 Y18.1713 F120.00
G01 X6.3405 Y18.3235 F120.00
G01 X6.6208 Y17.9552 F120.00
G01 X6.6873 Y17.8631 F120.00
G01 X6.6873 Y18.0199 F120.00
G01 X6.3405 Y18.4757 F120.00
G01 X6.3405 Y18.6279 F120.00
G01 X6.6873 Y18.1721 F120.00
G01 X6.6873 Y18.3243 F120.00
G01 X6.3888 Y18.7166 F120.00
G01 X6.3405 Y18.7770 F120.00
G01 X6.3405 Y18.9245 F120.00
G01 X6.4615 Y18.7733 F120.00
G01 X6.6873 Y18.4765 F120.00
G01 X6.6873 Y18.6287 F120.00
G01 X6.5341 Y18.8300 F120.00
G01 X6.3405 Y19.0719 F120.00
G01 X6.3445 Y19.2144 F120.00
G01 X6.6068 Y18.8867 F120.00
G01 X6.6873 Y18.7809 F120.00
G01 X6.6873 Y18.9331 F120.00
G01 X6.6794 Y18.9434 F120.00
G01 X6.3711 Y19.3286 F120.00
G01 X6.4122 Y19.4248 F120.00
G01 X6.6873 Y19.0810 F120.00
G00 Z2.0000
G00 X6.6997 Y19.2131
G01 F40.00
G01 Z-0.1000
G01 F120.00
G01 X6.4659 Y19.5052 F120.00
G01 X6.5295 Y19.5732 F120.00
G01 X6.7481 Y19.3000 F120.00
G00 Z2.0000
G00 X6.8131 Y19.3663
G01 F40.00
G01 Z-0.1000
G01 F120.00
G01 X6.5951 Y19.6387 F120.00
G01 X6.6606 Y19.7043 F120.00
G01 X6.8787 Y19.4319 F120.00
G01 X6.9442 Y19.4974 F120.00
G01 X6.7262 Y19.7698 F120.00
G00 Z2.0000
G00 X6.7918 Y19.8354
G01 F40.00
G01 Z-0.1000
G01 F120.00
G01 X7.0098 Y19.5630 F120.00
G01 X7.0754 Y19.6285 F120.00
G01 X6.8573 Y19.9010 F120.00
G00 Z2.0000
G00 X6.9229 Y19.9665
G01 F40.00
G01 Z-0.1000
G01 F120.00
G01 X7.1409 Y19.6941 F120.00
G01 X7.2065 Y19.7597 F120.00
G01 X6.9884 Y20.0321 F120.00
G00 Z2.0000
G00 X7.0540 Y20.0977
G01 F40.00
G01 Z-0.1000
G01 F120.00
G01 X7.2720 Y19.8252 F120.00
G01 X7.3376 Y19.8908 F120.00
G01 X7.1196 Y20.1632 F120.00
G00 Z2.0000
G00 X7.1851 Y20.2288
G01 F40.00
G01 Z-0.1000
G01 F120.00
G01 X7.4032 Y19.9563 F120.00
G01 X7.4687 Y20.0219 F120.00
G01 X7.2507 Y20.2943 F120.00
G00 Z2.0000
G00 X7.3162 Y20.3599
G01 F40.00
G01 Z-0.1000
G01 F120.00
G01 X7.5343 Y20.0875 F120.00
G01 X7.5998 Y20.1530 F120.00
G01 X7.3818 Y20.4255 F120.00
G00 Z2.0000
G00 X7.4434 Y20.4960
G01 F40.00
G01 Z-0.1000
G01 F120.00
G01 X7.6654 Y20.2186 F120.00
G01 X7.7310 Y20.2842 F120.00
G01 X7.4822 Y20.5946 F120.00
G00 Z2.0000
G00 X7.4835 Y20.7362
G01 F40.00
G01 Z-0.1000
G01 F120.00
G01 X7.5588 Y20.6467 F120.00
G01 X7.7965 Y20.3497 F120.00
G01 X7.8303 Y20.4550 F120.00
G01 X7.6300 Y20.7052 F120.00
G01 X7.4835 Y20.8794 F120.00
G00 Z2.0000
G00 X7.4835 Y21.0225
G01 F40.00
G01 Z-0.1000
G01 F120.00
G01 X7.7013 Y20.7637 F120.00
G01 X7.8303 Y20.6025 F120.00
G01 X7.8303 Y20.7499 F120.00
G01 X7.7725 Y20.8221 F120.00
G01 X7.4835 Y21.1656 F120.00
G00 Z2.0000
G00 X7.4835 Y21.3088
G01 F40.00
G01 Z-0.1000
G01 F120.00
G01 X7.8303 Y20.8966 F120.00
G01 X7.8303 Y21.0397 F120.00
G01 X7.4835 Y21.4519 F120.00
G00 Z2.0000
G00 X7.4832 Y21.5953
G01 F40.00
G01 Z-0.1000
G01 F120.00
G01 X7.8303 Y21.1829 F120.00
G01 X7.8303 Y21.3260 F120.00
G01 X7.5310 Y21.6817 F120.00
G01 X7.0671 Y22.2064 F120.00
G00 Z2.0000
G00 X7.0139 Y22.1274
G01 F40.00
G01 Z-0.1000
G01 F120.00
G01 X7.3197 Y21.7816 F120.00
G00 Z2.0000
G00 X7.2071 Y21.7698
G01 F40.00
G01 Z-0.1000
G01 F120.00
G01 X6.9578 Y22.0517 F120.00
G00 Z2.0000
G00 X6.8968 Y21.9816
G01 F40.00
G01 Z-0.1000
G01 F120.00
G01 X7.1291 Y21.7189 F120.00
G00 Z2.0000
G00 X7.0659 Y21.6512
G01 F40.00
G01 Z-0.1000
G01 F120.00
G01 X6.8344 Y21.9131 F120.00
G00 Z2.0000
G00 X6.7661 Y21.8512
G01 F40.00
G01 Z-0.1000
G01 F120.00
G01 X6.9985 Y21.5883 F120.00
G01 X6.9270 Y21.5301 F120.00
G01 X6.6964 Y21.7909 F120.00
G00 Z2.0000
G00 X6.6221 Y21.7358
G01 F40.00
G01 Z-0.1000
G01 F120.00
G01 X6.8555 Y21.4719 F120.00
G01 X6.7797 Y21.4185 F120.00
G01 X6.5451 Y21.6838 F120.00
G00 Z2.0000
G00 X6.4647 Y21.6356
G01 F40.00
G01 Z-0.1000
G01 F120.00
G01 X6.6997 Y21.3698 F120.00
G01 X6.6197 Y21.3212 F120.00
G01 X6.3798 Y21.5924 F120.00
G00 Z2.0000
G00 X6.2931 Y21.5514
G01 F40.00
G01 Z-0.1000
G01 F120.00
G01 X6.5349 Y21.2780 F120.00
G01 X6.4460 Y21.2394 F120.00
G01 X6.1998 Y21.5178 F120.00
G00 Z2.0000
G00 X6.1039 Y21.4871
G01 F40.00
G01 Z-0.1000
G01 F120.00
G01 X6.3571 Y21.2008 F120.00
G01 X6.2616 Y21.1697 F120.00
G01 X6.0334 Y21.4277 F120.00
G01 X6.0020 Y21.4616 F120.00
G00 Z2.0000
G00 X5.8935 Y21.4429
G01 F40.00
G01 Z-0.1000
G01 F120.00
G01 X5.9651 Y21.3658 F120.00
G01 X6.1630 Y21.1421 F120.00
G01 X6.0644 Y21.1145 F120.00
G01 X5.8968 Y21.3040 F120.00
G01 X5.7802 Y21.4295 F120.00
G00 Z2.0000
G00 X5.6599 Y21.4236
G01 F40.00
G01 Z-0.1000
G01 F120.00
G01 X5.8285 Y21.2421 F120.00
G01 X5.9549 Y21.0992 F120.00
G01 X5.8452 Y21.0841 F120.00
G01 X5.7603 Y21.1802 F120.00
G01 X5.5291 Y21.4290 F120.00
G00 Z2.0000
G00 X5.3878 Y21.4457
G01 F40.00
G01 Z-0.1000
G01 F120.00
G01 X5.6920 Y21.1183 F120.00
G01 X5.7291 Y21.0763 F120.00
G01 X5.6052 Y21.0763 F120.00
G01 X5.2319 Y21.4781 F120.00
G00 Z2.0000
G00 X5.0538 Y21.5345
G01 F40.00
G01 Z-0.1000
G01 F120.00
G01 X5.4747 Y21.0814 F120.00
G00 Z2.0000
G00 X5.3305 Y21.1012
G01 F40.00
G01 Z-0.1000
G01 F120.00
G01 X4.9645 Y21.4952 F120.00
G01 X4.8165 Y21.6469 F120.00
G01 X4.5303 Y21.4124 F120.00
G01 X4.1675 Y21.7842 F120.00
G01 X3.9561 Y21.9904 F120.00
G01 X3.8001 Y22.2715 F120.00
G01 X4.2327 Y21.8493 F120.00
G01 X4.7642 Y21.3046 F120.00
G01 X4.8050 Y21.2607 F120.00
G01 X5.0072 Y21.1785 F120.00
G01 X4.8310 Y21.3681 F120.00
G01 X4.2978 Y21.9145 F120.00
G01 X3.7515 Y22.4476 F120.00
G01 X3.7256 Y22.4717 F120.00
G01 X3.6784 Y22.6413 F120.00
G01 X3.8150 Y22.5144 F120.00
G01 X4.3630 Y21.9797 F120.00
G01 X4.8977 Y21.4317 F120.00
G01 X5.1772 Y21.1308 F120.00
G00 Z2.0000
G00 X4.1911 Y22.2762
G01 F40.00
G01 Z-0.1000
G01 F120.00
G01 X3.8786 Y22.5811 F120.00
G01 X3.6460 Y22.7972 F120.00
G01 X3.6328 Y22.9352 F120.00
G01 X3.9421 Y22.6479 F120.00
G01 X4.0816 Y22.5118 F120.00
G00 Z2.0000
G00 X4.0245 Y22.6962
G01 F40.00
G01 Z-0.1000
G01 F120.00
G01 X4.0057 Y22.7146 F120.00
G01 X3.6237 Y23.0695 F120.00
G01 X3.6278 Y23.1914 F120.00
G01 X3.9937 Y22.8516 F120.00
G00 Z2.0000
G00 X3.9784 Y22.9915
G01 F40.00
G01 Z-0.1000
G01 F120.00
G01 X3.6359 Y23.3097 F120.00
G01 X3.6500 Y23.4223 F120.00
G01 X3.9741 Y23.1212 F120.00
G00 Z2.0000
G00 X3.9733 Y23.1038
G01 F40.00
G01 Z-0.1000
G01 F120.00
G01 X3.9733 Y23.0962 F120.00
G01 X3.9813 Y22.9356 F120.00
G01 X4.0054 Y22.7729 F120.00
G01 X4.0454 Y22.6133 F120.00
G01 X4.1008 Y22.4583 F120.00
G01 X4.1712 Y22.3096 F120.00
G01 X4.2558 Y22.1684 F120.00
G01 X4.3538 Y22.0362 F120.00
G01 X4.4643 Y21.9143 F120.00
G01 X4.5862 Y21.8038 F120.00
G01 X4.7184 Y21.7058 F120.00
G01 X4.8596 Y21.6212 F120.00
G01 X5.0083 Y21.5508 F120.00
G01 X5.1632 Y21.4954 F120.00
G01 X5.3229 Y21.4554 F120.00
G01 X5.4856 Y21.4313 F120.00
G01 X5.6500 Y21.4232 F120.00
G01 X5.8144 Y21.4313 F120.00
G01 X5.9771 Y21.4554 F120.00
G01 X6.1367 Y21.4954 F120.00
G01 X6.2917 Y21.5508 F120.00
G01 X6.4404 Y21.6212 F120.00
G01 X6.5816 Y21.7058 F120.00
G01 X6.7137 Y21.8038 F120.00
G01 X6.8357 Y21.9143 F120.00
G01 X6.9462 Y22.0362 F120.00
G01 X7.0442 Y22.1684 F120.00
G01 X7.1288 Y22.3096 F120.00
G01 X7.1992 Y22.4583 F120.00
G01 X7.2546 Y22.6133 F120.00
G01 X7.2946 Y22.7729 F120.00
G01 X7.3187 Y22.9356 F120.00
G01 X7.3268 Y23.1000 F120.00
G01 X7.3187 Y23.2644 F120.00
G01 X7.2946 Y23.4271 F120.00
G01 X7.2546 Y23.5867 F120.00
G01 X7.1992 Y23.7417 F120.00
G01 X7.1288 Y23.8904 F120.00
G01 X7.0442 Y24.0316 F120.00
G01 X6.9462 Y24.1638 F120.00
G01 X6.8357 Y24.2857 F120.00
G01 X6.7137 Y24.3962 F120.00
G01 X6.5816 Y24.4942 F120.00
G01 X6.4404 Y24.5788 F120.00
G01 X6.2917 Y24.6492 F120.00
G01 X6.1367 Y24.7046 F120.00
G01 X5.9771 Y24.7446 F120.00
G01 X5.8144 Y24.7687 F120.00
G01 X5.6500 Y24.7768 F120.00
G01 X5.4856 Y24.7687 F120.00
G01 X5.3229 Y24.7446 F120.00
G01 X5.1632 Y24.7046 F120.00
G01 X5.0083 Y24.6492 F120.00
G01 X4.8596 Y24.5788 F120.00
G01 X4.7184 Y24.4942 F120.00
G01 X4.5862 Y24.3962 F120.00
G01 X4.4643 Y24.2857 F120.00
G01 X4.3538 Y24.1638 F120.00
G01 X4.2558 Y24.0316 F120.00
G01 X4.1712 Y23.8904 F120.00
G01 X4.1008 Y23.7417 F120.00
G01 X4.0454 Y23.5867 F120.00
G01 X4.0054 Y23.4271 F120.00
G01 X3.9813 Y23.2644 F120.00
G01 X3.9733 Y23.1038 F120.00
G00 Z2.0000
G00 X3.9801 Y23.2415
G01 F40.00
G01 Z-0.1000
G01 F120.00
G01 X3.6873 Y23.5135 F120.00
G01 X3.6718 Y23.5272 F120.00
G01 X3.6934 Y23.6311 F120.00
G01 X3.7492 Y23.5818 F120.00
G01 X3.9945 Y23.3539 F120.00
G00 Z2.0000
G00 X4.0140 Y23.4616
G01 F40.00
G01 Z-0.1000
G01 F120.00
G01 X3.8111 Y23.6501 F120.00
G01 X3.7249 Y23.7263 F120.00
G00 Z2.0000
G00 X3.7581 Y23.8199
G01 F40.00
G01 Z-0.1000
G01 F120.00
G01 X3.8730 Y23.7184 F120.00
G01 X4.0395 Y23.5636 F120.00
G00 Z2.0000
G00 X4.0714 Y23.6598
G01 F40.00
G01 Z-0.1000
G01 F120.00
G01 X3.9349 Y23.7866 F120.00
G01 X3.7920 Y23.9130 F120.00
G01 X3.8357 Y23.9973 F120.00
G01 X3.9967 Y23.8549 F120.00
G01 X4.1062 Y23.7532 F120.00
G00 Z2.0000
G00 X4.1475 Y23.8406
G01 F40.00
G01 Z-0.1000
G01 F120.00
G01 X4.0586 Y23.9232 F120.00
G01 X3.8794 Y24.0817 F120.00
G01 X3.9245 Y24.1648 F120.00
G01 X4.1205 Y23.9915 F120.00
G01 X4.1919 Y23.9252 F120.00
G00 Z2.0000
G00 X4.2403 Y24.0060
G01 F40.00
G01 Z-0.1000
G01 F120.00
G01 X4.1824 Y24.0598 F120.00
G01 X3.9780 Y24.2405 F120.00
G01 X4.0315 Y24.3163 F120.00
G01 X4.2443 Y24.1281 F120.00
G01 X4.2934 Y24.0825 F120.00
G01 X4.3486 Y24.1569 F120.00
G01 X4.3062 Y24.1964 F120.00
G01 X4.0864 Y24.3907 F120.00
G01 X4.1493 Y24.4581 F120.00
G01 X4.3681 Y24.2646 F120.00
G01 X4.4099 Y24.2258 F120.00
G00 Z2.0000
G00 X4.4726 Y24.2933
G01 F40.00
G01 Z-0.1000
G01 F120.00
G01 X4.4300 Y24.3329 F120.00
G01 X4.2123 Y24.5255 F120.00
G01 X4.2766 Y24.5915 F120.00
G01 X4.4919 Y24.4012 F120.00
G01 X4.5412 Y24.3554 F120.00
G00 Z2.0000
G00 X4.6120 Y24.4154
G01 F40.00
G01 Z-0.1000
G01 F120.00
G01 X4.5538 Y24.4695 F120.00
G01 X4.3491 Y24.6505 F120.00
G01 X4.4216 Y24.7094 F120.00
G01 X4.6157 Y24.5378 F120.00
G01 X4.6873 Y24.4712 F120.00
G00 Z2.0000
G00 X4.7667 Y24.5233
G01 F40.00
G01 Z-0.1000
G01 F120.00
G01 X4.6775 Y24.6061 F120.00
G01 X4.4959 Y24.7667 F120.00
G01 X4.5783 Y24.8168 F120.00
G01 X4.7394 Y24.6744 F120.00
G01 X4.8490 Y24.5726 F120.00
G00 Z2.0000
G00 X4.9378 Y24.6159
G01 F40.00
G01 Z-0.1000
G01 F120.00
G01 X4.8013 Y24.7426 F120.00
G01 X4.6608 Y24.8669 F120.00
G01 X4.7467 Y24.9140 F120.00
G01 X4.8632 Y24.8109 F120.00
G01 X5.0292 Y24.6567 F120.00
G01 X5.1270 Y24.6917 F120.00
G01 X4.9251 Y24.8792 F120.00
G01 X4.8400 Y24.9545 F120.00
G01 X4.9332 Y24.9950 F120.00
G01 X4.9870 Y24.9475 F120.00
G01 X5.2303 Y24.7215 F120.00
G00 Z2.0000
G00 X5.3383 Y24.7470
G01 F40.00
G01 Z-0.1000
G01 F120.00
G01 X5.0489 Y25.0158 F120.00
G01 X5.0339 Y25.0290 F120.00
G01 X5.1385 Y25.0583 F120.00
G01 X5.4550 Y24.7643 F120.00
G00 Z2.0000
G00 X5.5805 Y24.7735
G01 F40.00
G01 Z-0.1000
G01 F120.00
G01 X5.2432 Y25.0868 F120.00
G01 X5.3612 Y25.1030 F120.00
G01 X5.7157 Y24.7737 F120.00
G00 Z2.0000
G00 X5.8643 Y24.7614
G01 F40.00
G01 Z-0.1000
G01 F120.00
G01 X5.4791 Y25.1192 F120.00
G01 X5.6097 Y25.1237 F120.00
G01 X5.9756 Y24.7838 F120.00
G01 X6.0290 Y24.7317 F120.00
G00 Z2.0000
G00 X6.2187 Y24.6754
G01 F40.00
G01 Z-0.1000
G01 F120.00
G01 X6.0392 Y24.8505 F120.00
G01 X5.7451 Y25.1237 F120.00
G01 X5.8965 Y25.1088 F120.00
G01 X6.1027 Y24.9173 F120.00
G01 X6.4640 Y24.5648 F120.00
G01 X6.7531 Y24.7977 F120.00
G01 X6.9697 Y24.5864 F120.00
G01 X7.5676 Y23.9736 F120.00
G01 X7.8303 Y23.6908 F120.00
G01 X7.8303 Y23.5554 F120.00
G01 X7.5008 Y23.9101 F120.00
G01 X6.9045 Y24.5212 F120.00
G01 X6.4608 Y24.9542 F120.00
G01 X6.2465 Y25.0345 F120.00
G01 X6.8394 Y24.4560 F120.00
G01 X7.4341 Y23.8465 F120.00
G01 X7.8303 Y23.4200 F120.00
G01 X7.8303 Y23.2846 F120.00
G01 X7.3674 Y23.7830 F120.00
G01 X6.7742 Y24.3909 F120.00
G01 X6.1663 Y24.9840 F120.00
G01 X6.0554 Y25.0870 F120.00
G00 Z2.0000
G00 X7.2663 Y24.4144
G01 F40.00
G01 Z-0.1000
G01 F120.00
G01 X7.6343 Y24.0371 F120.00
G01 X7.8303 Y23.8262 F120.00
G01 X7.8303 Y23.9616 F120.00
G01 X7.7011 Y24.1007 F120.00
G01 X7.3740 Y24.4359 F120.00
G00 Z2.0000
G00 X7.4456 Y24.4944
G01 F40.00
G01 Z-0.1000
G01 F120.00
G01 X7.7678 Y24.1642 F120.00
G01 X7.8303 Y24.0970 F120.00
G01 X7.8303 Y24.2322 F120.00
G01 X7.4823 Y24.5888 F120.00
G00 Z2.0000
G00 X7.4835 Y24.7195
G01 F40.00
G01 Z-0.1000
G01 F120.00
G01 X7.8303 Y24.3641 F120.00
G01 X7.8303 Y24.4961 F120.00
G01 X7.4835 Y24.8515 F120.00
G01 X7.4835 Y24.9835 F120.00
G01 X7.8303 Y24.6280 F120.00
G01 X7.8303 Y24.7600 F120.00
G01 X7.4910 Y25.1077 F120.00
G01 X7.4835 Y25.1150 F120.00
G01 X7.4835 Y25.2438 F120.00
G01 X7.5562 Y25.1729 F120.00
G01 X7.8303 Y24.8919 F120.00
G01 X7.8303 Y25.0239 F120.00
G01 X7.6214 Y25.2380 F120.00
G01 X7.4835 Y25.3725 F120.00
G01 X7.4835 Y25.5013 F120.00
G01 X7.6865 Y25.3032 F120.00
G01 X7.8303 Y25.1558 F120.00
G01 X7.8303 Y25.2878 F120.00
G01 X7.7517 Y25.3684 F120.00
G01 X7.4835 Y25.6301 F120.00
G01 X7.4835 Y25.7588 F120.00
G01 X7.8169 Y25.4335 F120.00
G01 X7.8303 Y25.4197 F120.00
G01 X7.8303 Y25.5492 F120.00
G01 X7.4835 Y25.8876 F120.00
G01 X7.4835 Y26.0163 F120.00
G01 X7.8303 Y25.6779 F120.00
G01 X7.8303 Y25.8067 F120.00
G01 X7.4835 Y26.1451 F120.00
G01 X7.4835 Y26.2738 F120.00
G01 X7.8303 Y25.9354 F120.00
G01 X7.8303 Y26.0642 F120.00
G01 X7.5008 Y26.3857 F120.00
G01 X7.4835 Y26.4018 F120.00
G01 X7.4835 Y26.5275 F120.00
G01 X7.5644 Y26.4524 F120.00
G01 X7.8303 Y26.1929 F120.00
G01 X7.8303 Y26.3217 F120.00
G01 X7.6279 Y26.5192 F120.00
G01 X7.4835 Y26.6533 F120.00
G01 X7.4835 Y26.7791 F120.00
G01 X7.6914 Y26.5859 F120.00
G01 X7.8303 Y26.4504 F120.00
G01 X7.8303 Y26.5792 F120.00
G01 X7.7550 Y26.6527 F120.00
G01 X7.4835 Y26.9049 F120.00
G01 X7.4835 Y27.0307 F120.00
G01 X7.8185 Y26.7194 F120.00
G01 X7.8303 Y26.7079 F120.00
G01 X7.8303 Y26.8343 F120.00
G01 X7.4835 Y27.1564 F120.00
G00 Z2.0000
G00 X7.4583 Y27.3056
G01 F40.00
G01 Z-0.1000
G01 F120.00
G01 X7.8303 Y26.9601 F120.00
G01 X7.8303 Y27.0858 F120.00
G01 X7.3389 Y27.5424 F120.00
G01 X6.6534 Y28.1484 F120.00
G01 X6.4949 Y28.2818 F120.00
G01 X6.5500 Y28.7173 F120.00
G01 X6.1872 Y29.0225 F120.00
G01 X5.4658 Y29.5998 F120.00
G01 X5.1432 Y29.8453 F120.00
G01 X5.2954 Y29.8453 F120.00
G01 X5.5225 Y29.6725 F120.00
G01 X5.8841 Y29.3831 F120.00
G01 X5.7923 Y28.9844 F120.00
G01 X6.0118 Y28.8087 F120.00
G01 X6.7136 Y28.2182 F120.00
G01 X7.4007 Y27.6107 F120.00
G01 X7.8303 Y27.2116 F120.00
G01 X7.8303 Y27.3374 F120.00
G01 X7.4626 Y27.6789 F120.00
G01 X6.7738 Y28.2880 F120.00
G01 X6.0703 Y28.8800 F120.00
G01 X5.3524 Y29.4545 F120.00
G01 X4.8388 Y29.8453 F120.00
G01 X4.6866 Y29.8453 F120.00
G01 X5.1424 Y29.4985 F120.00
G01 X4.9903 Y29.4985 F120.00
G01 X4.5344 Y29.8453 F120.00
G01 X4.3784 Y29.8453 F120.00
G01 X4.4560 Y29.7892 F120.00
G01 X4.8381 Y29.4985 F120.00
G01 X4.6859 Y29.4985 F120.00
G01 X4.4011 Y29.7152 F120.00
G01 X4.2210 Y29.8453 F120.00
G01 X4.0637 Y29.8453 F120.00
G01 X4.3462 Y29.6411 F120.00
G01 X4.5337 Y29.4985 F120.00
G00 Z2.0000
G00 X4.3815 Y29.4985
G01 F40.00
G01 Z-0.1000
G01 F120.00
G01 X4.2913 Y29.5671 F120.00
G01 X3.9064 Y29.8453 F120.00
G01 X3.7491 Y29.8453 F120.00
G01 X4.2289 Y29.4985 F120.00
G00 Z2.0000
G00 X4.0716 Y29.4985
G01 F40.00
G01 Z-0.1000
G01 F120.00
G01 X3.5945 Y29.8433 F120.00
G00 Z2.0000
G00 X3.5670 Y29.7495
G01 F40.00
G01 Z-0.1000
G01 F120.00
G01 X3.9261 Y29.4899 F120.00
G00 Z2.0000
G00 X3.8325 Y29.4439
G01 F40.00
G01 Z-0.1000
G01 F120.00
G01 X3.5322 Y29.6610 F120.00
G00 Z2.0000
G00 X3.4907 Y29.5773
G01 F40.00
G01 Z-0.1000
G01 F120.00
G01 X3.7749 Y29.3719 F120.00
G00 Z2.0000
G00 X3.7244 Y29.2946
G01 F40.00
G01 Z-0.1000
G01 F120.00
G01 X3.4428 Y29.4982 F120.00
G00 Z2.0000
G00 X3.3879 Y29.4242
G01 F40.00
G01 Z-0.1000
G01 F120.00
G01 X3.6731 Y29.2180 F120.00
G01 X3.6103 Y29.1497 F120.00
G01 X3.3264 Y29.3549 F120.00
G00 Z2.0000
G00 X3.2584 Y29.2904
G01 F40.00
G01 Z-0.1000
G01 F120.00
G01 X3.5474 Y29.0814 F120.00
G01 X3.4778 Y29.0180 F120.00
G01 X3.1836 Y29.2307 F120.00
G00 Z2.0000
G00 X3.1013 Y29.1765
G01 F40.00
G01 Z-0.1000
G01 F120.00
G01 X3.4021 Y28.9591 F120.00
G01 X3.3254 Y28.9008 F120.00
G01 X3.0109 Y29.1281 F120.00
G00 Z2.0000
G00 X2.9109 Y29.0867
G01 F40.00
G01 Z-0.1000
G01 F120.00
G01 X3.2354 Y28.8521 F120.00
G00 Z2.0000
G00 X3.1455 Y28.8034
G01 F40.00
G01 Z-0.1000
G01 F120.00
G01 X2.8142 Y29.0429 F120.00
G01 X2.7988 Y29.0535 F120.00
G00 Z2.0000
G00 X2.6696 Y29.0304
G01 F40.00
G01 Z-0.1000
G01 F120.00
G01 X2.7611 Y28.9676 F120.00
G01 X3.0428 Y28.7639 F120.00
G01 X2.9362 Y28.7273 F120.00
G01 X2.7081 Y28.8922 F120.00
G01 X2.5147 Y29.0248 F120.00
G00 Z2.0000
G00 X2.3152 Y29.0500
G01 F40.00
G01 Z-0.1000
G01 F120.00
G01 X2.6550 Y28.8169 F120.00
G01 X2.8154 Y28.7009 F120.00
G01 X2.6876 Y28.6796 F120.00
G01 X2.6019 Y28.7415 F120.00
G01 X1.8885 Y29.2310 F120.00
G01 X1.1856 Y29.6882 F120.00
G01 X1.1529 Y29.8174 F120.00
G01 X1.2126 Y29.7806 F120.00
G01 X1.6670 Y29.4850 F120.00
G00 Z2.0000
G00 X1.5688 Y29.6588
G01 F40.00
G01 Z-0.1000
G01 F120.00
G01 X1.2619 Y29.8585 F120.00
G01 X1.1349 Y29.9367 F120.00
G00 Z2.0000
G00 X1.1255 Y30.0508
G01 F40.00
G01 Z-0.1000
G01 F120.00
G01 X1.3112 Y29.9363 F120.00
G01 X1.5154 Y29.8035 F120.00
G00 Z2.0000
G00 X1.4876 Y29.9315
G01 F40.00
G01 Z-0.1000
G01 F120.00
G01 X1.3605 Y30.0142 F120.00
G01 X1.1263 Y30.1586 F120.00
G01 X1.1348 Y30.2615 F120.00
G01 X1.4098 Y30.0921 F120.00
G01 X1.4756 Y30.0493 F120.00
G00 Z2.0000
G00 X1.4760 Y30.1590
G01 F40.00
G01 Z-0.1000
G01 F120.00
G01 X1.4591 Y30.1699 F120.00
G01 X1.1477 Y30.3619 F120.00
G01 X1.1714 Y30.4555 F120.00
G01 X1.4866 Y30.2613 F120.00
G00 Z2.0000
G00 X1.5057 Y30.3577
G01 F40.00
G01 Z-0.1000
G01 F120.00
G01 X1.1951 Y30.5491 F120.00
G01 X1.2303 Y30.6357 F120.00
G01 X1.5326 Y30.4494 F120.00
G00 Z2.0000
G00 X1.5667 Y30.5366
G01 F40.00
G01 Z-0.1000
G01 F120.00
G01 X1.2677 Y30.7209 F120.00
G01 X1.3091 Y30.8036 F120.00
G01 X1.6075 Y30.6197 F120.00
G00 Z2.0000
G00 X1.6550 Y30.6987
G01 F40.00
G01 Z-0.1000
G01 F120.00
G01 X1.3595 Y30.8808 F120.00
G01 X1.4099 Y30.9580 F120.00
G01 X1.7100 Y30.7730 F120.00
G00 Z2.0000
G00 X1.7719 Y30.8432
G01 F40.00
G01 Z-0.1000
G01 F120.00
G01 X1.4702 Y31.0291 F120.00
G00 Z2.0000
G00 X1.5338 Y31.0981
G01 F40.00
G01 Z-0.1000
G01 F120.00
G01 X1.8409 Y30.9089 F120.00
G00 Z2.0000
G00 X1.9174 Y30.9700
G01 F40.00
G01 Z-0.1000
G01 F120.00
G01 X1.6006 Y31.1652 F120.00
G01 X1.6782 Y31.2256 F120.00
G01 X2.0024 Y31.0258 F120.00
G00 Z2.0000
G00 X2.0958 Y31.0750
G01 F40.00
G01 Z-0.1000
G01 F120.00
G01 X2.0508 Y31.1043 F120.00
G01 X1.7559 Y31.2860 F120.00
G00 Z2.0000
G00 X1.8467 Y31.3383
G01 F40.00
G01 Z-0.1000
G01 F120.00
G01 X2.1001 Y31.1821 F120.00
G01 X2.2000 Y31.1171 F120.00
G00 Z2.0000
G00 X2.2953 Y31.1450
G01 F40.00
G01 Z-0.1000
G01 F120.00
G01 X2.2356 Y31.1299 F120.00
G01 X2.1397 Y31.0955 F120.00
G01 X2.0407 Y31.0487 F120.00
G01 X1.9518 Y30.9953 F120.00
G01 X1.8699 Y30.9347 F120.00
G01 X1.8640 Y30.9299 F120.00
G01 X1.7873 Y30.8601 F120.00
G01 X1.7176 Y30.7831 F120.00
G01 X1.6568 Y30.7013 F120.00
G01 X1.6527 Y30.6951 F120.00
G01 X1.6003 Y30.6076 F120.00
G01 X1.5552 Y30.5121 F120.00
G01 X1.5207 Y30.4162 F120.00
G01 X1.5186 Y30.4089 F120.00
G01 X1.4935 Y30.3082 F120.00
G01 X1.4784 Y30.2055 F120.00
G01 X1.4733 Y30.1038 F120.00
G01 X1.4733 Y30.0962 F120.00
G01 X1.4784 Y29.9945 F120.00
G01 X1.4932 Y29.8936 F120.00
G01 X1.4947 Y29.8862 F120.00
G01 X1.5196 Y29.7874 F120.00
G01 X1.5552 Y29.6879 F120.00
G01 X1.6003 Y29.5924 F120.00
G01 X1.6527 Y29.5049 F120.00
G01 X1.6568 Y29.4987 F120.00
G01 X1.7176 Y29.4169 F120.00
G01 X1.7886 Y29.3386 F120.00
G01 X1.8640 Y29.2701 F120.00
G01 X1.8699 Y29.2653 F120.00
G01 X1.9518 Y29.2047 F120.00
G01 X2.0424 Y29.1503 F120.00
G01 X2.1345 Y29.1067 F120.00
G01 X2.1414 Y29.1038 F120.00
G01 X2.2374 Y29.0696 F120.00
G01 X2.3362 Y29.0447 F120.00
G01 X2.3436 Y29.0432 F120.00
G01 X2.4445 Y29.0284 F120.00
G01 X2.5500 Y29.0232 F120.00
G01 X2.6518 Y29.0281 F120.00
G01 X2.6593 Y29.0288 F120.00
G01 X2.7601 Y29.0439 F120.00
G01 X2.8589 Y29.0686 F120.00
G01 X2.8662 Y29.0707 F120.00
G01 X2.9603 Y29.1045 F120.00
G01 X3.0576 Y29.1503 F120.00
G01 X3.1451 Y29.2027 F120.00
G01 X3.1513 Y29.2068 F120.00
G01 X3.2331 Y29.2676 F120.00
G01 X3.3087 Y29.3360 F120.00
G01 X3.3140 Y29.3413 F120.00
G01 X3.3812 Y29.4154 F120.00
G01 X3.4453 Y29.5018 F120.00
G01 X3.5005 Y29.5941 F120.00
G01 X3.5455 Y29.6897 F120.00
G01 X3.5799 Y29.7856 F120.00
G01 X3.5950 Y29.8453 F120.00
G01 X5.4219 Y29.8453 F120.00
G01 X7.8303 Y27.4369 F120.00
G01 X7.8303 Y20.3835 F120.00
G01 X6.7593 Y19.3124 F120.00
G01 X6.7451 Y19.2966 F120.00
G01 X6.7302 Y19.2765 F120.00
G01 X6.7174 Y19.2551 F120.00
G01 X6.7067 Y19.2325 F120.00
G01 X6.6983 Y19.2089 F120.00
G01 X6.6922 Y19.1847 F120.00
G01 X6.6885 Y19.1600 F120.00
G01 X6.6873 Y19.1369 F120.00
G01 X6.6873 Y-6.7945 F120.00
G01 X5.3125 Y-8.1693 F120.00
G01 X3.9951 Y-8.1693 F120.00
G01 X3.9720 Y-8.1705 F120.00
G01 X3.9510 Y-8.1736 F120.00
G01 X3.9436 Y-8.1750 F120.00
G01 X3.9231 Y-8.1803 F120.00
G01 X3.9031 Y-8.1873 F120.00
G01 X3.8978 Y-8.1894 F120.00
G01 X3.8803 Y-8.1977 F120.00
G01 X3.8753 Y-8.2003 F120.00
G01 X3.8587 Y-8.2102 F120.00
G01 X3.8524 Y-8.2144 F120.00
G01 X3.8354 Y-8.2271 F120.00
G01 X3.8169 Y-8.2439 F120.00
G01 X2.5709 Y-9.4899 F120.00
G01 X2.5529 Y-9.5099 F120.00
G01 X2.5392 Y-9.5285 F120.00
G01 X2.5282 Y-9.5467 F120.00
G01 X2.5247 Y-9.5533 F120.00
G01 X2.5164 Y-9.5708 F120.00
G01 X2.5143 Y-9.5761 F120.00
G01 X2.5073 Y-9.5961 F120.00
G01 X2.5022 Y-9.6161 F120.00
G01 X2.4924 Y-9.6209 F120.00
G01 X2.4766 Y-9.6304 F120.00
G01 X2.4557 Y-9.6459 F120.00
G01 X2.4406 Y-9.6596 F120.00
G01 X2.4281 Y-9.6733 F120.00
G01 X2.4234 Y-9.6791 F120.00
G01 X2.4114 Y-9.6956 F120.00
G01 X2.4019 Y-9.7114 F120.00
G01 X2.3993 Y-9.7165 F120.00
G01 X2.3915 Y-9.7332 F120.00
G01 X2.3851 Y-9.7506 F120.00
G01 X2.3830 Y-9.7578 F120.00
G01 X2.3786 Y-9.7758 F120.00
G01 X2.3753 Y-9.7978 F120.00
G01 X2.3742 Y-9.8200 F120.00
G01 X2.3742 Y-11.4700 F120.00
G01 X2.3753 Y-11.4922 F120.00
G01 X2.3779 Y-11.5105 F120.00
G01 X2.3794 Y-11.5179 F120.00
G01 X2.3840 Y-11.5358 F120.00
G01 X2.3901 Y-11.5533 F120.00
G01 X2.3930 Y-11.5602 F120.00
G01 X2.4010 Y-11.5769 F120.00
G01 X2.4104 Y-11.5928 F120.00
G01 X2.4146 Y-11.5991 F120.00
G01 X2.4269 Y-11.6153 F120.00
G01 X2.4406 Y-11.6304 F120.00
G01 X2.4543 Y-11.6429 F120.00
G01 X2.4601 Y-11.6476 F120.00
G01 X2.4750 Y-11.6586 F120.00
G01 X2.4908 Y-11.6682 F120.00
G01 X2.4975 Y-11.6717 F120.00
G01 X2.5142 Y-11.6795 F120.00
G01 X2.5316 Y-11.6859 F120.00
G01 X2.5388 Y-11.6880 F120.00
G01 X2.5586 Y-11.6928 F120.00
G01 X2.5788 Y-11.6957 F120.00
G01 X2.5991 Y-11.6968 F120.00
G01 X2.9029 Y-11.6968 F120.00
G01 X2.9232 Y-11.6957 F120.00
G01 X2.9452 Y-11.6924 F120.00
G01 X2.9668 Y-11.6870 F120.00
G01 X2.9878 Y-11.6795 F120.00
G01 X3.0079 Y-11.6700 F120.00
G01 X3.0270 Y-11.6586 F120.00
G01 X3.0449 Y-11.6453 F120.00
G01 X3.0586 Y-11.6330 F120.00
G01 X3.0627 Y-11.6290 F120.00
G01 X3.0751 Y-11.6153 F120.00
G01 X3.0874 Y-11.5991 F120.00
G01 X3.0906 Y-11.5944 F120.00
G01 X3.0992 Y-11.5802 F120.00
G01 X3.1027 Y-11.5735 F120.00
G01 X3.1105 Y-11.5568 F120.00
G01 X3.1180 Y-11.5358 F120.00
G01 X3.1234 Y-11.5142 F120.00
G01 X3.1267 Y-11.4922 F120.00
G01 X3.1278 Y-11.4700 F120.00
G01 X3.1278 Y-9.8181 F120.00
G01 X3.1267 Y-9.7978 F120.00
G01 X3.1241 Y-9.7795 F120.00
G01 X3.1226 Y-9.7721 F120.00
G01 X3.1180 Y-9.7542 F120.00
G01 X3.1105 Y-9.7332 F120.00
G01 X3.1027 Y-9.7165 F120.00
G01 X3.0992 Y-9.7098 F120.00
G01 X3.0886 Y-9.6926 F120.00
G01 X4.1025 Y-8.6787 F120.00
G01 X5.4199 Y-8.6787 F120.00
G01 X5.4430 Y-8.6775 F120.00
G01 X5.4640 Y-8.6744 F120.00
G01 X5.4714 Y-8.6730 F120.00
G01 X5.4919 Y-8.6677 F120.00
G01 X5.5119 Y-8.6607 F120.00
G01 X5.5189 Y-8.6578 F120.00
G01 X5.5381 Y-8.6486 F120.00
G01 X5.5595 Y-8.6358 F120.00
G01 X5.5796 Y-8.6209 F120.00
G01 X5.5981 Y-8.6041 F120.00
G01 X7.1234 Y-7.0787 F120.00
G01 X7.1389 Y-7.0616 F120.00
G01 X7.1516 Y-7.0446 F120.00
G01 X7.1558 Y-7.0383 F120.00
G01 X7.1657 Y-7.0217 F120.00
G01 X7.1683 Y-7.0167 F120.00
G01 X7.1773 Y-6.9975 F120.00
G01 X7.1857 Y-6.9739 F120.00
G01 X7.1918 Y-6.9497 F120.00
G01 X7.1950 Y-6.9287 F120.00
G01 X7.1957 Y-6.9212 F120.00
G01 X7.1967 Y-6.9000 F120.00
G01 X7.1967 Y19.0295 F120.00
G01 X8.2664 Y20.0993 F120.00
G01 X8.2819 Y20.1164 F120.00
G01 X8.2946 Y20.1334 F120.00
G01 X8.2988 Y20.1397 F120.00
G01 X8.3087 Y20.1563 F120.00
G01 X8.3113 Y20.1613 F120.00
G01 X8.3203 Y20.1805 F120.00
G01 X8.3287 Y20.2041 F120.00
G01 X8.3348 Y20.2283 F120.00
G01 X8.3383 Y20.2512 F120.00
G01 X8.3397 Y20.2780 F120.00
G01 X8.3397 Y27.5443 F120.00
G01 X8.3385 Y27.5674 F120.00
G01 X8.3348 Y27.5921 F120.00
G01 X8.3287 Y27.6163 F120.00
G01 X8.3203 Y27.6399 F120.00
G01 X8.3096 Y27.6625 F120.00
G01 X8.2968 Y27.6839 F120.00
G01 X8.2819 Y27.7040 F120.00
G01 X8.2664 Y27.7211 F120.00
G01 X5.7075 Y30.2801 F120.00
G01 X5.6890 Y30.2969 F120.00
G01 X5.6673 Y30.3128 F120.00
G01 X5.6475 Y30.3246 F120.00
G01 X5.6283 Y30.3338 F120.00
G01 X5.6213 Y30.3367 F120.00
G01 X5.6013 Y30.3437 F120.00
G01 X5.5808 Y30.3490 F120.00
G01 X5.5734 Y30.3504 F120.00
G01 X5.5524 Y30.3535 F120.00
G01 X5.5293 Y30.3547 F120.00
G01 X3.5950 Y30.3547 F120.00
G01 X3.5799 Y30.4144 F120.00
G01 X3.5455 Y30.5103 F120.00
G01 X3.4987 Y30.6093 F120.00
G01 X3.4453 Y30.6982 F120.00
G01 X3.3847 Y30.7801 F120.00
G01 X3.3799 Y30.7860 F120.00
G01 X3.3114 Y30.8614 F120.00
G01 X3.2360 Y30.9299 F120.00
G01 X3.2301 Y30.9347 F120.00
G01 X3.1482 Y30.9953 F120.00
G01 X3.0592 Y31.0487 F120.00
G01 X2.9603 Y31.0955 F120.00
G01 X2.8644 Y31.1299 F120.00
G01 X2.8047 Y31.1450 F120.00
G01 X2.8047 Y32.6842 F120.00
G01 X2.9419 Y32.6842 F120.00
G01 X2.9720 Y32.6858 F120.00
G01 X3.0019 Y32.6901 F120.00
G01 X3.0349 Y32.6983 F120.00
G01 X3.0651 Y32.7091 F120.00
G01 X3.0941 Y32.7228 F120.00
G01 X3.1200 Y32.7382 F120.00
G01 X3.1473 Y32.7584 F120.00
G01 X3.1711 Y32.7799 F120.00
G01 X3.1926 Y32.8037 F120.00
G01 X3.2096 Y32.8264 F120.00
G01 X3.2137 Y32.8326 F120.00
G01 X3.2264 Y32.8537 F120.00
G01 X3.2299 Y32.8603 F120.00
G01 X3.2419 Y32.8859 F120.00
G01 X3.2515 Y32.9126 F120.00
G01 X3.2537 Y32.9198 F120.00
G01 X3.2605 Y32.9472 F120.00
G01 X3.2654 Y32.9808 F120.00
G01 X3.2668 Y33.0110 F120.00
G01 X3.2668 Y33.9610 F120.00
G01 X3.2652 Y33.9930 F120.00
G01 X3.2612 Y34.0210 F120.00
G01 X3.2597 Y34.0284 F120.00
G01 X3.2527 Y34.0559 F120.00
G01 X3.2433 Y34.0825 F120.00
G01 X3.2404 Y34.0895 F120.00
G01 X3.2282 Y34.1151 F120.00
G01 X3.2137 Y34.1394 F120.00
G01 X3.2096 Y34.1456 F120.00
G01 X3.1926 Y34.1683 F120.00
G01 X3.1737 Y34.1894 F120.00
G01 X3.1684 Y34.1947 F120.00
G01 X3.1473 Y34.2136 F120.00
G01 X3.1246 Y34.2306 F120.00
G01 X3.1184 Y34.2347 F120.00
G01 X3.0941 Y34.2492 F120.00
G01 X3.0651 Y34.2629 F120.00
G01 X3.0349 Y34.2737 F120.00
G01 X3.0038 Y34.2815 F120.00
G01 X2.9720 Y34.2862 F120.00
G01 X2.9419 Y34.2878 F120.00
G01 X2.2650 Y34.2878 F120.00
G01 X2.2330 Y34.2862 F120.00
G01 X2.2050 Y34.2822 F120.00
G01 X2.1976 Y34.2807 F120.00
G01 X2.1701 Y34.2737 F120.00
G01 X2.1435 Y34.2643 F120.00
G01 X2.1365 Y34.2614 F120.00
G01 X2.1109 Y34.2492 F120.00
G01 X2.0866 Y34.2347 F120.00
G01 X2.0804 Y34.2306 F120.00
G01 X2.0577 Y34.2136 F120.00
G01 X2.0366 Y34.1947 F120.00
G01 X2.0313 Y34.1894 F120.00
G01 X2.0124 Y34.1683 F120.00
G01 X1.9954 Y34.1456 F120.00
G01 X1.9913 Y34.1394 F120.00
G01 X1.9768 Y34.1151 F120.00
G01 X1.9631 Y34.0861 F120.00
G01 X1.9523 Y34.0559 F120.00
G01 X1.9445 Y34.0248 F120.00
G01 X1.9398 Y33.9930 F120.00
G01 X1.9382 Y33.9629 F120.00
G01 X1.9382 Y33.0110 F120.00
G01 X1.9398 Y32.9790 F120.00
G01 X1.9449 Y32.9454 F120.00
G01 X1.9523 Y32.9161 F120.00
G01 X1.9631 Y32.8859 F120.00
G01 X1.9768 Y32.8569 F120.00
G01 X1.9913 Y32.8326 F120.00
G01 X1.9954 Y32.8264 F120.00
G01 X2.0124 Y32.8037 F120.00
G01 X2.0313 Y32.7826 F120.00
G01 X2.0366 Y32.7773 F120.00
G01 X2.0548 Y32.7608 F120.00
G01 X2.0607 Y32.7561 F120.00
G01 X2.0834 Y32.7393 F120.00
G01 X2.1109 Y32.7228 F120.00
G01 X2.1399 Y32.7091 F120.00
G01 X2.1701 Y32.6983 F120.00
G01 X2.2012 Y32.6905 F120.00
G01 X2.2311 Y32.6860 F120.00
G01 X2.2631 Y32.6842 F120.00
G01 X2.2953 Y32.6842 F120.00
G01 X2.2953 Y31.1450 F120.00
G01 X2.2953 Y31.1651 F120.00
G01 X2.1494 Y31.2600 F120.00
G01 X1.9155 Y31.4041 F120.00
G00 Z2.0000
G00 X1.9460 Y31.4936
G01 F40.00
G01 Z-0.1000
G01 F120.00
G01 X2.1987 Y31.3379 F120.00
G01 X2.2953 Y31.2750 F120.00
G01 X2.2953 Y31.3850 F120.00
G01 X2.2480 Y31.4157 F120.00
G01 X1.9485 Y31.6003 F120.00
G01 X1.9485 Y31.7085 F120.00
G01 X2.2953 Y31.4948 F120.00
G01 X2.2953 Y31.6031 F120.00
G01 X1.9485 Y31.8168 F120.00
G01 X1.9485 Y31.9250 F120.00
G01 X2.2953 Y31.7113 F120.00
G01 X2.2953 Y31.8196 F120.00
G01 X1.9485 Y32.0333 F120.00
G01 X1.9485 Y32.1415 F120.00
G01 X2.2953 Y31.9278 F120.00
G01 X2.2953 Y32.0360 F120.00
G01 X1.9485 Y32.2497 F120.00
G00 Z2.0000
G00 X1.9326 Y32.3678
G01 F40.00
G01 Z-0.1000
G01 F120.00
G01 X2.2953 Y32.1443 F120.00
G01 X2.2953 Y32.2525 F120.00
G01 X1.8481 Y32.5281 F120.00
G01 X1.7282 Y32.5980 F120.00
G01 X1.6397 Y32.7562 F120.00
G01 X1.8955 Y32.6071 F120.00
G01 X2.2953 Y32.3608 F120.00
G01 X2.2953 Y32.4690 F120.00
G01 X1.9429 Y32.6862 F120.00
G01 X1.5993 Y32.8864 F120.00
G01 X1.5913 Y32.9977 F120.00
G01 X1.9903 Y32.7652 F120.00
G01 X2.2953 Y32.5773 F120.00
G00 Z2.0000
G00 X1.9622 Y32.8883
G01 F40.00
G01 Z-0.1000
G01 F120.00
G01 X1.5913 Y33.1044 F120.00
G01 X1.5913 Y33.2111 F120.00
G01 X1.9382 Y33.0089 F120.00
G00 Z2.0000
G00 X1.9382 Y33.1155
G01 F40.00
G01 Z-0.1000
G01 F120.00
G01 X1.5913 Y33.3177 F120.00
G01 X1.5913 Y33.4244 F120.00
G01 X1.9382 Y33.2222 F120.00
G01 X1.9382 Y33.3289 F120.00
G01 X1.5913 Y33.5311 F120.00
G00 Z2.0000
G00 X1.5913 Y33.6377
G01 F40.00
G01 Z-0.1000
G01 F120.00
G01 X1.9382 Y33.4355 F120.00
G01 X1.9382 Y33.5422 F120.00
G01 X1.5913 Y33.7444 F120.00
G01 X1.5913 Y33.8510 F120.00
G01 X1.9382 Y33.6489 F120.00
G01 X1.9382 Y33.7555 F120.00
G01 X1.5913 Y33.9577 F120.00
G00 Z2.0000
G00 X1.5967 Y34.0600
G01 F40.00
G01 Z-0.1000
G01 F120.00
G01 X1.6325 Y34.0403 F120.00
G01 X1.9382 Y33.8622 F120.00
G00 Z2.0000
G00 X1.9385 Y33.9687
G01 F40.00
G01 Z-0.1000
G01 F120.00
G01 X1.6780 Y34.1205 F120.00
G01 X1.6189 Y34.1530 F120.00
G00 Z2.0000
G00 X1.6484 Y34.2420
G01 F40.00
G01 Z-0.1000
G01 F120.00
G01 X1.7234 Y34.2007 F120.00
G01 X1.9556 Y34.0654 F120.00
G00 Z2.0000
G00 X1.9971 Y34.1479
G01 F40.00
G01 Z-0.1000
G01 F120.00
G01 X1.7688 Y34.2809 F120.00
G01 X1.6956 Y34.3212 F120.00
G01 X1.8550 Y34.3373 F120.00
G01 X2.0618 Y34.2168 F120.00
G00 Z2.0000
G00 X2.1558 Y34.2687
G01 F40.00
G01 Z-0.1000
G01 F120.00
G01 X2.0380 Y34.3373 F120.00
G01 X2.2211 Y34.3373 F120.00
G01 X2.3060 Y34.2878 F120.00
G01 X2.4041 Y34.3373 F120.00
G01 X2.4890 Y34.2878 F120.00
G01 X2.5871 Y34.3373 F120.00
G01 X2.6720 Y34.2878 F120.00
G01 X2.7701 Y34.3373 F120.00
G01 X2.8550 Y34.2878 F120.00
G01 X2.9523 Y34.3373 F120.00
G01 X3.7765 Y33.8294 F120.00
G01 X4.0132 Y33.6754 F120.00
G01 X4.0132 Y33.5655 F120.00
G01 X3.7272 Y33.7516 F120.00
G01 X3.2564 Y34.0417 F120.00
G00 Z2.0000
G00 X3.2668 Y33.9270
G01 F40.00
G01 Z-0.1000
G01 F120.00
G01 X3.6779 Y33.6737 F120.00
G01 X4.0132 Y33.4556 F120.00
G01 X4.0132 Y33.3456 F120.00
G01 X3.6286 Y33.5958 F120.00
G01 X3.2668 Y33.8188 F120.00
G01 X3.2668 Y33.7105 F120.00
G01 X3.5793 Y33.5180 F120.00
G01 X4.0132 Y33.2357 F120.00
G01 X4.0132 Y33.1257 F120.00
G01 X3.5300 Y33.4401 F120.00
G01 X3.2668 Y33.6023 F120.00
G01 X3.2668 Y33.4940 F120.00
G01 X3.4807 Y33.3623 F120.00
G01 X4.0132 Y33.0158 F120.00
G00 Z2.0000
G00 X4.0362 Y32.8909
G01 F40.00
G01 Z-0.1000
G01 F120.00
G01 X3.4314 Y33.2844 F120.00
G01 X3.2668 Y33.3858 F120.00
G01 X3.2668 Y33.2776 F120.00
G01 X3.3820 Y33.2065 F120.00
G01 X4.1926 Y32.6792 F120.00
G01 X4.3507 Y32.5707 F120.00
G01 X4.3507 Y32.4590 F120.00
G01 X4.1414 Y32.6026 F120.00
G01 X3.3327 Y33.1287 F120.00
G01 X3.2668 Y33.1693 F120.00
G01 X3.2668 Y33.0611 F120.00
G01 X3.2834 Y33.0508 F120.00
G01 X4.0902 Y32.5260 F120.00
G01 X4.3507 Y32.3472 F120.00
G01 X4.1737 Y32.3569 F120.00
G01 X4.0390 Y32.4493 F120.00
G01 X3.7825 Y32.6162 F120.00
G00 Z2.0000
G00 X3.7014 Y32.6690
G01 F40.00
G01 Z-0.1000
G01 F120.00
G01 X3.2618 Y32.9550 F120.00
G00 Z2.0000
G00 X3.2319 Y32.8645
G01 F40.00
G01 Z-0.1000
G01 F120.00
G01 X3.5525 Y32.6559 F120.00
G00 Z2.0000
G00 X3.4763 Y32.5955
G01 F40.00
G01 Z-0.1000
G01 F120.00
G01 X3.1792 Y32.7888 F120.00
G00 Z2.0000
G00 X3.1033 Y32.7282
G01 F40.00
G01 Z-0.1000
G01 F120.00
G01 X3.4103 Y32.5285 F120.00
G01 X3.3385 Y32.4653 F120.00
G01 X3.0369 Y32.6615 F120.00
G01 X2.9927 Y32.6887 F120.00
G00 Z2.0000
G00 X2.8244 Y32.6842
G01 F40.00
G01 Z-0.1000
G01 F120.00
G01 X2.9876 Y32.5836 F120.00
G01 X3.2518 Y32.4118 F120.00
G00 Z2.0000
G00 X3.1854 Y32.3450
G01 F40.00
G01 Z-0.1000
G01 F120.00
G01 X2.9383 Y32.5058 F120.00
G01 X2.8047 Y32.5881 F120.00
G01 X2.8047 Y32.4799 F120.00
G01 X2.8890 Y32.4279 F120.00
G01 X3.1536 Y32.2558 F120.00
G00 Z2.0000
G00 X3.1515 Y32.1472
G01 F40.00
G01 Z-0.1000
G01 F120.00
G01 X2.8397 Y32.3501 F120.00
G01 X2.8047 Y32.3716 F120.00
G01 X2.8047 Y32.2629 F120.00
G01 X3.1515 Y32.0373 F120.00
G01 X3.1515 Y31.9273 F120.00
G01 X2.8047 Y32.1530 F120.00
G01 X2.8047 Y32.0430 F120.00
G01 X3.1515 Y31.8174 F120.00
G01 X3.1515 Y31.7075 F120.00
G01 X2.8047 Y31.9331 F120.00
G01 X2.8047 Y31.8231 F120.00
G01 X3.1515 Y31.5975 F120.00
G00 Z2.0000
G00 X3.1567 Y31.4842
G01 F40.00
G01 Z-0.1000
G01 F120.00
G01 X2.8047 Y31.7132 F120.00
G01 X2.8047 Y31.6033 F120.00
G01 X3.2710 Y31.2999 F120.00
G01 X3.5683 Y31.0959 F120.00
G01 X3.7580 Y30.8540 F120.00
G01 X3.2198 Y31.2233 F120.00
G01 X2.8047 Y31.4933 F120.00
G01 X2.8047 Y31.3834 F120.00
G01 X3.1685 Y31.1467 F120.00
G01 X3.9286 Y30.6252 F120.00
G01 X4.3029 Y30.3547 F120.00
G01 X4.1456 Y30.3547 F120.00
G01 X3.8755 Y30.5499 F120.00
G01 X3.1173 Y31.0700 F120.00
G01 X2.8047 Y31.2734 F120.00
G01 X2.8047 Y31.1635 F120.00
G01 X2.8509 Y31.1335 F120.00
G00 Z2.0000
G00 X3.3927 Y30.7694
G01 F40.00
G01 Z-0.1000
G01 F120.00
G01 X3.8225 Y30.4745 F120.00
G01 X3.9883 Y30.3547 F120.00
G01 X3.8309 Y30.3547 F120.00
G01 X3.7694 Y30.3992 F120.00
G01 X3.5162 Y30.5729 F120.00
G00 Z2.0000
G00 X3.5784 Y30.4184
G01 F40.00
G01 Z-0.1000
G01 F120.00
G01 X3.6713 Y30.3547 F120.00
G01 X3.9803 Y30.7015 F120.00
G01 X4.4602 Y30.3547 F120.00
G01 X4.6175 Y30.3547 F120.00
G01 X4.1377 Y30.7015 F120.00
G01 X4.2950 Y30.7015 F120.00
G01 X4.7748 Y30.3547 F120.00
G01 X4.9303 Y30.3547 F120.00
G01 X4.8952 Y30.3814 F120.00
G01 X4.4523 Y30.7015 F120.00
G01 X4.6096 Y30.7015 F120.00
G01 X4.9501 Y30.4554 F120.00
G01 X5.0825 Y30.3547 F120.00
G01 X5.2347 Y30.3547 F120.00
G01 X5.0050 Y30.5294 F120.00
G01 X4.7669 Y30.7015 F120.00
G01 X4.9242 Y30.7015 F120.00
G01 X5.0599 Y30.6034 F120.00
G01 X5.3868 Y30.3547 F120.00
G00 Z2.0000
G00 X5.5397 Y30.3542
G01 F40.00
G01 Z-0.1000
G01 F120.00
G01 X5.1148 Y30.6775 F120.00
G01 X5.0816 Y30.7015 F120.00
G01 X5.2354 Y30.7015 F120.00
G01 X5.9194 Y30.1811 F120.00
G01 X6.6550 Y29.5924 F120.00
G01 X7.3758 Y28.9858 F120.00
G01 X8.0815 Y28.3618 F120.00
G01 X8.5544 Y27.9225 F120.00
G01 X8.6688 Y27.6905 F120.00
G01 X8.0197 Y28.2935 F120.00
G01 X7.3156 Y28.9161 F120.00
G01 X6.5965 Y29.5211 F120.00
G01 X5.9451 Y30.0425 F120.00
G01 X6.0456 Y30.4324 F120.00
G01 X5.7457 Y30.6606 F120.00
G01 X5.5398 Y30.7015 F120.00
G01 X6.0328 Y30.3264 F120.00
G01 X6.6281 Y29.8500 F120.00
G01 X6.5363 Y29.4513 F120.00
G01 X7.2554 Y28.8463 F120.00
G01 X7.9578 Y28.2252 F120.00
G01 X8.6447 Y27.5871 F120.00
G01 X8.6865 Y27.5463 F120.00
G01 X8.6865 Y27.4176 F120.00
G01 X8.5811 Y27.5204 F120.00
G01 X7.8959 Y28.1569 F120.00
G01 X7.3323 Y28.6553 F120.00
G01 X7.3503 Y29.1277 F120.00
G01 X6.7134 Y29.6636 F120.00
G01 X5.9761 Y30.2537 F120.00
G01 X5.3876 Y30.7015 F120.00
G00 Z2.0000
G00 X4.9910 Y29.8453
G01 F40.00
G01 Z-0.1000
G01 F120.00
G01 X5.4091 Y29.5272 F120.00
G01 X6.1288 Y28.9512 F120.00
G01 X6.8340 Y28.3578 F120.00
G01 X7.4853 Y27.7819 F120.00
G00 Z2.0000
G00 X8.3220 Y27.6353
G01 F40.00
G01 Z-0.1000
G01 F120.00
G01 X8.5176 Y27.4536 F120.00
G01 X8.6865 Y27.2888 F120.00
G01 X8.6865 Y27.1601 F120.00
G01 X8.4540 Y27.3869 F120.00
G01 X8.3397 Y27.4931 F120.00
G01 X8.3397 Y27.3673 F120.00
G01 X8.3905 Y27.3201 F120.00
G01 X8.6865 Y27.0313 F120.00
G01 X8.6865 Y26.9025 F120.00
G01 X8.3397 Y27.2409 F120.00
G01 X8.3397 Y27.1122 F120.00
G01 X8.6865 Y26.7738 F120.00
G01 X8.6865 Y26.6450 F120.00
G01 X8.3397 Y26.9834 F120.00
G01 X8.3397 Y26.8547 F120.00
G01 X8.6865 Y26.5163 F120.00
G01 X8.6865 Y26.3875 F120.00
G01 X8.3397 Y26.7259 F120.00
G01 X8.3397 Y26.5972 F120.00
G01 X8.6640 Y26.2807 F120.00
G01 X8.6865 Y26.2577 F120.00
G01 X8.6865 Y26.1257 F120.00
G01 X8.5989 Y26.2155 F120.00
G01 X8.3397 Y26.4684 F120.00
G01 X8.3397 Y26.3397 F120.00
G01 X8.5337 Y26.1504 F120.00
G01 X8.6865 Y25.9938 F120.00
G01 X8.6865 Y25.8618 F120.00
G01 X8.4685 Y26.0852 F120.00
G01 X8.3397 Y26.2109 F120.00
G01 X8.3397 Y26.0822 F120.00
G01 X8.4034 Y26.0200 F120.00
G01 X8.6865 Y25.7299 F120.00
G01 X8.6865 Y25.5979 F120.00
G01 X8.3397 Y25.9533 F120.00
G01 X8.3397 Y25.8214 F120.00
G01 X8.6865 Y25.4660 F120.00
G01 X8.6865 Y25.3340 F120.00
G01 X8.3397 Y25.6894 F120.00
G01 X8.3397 Y25.5575 F120.00
G01 X8.6865 Y25.2020 F120.00
G01 X8.6865 Y25.0701 F120.00
G01 X8.3397 Y25.4255 F120.00
G01 X8.3397 Y25.2936 F120.00
G01 X8.6355 Y24.9904 F120.00
G01 X8.6865 Y24.9355 F120.00
G01 X8.6865 Y24.8001 F120.00
G01 X8.5688 Y24.9268 F120.00
G01 X8.3397 Y25.1616 F120.00
G01 X8.3397 Y25.0297 F120.00
G01 X8.5020 Y24.8633 F120.00
G01 X8.6865 Y24.6647 F120.00
G01 X8.6865 Y24.5293 F120.00
G01 X8.4353 Y24.7997 F120.00
G01 X8.3397 Y24.8977 F120.00
G01 X8.3397 Y24.7658 F120.00
G01 X8.3685 Y24.7362 F120.00
G01 X8.6865 Y24.3939 F120.00
G01 X8.6865 Y24.2585 F120.00
G01 X8.3397 Y24.6318 F120.00
G01 X8.3397 Y24.4964 F120.00
G01 X8.6865 Y24.1231 F120.00
G01 X8.6865 Y23.9877 F120.00
G01 X8.3397 Y24.3610 F120.00
G01 X8.3397 Y24.2256 F120.00
G01 X8.6865 Y23.8523 F120.00
G01 X8.6865 Y23.7137 F120.00
G01 X8.6283 Y23.7796 F120.00
G01 X8.3397 Y24.0902 F120.00
G01 X8.3397 Y23.9548 F120.00
G01 X8.5600 Y23.7177 F120.00
G01 X8.6865 Y23.5746 F120.00
G01 X8.6865 Y23.4355 F120.00
G01 X8.4917 Y23.6558 F120.00
G01 X8.3397 Y23.8195 F120.00
G01 X8.3397 Y23.6841 F120.00
G01 X8.4234 Y23.5939 F120.00
G01 X8.6865 Y23.2964 F120.00
G01 X8.6865 Y23.1573 F120.00
G01 X8.3551 Y23.5320 F120.00
G01 X8.3397 Y23.5487 F120.00
G01 X8.3397 Y23.4104 F120.00
G01 X8.6865 Y23.0182 F120.00
G01 X8.6865 Y22.8790 F120.00
G01 X8.3397 Y23.2713 F120.00
G01 X8.3397 Y23.1321 F120.00
G01 X8.6865 Y22.7399 F120.00
G01 X8.6865 Y22.5986 F120.00
G01 X8.6476 Y22.6448 F120.00
G01 X8.3397 Y22.9930 F120.00
G01 X8.3397 Y22.8539 F120.00
G01 X8.5778 Y22.5846 F120.00
G01 X8.6865 Y22.4554 F120.00
G01 X8.6865 Y22.3123 F120.00
G01 X8.5080 Y22.5244 F120.00
G01 X8.3397 Y22.7148 F120.00
G01 X8.3397 Y22.5757 F120.00
G01 X8.4382 Y22.4642 F120.00
G01 X8.6865 Y22.1692 F120.00
G01 X8.6865 Y22.0260 F120.00
G01 X8.3685 Y22.4040 F120.00
G01 X8.3397 Y22.4366 F120.00
G01 X8.3397 Y22.2951 F120.00
G01 X8.6865 Y21.8829 F120.00
G01 X8.6865 Y21.7398 F120.00
G01 X8.3397 Y22.1519 F120.00
G01 X8.3397 Y22.0088 F120.00
G01 X8.6987 Y21.5822 F120.00
G01 X9.0203 Y21.1803 F120.00
G00 Z2.0000
G00 X8.9321 Y21.1430
G01 F40.00
G01 Z-0.1000
G01 F120.00
G01 X8.6274 Y21.5237 F120.00
G01 X8.3397 Y21.8657 F120.00
G01 X8.3397 Y21.7226 F120.00
G01 X8.5562 Y21.4653 F120.00
G01 X8.8544 Y21.0927 F120.00
G00 Z2.0000
G00 X8.7854 Y21.0313
G01 F40.00
G01 Z-0.1000
G01 F120.00
G01 X8.4849 Y21.4068 F120.00
G01 X8.3397 Y21.5794 F120.00
G01 X8.3397 Y21.4363 F120.00
G01 X8.4137 Y21.3483 F120.00
G01 X8.7260 Y20.9582 F120.00
G00 Z2.0000
G00 X8.6776 Y20.8712
G01 F40.00
G01 Z-0.1000
G01 F120.00
G01 X8.3397 Y21.2932 F120.00
G01 X8.3397 Y21.1458 F120.00
G01 X8.6422 Y20.7678 F120.00
G00 Z2.0000
G00 X8.6260 Y20.6406
G01 F40.00
G01 Z-0.1000
G01 F120.00
G01 X8.3397 Y20.9984 F120.00
G01 X8.3397 Y20.8509 F120.00
G01 X8.6437 Y20.4708 F120.00
G01 X8.5780 Y20.4051 F120.00
G01 X8.5684 Y20.4176 F120.00
G01 X8.3397 Y20.7034 F120.00
G01 X8.3397 Y20.5559 F120.00
G01 X8.4958 Y20.3609 F120.00
G01 X8.5122 Y20.3393 F120.00
G00 Z2.0000
G00 X8.4479 Y20.2716
G01 F40.00
G01 Z-0.1000
G01 F120.00
G01 X8.4231 Y20.3042 F120.00
G01 X8.3397 Y20.4085 F120.00
G00 Z2.0000
G00 X8.3390 Y20.2619
G01 F40.00
G01 Z-0.1000
G01 F120.00
G01 X8.3505 Y20.2475 F120.00
G01 X8.4010 Y20.1811 F120.00
G01 X8.3067 Y20.1529 F120.00
G01 X8.3891 Y20.0445 F120.00
G01 X8.2467 Y20.0795 F120.00
G01 X8.3891 Y19.8924 F120.00
G01 X8.3891 Y19.7402 F120.00
G01 X8.1809 Y20.0138 F120.00
G01 X8.1152 Y19.9480 F120.00
G01 X8.3891 Y19.5880 F120.00
G01 X8.3891 Y19.4358 F120.00
G01 X8.0494 Y19.8822 F120.00
G01 X7.9837 Y19.8165 F120.00
G01 X8.3891 Y19.2836 F120.00
G01 X8.3891 Y19.1269 F120.00
G01 X8.3233 Y19.2179 F120.00
G01 X7.9179 Y19.7507 F120.00
G01 X7.8521 Y19.6850 F120.00
G01 X8.2493 Y19.1630 F120.00
G01 X8.3891 Y18.9695 F120.00
G01 X8.3891 Y18.8122 F120.00
G01 X8.1752 Y19.1081 F120.00
G01 X7.7864 Y19.6192 F120.00
G01 X7.7206 Y19.5534 F120.00
G01 X8.1012 Y19.0532 F120.00
G01 X8.3891 Y18.6549 F120.00
G01 X8.3891 Y18.4976 F120.00
G01 X8.0272 Y18.9983 F120.00
G01 X7.6549 Y19.4877 F120.00
G01 X7.5891 Y19.4219 F120.00
G01 X7.8351 Y19.0986 F120.00
G00 Z2.0000
G00 X7.7415 Y19.0694
G01 F40.00
G01 Z-0.1000
G01 F120.00
G01 X7.5233 Y19.3562 F120.00
G01 X7.4576 Y19.2904 F120.00
G01 X7.6695 Y19.0119 F120.00
G00 Z2.0000
G00 X7.6037 Y18.9461
G01 F40.00
G01 Z-0.1000
G01 F120.00
G01 X7.3918 Y19.2246 F120.00
G01 X7.3261 Y19.1589 F120.00
G01 X7.5531 Y18.8605 F120.00
G00 Z2.0000
G00 X7.5435 Y18.7209
G01 F40.00
G01 Z-0.1000
G01 F120.00
G01 X7.2603 Y19.0931 F120.00
G01 X7.1967 Y19.0245 F120.00
G01 X7.5090 Y18.6140 F120.00
G01 X7.5435 Y18.5663 F120.00
G01 X7.5435 Y18.4090 F120.00
G01 X7.4350 Y18.5591 F120.00
G01 X7.1967 Y18.8723 F120.00
G01 X7.1967 Y18.7201 F120.00
G01 X7.3610 Y18.5042 F120.00
G01 X7.5435 Y18.2517 F120.00
G00 Z2.0000
G00 X7.5435 Y18.0944
G01 F40.00
G01 Z-0.1000
G01 F120.00
G01 X7.2870 Y18.4493 F120.00
G01 X7.1967 Y18.5679 F120.00
G01 X7.1967 Y18.4158 F120.00
G01 X7.2129 Y18.3944 F120.00
G01 X7.5435 Y17.9371 F120.00
G00 Z2.0000
G00 X7.5435 Y17.7798
G01 F40.00
G01 Z-0.1000
G01 F120.00
G01 X7.1967 Y18.2596 F120.00
G01 X7.1967 Y18.1023 F120.00
G01 X7.5081 Y17.6714 F120.00
G01 X7.5435 Y17.6198 F120.00
G00 Z2.0000
G00 X7.5435 Y17.4569
G01 F40.00
G01 Z-0.1000
G01 F120.00
G01 X7.4328 Y17.6183 F120.00
G01 X7.1967 Y17.9449 F120.00
G01 X7.1967 Y17.7876 F120.00
G01 X7.3574 Y17.5653 F120.00
G01 X7.5435 Y17.2940 F120.00
G00 Z2.0000
G00 X7.5435 Y17.1311
G01 F40.00
G01 Z-0.1000
G01 F120.00
G01 X7.2821 Y17.5122 F120.00
G01 X7.1967 Y17.6303 F120.00
G01 X7.1967 Y17.4730 F120.00
G01 X7.2067 Y17.4591 F120.00
G01 X7.5435 Y16.9683 F120.00
G00 Z2.0000
G00 X7.5435 Y16.8054
G01 F40.00
G01 Z-0.1000
G01 F120.00
G01 X7.1967 Y17.3109 F120.00
G01 X7.1967 Y17.1480 F120.00
G01 X7.4764 Y16.7403 F120.00
G01 X7.5435 Y16.6371 F120.00
G01 X7.5435 Y16.4681 F120.00
G01 X7.3997 Y16.6891 F120.00
G01 X7.1967 Y16.9851 F120.00
G01 X7.1967 Y16.8222 F120.00
G01 X7.3231 Y16.6379 F120.00
G01 X7.5435 Y16.2992 F120.00
G00 Z2.0000
G00 X7.5435 Y16.1302
G01 F40.00
G01 Z-0.1000
G01 F120.00
G01 X7.2465 Y16.5867 F120.00
G01 X7.1967 Y16.6593 F120.00
G01 X7.1967 Y16.4943 F120.00
G01 X7.5435 Y15.9612 F120.00
G00 Z2.0000
G00 X7.5435 Y15.7878
G01 F40.00
G01 Z-0.1000
G01 F120.00
G01 X7.4923 Y15.8710 F120.00
G01 X7.1967 Y16.3253 F120.00
G01 X7.1967 Y16.1563 F120.00
G01 X7.4144 Y15.8216 F120.00
G01 X7.5435 Y15.6121 F120.00
G01 X7.5435 Y15.4365 F120.00
G01 X7.3365 Y15.7723 F120.00
G01 X7.1967 Y15.9873 F120.00
G01 X7.1967 Y15.8183 F120.00
G01 X7.2587 Y15.7230 F120.00
G01 X7.5435 Y15.2608 F120.00
G00 Z2.0000
G00 X7.5435 Y15.0851
G01 F40.00
G01 Z-0.1000
G01 F120.00
G01 X7.1967 Y15.6480 F120.00
G01 X7.1967 Y15.4723 F120.00
G01 X7.4809 Y15.0111 F120.00
G01 X7.5435 Y14.9036 F120.00
G00 Z2.0000
G00 X7.5435 Y14.7206
G01 F40.00
G01 Z-0.1000
G01 F120.00
G01 X7.4018 Y14.9637 F120.00
G01 X7.1967 Y15.2966 F120.00
G01 X7.1967 Y15.1210 F120.00
G01 X7.3228 Y14.9163 F120.00
G01 X7.5435 Y14.5376 F120.00
G01 X7.5435 Y14.3546 F120.00
G01 X7.2437 Y14.8690 F120.00
G01 X7.1967 Y14.9453 F120.00
G01 X7.1967 Y14.7667 F120.00
G01 X7.5229 Y14.2070 F120.00
G01 X7.5435 Y14.1695 F120.00
G01 X7.5435 Y13.9784 F120.00
G01 X7.4427 Y14.1616 F120.00
G01 X7.1967 Y14.5836 F120.00
G01 X7.1967 Y14.4006 F120.00
G01 X7.3625 Y14.1161 F120.00
G01 X7.5435 Y13.7873 F120.00
G01 X7.5435 Y13.5962 F120.00
G01 X7.2823 Y14.0707 F120.00
G01 X7.1967 Y14.2176 F120.00
G01 X7.1967 Y14.0346 F120.00
G01 X7.2021 Y14.0253 F120.00
G01 X7.5435 Y13.4047 F120.00
G00 Z2.0000
G00 X7.5435 Y13.2047
G01 F40.00
G01 Z-0.1000
G01 F120.00
G01 X7.4595 Y13.3666 F120.00
G01 X7.1967 Y13.8440 F120.00
G01 X7.1967 Y13.6529 F120.00
G01 X7.3782 Y13.3231 F120.00
G01 X7.5435 Y13.0046 F120.00
G01 X7.5435 Y12.8045 F120.00
G01 X7.2969 Y13.2797 F120.00
G01 X7.1967 Y13.4618 F120.00
G01 X7.1967 Y13.2707 F120.00
G01 X7.2157 Y13.2362 F120.00
G01 X7.5349 Y12.6209 F120.00
G01 X7.5435 Y12.6033 F120.00
G00 Z2.0000
G00 X7.5435 Y12.3932
G01 F40.00
G01 Z-0.1000
G01 F120.00
G01 X7.4526 Y12.5794 F120.00
G01 X7.1967 Y13.0727 F120.00
G01 X7.1967 Y12.8726 F120.00
G01 X7.3703 Y12.5380 F120.00
G01 X7.5435 Y12.1831 F120.00
G00 Z2.0000
G00 X7.5435 Y11.9730
G01 F40.00
G01 Z-0.1000
G01 F120.00
G01 X7.2880 Y12.4965 F120.00
G01 X7.1967 Y12.6725 F120.00
G01 X7.1967 Y12.4724 F120.00
G01 X7.2057 Y12.4551 F120.00
G01 X7.5058 Y11.8402 F120.00
G01 X7.5435 Y11.7578 F120.00
G00 Z2.0000
G00 X7.5435 Y11.5366
G01 F40.00
G01 Z-0.1000
G01 F120.00
G01 X7.4225 Y11.8008 F120.00
G01 X7.1967 Y12.2634 F120.00
G01 X7.1967 Y12.0533 F120.00
G01 X7.3391 Y11.7614 F120.00
G01 X7.5435 Y11.3153 F120.00
G01 X7.5435 Y11.0931 F120.00
G01 X7.5379 Y11.1061 F120.00
G01 X7.2558 Y11.7220 F120.00
G01 X7.1967 Y11.8432 F120.00
G01 X7.1967 Y11.6299 F120.00
G01 X7.4537 Y11.0688 F120.00
G01 X7.5435 Y10.8592 F120.00
G00 Z2.0000
G00 X7.5435 Y10.6253
G01 F40.00
G01 Z-0.1000
G01 F120.00
G01 X7.3694 Y11.0314 F120.00
G01 X7.1967 Y11.4086 F120.00
G01 X7.1967 Y11.1873 F120.00
G01 X7.2852 Y10.9941 F120.00
G01 X7.5435 Y10.3915 F120.00
G00 Z2.0000
G00 X7.5435 Y10.1443
G01 F40.00
G01 Z-0.1000
G01 F120.00
G01 X7.4643 Y10.3424 F120.00
G01 X7.1967 Y10.9660 F120.00
G01 X7.1967 Y10.7327 F120.00
G01 X7.3791 Y10.3071 F120.00
G01 X7.5435 Y9.8961 F120.00
G00 Z2.0000
G00 X7.5435 Y9.6473
G01 F40.00
G01 Z-0.1000
G01 F120.00
G01 X7.2940 Y10.2718 F120.00
G01 X7.1967 Y10.4988 F120.00
G01 X7.1967 Y10.2649 F120.00
G01 X7.2088 Y10.2366 F120.00
G01 X7.4545 Y9.6223 F120.00
G01 X7.5435 Y9.3828 F120.00
G00 Z2.0000
G00 X7.5435 Y9.1184
G01 F40.00
G01 Z-0.1000
G01 F120.00
G01 X7.3685 Y9.5891 F120.00
G01 X7.1967 Y10.0188 F120.00
G01 X7.1967 Y9.7706 F120.00
G01 X7.2825 Y9.5559 F120.00
G01 X7.5115 Y8.9400 F120.00
G01 X7.5435 Y8.8469 F120.00
G00 Z2.0000
G00 X7.5435 Y8.5637
G01 F40.00
G01 Z-0.1000
G01 F120.00
G01 X7.4247 Y8.9090 F120.00
G01 X7.1967 Y9.5224 F120.00
G01 X7.1967 Y9.2579 F120.00
G01 X7.3379 Y8.8779 F120.00
G01 X7.5435 Y8.2804 F120.00
G00 Z2.0000
G00 X7.5435 Y7.9769
G01 F40.00
G01 Z-0.1000
G01 F120.00
G01 X7.4627 Y8.2320 F120.00
G01 X7.2511 Y8.8469 F120.00
G01 X7.1967 Y8.9934 F120.00
G01 X7.1967 Y8.7219 F120.00
G01 X7.3752 Y8.2031 F120.00
G01 X7.5435 Y7.6718 F120.00
G00 Z2.0000
G00 X7.5435 Y7.3489
G01 F40.00
G01 Z-0.1000
G01 F120.00
G01 X7.4827 Y7.5585 F120.00
G01 X7.2877 Y8.1742 F120.00
G01 X7.1967 Y8.4387 F120.00
G01 X7.1967 Y8.1554 F120.00
G01 X7.2002 Y8.1452 F120.00
G01 X7.3945 Y7.5318 F120.00
G01 X7.5435 Y7.0180 F120.00
G00 Z2.0000
G00 X7.5435 Y6.6669
G01 F40.00
G01 Z-0.1000
G01 F120.00
G01 X7.4849 Y6.8892 F120.00
G01 X7.3063 Y7.5050 F120.00
G01 X7.1967 Y7.8511 F120.00
G01 X7.1967 Y7.5460 F120.00
G01 X7.2181 Y7.4783 F120.00
G01 X7.3961 Y6.8646 F120.00
G01 X7.5435 Y6.3053 F120.00
G01 X7.1967 Y6.1749 F120.00
G01 X7.2014 Y6.1571 F120.00
G01 X7.3469 Y5.5442 F120.00
G01 X7.4774 Y4.9280 F120.00
G01 X7.5435 Y4.5729 F120.00
G01 X7.1967 Y4.4217 F120.00
G01 X7.2295 Y4.2456 F120.00
G01 X7.3281 Y3.6326 F120.00
G01 X7.4117 Y3.0174 F120.00
G01 X7.4801 Y2.4003 F120.00
G01 X7.5334 Y1.7817 F120.00
G01 X7.5435 Y1.6169 F120.00
G01 X7.1967 Y1.2507 F120.00
G01 X7.2032 Y1.1439 F120.00
G01 X7.2258 Y0.5325 F120.00
G01 X7.2333 Y-0.0793 F120.00
G01 X7.2258 Y-0.6911 F120.00
G01 X7.2032 Y-1.3026 F120.00
G01 X7.1967 Y-1.4094 F120.00
G01 X7.5435 Y-1.7755 F120.00
G01 X7.5334 Y-1.9404 F120.00
G01 X7.4801 Y-2.5590 F120.00
G01 X7.4117 Y-3.1761 F120.00
G01 X7.3281 Y-3.7913 F120.00
G01 X7.2295 Y-4.4043 F120.00
G01 X7.1967 Y-4.5804 F120.00
G01 X7.5435 Y-4.7315 F120.00
G01 X7.4774 Y-5.0866 F120.00
G01 X7.3469 Y-5.7029 F120.00
G01 X7.2014 Y-6.3158 F120.00
G01 X7.1967 Y-6.3335 F120.00
G01 X7.1967 Y-6.6951 F120.00
G01 X7.2908 Y-6.3382 F120.00
G01 X7.4368 Y-5.7231 F120.00
G01 X7.5435 Y-5.2193 F120.00
G01 X7.1967 Y-5.0777 F120.00
G01 X7.2062 Y-5.0327 F120.00
G01 X7.3203 Y-4.4201 F120.00
G01 X7.4193 Y-3.8048 F120.00
G01 X7.5031 Y-3.1874 F120.00
G01 X7.5435 Y-2.8234 F120.00
G01 X7.1967 Y-2.6064 F120.00
G01 X7.2050 Y-2.5319 F120.00
G01 X7.2576 Y-1.9200 F120.00
G01 X7.2953 Y-1.3071 F120.00
G01 X7.3179 Y-0.6934 F120.00
G01 X7.3254 Y-0.0793 F120.00
G01 X7.3179 Y0.5347 F120.00
G01 X7.2953 Y1.1484 F120.00
G01 X7.2576 Y1.7614 F120.00
G01 X7.2050 Y2.3732 F120.00
G01 X7.1967 Y2.4477 F120.00
G01 X7.5435 Y2.6647 F120.00
G01 X7.5031 Y3.0287 F120.00
G01 X7.4193 Y3.6462 F120.00
G01 X7.3203 Y4.2614 F120.00
G01 X7.2062 Y4.8740 F120.00
G01 X7.1967 Y4.9190 F120.00
G01 X7.5435 Y5.0606 F120.00
G01 X7.4368 Y5.5644 F120.00
G01 X7.2908 Y6.1795 F120.00
G01 X7.1967 Y6.5364 F120.00
G01 X7.1967 Y6.8905 F120.00
G01 X7.2185 Y6.8154 F120.00
G01 X7.3802 Y6.2019 F120.00
G01 X7.5268 Y5.5846 F120.00
G01 X7.5435 Y5.5055 F120.00
G01 X7.1967 Y5.3640 F120.00
G01 X7.2966 Y4.8920 F120.00
G01 X7.4111 Y4.2772 F120.00
G01 X7.5104 Y3.6597 F120.00
G01 X7.5435 Y3.4162 F120.00
G01 X7.1967 Y3.2308 F120.00
G01 X7.2287 Y2.9948 F120.00
G01 X7.2967 Y2.3822 F120.00
G01 X7.3496 Y1.7681 F120.00
G01 X7.3873 Y1.1529 F120.00
G01 X7.4100 Y0.5370 F120.00
G01 X7.4176 Y-0.0793 F120.00
G01 X7.4100 Y-0.6957 F120.00
G01 X7.3873 Y-1.3116 F120.00
G01 X7.3496 Y-1.9268 F120.00
G01 X7.2967 Y-2.5409 F120.00
G01 X7.2287 Y-3.1535 F120.00
G01 X7.1967 Y-3.3895 F120.00
G01 X7.5435 Y-3.5749 F120.00
G01 X7.5104 Y-3.8184 F120.00
G01 X7.4111 Y-4.4358 F120.00
G01 X7.2966 Y-5.0507 F120.00
G01 X7.1967 Y-5.5226 F120.00
G01 X7.5435 Y-5.6642 F120.00
G01 X7.5268 Y-5.7433 F120.00
G01 X7.3802 Y-6.3606 F120.00
G01 X7.2185 Y-6.9741 F120.00
G01 X7.0417 Y-7.5835 F120.00
G01 X7.0105 Y-7.6822 F120.00
G01 X7.1493 Y-7.5433 F120.00
G01 X7.3073 Y-6.9987 F120.00
G01 X7.4696 Y-6.3830 F120.00
G01 X7.5435 Y-6.0716 F120.00
G01 X7.1967 Y-5.9367 F120.00
G01 X7.2570 Y-5.6827 F120.00
G01 X7.3870 Y-5.0687 F120.00
G01 X7.5019 Y-4.4516 F120.00
G01 X7.5435 Y-4.1929 F120.00
G01 X7.1967 Y-4.0280 F120.00
G01 X7.2369 Y-3.7778 F120.00
G01 X7.3202 Y-3.1648 F120.00
G01 X7.3884 Y-2.5499 F120.00
G01 X7.4415 Y-1.9336 F120.00
G01 X7.4794 Y-1.3161 F120.00
G01 X7.5022 Y-0.6979 F120.00
G01 X7.5098 Y-0.0793 F120.00
G01 X7.5022 Y0.5392 F120.00
G01 X7.4794 Y1.1574 F120.00
G01 X7.4415 Y1.7749 F120.00
G01 X7.3884 Y2.3913 F120.00
G01 X7.3202 Y3.0061 F120.00
G01 X7.2369 Y3.6191 F120.00
G01 X7.1967 Y3.8693 F120.00
G01 X7.5435 Y4.0343 F120.00
G01 X7.5019 Y4.2929 F120.00
G01 X7.3870 Y4.9100 F120.00
G01 X7.2570 Y5.5240 F120.00
G01 X7.1967 Y5.7780 F120.00
G01 X7.5435 Y5.9130 F120.00
G01 X7.4696 Y6.2243 F120.00
G01 X7.3073 Y6.8400 F120.00
G01 X7.1967 Y7.2214 F120.00
G00 Z2.0000
G00 X8.0423 Y7.2832
G01 F40.00
G01 Z-0.1000
G01 F120.00
G01 X8.1067 Y7.0612 F120.00
G01 X8.2741 Y6.4258 F120.00
G01 X8.3891 Y5.9418 F120.00
G01 X8.0423 Y5.8068 F120.00
G01 X8.0663 Y5.7058 F120.00
G01 X8.2005 Y5.0718 F120.00
G01 X8.3191 Y4.4347 F120.00
G01 X8.3891 Y3.9998 F120.00
G01 X8.0423 Y3.8347 F120.00
G01 X8.0574 Y3.7408 F120.00
G01 X8.1434 Y3.1076 F120.00
G01 X8.2138 Y2.4726 F120.00
G01 X8.2687 Y1.8359 F120.00
G01 X8.3078 Y1.1981 F120.00
G01 X8.3314 Y0.5596 F120.00
G01 X8.3392 Y-0.0793 F120.00
G01 X8.3314 Y-0.7183 F120.00
G01 X8.3078 Y-1.3568 F120.00
G01 X8.2687 Y-1.9946 F120.00
G01 X8.2138 Y-2.6312 F120.00
G01 X8.1434 Y-3.2663 F120.00
G01 X8.0574 Y-3.8995 F120.00
G01 X8.0423 Y-3.9934 F120.00
G01 X8.3891 Y-4.1584 F120.00
G01 X8.3191 Y-4.5934 F120.00
G01 X8.2005 Y-5.2305 F120.00
G01 X8.0663 Y-5.8645 F120.00
G01 X8.0423 Y-5.9654 F120.00
G01 X8.3891 Y-6.1005 F120.00
G01 X8.2741 Y-6.5845 F120.00
G01 X8.1067 Y-7.2199 F120.00
G01 X8.0423 Y-7.4419 F120.00
G00 Z2.0000
G00 X8.0423 Y-7.7728
G01 F40.00
G01 Z-0.1000
G01 F120.00
G01 X8.1955 Y-7.2445 F120.00
G01 X8.3635 Y-6.6069 F120.00
G01 X8.3891 Y-6.4993 F120.00
G01 X8.0423 Y-6.3643 F120.00
G01 X8.1562 Y-5.8846 F120.00
G01 X8.2909 Y-5.2485 F120.00
G01 X8.3891 Y-4.7210 F120.00
G01 X8.0423 Y-4.5698 F120.00
G01 X8.0467 Y-4.5461 F120.00
G01 X8.1486 Y-3.9130 F120.00
G01 X8.2349 Y-3.2776 F120.00
G01 X8.3055 Y-2.6403 F120.00
G01 X8.3606 Y-2.0014 F120.00
G01 X8.3891 Y-1.5370 F120.00
G00 Z2.0000
G00 X8.9493 Y-1.4354
G01 F40.00
G01 Z-0.1000
G01 F120.00
G01 X8.9522 Y-1.3885 F120.00
G01 X8.9763 Y-0.7341 F120.00
G01 X8.9843 Y-0.0793 F120.00
G01 X8.9763 Y0.5754 F120.00
G01 X8.9522 Y1.2298 F120.00
G01 X8.9493 Y1.2767 F120.00
G01 X9.0495 Y1.0913 F120.00
G01 X9.0442 Y1.2343 F120.00
G01 X9.0039 Y1.8902 F120.00
G01 X8.9493 Y2.5246 F120.00
G01 X9.0495 Y2.4352 F120.00
G01 X9.0393 Y2.5539 F120.00
G01 X8.9666 Y3.2092 F120.00
G01 X8.9493 Y3.3366 F120.00
G01 X9.0495 Y3.2836 F120.00
G01 X8.9690 Y3.8760 F120.00
G01 X8.9493 Y3.9987 F120.00
G01 X9.0495 Y3.9561 F120.00
G01 X8.9547 Y4.5450 F120.00
G01 X8.9493 Y4.5742 F120.00
G01 X9.0495 Y4.5361 F120.00
G01 X9.0455 Y4.5608 F120.00
G01 X8.9493 Y5.0776 F120.00
G01 X9.0495 Y5.0429 F120.00
G01 X9.0140 Y5.2336 F120.00
G01 X8.9493 Y5.5392 F120.00
G01 X9.0495 Y5.5109 F120.00
G01 X8.9655 Y5.9077 F120.00
G01 X8.9493 Y5.9759 F120.00
G01 X9.0495 Y5.9528 F120.00
G01 X8.9493 Y6.3747 F120.00
G01 X9.0495 Y6.3516 F120.00
G01 X8.9893 Y6.6050 F120.00
G01 X8.9493 Y6.7568 F120.00
G01 X9.0495 Y6.7383 F120.00
G01 X8.9493 Y7.1184 F120.00
G01 X9.0495 Y7.0998 F120.00
G01 X8.9949 Y7.3070 F120.00
G01 X8.9493 Y7.4642 F120.00
G01 X9.0495 Y7.4496 F120.00
G01 X8.9493 Y7.7951 F120.00
G01 X9.0495 Y7.7805 F120.00
G01 X8.9820 Y8.0133 F120.00
G01 X8.9493 Y8.1164 F120.00
G01 X9.0495 Y8.1053 F120.00
G01 X8.9493 Y8.4216 F120.00
G01 X9.0495 Y8.4104 F120.00
G01 X8.9493 Y8.7265 F120.00
G01 X9.0495 Y8.7156 F120.00
G01 X9.0378 Y8.7523 F120.00
G01 X8.9493 Y9.0097 F120.00
G01 X9.0495 Y9.0018 F120.00
G01 X8.9493 Y9.2930 F120.00
G01 X9.0495 Y9.2850 F120.00
G01 X8.9866 Y9.4678 F120.00
G01 X8.9493 Y9.5682 F120.00
G01 X9.0495 Y9.5631 F120.00
G01 X8.9493 Y9.8327 F120.00
G01 X9.0495 Y9.8276 F120.00
G01 X8.9493 Y10.0972 F120.00
G01 X9.0495 Y10.0921 F120.00
G01 X9.0022 Y10.2193 F120.00
G01 X8.9493 Y10.3516 F120.00
G01 X9.0495 Y10.3493 F120.00
G01 X8.9493 Y10.5998 F120.00
G01 X9.0495 Y10.5974 F120.00
G01 X8.9493 Y10.8480 F120.00
G01 X9.0495 Y10.8456 F120.00
G01 X8.9969 Y10.9772 F120.00
G01 X8.9493 Y11.0882 F120.00
G01 X9.0495 Y11.0883 F120.00
G01 X8.9493 Y11.3221 F120.00
G01 X9.0495 Y11.3222 F120.00
G01 X8.9493 Y11.5560 F120.00
G01 X9.0495 Y11.5561 F120.00
G01 X8.9703 Y11.7410 F120.00
G01 X8.9493 Y11.7867 F120.00
G01 X9.0495 Y11.7893 F120.00
G01 X8.9493 Y12.0080 F120.00
G01 X9.0495 Y12.0106 F120.00
G01 X8.9493 Y12.2293 F120.00
G01 X9.0495 Y12.2319 F120.00
G01 X8.9493 Y12.4506 F120.00
G01 X9.0495 Y12.4532 F120.00
G01 X9.0054 Y12.5495 F120.00
G01 X8.9493 Y12.6644 F120.00
G01 X9.0495 Y12.6692 F120.00
G01 X8.9493 Y12.8745 F120.00
G01 X9.0495 Y12.8793 F120.00
G01 X8.9493 Y13.0846 F120.00
G01 X9.0495 Y13.0894 F120.00
G01 X8.9493 Y13.2947 F120.00
G01 X9.0495 Y13.2995 F120.00
G01 X9.0167 Y13.3667 F120.00
G01 X8.9493 Y13.4966 F120.00
G01 X9.0495 Y13.5036 F120.00
G01 X8.9493 Y13.6967 F120.00
G01 X9.0495 Y13.7037 F120.00
G01 X8.9493 Y13.8968 F120.00
G01 X9.0495 Y13.9038 F120.00
G01 X8.9493 Y14.0969 F120.00
G01 X9.0495 Y14.1039 F120.00
G01 X9.0038 Y14.1920 F120.00
G01 X8.9493 Y14.2910 F120.00
G01 X9.0495 Y14.3000 F120.00
G01 X8.9493 Y14.4821 F120.00
G01 X9.0495 Y14.4912 F120.00
G01 X8.9493 Y14.6732 F120.00
G01 X9.0495 Y14.6823 F120.00
G01 X8.9493 Y14.8643 F120.00
G01 X9.0495 Y14.8734 F120.00
G01 X8.9662 Y15.0246 F120.00
G01 X8.9493 Y15.0537 F120.00
G01 X9.0495 Y15.0645 F120.00
G01 X8.9493 Y15.2367 F120.00
G01 X9.0495 Y15.2478 F120.00
G01 X8.9493 Y15.4197 F120.00
G01 X9.0495 Y15.4308 F120.00
G01 X8.9493 Y15.6028 F120.00
G01 X9.0495 Y15.6138 F120.00
G01 X8.9493 Y15.7858 F120.00
G01 X9.0495 Y15.7969 F120.00
G01 X8.9828 Y15.9113 F120.00
G01 X8.9493 Y15.9657 F120.00
G01 X9.0495 Y15.9787 F120.00
G01 X8.9493 Y16.1413 F120.00
G01 X9.0495 Y16.1544 F120.00
G01 X8.9493 Y16.3170 F120.00
G01 X9.0495 Y16.3301 F120.00
G01 X8.9493 Y16.4927 F120.00
G01 X9.0495 Y16.5057 F120.00
G01 X8.9493 Y16.6683 F120.00
G01 X9.0495 Y16.6814 F120.00
G01 X8.9716 Y16.8078 F120.00
G01 X8.9493 Y16.8421 F120.00
G01 X9.0495 Y16.8571 F120.00
G01 X8.9493 Y17.0111 F120.00
G01 X9.0495 Y17.0260 F120.00
G01 X8.9493 Y17.1801 F120.00
G01 X9.0495 Y17.1950 F120.00
G01 X8.9493 Y17.3490 F120.00
G01 X9.0495 Y17.3640 F120.00
G01 X8.9493 Y17.5180 F120.00
G01 X9.0495 Y17.5330 F120.00
G01 X8.9493 Y17.6870 F120.00
G01 X9.0495 Y17.7020 F120.00
G01 X9.0089 Y17.7643 F120.00
G01 X8.9493 Y17.8513 F120.00
G01 X9.0495 Y17.8681 F120.00
G01 X8.9493 Y18.0142 F120.00
G01 X9.0495 Y18.0310 F120.00
G01 X8.9493 Y18.1770 F120.00
G01 X9.0495 Y18.1939 F120.00
G01 X8.9493 Y18.3399 F120.00
G01 X9.0495 Y18.3568 F120.00
G01 X8.9493 Y18.5028 F120.00
G01 X9.0495 Y18.5197 F120.00
G01 X8.9493 Y18.6657 F120.00
G01 X9.0495 Y18.6826 F120.00
G01 X9.0151 Y18.7327 F120.00
G01 X8.9493 Y18.8237 F120.00
G01 X9.0495 Y18.8424 F120.00
G01 X8.9493 Y18.9811 F120.00
G01 X9.0495 Y18.9997 F120.00
G01 X8.9493 Y19.1384 F120.00
G01 X9.0504 Y19.1558 F120.00
G01 X8.9493 Y19.2957 F120.00
G00 Z2.0000
G00 X9.0831 Y19.2679
G01 F40.00
G01 Z-0.1000
G01 F120.00
G01 X8.9493 Y19.4530 F120.00
G01 X9.0850 Y19.4226 F120.00
G01 X8.9493 Y19.6103 F120.00
G01 X9.0927 Y19.5692 F120.00
G01 X8.9895 Y19.7120 F120.00
G01 X8.9493 Y19.7648 F120.00
G01 X8.9493 Y19.9170 F120.00
G01 X9.0635 Y19.7669 F120.00
G01 X9.1252 Y19.6815 F120.00
G00 Z2.0000
G00 X9.1727 Y19.7732
G01 F40.00
G01 Z-0.1000
G01 F120.00
G01 X9.1376 Y19.8218 F120.00
G01 X8.9860 Y20.0209 F120.00
G01 X9.0606 Y20.0752 F120.00
G01 X9.2116 Y19.8767 F120.00
G01 X9.2309 Y19.8500 F120.00
G00 Z2.0000
G00 X9.2981 Y19.9143
G01 F40.00
G01 Z-0.1000
G01 F120.00
G01 X9.2856 Y19.9316 F120.00
G01 X9.1899 Y20.0573 F120.00
G00 Z2.0000
G00 X9.2995 Y20.0655
G01 F40.00
G01 Z-0.1000
G01 F120.00
G01 X9.3596 Y19.9865 F120.00
G01 X9.3745 Y19.9660 F120.00
G00 Z2.0000
G00 X9.4596 Y20.0055
G01 F40.00
G01 Z-0.1000
G01 F120.00
G01 X9.4336 Y20.0414 F120.00
G01 X9.3960 Y20.0908 F120.00
G00 Z2.0000
G00 X9.4824 Y20.1295
G01 F40.00
G01 Z-0.1000
G01 F120.00
G01 X9.5077 Y20.0963 F120.00
G01 X9.5541 Y20.0320 F120.00
G00 Z2.0000
G00 X9.6606 Y20.0420
G01 F40.00
G01 Z-0.1000
G01 F120.00
G01 X9.5817 Y20.1512 F120.00
G01 X9.5592 Y20.1807 F120.00
G00 Z2.0000
G00 X9.6270 Y20.2438
G01 F40.00
G01 Z-0.1000
G01 F120.00
G01 X9.6557 Y20.2061 F120.00
G01 X9.7845 Y20.0280 F120.00
G00 Z2.0000
G00 X9.9414 Y19.9682
G01 F40.00
G01 Z-0.1000
G01 F120.00
G01 X9.7297 Y20.2610 F120.00
G01 X9.6857 Y20.3188 F120.00
G00 Z2.0000
G00 X9.7334 Y20.4083
G01 F40.00
G01 Z-0.1000
G01 F120.00
G01 X9.8038 Y20.3159 F120.00
G01 X10.2960 Y19.6349 F120.00
G01 X10.4973 Y19.3415 F120.00
G01 X10.4973 Y19.1786 F120.00
G01 X10.2262 Y19.5737 F120.00
G00 Z2.0000
G00 X10.2328 Y19.4012
G01 F40.00
G01 Z-0.1000
G01 F120.00
G01 X10.4973 Y19.0157 F120.00
G01 X10.4973 Y18.8528 F120.00
G01 X10.2051 Y19.2788 F120.00
G00 Z2.0000
G00 X10.1608 Y19.1803
G01 F40.00
G01 Z-0.1000
G01 F120.00
G01 X10.4649 Y18.7372 F120.00
G01 X10.4973 Y18.6873 F120.00
G01 X10.4973 Y18.5183 F120.00
G01 X10.3882 Y18.6860 F120.00
G01 X10.1051 Y19.0986 F120.00
G00 Z2.0000
G00 X10.0394 Y19.0316
G01 F40.00
G01 Z-0.1000
G01 F120.00
G01 X10.3116 Y18.6348 F120.00
G01 X10.4973 Y18.3493 F120.00
G01 X10.4973 Y18.1803 F120.00
G01 X10.2350 Y18.5836 F120.00
G01 X9.9654 Y18.9766 F120.00
G00 Z2.0000
G00 X9.8832 Y18.9335
G01 F40.00
G01 Z-0.1000
G01 F120.00
G01 X10.1584 Y18.5324 F120.00
G01 X10.4973 Y18.0114 F120.00
G01 X10.4973 Y17.8424 F120.00
G01 X10.0817 Y18.4812 F120.00
G01 X9.7915 Y18.9042 F120.00
G00 Z2.0000
G00 X9.6896 Y18.8898
G01 F40.00
G01 Z-0.1000
G01 F120.00
G01 X10.0051 Y18.4299 F120.00
G01 X10.4510 Y17.7446 F120.00
G01 X10.4973 Y17.6694 F120.00
G01 X10.4973 Y17.4937 F120.00
G01 X10.3731 Y17.6953 F120.00
G01 X9.9285 Y18.3787 F120.00
G01 X9.6097 Y18.8434 F120.00
G01 X9.6097 Y18.6805 F120.00
G01 X9.8519 Y18.3275 F120.00
G01 X10.2953 Y17.6459 F120.00
G01 X10.4973 Y17.3181 F120.00
G01 X10.4973 Y17.1424 F120.00
G01 X10.2174 Y17.5966 F120.00
G01 X9.7752 Y18.2763 F120.00
G01 X9.6097 Y18.5176 F120.00
G01 X9.6097 Y18.3547 F120.00
G01 X9.6986 Y18.2251 F120.00
G01 X10.1396 Y17.5473 F120.00
G01 X10.4973 Y16.9667 F120.00
G01 X10.4973 Y16.7899 F120.00
G01 X10.4847 Y16.8115 F120.00
G01 X10.0617 Y17.4980 F120.00
G01 X9.6220 Y18.1739 F120.00
G01 X9.6097 Y18.1918 F120.00
G01 X9.6097 Y18.0238 F120.00
G01 X9.9838 Y17.4487 F120.00
G01 X10.4057 Y16.7641 F120.00
G01 X10.4973 Y16.6069 F120.00
G01 X10.4973 Y16.4239 F120.00
G01 X10.3266 Y16.7168 F120.00
G01 X9.9060 Y17.3994 F120.00
G01 X9.6097 Y17.8548 F120.00
G01 X9.6097 Y17.6858 F120.00
G01 X9.8281 Y17.3501 F120.00
G01 X10.2476 Y16.6694 F120.00
G01 X10.4973 Y16.2409 F120.00
G01 X10.4973 Y16.0579 F120.00
G01 X10.1685 Y16.6220 F120.00
G01 X9.7502 Y17.3008 F120.00
G01 X9.6097 Y17.5168 F120.00
G01 X9.6097 Y17.3479 F120.00
G01 X9.6724 Y17.2515 F120.00
G01 X10.0895 Y16.5746 F120.00
G01 X10.4898 Y15.8877 F120.00
G01 X10.4973 Y15.8741 F120.00
G01 X10.4973 Y15.6830 F120.00
G01 X10.4096 Y15.8423 F120.00
G01 X10.0104 Y16.5272 F120.00
G01 X9.6097 Y17.1776 F120.00
G01 X9.6097 Y17.0019 F120.00
G01 X9.9314 Y16.4799 F120.00
G01 X10.3294 Y15.7969 F120.00
G01 X10.4973 Y15.4919 F120.00
G01 X10.4973 Y15.3007 F120.00
G01 X10.2492 Y15.7514 F120.00
G01 X9.8523 Y16.4325 F120.00
G01 X9.6097 Y16.8262 F120.00
G01 X9.6097 Y16.6506 F120.00
G01 X9.7733 Y16.3851 F120.00
G01 X10.1691 Y15.7060 F120.00
G01 X10.4973 Y15.1096 F120.00
G01 X10.4973 Y14.9151 F120.00
G01 X10.4668 Y14.9740 F120.00
G01 X10.0889 Y15.6606 F120.00
G01 X9.6942 Y16.3377 F120.00
G01 X9.6097 Y16.4749 F120.00
G01 X9.6097 Y16.2992 F120.00
G01 X9.6152 Y16.2904 F120.00
G01 X10.0087 Y15.6152 F120.00
G01 X10.3855 Y14.9305 F120.00
G01 X10.4973 Y14.7150 F120.00
G01 X10.4973 Y14.5149 F120.00
G01 X10.3042 Y14.8871 F120.00
G01 X9.9285 Y15.5697 F120.00
G01 X9.6097 Y16.1167 F120.00
G01 X9.6097 Y15.9337 F120.00
G01 X9.8483 Y15.5243 F120.00
G01 X10.2229 Y14.8436 F120.00
G01 X10.4973 Y14.3148 F120.00
G01 X10.4973 Y14.1147 F120.00
G01 X10.1417 Y14.8002 F120.00
G01 X9.7681 Y15.4789 F120.00
G01 X9.6097 Y15.7507 F120.00
G01 X9.6097 Y15.5677 F120.00
G01 X9.6879 Y15.4335 F120.00
G01 X10.0604 Y14.7568 F120.00
G01 X10.4161 Y14.0711 F120.00
G01 X10.4973 Y13.9048 F120.00
G01 X10.4973 Y13.6947 F120.00
G01 X10.3338 Y14.0297 F120.00
G01 X9.9791 Y14.7133 F120.00
G01 X9.6097 Y15.3845 F120.00
G01 X9.6097 Y15.1934 F120.00
G01 X9.8978 Y14.6699 F120.00
G01 X10.2515 Y13.9882 F120.00
G01 X10.4973 Y13.4846 F120.00
G01 X10.4973 Y13.2745 F120.00
G01 X10.1692 Y13.9468 F120.00
G01 X9.8166 Y14.6264 F120.00
G01 X9.6097 Y15.0023 F120.00
G01 X9.6097 Y14.8111 F120.00
G01 X9.7353 Y14.5830 F120.00
G01 X10.0868 Y13.9054 F120.00
G01 X10.4217 Y13.2193 F120.00
G01 X10.4973 Y13.0542 F120.00
G01 X10.4973 Y12.8329 F120.00
G01 X10.3384 Y13.1799 F120.00
G01 X10.0045 Y13.8639 F120.00
G01 X9.6540 Y14.5395 F120.00
G01 X9.6097 Y14.6200 F120.00
G01 X9.6097 Y14.4248 F120.00
G01 X9.9222 Y13.8225 F120.00
G01 X10.2551 Y13.1405 F120.00
G01 X10.4973 Y12.6116 F120.00
G01 X10.4973 Y12.3888 F120.00
G01 X10.4868 Y12.4132 F120.00
G01 X10.1717 Y13.1011 F120.00
G01 X9.8399 Y13.7811 F120.00
G01 X9.6097 Y14.2247 F120.00
G01 X9.6097 Y14.0246 F120.00
G01 X9.7576 Y13.7396 F120.00
G01 X10.0884 Y13.0617 F120.00
G01 X10.4026 Y12.3759 F120.00
G01 X10.4973 Y12.1549 F120.00
G01 X10.4973 Y11.9210 F120.00
G01 X10.3183 Y12.3386 F120.00
G01 X10.0051 Y13.0223 F120.00
G01 X9.6752 Y13.6982 F120.00
G01 X9.6097 Y13.8245 F120.00
G01 X9.6097 Y13.6224 F120.00
G01 X9.9218 Y12.9829 F120.00
G01 X10.2341 Y12.3012 F120.00
G01 X10.4973 Y11.6871 F120.00
G01 X10.4973 Y11.4443 F120.00
G01 X10.4443 Y11.5768 F120.00
G01 X10.1498 Y12.2639 F120.00
G01 X9.8385 Y12.9435 F120.00
G01 X9.6097 Y13.4123 F120.00
G01 X9.6097 Y13.2022 F120.00
G01 X9.7552 Y12.9041 F120.00
G01 X10.0655 Y12.2265 F120.00
G01 X10.3592 Y11.5415 F120.00
G01 X10.4973 Y11.1961 F120.00
G01 X10.4973 Y10.9479 F120.00
G01 X10.2740 Y11.5062 F120.00
G01 X9.9813 Y12.1892 F120.00
G01 X9.6719 Y12.8647 F120.00
G01 X9.6097 Y12.9921 F120.00
G01 X9.6097 Y12.7792 F120.00
G01 X9.8970 Y12.1518 F120.00
G01 X10.1889 Y11.4710 F120.00
G01 X10.4640 Y10.7832 F120.00
G01 X10.4973 Y10.6934 F120.00
G01 X10.4973 Y10.4289 F120.00
G01 X10.3780 Y10.7500 F120.00
G01 X10.1038 Y11.4357 F120.00
G01 X9.8128 Y12.1145 F120.00
G01 X9.6097 Y12.5579 F120.00
G01 X9.6097 Y12.3366 F120.00
G01 X9.7285 Y12.0771 F120.00
G01 X10.0186 Y11.4004 F120.00
G01 X10.2920 Y10.7168 F120.00
G01 X10.4973 Y10.1645 F120.00
G01 X10.4973 Y9.8923 F120.00
G01 X10.4617 Y9.9957 F120.00
G01 X10.2060 Y10.6837 F120.00
G01 X9.9335 Y11.3652 F120.00
G01 X9.6443 Y12.0398 F120.00
G01 X9.6097 Y12.1153 F120.00
G01 X9.6097 Y11.8866 F120.00
G01 X9.8483 Y11.3299 F120.00
G01 X10.1200 Y10.6505 F120.00
G01 X10.3750 Y9.9646 F120.00
G01 X10.4973 Y9.6090 F120.00
G01 X10.4973 Y9.3257 F120.00
G01 X10.2882 Y9.9336 F120.00
G01 X10.0340 Y10.6173 F120.00
G01 X9.7632 Y11.2946 F120.00
G01 X9.6097 Y11.6527 F120.00
G01 X9.6097 Y11.4188 F120.00
G01 X9.6780 Y11.2594 F120.00
G01 X9.9481 Y10.5841 F120.00
G01 X10.2014 Y9.9025 F120.00
G01 X10.4380 Y9.2149 F120.00
G01 X10.4973 Y9.0276 F120.00
G01 X10.4973 Y8.7225 F120.00
G01 X10.3505 Y9.1860 F120.00
G01 X10.1146 Y9.8715 F120.00
G01 X9.8621 Y10.5510 F120.00
G01 X9.6097 Y11.1820 F120.00
G01 X9.6097 Y10.9339 F120.00
G01 X9.7761 Y10.5178 F120.00
G01 X10.0279 Y9.8404 F120.00
G01 X10.2630 Y9.1571 F120.00
G01 X10.4812 Y8.4681 F120.00
G01 X10.4973 Y8.4127 F120.00
G00 Z2.0000
G00 X10.4974 Y8.0813
G01 F40.00
G01 Z-0.1000
G01 F120.00
G01 X10.3930 Y8.4414 F120.00
G01 X10.1755 Y9.1281 F120.00
G01 X9.9411 Y9.8094 F120.00
G01 X9.6901 Y10.4846 F120.00
G01 X9.6097 Y10.6857 F120.00
G01 X9.6097 Y10.4365 F120.00
G01 X9.8543 Y9.7783 F120.00
G01 X10.0880 Y9.0992 F120.00
G01 X10.3048 Y8.4146 F120.00
G01 X10.5049 Y7.7249 F120.00
G01 X10.5916 Y7.3957 F120.00
G00 Z2.0000
G00 X10.7210 Y7.2663
G01 F40.00
G01 Z-0.1000
G01 F120.00
G01 X10.5937 Y7.7495 F120.00
G01 X10.5343 Y7.9542 F120.00
G00 Z2.0000
G00 X10.6738 Y7.8040
G01 F40.00
G01 Z-0.1000
G01 F120.00
G01 X10.6825 Y7.7740 F120.00
G01 X10.8504 Y7.1369 F120.00
G00 Z2.0000
G00 X10.9768 Y7.0106
G01 F40.00
G01 Z-0.1000
G01 F120.00
G01 X10.9561 Y7.0976 F120.00
G01 X10.8043 Y7.6735 F120.00
G00 Z2.0000
G00 X10.9337 Y7.5441
G01 F40.00
G01 Z-0.1000
G01 F120.00
G01 X11.0455 Y7.1200 F120.00
G01 X11.1010 Y6.8864 F120.00
G01 X11.2252 Y6.7622 F120.00
G01 X11.1349 Y7.1424 F120.00
G01 X11.0631 Y7.4147 F120.00
G00 Z2.0000
G00 X11.1925 Y7.2853
G01 F40.00
G01 Z-0.1000
G01 F120.00
G01 X11.2243 Y7.1648 F120.00
G01 X11.3494 Y6.6379 F120.00
G01 X11.4736 Y6.5137 F120.00
G01 X11.3209 Y7.1570 F120.00
G00 Z2.0000
G00 X11.4451 Y7.0327
G01 F40.00
G01 Z-0.1000
G01 F120.00
G01 X11.5732 Y6.4933 F120.00
G01 X11.5944 Y6.3929 F120.00
G00 Z2.0000
G00 X11.7139 Y6.2734
G01 F40.00
G01 Z-0.1000
G01 F120.00
G01 X11.6631 Y6.5135 F120.00
G01 X11.5693 Y6.9085 F120.00
G01 X11.6935 Y6.7843 F120.00
G01 X11.7530 Y6.5337 F120.00
G01 X11.8334 Y6.1539 F120.00
G00 Z2.0000
G00 X11.9529 Y6.0344
G01 F40.00
G01 Z-0.1000
G01 F120.00
G01 X11.8430 Y6.5539 F120.00
G01 X11.8177 Y6.6601 F120.00
G00 Z2.0000
G00 X11.9407 Y6.5371
G01 F40.00
G01 Z-0.1000
G01 F120.00
G01 X12.0724 Y5.9149 F120.00
G00 Z2.0000
G00 X12.1898 Y5.7976
G01 F40.00
G01 Z-0.1000
G01 F120.00
G01 X12.1776 Y5.8629 F120.00
G01 X12.0602 Y6.4176 F120.00
G00 Z2.0000
G00 X12.1797 Y6.2981
G01 F40.00
G01 Z-0.1000
G01 F120.00
G01 X12.2680 Y5.8809 F120.00
G01 X12.3050 Y5.6824 F120.00
G00 Z2.0000
G00 X12.4201 Y5.5672
G01 F40.00
G01 Z-0.1000
G01 F120.00
G01 X12.3584 Y5.8989 F120.00
G01 X12.2992 Y6.1786 F120.00
G01 X12.4187 Y6.0592 F120.00
G01 X12.4488 Y5.9168 F120.00
G01 X12.5353 Y5.4520 F120.00
G01 X12.6505 Y5.3368 F120.00
G01 X12.5381 Y5.9397 F120.00
G01 X12.6535 Y5.8243 F120.00
G01 X12.7659 Y5.2204 F120.00
G00 Z2.0000
G00 X12.8175 Y4.9020
G01 F40.00
G01 Z-0.1000
G01 F120.00
G01 X12.8890 Y4.4575 F120.00
G01 X12.9911 Y3.7056 F120.00
G01 X13.0422 Y3.2452 F120.00
G01 X12.6953 Y3.0291 F120.00
G01 X12.7079 Y2.9152 F120.00
G01 X12.7421 Y2.5178 F120.00
G01 X12.8479 Y2.3638 F120.00
G01 X12.7996 Y2.9242 F120.00
G01 X12.7167 Y3.6717 F120.00
G01 X12.6953 Y3.8296 F120.00
G01 X13.0422 Y4.0144 F120.00
G01 X12.9802 Y4.4710 F120.00
G01 X12.8593 Y5.2225 F120.00
G01 X12.7687 Y5.7091 F120.00
G01 X12.8838 Y5.5940 F120.00
G01 X12.9501 Y5.2383 F120.00
G01 X13.0676 Y4.5081 F120.00
G00 Z2.0000
G00 X13.1469 Y4.5950
G01 F40.00
G01 Z-0.1000
G01 F120.00
G01 X13.0409 Y5.2540 F120.00
G01 X12.9990 Y5.4788 F120.00
G01 X13.1142 Y5.3636 F120.00
G01 X13.1317 Y5.2698 F120.00
G01 X13.1643 Y5.0670 F120.00
G01 X12.7611 Y4.6723 F120.00
G01 X12.7979 Y4.4440 F120.00
G01 X12.8997 Y3.6943 F120.00
G01 X12.9831 Y2.9423 F120.00
G01 X13.0451 Y2.2216 F120.00
G01 X13.1400 Y2.1941 F120.00
G01 X13.1053 Y2.5972 F120.00
G00 Z2.0000
G00 X13.2030 Y2.5370
G01 F40.00
G01 Z-0.1000
G01 F120.00
G01 X13.2318 Y2.2020 F120.00
G01 X13.2331 Y2.1803 F120.00
G01 X13.3255 Y2.1803 F120.00
G01 X13.3237 Y2.2088 F120.00
G01 X13.2963 Y2.5272 F120.00
G01 X13.3888 Y2.5272 F120.00
G01 X13.4156 Y2.2156 F120.00
G01 X13.4178 Y2.1803 F120.00
G01 X13.5101 Y2.1803 F120.00
G01 X13.5075 Y2.2224 F120.00
G01 X13.4813 Y2.5272 F120.00
G00 Z2.0000
G00 X13.5738 Y2.5273
G01 F40.00
G01 Z-0.1000
G01 F120.00
G01 X13.5995 Y2.2292 F120.00
G01 X13.6025 Y2.1803 F120.00
G01 X13.6940 Y2.1929 F120.00
G01 X13.6914 Y2.2359 F120.00
G01 X13.6644 Y2.5485 F120.00
G00 Z2.0000
G00 X13.7509 Y2.6188
G01 F40.00
G01 Z-0.1000
G01 F120.00
G01 X13.7833 Y2.2427 F120.00
G01 X13.7847 Y2.2192 F120.00
G01 X13.8736 Y2.2676 F120.00
G01 X13.8085 Y3.0236 F120.00
G01 X13.7958 Y3.1383 F120.00
G01 X14.3122 Y3.4982 F120.00
G01 X14.2717 Y3.8635 F120.00
G01 X14.1653 Y4.6468 F120.00
G01 X14.1170 Y4.9473 F120.00
G00 Z2.0000
G00 X14.2148 Y4.9191
G01 F40.00
G01 Z-0.1000
G01 F120.00
G01 X14.2565 Y4.6604 F120.00
G01 X14.3122 Y4.2499 F120.00
G00 Z2.0000
G00 X14.3646 Y4.5490
G01 F40.00
G01 Z-0.1000
G01 F120.00
G01 X14.3476 Y4.6739 F120.00
G01 X14.3058 Y4.9337 F120.00
G01 X14.3950 Y4.9596 F120.00
G01 X14.4388 Y4.6874 F120.00
G01 X14.4490 Y4.6121 F120.00
G00 Z2.0000
G00 X14.5390 Y4.6308
G01 F40.00
G01 Z-0.1000
G01 F120.00
G01 X14.5168 Y4.6297 F120.00
G01 X14.4948 Y4.6264 F120.00
G01 X14.4732 Y4.6210 F120.00
G01 X14.4557 Y4.6149 F120.00
G01 X14.4488 Y4.6120 F120.00
G01 X14.4338 Y4.6049 F120.00
G01 X14.4288 Y4.6022 F120.00
G01 X14.4114 Y4.5915 F120.00
G01 X14.3966 Y4.5805 F120.00
G01 X14.3923 Y4.5769 F120.00
G01 X14.3786 Y4.5644 F120.00
G01 X14.3637 Y4.5479 F120.00
G01 X14.3504 Y4.5300 F120.00
G01 X14.3390 Y4.5109 F120.00
G01 X14.3295 Y4.4908 F120.00
G01 X14.3220 Y4.4698 F120.00
G01 X14.3166 Y4.4482 F120.00
G01 X14.3135 Y4.4281 F120.00
G01 X14.3122 Y4.4040 F120.00
G01 X14.3122 Y2.7540 F120.00
G01 X14.3130 Y2.7355 F120.00
G01 X14.3138 Y2.7280 F120.00
G01 X14.3166 Y2.7098 F120.00
G01 X14.3210 Y2.6918 F120.00
G01 X14.3231 Y2.6846 F120.00
G01 X14.3295 Y2.6672 F120.00
G01 X14.3373 Y2.6505 F120.00
G01 X14.3408 Y2.6438 F120.00
G01 X14.3504 Y2.6280 F120.00
G01 X14.3625 Y2.6116 F120.00
G01 X14.3760 Y2.5964 F120.00
G01 X14.3814 Y2.5910 F120.00
G01 X14.3951 Y2.5787 F120.00
G01 X14.4099 Y2.5676 F120.00
G01 X14.4162 Y2.5634 F120.00
G01 X14.4321 Y2.5540 F120.00
G01 X14.4540 Y2.5438 F120.00
G01 X14.4732 Y2.5370 F120.00
G01 X14.4948 Y2.5316 F120.00
G01 X14.5168 Y2.5283 F120.00
G01 X14.5352 Y2.5273 F120.00
G01 X14.8390 Y2.5272 F120.00
G01 X14.8612 Y2.5283 F120.00
G01 X14.8832 Y2.5316 F120.00
G01 X14.9048 Y2.5370 F120.00
G01 X14.9223 Y2.5431 F120.00
G01 X14.9292 Y2.5460 F120.00
G01 X14.9442 Y2.5531 F120.00
G01 X14.9492 Y2.5558 F120.00
G01 X14.9666 Y2.5665 F120.00
G01 X14.9814 Y2.5775 F120.00
G01 X14.9857 Y2.5811 F120.00
G01 X14.9994 Y2.5936 F120.00
G01 X15.0143 Y2.6101 F120.00
G01 X15.0276 Y2.6280 F120.00
G01 X15.0390 Y2.6471 F120.00
G01 X15.0485 Y2.6672 F120.00
G01 X15.0560 Y2.6882 F120.00
G01 X15.0614 Y2.7098 F120.00
G01 X15.0645 Y2.7299 F120.00
G01 X15.0658 Y2.7540 F120.00
G01 X15.0658 Y4.4040 F120.00
G01 X15.0650 Y4.4225 F120.00
G01 X15.0642 Y4.4300 F120.00
G01 X15.0614 Y4.4482 F120.00
G01 X15.0570 Y4.4662 F120.00
G01 X15.0548 Y4.4734 F120.00
G01 X15.0485 Y4.4908 F120.00
G01 X15.0407 Y4.5075 F120.00
G01 X15.0372 Y4.5142 F120.00
G01 X15.0276 Y4.5300 F120.00
G01 X15.0155 Y4.5464 F120.00
G01 X15.0020 Y4.5616 F120.00
G01 X14.9966 Y4.5670 F120.00
G01 X14.9829 Y4.5793 F120.00
G01 X14.9681 Y4.5904 F120.00
G01 X14.9618 Y4.5946 F120.00
G01 X14.9459 Y4.6040 F120.00
G01 X14.9240 Y4.6142 F120.00
G01 X14.9048 Y4.6210 F120.00
G01 X14.8832 Y4.6264 F120.00
G01 X14.8612 Y4.6297 F120.00
G01 X14.8428 Y4.6307 F120.00
G01 X14.5390 Y4.6308 F120.00
G01 X14.5395 Y4.6308 F120.00
G01 X14.5299 Y4.7009 F120.00
G01 X14.4854 Y4.9777 F120.00
G01 X14.5787 Y4.9777 F120.00
G01 X14.6211 Y4.7145 F120.00
G01 X14.6325 Y4.6308 F120.00
G01 X14.7255 Y4.6308 F120.00
G01 X14.7123 Y4.7280 F120.00
G01 X14.6721 Y4.9777 F120.00
G01 X14.7654 Y4.9777 F120.00
G01 X14.8034 Y4.7415 F120.00
G01 X14.8185 Y4.6308 F120.00
G00 Z2.0000
G00 X14.9132 Y4.6181
G01 F40.00
G01 Z-0.1000
G01 F120.00
G01 X14.8946 Y4.7550 F120.00
G01 X14.8588 Y4.9777 F120.00
G01 X14.9536 Y4.9681 F120.00
G01 X14.9858 Y4.7685 F120.00
G01 X15.0160 Y4.5457 F120.00
G00 Z2.0000
G00 X15.1538 Y4.8843
G01 F40.00
G01 Z-0.1000
G01 F120.00
G01 X15.1681 Y4.7956 F120.00
G01 X15.2778 Y3.9876 F120.00
G01 X15.3677 Y3.1772 F120.00
G01 X15.4377 Y2.3647 F120.00
G01 X15.4413 Y2.3061 F120.00
G00 Z2.0000
G00 X15.3468 Y2.3416
G01 F40.00
G01 Z-0.1000
G01 F120.00
G01 X15.3457 Y2.3580 F120.00
G01 X15.2760 Y3.1681 F120.00
G01 X15.1864 Y3.9763 F120.00
G01 X15.0769 Y4.7821 F120.00
G01 X15.0516 Y4.9397 F120.00
G00 Z2.0000
G00 X15.2562 Y4.8283
G01 F40.00
G01 Z-0.1000
G01 F120.00
G01 X15.2592 Y4.8091 F120.00
G01 X15.3693 Y3.9989 F120.00
G01 X15.4594 Y3.1862 F120.00
G01 X15.5296 Y2.3715 F120.00
G01 X15.5371 Y2.2483 F120.00
G01 X15.6319 Y2.2080 F120.00
G01 X15.6215 Y2.3783 F120.00
G01 X15.5957 Y2.6774 F120.00
G00 Z2.0000
G00 X15.5822 Y2.8344
G01 F40.00
G01 Z-0.1000
G01 F120.00
G01 X15.5511 Y3.1952 F120.00
G01 X15.4608 Y4.0102 F120.00
G01 X15.3508 Y4.8199 F120.00
G00 Z2.0000
G00 X15.4392 Y4.8507
G01 F40.00
G01 Z-0.1000
G01 F120.00
G01 X15.4416 Y4.8362 F120.00
G01 X15.5522 Y4.0214 F120.00
G01 X15.5822 Y3.7511 F120.00
G01 X15.0658 Y3.3913 F120.00
G01 X15.0925 Y3.1501 F120.00
G01 X15.1619 Y2.3444 F120.00
G01 X15.1658 Y2.2808 F120.00
G00 Z2.0000
G00 X15.2550 Y2.3323
G01 F40.00
G01 Z-0.1000
G01 F120.00
G01 X15.2538 Y2.3512 F120.00
G01 X15.1843 Y3.1591 F120.00
G01 X15.0949 Y3.9650 F120.00
G01 X15.0658 Y4.1792 F120.00
G01 X15.5870 Y4.4502 F120.00
G01 X15.5327 Y4.8497 F120.00
G01 X15.5243 Y4.9021 F120.00
G01 X15.6109 Y4.9439 F120.00
G01 X15.6239 Y4.8632 F120.00
G01 X15.6627 Y4.5773 F120.00
G00 Z2.0000
G00 X15.7496 Y4.6227
G01 F40.00
G01 Z-0.1000
G01 F120.00
G01 X15.7151 Y4.8767 F120.00
G01 X15.7001 Y4.9698 F120.00
G01 X15.7921 Y4.9777 F120.00
G01 X15.8062 Y4.8902 F120.00
G01 X15.8415 Y4.6308 F120.00
G01 X15.8090 Y4.6308 F120.00
G01 X15.8071 Y4.6308 F120.00
G01 X15.7868 Y4.6297 F120.00
G01 X15.7648 Y4.6264 F120.00
G01 X15.7450 Y4.6216 F120.00
G01 X15.7222 Y4.6135 F120.00
G01 X15.7021 Y4.6040 F120.00
G01 X15.6830 Y4.5926 F120.00
G01 X15.6666 Y4.5805 F120.00
G01 X15.6486 Y4.5644 F120.00
G01 X15.6337 Y4.5479 F120.00
G01 X15.6204 Y4.5300 F120.00
G01 X15.6090 Y4.5109 F120.00
G01 X15.5995 Y4.4908 F120.00
G01 X15.5920 Y4.4698 F120.00
G01 X15.5866 Y4.4482 F120.00
G01 X15.5833 Y4.4262 F120.00
G01 X15.5822 Y4.4040 F120.00
G01 X15.5822 Y2.7540 F120.00
G01 X15.5833 Y2.7318 F120.00
G01 X15.5862 Y2.7116 F120.00
G01 X15.5920 Y2.6882 F120.00
G01 X15.5981 Y2.6707 F120.00
G01 X15.6010 Y2.6638 F120.00
G01 X15.6090 Y2.6471 F120.00
G01 X15.6184 Y2.6312 F120.00
G01 X15.6226 Y2.6249 F120.00
G01 X15.6349 Y2.6087 F120.00
G01 X15.6486 Y2.5936 F120.00
G01 X15.6623 Y2.5811 F120.00
G01 X15.6681 Y2.5764 F120.00
G01 X15.6830 Y2.5654 F120.00
G01 X15.6988 Y2.5558 F120.00
G01 X15.7055 Y2.5523 F120.00
G01 X15.7222 Y2.5445 F120.00
G01 X15.7396 Y2.5381 F120.00
G01 X15.7468 Y2.5360 F120.00
G01 X15.7666 Y2.5312 F120.00
G01 X15.7868 Y2.5283 F120.00
G01 X15.8071 Y2.5272 F120.00
G01 X16.1128 Y2.5273 F120.00
G01 X16.1312 Y2.5283 F120.00
G01 X16.1532 Y2.5316 F120.00
G01 X16.1748 Y2.5370 F120.00
G01 X16.1958 Y2.5445 F120.00
G01 X16.2159 Y2.5540 F120.00
G01 X16.2350 Y2.5654 F120.00
G01 X16.2529 Y2.5787 F120.00
G01 X16.2666 Y2.5910 F120.00
G01 X16.2720 Y2.5964 F120.00
G01 X16.2831 Y2.6087 F120.00
G01 X16.2866 Y2.6131 F120.00
G01 X16.2976 Y2.6280 F120.00
G01 X16.3099 Y2.6488 F120.00
G01 X16.3185 Y2.6672 F120.00
G01 X16.3260 Y2.6882 F120.00
G01 X16.3314 Y2.7098 F120.00
G01 X16.3345 Y2.7299 F120.00
G01 X16.3358 Y2.7540 F120.00
G01 X16.3358 Y4.4040 F120.00
G01 X16.3347 Y4.4262 F120.00
G01 X16.3321 Y4.4445 F120.00
G01 X16.3306 Y4.4519 F120.00
G01 X16.3260 Y4.4698 F120.00
G01 X16.3185 Y4.4908 F120.00
G01 X16.3107 Y4.5075 F120.00
G01 X16.3072 Y4.5142 F120.00
G01 X16.2976 Y4.5300 F120.00
G01 X16.2866 Y4.5449 F120.00
G01 X16.2819 Y4.5507 F120.00
G01 X16.2694 Y4.5644 F120.00
G01 X16.2557 Y4.5769 F120.00
G01 X16.2499 Y4.5816 F120.00
G01 X16.2350 Y4.5926 F120.00
G01 X16.2192 Y4.6022 F120.00
G01 X16.2125 Y4.6057 F120.00
G01 X16.1940 Y4.6142 F120.00
G01 X16.1748 Y4.6210 F120.00
G01 X16.1532 Y4.6264 F120.00
G01 X16.1312 Y4.6297 F120.00
G01 X16.1128 Y4.6307 F120.00
G01 X15.8090 Y4.6308 F120.00
G01 X15.9345 Y4.6308 F120.00
G01 X15.8974 Y4.9038 F120.00
G01 X15.8855 Y4.9777 F120.00
G01 X15.9788 Y4.9777 F120.00
G01 X15.9885 Y4.9173 F120.00
G01 X16.0275 Y4.6308 F120.00
G00 Z2.0000
G00 X16.1205 Y4.6303
G01 F40.00
G01 Z-0.1000
G01 F120.00
G01 X16.0797 Y4.9308 F120.00
G01 X16.0722 Y4.9777 F120.00
G01 X16.1655 Y4.9777 F120.00
G01 X16.1709 Y4.9443 F120.00
G01 X16.2172 Y4.6033 F120.00
G00 Z2.0000
G00 X16.3309 Y4.4506
G01 F40.00
G01 Z-0.1000
G01 F120.00
G01 X16.2622 Y4.9569 F120.00
G01 X16.3599 Y4.9221 F120.00
G01 X16.4669 Y4.1343 F120.00
G01 X16.5600 Y3.2946 F120.00
G01 X16.6325 Y2.4529 F120.00
G01 X16.6395 Y2.3392 F120.00
G00 Z2.0000
G00 X16.5473 Y2.3366
G01 F40.00
G01 Z-0.1000
G01 F120.00
G01 X16.5406 Y2.4461 F120.00
G01 X16.4683 Y3.2856 F120.00
G01 X16.3754 Y4.1230 F120.00
G01 X16.3351 Y4.4197 F120.00
G00 Z2.0000
G00 X16.5602 Y4.8167
G01 F40.00
G01 Z-0.1000
G01 F120.00
G01 X16.6498 Y4.1568 F120.00
G01 X16.7434 Y3.3126 F120.00
G01 X16.8163 Y2.4664 F120.00
G01 X16.8306 Y2.2344 F120.00
G01 X16.9249 Y2.2013 F120.00
G01 X16.9082 Y2.4732 F120.00
G01 X16.8955 Y2.6210 F120.00
G00 Z2.0000
G00 X16.9947 Y2.5435
G01 F40.00
G01 Z-0.1000
G01 F120.00
G01 X17.0001 Y2.4800 F120.00
G01 X17.0185 Y2.1803 F120.00
G01 X17.1109 Y2.1803 F120.00
G01 X17.0920 Y2.4868 F120.00
G01 X17.0886 Y2.5272 F120.00
G01 X17.1811 Y2.5272 F120.00
G01 X17.1840 Y2.4936 F120.00
G01 X17.2032 Y2.1803 F120.00
G01 X17.2955 Y2.1803 F120.00
G01 X17.2759 Y2.5003 F120.00
G01 X17.2735 Y2.5272 F120.00
G01 X17.3660 Y2.5272 F120.00
G01 X17.3678 Y2.5071 F120.00
G01 X17.3879 Y2.1803 F120.00
G01 X17.4798 Y2.1859 F120.00
G01 X17.4597 Y2.5139 F120.00
G01 X17.4573 Y2.5413 F120.00
G00 Z2.0000
G00 X17.5448 Y2.5995
G01 F40.00
G01 Z-0.1000
G01 F120.00
G01 X17.5516 Y2.5207 F120.00
G01 X17.5705 Y2.2122 F120.00
G01 X17.6603 Y2.2539 F120.00
G01 X17.6435 Y2.5275 F120.00
G01 X17.6058 Y2.9653 F120.00
G01 X17.8398 Y2.3382 F120.00
G01 X17.8273 Y2.5410 F120.00
G01 X17.7523 Y3.4120 F120.00
G01 X17.6560 Y4.2809 F120.00
G01 X17.5655 Y4.9472 F120.00
G01 X17.4686 Y4.9754 F120.00
G01 X17.5224 Y4.5797 F120.00
G00 Z2.0000
G00 X17.4230 Y4.6265
G01 F40.00
G01 Z-0.1000
G01 F120.00
G01 X17.3753 Y4.9777 F120.00
G01 X17.2823 Y4.9777 F120.00
G01 X17.3294 Y4.6308 F120.00
G01 X17.2364 Y4.6308 F120.00
G01 X17.1893 Y4.9777 F120.00
G01 X17.0963 Y4.9777 F120.00
G01 X17.1434 Y4.6308 F120.00
G01 X17.0790 Y4.6308 F120.00
G01 X17.0752 Y4.6307 F120.00
G01 X17.0568 Y4.6297 F120.00
G01 X17.0348 Y4.6264 F120.00
G01 X17.0132 Y4.6210 F120.00
G01 X16.9922 Y4.6135 F120.00
G01 X16.9721 Y4.6040 F120.00
G01 X16.9546 Y4.5936 F120.00
G01 X16.9351 Y4.5793 F120.00
G01 X16.9186 Y4.5644 F120.00
G01 X16.9037 Y4.5479 F120.00
G01 X16.8904 Y4.5300 F120.00
G01 X16.8790 Y4.5109 F120.00
G01 X16.8695 Y4.4908 F120.00
G01 X16.8620 Y4.4698 F120.00
G01 X16.8562 Y4.4464 F120.00
G01 X16.8533 Y4.4262 F120.00
G01 X16.8522 Y4.4040 F120.00
G01 X16.8522 Y2.7540 F120.00
G01 X16.8535 Y2.7299 F120.00
G01 X16.8566 Y2.7098 F120.00
G01 X16.8620 Y2.6882 F120.00
G01 X16.8695 Y2.6672 F120.00
G01 X16.8790 Y2.6471 F120.00
G01 X16.8904 Y2.6280 F120.00
G01 X16.9037 Y2.6101 F120.00
G01 X16.9186 Y2.5936 F120.00
G01 X16.9323 Y2.5811 F120.00
G01 X16.9366 Y2.5775 F120.00
G01 X16.9499 Y2.5676 F120.00
G01 X16.9562 Y2.5634 F120.00
G01 X16.9721 Y2.5540 F120.00
G01 X16.9940 Y2.5438 F120.00
G01 X17.0132 Y2.5370 F120.00
G01 X17.0348 Y2.5316 F120.00
G01 X17.0568 Y2.5283 F120.00
G01 X17.0771 Y2.5272 F120.00
G01 X17.3828 Y2.5273 F120.00
G01 X17.4012 Y2.5283 F120.00
G01 X17.4232 Y2.5316 F120.00
G01 X17.4448 Y2.5370 F120.00
G01 X17.4675 Y2.5452 F120.00
G01 X17.4859 Y2.5540 F120.00
G01 X17.5018 Y2.5634 F120.00
G01 X17.5081 Y2.5676 F120.00
G01 X17.5229 Y2.5787 F120.00
G01 X17.5366 Y2.5910 F120.00
G01 X17.5420 Y2.5964 F120.00
G01 X17.5543 Y2.6101 F120.00
G01 X17.5676 Y2.6280 F120.00
G01 X17.5772 Y2.6438 F120.00
G01 X17.5807 Y2.6505 F120.00
G01 X17.5885 Y2.6672 F120.00
G01 X17.5960 Y2.6882 F120.00
G01 X17.6014 Y2.7098 F120.00
G01 X17.6042 Y2.7280 F120.00
G01 X17.6050 Y2.7355 F120.00
G01 X17.6058 Y2.7540 F120.00
G01 X17.6058 Y4.4040 F120.00
G01 X17.6050 Y4.4225 F120.00
G01 X17.6042 Y4.4300 F120.00
G01 X17.6014 Y4.4482 F120.00
G01 X17.5966 Y4.4680 F120.00
G01 X17.5885 Y4.4908 F120.00
G01 X17.5807 Y4.5075 F120.00
G01 X17.5772 Y4.5142 F120.00
G01 X17.5676 Y4.5300 F120.00
G01 X17.5566 Y4.5449 F120.00
G01 X17.5519 Y4.5507 F120.00
G01 X17.5394 Y4.5644 F120.00
G01 X17.5257 Y4.5769 F120.00
G01 X17.5199 Y4.5816 F120.00
G01 X17.5050 Y4.5926 F120.00
G01 X17.4892 Y4.6022 F120.00
G01 X17.4825 Y4.6057 F120.00
G01 X17.4658 Y4.6135 F120.00
G01 X17.4448 Y4.6210 F120.00
G01 X17.4269 Y4.6256 F120.00
G01 X17.4195 Y4.6271 F120.00
G01 X17.4012 Y4.6297 F120.00
G01 X17.3809 Y4.6308 F120.00
G01 X17.0790 Y4.6308 F120.00
G00 Z2.0000
G00 X17.0507 Y4.6289
G01 F40.00
G01 Z-0.1000
G01 F120.00
G01 X17.0035 Y4.9767 F120.00
G01 X16.9136 Y4.9534 F120.00
G01 X16.9619 Y4.5980 F120.00
G00 Z2.0000
G00 X16.8804 Y4.5134
G01 F40.00
G01 Z-0.1000
G01 F120.00
G01 X16.8251 Y4.9204 F120.00
G01 X16.7390 Y4.8695 F120.00
G01 X16.8328 Y4.1794 F120.00
G01 X16.8522 Y4.0041 F120.00
G01 X16.3358 Y3.6442 F120.00
G01 X16.3766 Y3.2765 F120.00
G01 X16.4487 Y2.4393 F120.00
G01 X16.4576 Y2.2937 F120.00
G01 X16.3685 Y2.2410 F120.00
G01 X16.3568 Y2.4325 F120.00
G01 X16.3324 Y2.7155 F120.00
G00 Z2.0000
G00 X16.2518 Y2.5778
G01 F40.00
G01 Z-0.1000
G01 F120.00
G01 X16.2648 Y2.4258 F120.00
G01 X16.2784 Y2.2058 F120.00
G01 X16.1875 Y2.1815 F120.00
G01 X16.1729 Y2.4190 F120.00
G01 X16.1630 Y2.5339 F120.00
G00 Z2.0000
G00 X16.0711 Y2.5272
G01 F40.00
G01 Z-0.1000
G01 F120.00
G01 X16.0810 Y2.4122 F120.00
G01 X16.0953 Y2.1803 F120.00
G01 X16.0029 Y2.1803 F120.00
G01 X15.9891 Y2.4054 F120.00
G01 X15.9786 Y2.5272 F120.00
G01 X15.8861 Y2.5272 F120.00
G01 X15.8972 Y2.3986 F120.00
G01 X15.9106 Y2.1803 F120.00
G01 X15.8183 Y2.1803 F120.00
G01 X15.8053 Y2.3919 F120.00
G01 X15.7936 Y2.5279 F120.00
G00 Z2.0000
G00 X15.6987 Y2.5559
G01 F40.00
G01 Z-0.1000
G01 F120.00
G01 X15.7134 Y2.3851 F120.00
G01 X15.7259 Y2.1819 F120.00
G00 Z2.0000
G00 X15.0767 Y2.2281
G01 F40.00
G01 Z-0.1000
G01 F120.00
G01 X15.0700 Y2.3376 F120.00
G01 X15.0427 Y2.6547 F120.00
G00 Z2.0000
G00 X14.9583 Y2.5613
G01 F40.00
G01 Z-0.1000
G01 F120.00
G01 X14.9781 Y2.3308 F120.00
G01 X14.9862 Y2.1993 F120.00
G01 X14.8950 Y2.1803 F120.00
G01 X14.8862 Y2.3241 F120.00
G01 X14.8685 Y2.5293 F120.00
G00 Z2.0000
G00 X14.7762 Y2.5272
G01 F40.00
G01 Z-0.1000
G01 F120.00
G01 X14.7943 Y2.3173 F120.00
G01 X14.8027 Y2.1803 F120.00
G01 X14.7104 Y2.1803 F120.00
G01 X14.7024 Y2.3105 F120.00
G01 X14.6837 Y2.5272 F120.00
G01 X14.5912 Y2.5272 F120.00
G01 X14.6105 Y2.3037 F120.00
G01 X14.6180 Y2.1803 F120.00
G01 X14.5257 Y2.1803 F120.00
G01 X14.5186 Y2.2969 F120.00
G01 X14.4984 Y2.5309 F120.00
G00 Z2.0000
G00 X14.4023 Y2.5733
G01 F40.00
G01 Z-0.1000
G01 F120.00
G01 X14.4266 Y2.2902 F120.00
G01 X14.4330 Y2.1874 F120.00
G01 X14.3390 Y2.2147 F120.00
G01 X14.3347 Y2.2834 F120.00
G01 X14.2671 Y3.0688 F120.00
G01 X14.1802 Y3.8522 F120.00
G01 X14.0741 Y4.6333 F120.00
G01 X13.9489 Y5.4116 F120.00
G01 X13.8738 Y5.8148 F120.00
G00 Z2.0000
G00 X13.7586 Y5.9300
G01 F40.00
G01 Z-0.1000
G01 F120.00
G01 X13.8581 Y5.3958 F120.00
G01 X13.9830 Y4.6198 F120.00
G01 X14.0888 Y3.8409 F120.00
G01 X14.1754 Y3.0597 F120.00
G01 X14.2428 Y2.2766 F120.00
G01 X14.2437 Y2.2621 F120.00
G00 Z2.0000
G00 X14.1469 Y2.3160
G01 F40.00
G01 Z-0.1000
G01 F120.00
G01 X14.0837 Y3.0507 F120.00
G01 X13.9973 Y3.8297 F120.00
G01 X13.8918 Y4.6063 F120.00
G01 X13.7673 Y5.3801 F120.00
G01 X13.6435 Y6.0452 F120.00
G00 Z2.0000
G00 X13.5274 Y6.1613
G01 F40.00
G01 Z-0.1000
G01 F120.00
G01 X13.5335 Y6.1326 F120.00
G01 X13.6442 Y5.5380 F120.00
G00 Z2.0000
G00 X13.6737 Y5.3794
G01 F40.00
G01 Z-0.1000
G01 F120.00
G01 X13.6765 Y5.3643 F120.00
G01 X13.8006 Y4.5927 F120.00
G01 X13.9058 Y3.8184 F120.00
G01 X13.9920 Y3.0417 F120.00
G01 X14.0524 Y2.3398 F120.00
G00 Z2.0000
G00 X13.9616 Y2.3196
G01 F40.00
G01 Z-0.1000
G01 F120.00
G01 X13.9002 Y3.0326 F120.00
G01 X13.8143 Y3.8071 F120.00
G01 X13.7958 Y3.9437 F120.00
G00 Z2.0000
G00 X13.7090 Y4.5823
G01 F40.00
G01 Z-0.1000
G01 F120.00
G01 X13.6737 Y4.8017 F120.00
G00 Z2.0000
G00 X13.5253 Y5.6729
G01 F40.00
G01 Z-0.1000
G01 F120.00
G01 X13.4431 Y6.1146 F120.00
G01 X13.4079 Y6.2808 F120.00
