(G-CODE GENERATED BY FLATCAM v8.994 - www.flatcam.org - Version Date: 2020/11/7)

(Name: global_vu-NPTH.drl_mill_cnc)
(Type: G-code from Geometry)
(Units: MM)

(Created on Monday, 12 August 2024 at 19:58)

(This preprocessor is used with a motion controller loaded with GRBL firmware.)
(It is configured to be compatible with almost any version of GRBL firmware.)

(TOOL DIAMETER: 2.0 mm)
(Feedrate_XY: 120.0 mm/min)
(Feedrate_Z: 60.0 mm/min)
(Feedrate rapids 1500.0 mm/min)

(Z_Cut: -1.7999999999999994 mm)
(DepthPerCut: 0.30000000000000016 mm <=>6 passes)
(Z_Move: 2.0 mm)
(Z Start: None mm)
(Z End: 7.0 mm)
(X,Y End: None mm)
(Steps per circle: 64)
(Steps per circle: 64)
(Preprocessor Geometry: GRBL_11_no_M6)

(X range:    2.9000 ...   97.1000  mm)
(Y range:    2.9000 ...   46.1000  mm)

(Spindle Speed: 1000.0 RPM)
G21
G90
G17
G94


G01 F120.00

M5             
G00 Z7.0000
G00 X0.0000 Y0.0000                
T1
(MSG, Change to Tool Dia = 2.0000)
M0
G00 Z7.0000
        
M03 S1000.0
G01 F120.00
G00 X4.1000 Y3.5000
G01 F60.00
G01 Z-0.3000
G01 F120.00
G01 X4.0971 Y3.4412 F120.00
G01 X4.0885 Y3.3829 F120.00
G01 X4.0742 Y3.3258 F120.00
G01 X4.0543 Y3.2704 F120.00
G01 X4.0292 Y3.2172 F120.00
G01 X3.9989 Y3.1667 F120.00
G01 X3.9638 Y3.1194 F120.00
G01 X3.9243 Y3.0757 F120.00
G01 X3.8806 Y3.0362 F120.00
G01 X3.8333 Y3.0011 F120.00
G01 X3.7828 Y2.9708 F120.00
G01 X3.7296 Y2.9457 F120.00
G01 X3.6742 Y2.9258 F120.00
G01 X3.6171 Y2.9115 F120.00
G01 X3.5588 Y2.9029 F120.00
G01 X3.5000 Y2.9000 F120.00
G01 X3.4412 Y2.9029 F120.00
G01 X3.3829 Y2.9115 F120.00
G01 X3.3258 Y2.9258 F120.00
G01 X3.2704 Y2.9457 F120.00
G01 X3.2172 Y2.9708 F120.00
G01 X3.1667 Y3.0011 F120.00
G01 X3.1194 Y3.0362 F120.00
G01 X3.0757 Y3.0757 F120.00
G01 X3.0362 Y3.1194 F120.00
G01 X3.0011 Y3.1667 F120.00
G01 X2.9708 Y3.2172 F120.00
G01 X2.9457 Y3.2704 F120.00
G01 X2.9258 Y3.3258 F120.00
G01 X2.9115 Y3.3829 F120.00
G01 X2.9029 Y3.4412 F120.00
G01 X2.9000 Y3.5000 F120.00
G01 X2.9029 Y3.5588 F120.00
G01 X2.9115 Y3.6171 F120.00
G01 X2.9258 Y3.6742 F120.00
G01 X2.9457 Y3.7296 F120.00
G01 X2.9708 Y3.7828 F120.00
G01 X3.0011 Y3.8333 F120.00
G01 X3.0362 Y3.8806 F120.00
G01 X3.0757 Y3.9243 F120.00
G01 X3.1194 Y3.9638 F120.00
G01 X3.1667 Y3.9989 F120.00
G01 X3.2172 Y4.0292 F120.00
G01 X3.2704 Y4.0543 F120.00
G01 X3.3258 Y4.0742 F120.00
G01 X3.3829 Y4.0885 F120.00
G01 X3.4412 Y4.0971 F120.00
G01 X3.5000 Y4.1000 F120.00
G01 X3.5588 Y4.0971 F120.00
G01 X3.6171 Y4.0885 F120.00
G01 X3.6742 Y4.0742 F120.00
G01 X3.7296 Y4.0543 F120.00
G01 X3.7828 Y4.0292 F120.00
G01 X3.8333 Y3.9989 F120.00
G01 X3.8806 Y3.9638 F120.00
G01 X3.9243 Y3.9243 F120.00
G01 X3.9638 Y3.8806 F120.00
G01 X3.9989 Y3.8333 F120.00
G01 X4.0292 Y3.7828 F120.00
G01 X4.0543 Y3.7296 F120.00
G01 X4.0742 Y3.6742 F120.00
G01 X4.0885 Y3.6171 F120.00
G01 X4.0971 Y3.5588 F120.00
G01 X4.1000 Y3.5000 F120.00
G00 X4.1000 Y3.5000
G01 F60.00
G01 Z-0.6000
G01 F120.00
G01 X4.0971 Y3.4412 F120.00
G01 X4.0885 Y3.3829 F120.00
G01 X4.0742 Y3.3258 F120.00
G01 X4.0543 Y3.2704 F120.00
G01 X4.0292 Y3.2172 F120.00
G01 X3.9989 Y3.1667 F120.00
G01 X3.9638 Y3.1194 F120.00
G01 X3.9243 Y3.0757 F120.00
G01 X3.8806 Y3.0362 F120.00
G01 X3.8333 Y3.0011 F120.00
G01 X3.7828 Y2.9708 F120.00
G01 X3.7296 Y2.9457 F120.00
G01 X3.6742 Y2.9258 F120.00
G01 X3.6171 Y2.9115 F120.00
G01 X3.5588 Y2.9029 F120.00
G01 X3.5000 Y2.9000 F120.00
G01 X3.4412 Y2.9029 F120.00
G01 X3.3829 Y2.9115 F120.00
G01 X3.3258 Y2.9258 F120.00
G01 X3.2704 Y2.9457 F120.00
G01 X3.2172 Y2.9708 F120.00
G01 X3.1667 Y3.0011 F120.00
G01 X3.1194 Y3.0362 F120.00
G01 X3.0757 Y3.0757 F120.00
G01 X3.0362 Y3.1194 F120.00
G01 X3.0011 Y3.1667 F120.00
G01 X2.9708 Y3.2172 F120.00
G01 X2.9457 Y3.2704 F120.00
G01 X2.9258 Y3.3258 F120.00
G01 X2.9115 Y3.3829 F120.00
G01 X2.9029 Y3.4412 F120.00
G01 X2.9000 Y3.5000 F120.00
G01 X2.9029 Y3.5588 F120.00
G01 X2.9115 Y3.6171 F120.00
G01 X2.9258 Y3.6742 F120.00
G01 X2.9457 Y3.7296 F120.00
G01 X2.9708 Y3.7828 F120.00
G01 X3.0011 Y3.8333 F120.00
G01 X3.0362 Y3.8806 F120.00
G01 X3.0757 Y3.9243 F120.00
G01 X3.1194 Y3.9638 F120.00
G01 X3.1667 Y3.9989 F120.00
G01 X3.2172 Y4.0292 F120.00
G01 X3.2704 Y4.0543 F120.00
G01 X3.3258 Y4.0742 F120.00
G01 X3.3829 Y4.0885 F120.00
G01 X3.4412 Y4.0971 F120.00
G01 X3.5000 Y4.1000 F120.00
G01 X3.5588 Y4.0971 F120.00
G01 X3.6171 Y4.0885 F120.00
G01 X3.6742 Y4.0742 F120.00
G01 X3.7296 Y4.0543 F120.00
G01 X3.7828 Y4.0292 F120.00
G01 X3.8333 Y3.9989 F120.00
G01 X3.8806 Y3.9638 F120.00
G01 X3.9243 Y3.9243 F120.00
G01 X3.9638 Y3.8806 F120.00
G01 X3.9989 Y3.8333 F120.00
G01 X4.0292 Y3.7828 F120.00
G01 X4.0543 Y3.7296 F120.00
G01 X4.0742 Y3.6742 F120.00
G01 X4.0885 Y3.6171 F120.00
G01 X4.0971 Y3.5588 F120.00
G01 X4.1000 Y3.5000 F120.00
G00 X4.1000 Y3.5000
G01 F60.00
G01 Z-0.9000
G01 F120.00
G01 X4.0971 Y3.4412 F120.00
G01 X4.0885 Y3.3829 F120.00
G01 X4.0742 Y3.3258 F120.00
G01 X4.0543 Y3.2704 F120.00
G01 X4.0292 Y3.2172 F120.00
G01 X3.9989 Y3.1667 F120.00
G01 X3.9638 Y3.1194 F120.00
G01 X3.9243 Y3.0757 F120.00
G01 X3.8806 Y3.0362 F120.00
G01 X3.8333 Y3.0011 F120.00
G01 X3.7828 Y2.9708 F120.00
G01 X3.7296 Y2.9457 F120.00
G01 X3.6742 Y2.9258 F120.00
G01 X3.6171 Y2.9115 F120.00
G01 X3.5588 Y2.9029 F120.00
G01 X3.5000 Y2.9000 F120.00
G01 X3.4412 Y2.9029 F120.00
G01 X3.3829 Y2.9115 F120.00
G01 X3.3258 Y2.9258 F120.00
G01 X3.2704 Y2.9457 F120.00
G01 X3.2172 Y2.9708 F120.00
G01 X3.1667 Y3.0011 F120.00
G01 X3.1194 Y3.0362 F120.00
G01 X3.0757 Y3.0757 F120.00
G01 X3.0362 Y3.1194 F120.00
G01 X3.0011 Y3.1667 F120.00
G01 X2.9708 Y3.2172 F120.00
G01 X2.9457 Y3.2704 F120.00
G01 X2.9258 Y3.3258 F120.00
G01 X2.9115 Y3.3829 F120.00
G01 X2.9029 Y3.4412 F120.00
G01 X2.9000 Y3.5000 F120.00
G01 X2.9029 Y3.5588 F120.00
G01 X2.9115 Y3.6171 F120.00
G01 X2.9258 Y3.6742 F120.00
G01 X2.9457 Y3.7296 F120.00
G01 X2.9708 Y3.7828 F120.00
G01 X3.0011 Y3.8333 F120.00
G01 X3.0362 Y3.8806 F120.00
G01 X3.0757 Y3.9243 F120.00
G01 X3.1194 Y3.9638 F120.00
G01 X3.1667 Y3.9989 F120.00
G01 X3.2172 Y4.0292 F120.00
G01 X3.2704 Y4.0543 F120.00
G01 X3.3258 Y4.0742 F120.00
G01 X3.3829 Y4.0885 F120.00
G01 X3.4412 Y4.0971 F120.00
G01 X3.5000 Y4.1000 F120.00
G01 X3.5588 Y4.0971 F120.00
G01 X3.6171 Y4.0885 F120.00
G01 X3.6742 Y4.0742 F120.00
G01 X3.7296 Y4.0543 F120.00
G01 X3.7828 Y4.0292 F120.00
G01 X3.8333 Y3.9989 F120.00
G01 X3.8806 Y3.9638 F120.00
G01 X3.9243 Y3.9243 F120.00
G01 X3.9638 Y3.8806 F120.00
G01 X3.9989 Y3.8333 F120.00
G01 X4.0292 Y3.7828 F120.00
G01 X4.0543 Y3.7296 F120.00
G01 X4.0742 Y3.6742 F120.00
G01 X4.0885 Y3.6171 F120.00
G01 X4.0971 Y3.5588 F120.00
G01 X4.1000 Y3.5000 F120.00
G00 X4.1000 Y3.5000
G01 F60.00
G01 Z-1.2000
G01 F120.00
G01 X4.0971 Y3.4412 F120.00
G01 X4.0885 Y3.3829 F120.00
G01 X4.0742 Y3.3258 F120.00
G01 X4.0543 Y3.2704 F120.00
G01 X4.0292 Y3.2172 F120.00
G01 X3.9989 Y3.1667 F120.00
G01 X3.9638 Y3.1194 F120.00
G01 X3.9243 Y3.0757 F120.00
G01 X3.8806 Y3.0362 F120.00
G01 X3.8333 Y3.0011 F120.00
G01 X3.7828 Y2.9708 F120.00
G01 X3.7296 Y2.9457 F120.00
G01 X3.6742 Y2.9258 F120.00
G01 X3.6171 Y2.9115 F120.00
G01 X3.5588 Y2.9029 F120.00
G01 X3.5000 Y2.9000 F120.00
G01 X3.4412 Y2.9029 F120.00
G01 X3.3829 Y2.9115 F120.00
G01 X3.3258 Y2.9258 F120.00
G01 X3.2704 Y2.9457 F120.00
G01 X3.2172 Y2.9708 F120.00
G01 X3.1667 Y3.0011 F120.00
G01 X3.1194 Y3.0362 F120.00
G01 X3.0757 Y3.0757 F120.00
G01 X3.0362 Y3.1194 F120.00
G01 X3.0011 Y3.1667 F120.00
G01 X2.9708 Y3.2172 F120.00
G01 X2.9457 Y3.2704 F120.00
G01 X2.9258 Y3.3258 F120.00
G01 X2.9115 Y3.3829 F120.00
G01 X2.9029 Y3.4412 F120.00
G01 X2.9000 Y3.5000 F120.00
G01 X2.9029 Y3.5588 F120.00
G01 X2.9115 Y3.6171 F120.00
G01 X2.9258 Y3.6742 F120.00
G01 X2.9457 Y3.7296 F120.00
G01 X2.9708 Y3.7828 F120.00
G01 X3.0011 Y3.8333 F120.00
G01 X3.0362 Y3.8806 F120.00
G01 X3.0757 Y3.9243 F120.00
G01 X3.1194 Y3.9638 F120.00
G01 X3.1667 Y3.9989 F120.00
G01 X3.2172 Y4.0292 F120.00
G01 X3.2704 Y4.0543 F120.00
G01 X3.3258 Y4.0742 F120.00
G01 X3.3829 Y4.0885 F120.00
G01 X3.4412 Y4.0971 F120.00
G01 X3.5000 Y4.1000 F120.00
G01 X3.5588 Y4.0971 F120.00
G01 X3.6171 Y4.0885 F120.00
G01 X3.6742 Y4.0742 F120.00
G01 X3.7296 Y4.0543 F120.00
G01 X3.7828 Y4.0292 F120.00
G01 X3.8333 Y3.9989 F120.00
G01 X3.8806 Y3.9638 F120.00
G01 X3.9243 Y3.9243 F120.00
G01 X3.9638 Y3.8806 F120.00
G01 X3.9989 Y3.8333 F120.00
G01 X4.0292 Y3.7828 F120.00
G01 X4.0543 Y3.7296 F120.00
G01 X4.0742 Y3.6742 F120.00
G01 X4.0885 Y3.6171 F120.00
G01 X4.0971 Y3.5588 F120.00
G01 X4.1000 Y3.5000 F120.00
G00 X4.1000 Y3.5000
G01 F60.00
G01 Z-1.5000
G01 F120.00
G01 X4.0971 Y3.4412 F120.00
G01 X4.0885 Y3.3829 F120.00
G01 X4.0742 Y3.3258 F120.00
G01 X4.0543 Y3.2704 F120.00
G01 X4.0292 Y3.2172 F120.00
G01 X3.9989 Y3.1667 F120.00
G01 X3.9638 Y3.1194 F120.00
G01 X3.9243 Y3.0757 F120.00
G01 X3.8806 Y3.0362 F120.00
G01 X3.8333 Y3.0011 F120.00
G01 X3.7828 Y2.9708 F120.00
G01 X3.7296 Y2.9457 F120.00
G01 X3.6742 Y2.9258 F120.00
G01 X3.6171 Y2.9115 F120.00
G01 X3.5588 Y2.9029 F120.00
G01 X3.5000 Y2.9000 F120.00
G01 X3.4412 Y2.9029 F120.00
G01 X3.3829 Y2.9115 F120.00
G01 X3.3258 Y2.9258 F120.00
G01 X3.2704 Y2.9457 F120.00
G01 X3.2172 Y2.9708 F120.00
G01 X3.1667 Y3.0011 F120.00
G01 X3.1194 Y3.0362 F120.00
G01 X3.0757 Y3.0757 F120.00
G01 X3.0362 Y3.1194 F120.00
G01 X3.0011 Y3.1667 F120.00
G01 X2.9708 Y3.2172 F120.00
G01 X2.9457 Y3.2704 F120.00
G01 X2.9258 Y3.3258 F120.00
G01 X2.9115 Y3.3829 F120.00
G01 X2.9029 Y3.4412 F120.00
G01 X2.9000 Y3.5000 F120.00
G01 X2.9029 Y3.5588 F120.00
G01 X2.9115 Y3.6171 F120.00
G01 X2.9258 Y3.6742 F120.00
G01 X2.9457 Y3.7296 F120.00
G01 X2.9708 Y3.7828 F120.00
G01 X3.0011 Y3.8333 F120.00
G01 X3.0362 Y3.8806 F120.00
G01 X3.0757 Y3.9243 F120.00
G01 X3.1194 Y3.9638 F120.00
G01 X3.1667 Y3.9989 F120.00
G01 X3.2172 Y4.0292 F120.00
G01 X3.2704 Y4.0543 F120.00
G01 X3.3258 Y4.0742 F120.00
G01 X3.3829 Y4.0885 F120.00
G01 X3.4412 Y4.0971 F120.00
G01 X3.5000 Y4.1000 F120.00
G01 X3.5588 Y4.0971 F120.00
G01 X3.6171 Y4.0885 F120.00
G01 X3.6742 Y4.0742 F120.00
G01 X3.7296 Y4.0543 F120.00
G01 X3.7828 Y4.0292 F120.00
G01 X3.8333 Y3.9989 F120.00
G01 X3.8806 Y3.9638 F120.00
G01 X3.9243 Y3.9243 F120.00
G01 X3.9638 Y3.8806 F120.00
G01 X3.9989 Y3.8333 F120.00
G01 X4.0292 Y3.7828 F120.00
G01 X4.0543 Y3.7296 F120.00
G01 X4.0742 Y3.6742 F120.00
G01 X4.0885 Y3.6171 F120.00
G01 X4.0971 Y3.5588 F120.00
G01 X4.1000 Y3.5000 F120.00
G00 X4.1000 Y3.5000
G01 F60.00
G01 Z-1.8000
G01 F120.00
G01 X4.0971 Y3.4412 F120.00
G01 X4.0885 Y3.3829 F120.00
G01 X4.0742 Y3.3258 F120.00
G01 X4.0543 Y3.2704 F120.00
G01 X4.0292 Y3.2172 F120.00
G01 X3.9989 Y3.1667 F120.00
G01 X3.9638 Y3.1194 F120.00
G01 X3.9243 Y3.0757 F120.00
G01 X3.8806 Y3.0362 F120.00
G01 X3.8333 Y3.0011 F120.00
G01 X3.7828 Y2.9708 F120.00
G01 X3.7296 Y2.9457 F120.00
G01 X3.6742 Y2.9258 F120.00
G01 X3.6171 Y2.9115 F120.00
G01 X3.5588 Y2.9029 F120.00
G01 X3.5000 Y2.9000 F120.00
G01 X3.4412 Y2.9029 F120.00
G01 X3.3829 Y2.9115 F120.00
G01 X3.3258 Y2.9258 F120.00
G01 X3.2704 Y2.9457 F120.00
G01 X3.2172 Y2.9708 F120.00
G01 X3.1667 Y3.0011 F120.00
G01 X3.1194 Y3.0362 F120.00
G01 X3.0757 Y3.0757 F120.00
G01 X3.0362 Y3.1194 F120.00
G01 X3.0011 Y3.1667 F120.00
G01 X2.9708 Y3.2172 F120.00
G01 X2.9457 Y3.2704 F120.00
G01 X2.9258 Y3.3258 F120.00
G01 X2.9115 Y3.3829 F120.00
G01 X2.9029 Y3.4412 F120.00
G01 X2.9000 Y3.5000 F120.00
G01 X2.9029 Y3.5588 F120.00
G01 X2.9115 Y3.6171 F120.00
G01 X2.9258 Y3.6742 F120.00
G01 X2.9457 Y3.7296 F120.00
G01 X2.9708 Y3.7828 F120.00
G01 X3.0011 Y3.8333 F120.00
G01 X3.0362 Y3.8806 F120.00
G01 X3.0757 Y3.9243 F120.00
G01 X3.1194 Y3.9638 F120.00
G01 X3.1667 Y3.9989 F120.00
G01 X3.2172 Y4.0292 F120.00
G01 X3.2704 Y4.0543 F120.00
G01 X3.3258 Y4.0742 F120.00
G01 X3.3829 Y4.0885 F120.00
G01 X3.4412 Y4.0971 F120.00
G01 X3.5000 Y4.1000 F120.00
G01 X3.5588 Y4.0971 F120.00
G01 X3.6171 Y4.0885 F120.00
G01 X3.6742 Y4.0742 F120.00
G01 X3.7296 Y4.0543 F120.00
G01 X3.7828 Y4.0292 F120.00
G01 X3.8333 Y3.9989 F120.00
G01 X3.8806 Y3.9638 F120.00
G01 X3.9243 Y3.9243 F120.00
G01 X3.9638 Y3.8806 F120.00
G01 X3.9989 Y3.8333 F120.00
G01 X4.0292 Y3.7828 F120.00
G01 X4.0543 Y3.7296 F120.00
G01 X4.0742 Y3.6742 F120.00
G01 X4.0885 Y3.6171 F120.00
G01 X4.0971 Y3.5588 F120.00
G01 X4.1000 Y3.5000 F120.00
G00 Z2.0000
G00 X4.1000 Y45.5000
G01 F60.00
G01 Z-0.3000
G01 F120.00
G01 X4.0971 Y45.4412 F120.00
G01 X4.0885 Y45.3829 F120.00
G01 X4.0742 Y45.3258 F120.00
G01 X4.0543 Y45.2704 F120.00
G01 X4.0292 Y45.2172 F120.00
G01 X3.9989 Y45.1667 F120.00
G01 X3.9638 Y45.1194 F120.00
G01 X3.9243 Y45.0757 F120.00
G01 X3.8806 Y45.0362 F120.00
G01 X3.8333 Y45.0011 F120.00
G01 X3.7828 Y44.9708 F120.00
G01 X3.7296 Y44.9457 F120.00
G01 X3.6742 Y44.9258 F120.00
G01 X3.6171 Y44.9115 F120.00
G01 X3.5588 Y44.9029 F120.00
G01 X3.5000 Y44.9000 F120.00
G01 X3.4412 Y44.9029 F120.00
G01 X3.3829 Y44.9115 F120.00
G01 X3.3258 Y44.9258 F120.00
G01 X3.2704 Y44.9457 F120.00
G01 X3.2172 Y44.9708 F120.00
G01 X3.1667 Y45.0011 F120.00
G01 X3.1194 Y45.0362 F120.00
G01 X3.0757 Y45.0757 F120.00
G01 X3.0362 Y45.1194 F120.00
G01 X3.0011 Y45.1667 F120.00
G01 X2.9708 Y45.2172 F120.00
G01 X2.9457 Y45.2704 F120.00
G01 X2.9258 Y45.3258 F120.00
G01 X2.9115 Y45.3829 F120.00
G01 X2.9029 Y45.4412 F120.00
G01 X2.9000 Y45.5000 F120.00
G01 X2.9029 Y45.5588 F120.00
G01 X2.9115 Y45.6171 F120.00
G01 X2.9258 Y45.6742 F120.00
G01 X2.9457 Y45.7296 F120.00
G01 X2.9708 Y45.7828 F120.00
G01 X3.0011 Y45.8333 F120.00
G01 X3.0362 Y45.8806 F120.00
G01 X3.0757 Y45.9243 F120.00
G01 X3.1194 Y45.9638 F120.00
G01 X3.1667 Y45.9989 F120.00
G01 X3.2172 Y46.0292 F120.00
G01 X3.2704 Y46.0543 F120.00
G01 X3.3258 Y46.0742 F120.00
G01 X3.3829 Y46.0885 F120.00
G01 X3.4412 Y46.0971 F120.00
G01 X3.5000 Y46.1000 F120.00
G01 X3.5588 Y46.0971 F120.00
G01 X3.6171 Y46.0885 F120.00
G01 X3.6742 Y46.0742 F120.00
G01 X3.7296 Y46.0543 F120.00
G01 X3.7828 Y46.0292 F120.00
G01 X3.8333 Y45.9989 F120.00
G01 X3.8806 Y45.9638 F120.00
G01 X3.9243 Y45.9243 F120.00
G01 X3.9638 Y45.8806 F120.00
G01 X3.9989 Y45.8333 F120.00
G01 X4.0292 Y45.7828 F120.00
G01 X4.0543 Y45.7296 F120.00
G01 X4.0742 Y45.6742 F120.00
G01 X4.0885 Y45.6171 F120.00
G01 X4.0971 Y45.5588 F120.00
G01 X4.1000 Y45.5000 F120.00
G00 X4.1000 Y45.5000
G01 F60.00
G01 Z-0.6000
G01 F120.00
G01 X4.0971 Y45.4412 F120.00
G01 X4.0885 Y45.3829 F120.00
G01 X4.0742 Y45.3258 F120.00
G01 X4.0543 Y45.2704 F120.00
G01 X4.0292 Y45.2172 F120.00
G01 X3.9989 Y45.1667 F120.00
G01 X3.9638 Y45.1194 F120.00
G01 X3.9243 Y45.0757 F120.00
G01 X3.8806 Y45.0362 F120.00
G01 X3.8333 Y45.0011 F120.00
G01 X3.7828 Y44.9708 F120.00
G01 X3.7296 Y44.9457 F120.00
G01 X3.6742 Y44.9258 F120.00
G01 X3.6171 Y44.9115 F120.00
G01 X3.5588 Y44.9029 F120.00
G01 X3.5000 Y44.9000 F120.00
G01 X3.4412 Y44.9029 F120.00
G01 X3.3829 Y44.9115 F120.00
G01 X3.3258 Y44.9258 F120.00
G01 X3.2704 Y44.9457 F120.00
G01 X3.2172 Y44.9708 F120.00
G01 X3.1667 Y45.0011 F120.00
G01 X3.1194 Y45.0362 F120.00
G01 X3.0757 Y45.0757 F120.00
G01 X3.0362 Y45.1194 F120.00
G01 X3.0011 Y45.1667 F120.00
G01 X2.9708 Y45.2172 F120.00
G01 X2.9457 Y45.2704 F120.00
G01 X2.9258 Y45.3258 F120.00
G01 X2.9115 Y45.3829 F120.00
G01 X2.9029 Y45.4412 F120.00
G01 X2.9000 Y45.5000 F120.00
G01 X2.9029 Y45.5588 F120.00
G01 X2.9115 Y45.6171 F120.00
G01 X2.9258 Y45.6742 F120.00
G01 X2.9457 Y45.7296 F120.00
G01 X2.9708 Y45.7828 F120.00
G01 X3.0011 Y45.8333 F120.00
G01 X3.0362 Y45.8806 F120.00
G01 X3.0757 Y45.9243 F120.00
G01 X3.1194 Y45.9638 F120.00
G01 X3.1667 Y45.9989 F120.00
G01 X3.2172 Y46.0292 F120.00
G01 X3.2704 Y46.0543 F120.00
G01 X3.3258 Y46.0742 F120.00
G01 X3.3829 Y46.0885 F120.00
G01 X3.4412 Y46.0971 F120.00
G01 X3.5000 Y46.1000 F120.00
G01 X3.5588 Y46.0971 F120.00
G01 X3.6171 Y46.0885 F120.00
G01 X3.6742 Y46.0742 F120.00
G01 X3.7296 Y46.0543 F120.00
G01 X3.7828 Y46.0292 F120.00
G01 X3.8333 Y45.9989 F120.00
G01 X3.8806 Y45.9638 F120.00
G01 X3.9243 Y45.9243 F120.00
G01 X3.9638 Y45.8806 F120.00
G01 X3.9989 Y45.8333 F120.00
G01 X4.0292 Y45.7828 F120.00
G01 X4.0543 Y45.7296 F120.00
G01 X4.0742 Y45.6742 F120.00
G01 X4.0885 Y45.6171 F120.00
G01 X4.0971 Y45.5588 F120.00
G01 X4.1000 Y45.5000 F120.00
G00 X4.1000 Y45.5000
G01 F60.00
G01 Z-0.9000
G01 F120.00
G01 X4.0971 Y45.4412 F120.00
G01 X4.0885 Y45.3829 F120.00
G01 X4.0742 Y45.3258 F120.00
G01 X4.0543 Y45.2704 F120.00
G01 X4.0292 Y45.2172 F120.00
G01 X3.9989 Y45.1667 F120.00
G01 X3.9638 Y45.1194 F120.00
G01 X3.9243 Y45.0757 F120.00
G01 X3.8806 Y45.0362 F120.00
G01 X3.8333 Y45.0011 F120.00
G01 X3.7828 Y44.9708 F120.00
G01 X3.7296 Y44.9457 F120.00
G01 X3.6742 Y44.9258 F120.00
G01 X3.6171 Y44.9115 F120.00
G01 X3.5588 Y44.9029 F120.00
G01 X3.5000 Y44.9000 F120.00
G01 X3.4412 Y44.9029 F120.00
G01 X3.3829 Y44.9115 F120.00
G01 X3.3258 Y44.9258 F120.00
G01 X3.2704 Y44.9457 F120.00
G01 X3.2172 Y44.9708 F120.00
G01 X3.1667 Y45.0011 F120.00
G01 X3.1194 Y45.0362 F120.00
G01 X3.0757 Y45.0757 F120.00
G01 X3.0362 Y45.1194 F120.00
G01 X3.0011 Y45.1667 F120.00
G01 X2.9708 Y45.2172 F120.00
G01 X2.9457 Y45.2704 F120.00
G01 X2.9258 Y45.3258 F120.00
G01 X2.9115 Y45.3829 F120.00
G01 X2.9029 Y45.4412 F120.00
G01 X2.9000 Y45.5000 F120.00
G01 X2.9029 Y45.5588 F120.00
G01 X2.9115 Y45.6171 F120.00
G01 X2.9258 Y45.6742 F120.00
G01 X2.9457 Y45.7296 F120.00
G01 X2.9708 Y45.7828 F120.00
G01 X3.0011 Y45.8333 F120.00
G01 X3.0362 Y45.8806 F120.00
G01 X3.0757 Y45.9243 F120.00
G01 X3.1194 Y45.9638 F120.00
G01 X3.1667 Y45.9989 F120.00
G01 X3.2172 Y46.0292 F120.00
G01 X3.2704 Y46.0543 F120.00
G01 X3.3258 Y46.0742 F120.00
G01 X3.3829 Y46.0885 F120.00
G01 X3.4412 Y46.0971 F120.00
G01 X3.5000 Y46.1000 F120.00
G01 X3.5588 Y46.0971 F120.00
G01 X3.6171 Y46.0885 F120.00
G01 X3.6742 Y46.0742 F120.00
G01 X3.7296 Y46.0543 F120.00
G01 X3.7828 Y46.0292 F120.00
G01 X3.8333 Y45.9989 F120.00
G01 X3.8806 Y45.9638 F120.00
G01 X3.9243 Y45.9243 F120.00
G01 X3.9638 Y45.8806 F120.00
G01 X3.9989 Y45.8333 F120.00
G01 X4.0292 Y45.7828 F120.00
G01 X4.0543 Y45.7296 F120.00
G01 X4.0742 Y45.6742 F120.00
G01 X4.0885 Y45.6171 F120.00
G01 X4.0971 Y45.5588 F120.00
G01 X4.1000 Y45.5000 F120.00
G00 X4.1000 Y45.5000
G01 F60.00
G01 Z-1.2000
G01 F120.00
G01 X4.0971 Y45.4412 F120.00
G01 X4.0885 Y45.3829 F120.00
G01 X4.0742 Y45.3258 F120.00
G01 X4.0543 Y45.2704 F120.00
G01 X4.0292 Y45.2172 F120.00
G01 X3.9989 Y45.1667 F120.00
G01 X3.9638 Y45.1194 F120.00
G01 X3.9243 Y45.0757 F120.00
G01 X3.8806 Y45.0362 F120.00
G01 X3.8333 Y45.0011 F120.00
G01 X3.7828 Y44.9708 F120.00
G01 X3.7296 Y44.9457 F120.00
G01 X3.6742 Y44.9258 F120.00
G01 X3.6171 Y44.9115 F120.00
G01 X3.5588 Y44.9029 F120.00
G01 X3.5000 Y44.9000 F120.00
G01 X3.4412 Y44.9029 F120.00
G01 X3.3829 Y44.9115 F120.00
G01 X3.3258 Y44.9258 F120.00
G01 X3.2704 Y44.9457 F120.00
G01 X3.2172 Y44.9708 F120.00
G01 X3.1667 Y45.0011 F120.00
G01 X3.1194 Y45.0362 F120.00
G01 X3.0757 Y45.0757 F120.00
G01 X3.0362 Y45.1194 F120.00
G01 X3.0011 Y45.1667 F120.00
G01 X2.9708 Y45.2172 F120.00
G01 X2.9457 Y45.2704 F120.00
G01 X2.9258 Y45.3258 F120.00
G01 X2.9115 Y45.3829 F120.00
G01 X2.9029 Y45.4412 F120.00
G01 X2.9000 Y45.5000 F120.00
G01 X2.9029 Y45.5588 F120.00
G01 X2.9115 Y45.6171 F120.00
G01 X2.9258 Y45.6742 F120.00
G01 X2.9457 Y45.7296 F120.00
G01 X2.9708 Y45.7828 F120.00
G01 X3.0011 Y45.8333 F120.00
G01 X3.0362 Y45.8806 F120.00
G01 X3.0757 Y45.9243 F120.00
G01 X3.1194 Y45.9638 F120.00
G01 X3.1667 Y45.9989 F120.00
G01 X3.2172 Y46.0292 F120.00
G01 X3.2704 Y46.0543 F120.00
G01 X3.3258 Y46.0742 F120.00
G01 X3.3829 Y46.0885 F120.00
G01 X3.4412 Y46.0971 F120.00
G01 X3.5000 Y46.1000 F120.00
G01 X3.5588 Y46.0971 F120.00
G01 X3.6171 Y46.0885 F120.00
G01 X3.6742 Y46.0742 F120.00
G01 X3.7296 Y46.0543 F120.00
G01 X3.7828 Y46.0292 F120.00
G01 X3.8333 Y45.9989 F120.00
G01 X3.8806 Y45.9638 F120.00
G01 X3.9243 Y45.9243 F120.00
G01 X3.9638 Y45.8806 F120.00
G01 X3.9989 Y45.8333 F120.00
G01 X4.0292 Y45.7828 F120.00
G01 X4.0543 Y45.7296 F120.00
G01 X4.0742 Y45.6742 F120.00
G01 X4.0885 Y45.6171 F120.00
G01 X4.0971 Y45.5588 F120.00
G01 X4.1000 Y45.5000 F120.00
G00 X4.1000 Y45.5000
G01 F60.00
G01 Z-1.5000
G01 F120.00
G01 X4.0971 Y45.4412 F120.00
G01 X4.0885 Y45.3829 F120.00
G01 X4.0742 Y45.3258 F120.00
G01 X4.0543 Y45.2704 F120.00
G01 X4.0292 Y45.2172 F120.00
G01 X3.9989 Y45.1667 F120.00
G01 X3.9638 Y45.1194 F120.00
G01 X3.9243 Y45.0757 F120.00
G01 X3.8806 Y45.0362 F120.00
G01 X3.8333 Y45.0011 F120.00
G01 X3.7828 Y44.9708 F120.00
G01 X3.7296 Y44.9457 F120.00
G01 X3.6742 Y44.9258 F120.00
G01 X3.6171 Y44.9115 F120.00
G01 X3.5588 Y44.9029 F120.00
G01 X3.5000 Y44.9000 F120.00
G01 X3.4412 Y44.9029 F120.00
G01 X3.3829 Y44.9115 F120.00
G01 X3.3258 Y44.9258 F120.00
G01 X3.2704 Y44.9457 F120.00
G01 X3.2172 Y44.9708 F120.00
G01 X3.1667 Y45.0011 F120.00
G01 X3.1194 Y45.0362 F120.00
G01 X3.0757 Y45.0757 F120.00
G01 X3.0362 Y45.1194 F120.00
G01 X3.0011 Y45.1667 F120.00
G01 X2.9708 Y45.2172 F120.00
G01 X2.9457 Y45.2704 F120.00
G01 X2.9258 Y45.3258 F120.00
G01 X2.9115 Y45.3829 F120.00
G01 X2.9029 Y45.4412 F120.00
G01 X2.9000 Y45.5000 F120.00
G01 X2.9029 Y45.5588 F120.00
G01 X2.9115 Y45.6171 F120.00
G01 X2.9258 Y45.6742 F120.00
G01 X2.9457 Y45.7296 F120.00
G01 X2.9708 Y45.7828 F120.00
G01 X3.0011 Y45.8333 F120.00
G01 X3.0362 Y45.8806 F120.00
G01 X3.0757 Y45.9243 F120.00
G01 X3.1194 Y45.9638 F120.00
G01 X3.1667 Y45.9989 F120.00
G01 X3.2172 Y46.0292 F120.00
G01 X3.2704 Y46.0543 F120.00
G01 X3.3258 Y46.0742 F120.00
G01 X3.3829 Y46.0885 F120.00
G01 X3.4412 Y46.0971 F120.00
G01 X3.5000 Y46.1000 F120.00
G01 X3.5588 Y46.0971 F120.00
G01 X3.6171 Y46.0885 F120.00
G01 X3.6742 Y46.0742 F120.00
G01 X3.7296 Y46.0543 F120.00
G01 X3.7828 Y46.0292 F120.00
G01 X3.8333 Y45.9989 F120.00
G01 X3.8806 Y45.9638 F120.00
G01 X3.9243 Y45.9243 F120.00
G01 X3.9638 Y45.8806 F120.00
G01 X3.9989 Y45.8333 F120.00
G01 X4.0292 Y45.7828 F120.00
G01 X4.0543 Y45.7296 F120.00
G01 X4.0742 Y45.6742 F120.00
G01 X4.0885 Y45.6171 F120.00
G01 X4.0971 Y45.5588 F120.00
G01 X4.1000 Y45.5000 F120.00
G00 X4.1000 Y45.5000
G01 F60.00
G01 Z-1.8000
G01 F120.00
G01 X4.0971 Y45.4412 F120.00
G01 X4.0885 Y45.3829 F120.00
G01 X4.0742 Y45.3258 F120.00
G01 X4.0543 Y45.2704 F120.00
G01 X4.0292 Y45.2172 F120.00
G01 X3.9989 Y45.1667 F120.00
G01 X3.9638 Y45.1194 F120.00
G01 X3.9243 Y45.0757 F120.00
G01 X3.8806 Y45.0362 F120.00
G01 X3.8333 Y45.0011 F120.00
G01 X3.7828 Y44.9708 F120.00
G01 X3.7296 Y44.9457 F120.00
G01 X3.6742 Y44.9258 F120.00
G01 X3.6171 Y44.9115 F120.00
G01 X3.5588 Y44.9029 F120.00
G01 X3.5000 Y44.9000 F120.00
G01 X3.4412 Y44.9029 F120.00
G01 X3.3829 Y44.9115 F120.00
G01 X3.3258 Y44.9258 F120.00
G01 X3.2704 Y44.9457 F120.00
G01 X3.2172 Y44.9708 F120.00
G01 X3.1667 Y45.0011 F120.00
G01 X3.1194 Y45.0362 F120.00
G01 X3.0757 Y45.0757 F120.00
G01 X3.0362 Y45.1194 F120.00
G01 X3.0011 Y45.1667 F120.00
G01 X2.9708 Y45.2172 F120.00
G01 X2.9457 Y45.2704 F120.00
G01 X2.9258 Y45.3258 F120.00
G01 X2.9115 Y45.3829 F120.00
G01 X2.9029 Y45.4412 F120.00
G01 X2.9000 Y45.5000 F120.00
G01 X2.9029 Y45.5588 F120.00
G01 X2.9115 Y45.6171 F120.00
G01 X2.9258 Y45.6742 F120.00
G01 X2.9457 Y45.7296 F120.00
G01 X2.9708 Y45.7828 F120.00
G01 X3.0011 Y45.8333 F120.00
G01 X3.0362 Y45.8806 F120.00
G01 X3.0757 Y45.9243 F120.00
G01 X3.1194 Y45.9638 F120.00
G01 X3.1667 Y45.9989 F120.00
G01 X3.2172 Y46.0292 F120.00
G01 X3.2704 Y46.0543 F120.00
G01 X3.3258 Y46.0742 F120.00
G01 X3.3829 Y46.0885 F120.00
G01 X3.4412 Y46.0971 F120.00
G01 X3.5000 Y46.1000 F120.00
G01 X3.5588 Y46.0971 F120.00
G01 X3.6171 Y46.0885 F120.00
G01 X3.6742 Y46.0742 F120.00
G01 X3.7296 Y46.0543 F120.00
G01 X3.7828 Y46.0292 F120.00
G01 X3.8333 Y45.9989 F120.00
G01 X3.8806 Y45.9638 F120.00
G01 X3.9243 Y45.9243 F120.00
G01 X3.9638 Y45.8806 F120.00
G01 X3.9989 Y45.8333 F120.00
G01 X4.0292 Y45.7828 F120.00
G01 X4.0543 Y45.7296 F120.00
G01 X4.0742 Y45.6742 F120.00
G01 X4.0885 Y45.6171 F120.00
G01 X4.0971 Y45.5588 F120.00
G01 X4.1000 Y45.5000 F120.00
G00 Z2.0000
G00 X97.1000 Y45.5000
G01 F60.00
G01 Z-0.3000
G01 F120.00
G01 X97.0971 Y45.4412 F120.00
G01 X97.0885 Y45.3829 F120.00
G01 X97.0742 Y45.3258 F120.00
G01 X97.0543 Y45.2704 F120.00
G01 X97.0292 Y45.2172 F120.00
G01 X96.9989 Y45.1667 F120.00
G01 X96.9638 Y45.1194 F120.00
G01 X96.9243 Y45.0757 F120.00
G01 X96.8806 Y45.0362 F120.00
G01 X96.8333 Y45.0011 F120.00
G01 X96.7828 Y44.9708 F120.00
G01 X96.7296 Y44.9457 F120.00
G01 X96.6742 Y44.9258 F120.00
G01 X96.6171 Y44.9115 F120.00
G01 X96.5588 Y44.9029 F120.00
G01 X96.5000 Y44.9000 F120.00
G01 X96.4412 Y44.9029 F120.00
G01 X96.3829 Y44.9115 F120.00
G01 X96.3258 Y44.9258 F120.00
G01 X96.2704 Y44.9457 F120.00
G01 X96.2172 Y44.9708 F120.00
G01 X96.1667 Y45.0011 F120.00
G01 X96.1194 Y45.0362 F120.00
G01 X96.0757 Y45.0757 F120.00
G01 X96.0362 Y45.1194 F120.00
G01 X96.0011 Y45.1667 F120.00
G01 X95.9708 Y45.2172 F120.00
G01 X95.9457 Y45.2704 F120.00
G01 X95.9258 Y45.3258 F120.00
G01 X95.9115 Y45.3829 F120.00
G01 X95.9029 Y45.4412 F120.00
G01 X95.9000 Y45.5000 F120.00
G01 X95.9029 Y45.5588 F120.00
G01 X95.9115 Y45.6171 F120.00
G01 X95.9258 Y45.6742 F120.00
G01 X95.9457 Y45.7296 F120.00
G01 X95.9708 Y45.7828 F120.00
G01 X96.0011 Y45.8333 F120.00
G01 X96.0362 Y45.8806 F120.00
G01 X96.0757 Y45.9243 F120.00
G01 X96.1194 Y45.9638 F120.00
G01 X96.1667 Y45.9989 F120.00
G01 X96.2172 Y46.0292 F120.00
G01 X96.2704 Y46.0543 F120.00
G01 X96.3258 Y46.0742 F120.00
G01 X96.3829 Y46.0885 F120.00
G01 X96.4412 Y46.0971 F120.00
G01 X96.5000 Y46.1000 F120.00
G01 X96.5588 Y46.0971 F120.00
G01 X96.6171 Y46.0885 F120.00
G01 X96.6742 Y46.0742 F120.00
G01 X96.7296 Y46.0543 F120.00
G01 X96.7828 Y46.0292 F120.00
G01 X96.8333 Y45.9989 F120.00
G01 X96.8806 Y45.9638 F120.00
G01 X96.9243 Y45.9243 F120.00
G01 X96.9638 Y45.8806 F120.00
G01 X96.9989 Y45.8333 F120.00
G01 X97.0292 Y45.7828 F120.00
G01 X97.0543 Y45.7296 F120.00
G01 X97.0742 Y45.6742 F120.00
G01 X97.0885 Y45.6171 F120.00
G01 X97.0971 Y45.5588 F120.00
G01 X97.1000 Y45.5000 F120.00
G00 X97.1000 Y45.5000
G01 F60.00
G01 Z-0.6000
G01 F120.00
G01 X97.0971 Y45.4412 F120.00
G01 X97.0885 Y45.3829 F120.00
G01 X97.0742 Y45.3258 F120.00
G01 X97.0543 Y45.2704 F120.00
G01 X97.0292 Y45.2172 F120.00
G01 X96.9989 Y45.1667 F120.00
G01 X96.9638 Y45.1194 F120.00
G01 X96.9243 Y45.0757 F120.00
G01 X96.8806 Y45.0362 F120.00
G01 X96.8333 Y45.0011 F120.00
G01 X96.7828 Y44.9708 F120.00
G01 X96.7296 Y44.9457 F120.00
G01 X96.6742 Y44.9258 F120.00
G01 X96.6171 Y44.9115 F120.00
G01 X96.5588 Y44.9029 F120.00
G01 X96.5000 Y44.9000 F120.00
G01 X96.4412 Y44.9029 F120.00
G01 X96.3829 Y44.9115 F120.00
G01 X96.3258 Y44.9258 F120.00
G01 X96.2704 Y44.9457 F120.00
G01 X96.2172 Y44.9708 F120.00
G01 X96.1667 Y45.0011 F120.00
G01 X96.1194 Y45.0362 F120.00
G01 X96.0757 Y45.0757 F120.00
G01 X96.0362 Y45.1194 F120.00
G01 X96.0011 Y45.1667 F120.00
G01 X95.9708 Y45.2172 F120.00
G01 X95.9457 Y45.2704 F120.00
G01 X95.9258 Y45.3258 F120.00
G01 X95.9115 Y45.3829 F120.00
G01 X95.9029 Y45.4412 F120.00
G01 X95.9000 Y45.5000 F120.00
G01 X95.9029 Y45.5588 F120.00
G01 X95.9115 Y45.6171 F120.00
G01 X95.9258 Y45.6742 F120.00
G01 X95.9457 Y45.7296 F120.00
G01 X95.9708 Y45.7828 F120.00
G01 X96.0011 Y45.8333 F120.00
G01 X96.0362 Y45.8806 F120.00
G01 X96.0757 Y45.9243 F120.00
G01 X96.1194 Y45.9638 F120.00
G01 X96.1667 Y45.9989 F120.00
G01 X96.2172 Y46.0292 F120.00
G01 X96.2704 Y46.0543 F120.00
G01 X96.3258 Y46.0742 F120.00
G01 X96.3829 Y46.0885 F120.00
G01 X96.4412 Y46.0971 F120.00
G01 X96.5000 Y46.1000 F120.00
G01 X96.5588 Y46.0971 F120.00
G01 X96.6171 Y46.0885 F120.00
G01 X96.6742 Y46.0742 F120.00
G01 X96.7296 Y46.0543 F120.00
G01 X96.7828 Y46.0292 F120.00
G01 X96.8333 Y45.9989 F120.00
G01 X96.8806 Y45.9638 F120.00
G01 X96.9243 Y45.9243 F120.00
G01 X96.9638 Y45.8806 F120.00
G01 X96.9989 Y45.8333 F120.00
G01 X97.0292 Y45.7828 F120.00
G01 X97.0543 Y45.7296 F120.00
G01 X97.0742 Y45.6742 F120.00
G01 X97.0885 Y45.6171 F120.00
G01 X97.0971 Y45.5588 F120.00
G01 X97.1000 Y45.5000 F120.00
G00 X97.1000 Y45.5000
G01 F60.00
G01 Z-0.9000
G01 F120.00
G01 X97.0971 Y45.4412 F120.00
G01 X97.0885 Y45.3829 F120.00
G01 X97.0742 Y45.3258 F120.00
G01 X97.0543 Y45.2704 F120.00
G01 X97.0292 Y45.2172 F120.00
G01 X96.9989 Y45.1667 F120.00
G01 X96.9638 Y45.1194 F120.00
G01 X96.9243 Y45.0757 F120.00
G01 X96.8806 Y45.0362 F120.00
G01 X96.8333 Y45.0011 F120.00
G01 X96.7828 Y44.9708 F120.00
G01 X96.7296 Y44.9457 F120.00
G01 X96.6742 Y44.9258 F120.00
G01 X96.6171 Y44.9115 F120.00
G01 X96.5588 Y44.9029 F120.00
G01 X96.5000 Y44.9000 F120.00
G01 X96.4412 Y44.9029 F120.00
G01 X96.3829 Y44.9115 F120.00
G01 X96.3258 Y44.9258 F120.00
G01 X96.2704 Y44.9457 F120.00
G01 X96.2172 Y44.9708 F120.00
G01 X96.1667 Y45.0011 F120.00
G01 X96.1194 Y45.0362 F120.00
G01 X96.0757 Y45.0757 F120.00
G01 X96.0362 Y45.1194 F120.00
G01 X96.0011 Y45.1667 F120.00
G01 X95.9708 Y45.2172 F120.00
G01 X95.9457 Y45.2704 F120.00
G01 X95.9258 Y45.3258 F120.00
G01 X95.9115 Y45.3829 F120.00
G01 X95.9029 Y45.4412 F120.00
G01 X95.9000 Y45.5000 F120.00
G01 X95.9029 Y45.5588 F120.00
G01 X95.9115 Y45.6171 F120.00
G01 X95.9258 Y45.6742 F120.00
G01 X95.9457 Y45.7296 F120.00
G01 X95.9708 Y45.7828 F120.00
G01 X96.0011 Y45.8333 F120.00
G01 X96.0362 Y45.8806 F120.00
G01 X96.0757 Y45.9243 F120.00
G01 X96.1194 Y45.9638 F120.00
G01 X96.1667 Y45.9989 F120.00
G01 X96.2172 Y46.0292 F120.00
G01 X96.2704 Y46.0543 F120.00
G01 X96.3258 Y46.0742 F120.00
G01 X96.3829 Y46.0885 F120.00
G01 X96.4412 Y46.0971 F120.00
G01 X96.5000 Y46.1000 F120.00
G01 X96.5588 Y46.0971 F120.00
G01 X96.6171 Y46.0885 F120.00
G01 X96.6742 Y46.0742 F120.00
G01 X96.7296 Y46.0543 F120.00
G01 X96.7828 Y46.0292 F120.00
G01 X96.8333 Y45.9989 F120.00
G01 X96.8806 Y45.9638 F120.00
G01 X96.9243 Y45.9243 F120.00
G01 X96.9638 Y45.8806 F120.00
G01 X96.9989 Y45.8333 F120.00
G01 X97.0292 Y45.7828 F120.00
G01 X97.0543 Y45.7296 F120.00
G01 X97.0742 Y45.6742 F120.00
G01 X97.0885 Y45.6171 F120.00
G01 X97.0971 Y45.5588 F120.00
G01 X97.1000 Y45.5000 F120.00
G00 X97.1000 Y45.5000
G01 F60.00
G01 Z-1.2000
G01 F120.00
G01 X97.0971 Y45.4412 F120.00
G01 X97.0885 Y45.3829 F120.00
G01 X97.0742 Y45.3258 F120.00
G01 X97.0543 Y45.2704 F120.00
G01 X97.0292 Y45.2172 F120.00
G01 X96.9989 Y45.1667 F120.00
G01 X96.9638 Y45.1194 F120.00
G01 X96.9243 Y45.0757 F120.00
G01 X96.8806 Y45.0362 F120.00
G01 X96.8333 Y45.0011 F120.00
G01 X96.7828 Y44.9708 F120.00
G01 X96.7296 Y44.9457 F120.00
G01 X96.6742 Y44.9258 F120.00
G01 X96.6171 Y44.9115 F120.00
G01 X96.5588 Y44.9029 F120.00
G01 X96.5000 Y44.9000 F120.00
G01 X96.4412 Y44.9029 F120.00
G01 X96.3829 Y44.9115 F120.00
G01 X96.3258 Y44.9258 F120.00
G01 X96.2704 Y44.9457 F120.00
G01 X96.2172 Y44.9708 F120.00
G01 X96.1667 Y45.0011 F120.00
G01 X96.1194 Y45.0362 F120.00
G01 X96.0757 Y45.0757 F120.00
G01 X96.0362 Y45.1194 F120.00
G01 X96.0011 Y45.1667 F120.00
G01 X95.9708 Y45.2172 F120.00
G01 X95.9457 Y45.2704 F120.00
G01 X95.9258 Y45.3258 F120.00
G01 X95.9115 Y45.3829 F120.00
G01 X95.9029 Y45.4412 F120.00
G01 X95.9000 Y45.5000 F120.00
G01 X95.9029 Y45.5588 F120.00
G01 X95.9115 Y45.6171 F120.00
G01 X95.9258 Y45.6742 F120.00
G01 X95.9457 Y45.7296 F120.00
G01 X95.9708 Y45.7828 F120.00
G01 X96.0011 Y45.8333 F120.00
G01 X96.0362 Y45.8806 F120.00
G01 X96.0757 Y45.9243 F120.00
G01 X96.1194 Y45.9638 F120.00
G01 X96.1667 Y45.9989 F120.00
G01 X96.2172 Y46.0292 F120.00
G01 X96.2704 Y46.0543 F120.00
G01 X96.3258 Y46.0742 F120.00
G01 X96.3829 Y46.0885 F120.00
G01 X96.4412 Y46.0971 F120.00
G01 X96.5000 Y46.1000 F120.00
G01 X96.5588 Y46.0971 F120.00
G01 X96.6171 Y46.0885 F120.00
G01 X96.6742 Y46.0742 F120.00
G01 X96.7296 Y46.0543 F120.00
G01 X96.7828 Y46.0292 F120.00
G01 X96.8333 Y45.9989 F120.00
G01 X96.8806 Y45.9638 F120.00
G01 X96.9243 Y45.9243 F120.00
G01 X96.9638 Y45.8806 F120.00
G01 X96.9989 Y45.8333 F120.00
G01 X97.0292 Y45.7828 F120.00
G01 X97.0543 Y45.7296 F120.00
G01 X97.0742 Y45.6742 F120.00
G01 X97.0885 Y45.6171 F120.00
G01 X97.0971 Y45.5588 F120.00
G01 X97.1000 Y45.5000 F120.00
G00 X97.1000 Y45.5000
G01 F60.00
G01 Z-1.5000
G01 F120.00
G01 X97.0971 Y45.4412 F120.00
G01 X97.0885 Y45.3829 F120.00
G01 X97.0742 Y45.3258 F120.00
G01 X97.0543 Y45.2704 F120.00
G01 X97.0292 Y45.2172 F120.00
G01 X96.9989 Y45.1667 F120.00
G01 X96.9638 Y45.1194 F120.00
G01 X96.9243 Y45.0757 F120.00
G01 X96.8806 Y45.0362 F120.00
G01 X96.8333 Y45.0011 F120.00
G01 X96.7828 Y44.9708 F120.00
G01 X96.7296 Y44.9457 F120.00
G01 X96.6742 Y44.9258 F120.00
G01 X96.6171 Y44.9115 F120.00
G01 X96.5588 Y44.9029 F120.00
G01 X96.5000 Y44.9000 F120.00
G01 X96.4412 Y44.9029 F120.00
G01 X96.3829 Y44.9115 F120.00
G01 X96.3258 Y44.9258 F120.00
G01 X96.2704 Y44.9457 F120.00
G01 X96.2172 Y44.9708 F120.00
G01 X96.1667 Y45.0011 F120.00
G01 X96.1194 Y45.0362 F120.00
G01 X96.0757 Y45.0757 F120.00
G01 X96.0362 Y45.1194 F120.00
G01 X96.0011 Y45.1667 F120.00
G01 X95.9708 Y45.2172 F120.00
G01 X95.9457 Y45.2704 F120.00
G01 X95.9258 Y45.3258 F120.00
G01 X95.9115 Y45.3829 F120.00
G01 X95.9029 Y45.4412 F120.00
G01 X95.9000 Y45.5000 F120.00
G01 X95.9029 Y45.5588 F120.00
G01 X95.9115 Y45.6171 F120.00
G01 X95.9258 Y45.6742 F120.00
G01 X95.9457 Y45.7296 F120.00
G01 X95.9708 Y45.7828 F120.00
G01 X96.0011 Y45.8333 F120.00
G01 X96.0362 Y45.8806 F120.00
G01 X96.0757 Y45.9243 F120.00
G01 X96.1194 Y45.9638 F120.00
G01 X96.1667 Y45.9989 F120.00
G01 X96.2172 Y46.0292 F120.00
G01 X96.2704 Y46.0543 F120.00
G01 X96.3258 Y46.0742 F120.00
G01 X96.3829 Y46.0885 F120.00
G01 X96.4412 Y46.0971 F120.00
G01 X96.5000 Y46.1000 F120.00
G01 X96.5588 Y46.0971 F120.00
G01 X96.6171 Y46.0885 F120.00
G01 X96.6742 Y46.0742 F120.00
G01 X96.7296 Y46.0543 F120.00
G01 X96.7828 Y46.0292 F120.00
G01 X96.8333 Y45.9989 F120.00
G01 X96.8806 Y45.9638 F120.00
G01 X96.9243 Y45.9243 F120.00
G01 X96.9638 Y45.8806 F120.00
G01 X96.9989 Y45.8333 F120.00
G01 X97.0292 Y45.7828 F120.00
G01 X97.0543 Y45.7296 F120.00
G01 X97.0742 Y45.6742 F120.00
G01 X97.0885 Y45.6171 F120.00
G01 X97.0971 Y45.5588 F120.00
G01 X97.1000 Y45.5000 F120.00
G00 X97.1000 Y45.5000
G01 F60.00
G01 Z-1.8000
G01 F120.00
G01 X97.0971 Y45.4412 F120.00
G01 X97.0885 Y45.3829 F120.00
G01 X97.0742 Y45.3258 F120.00
G01 X97.0543 Y45.2704 F120.00
G01 X97.0292 Y45.2172 F120.00
G01 X96.9989 Y45.1667 F120.00
G01 X96.9638 Y45.1194 F120.00
G01 X96.9243 Y45.0757 F120.00
G01 X96.8806 Y45.0362 F120.00
G01 X96.8333 Y45.0011 F120.00
G01 X96.7828 Y44.9708 F120.00
G01 X96.7296 Y44.9457 F120.00
G01 X96.6742 Y44.9258 F120.00
G01 X96.6171 Y44.9115 F120.00
G01 X96.5588 Y44.9029 F120.00
G01 X96.5000 Y44.9000 F120.00
G01 X96.4412 Y44.9029 F120.00
G01 X96.3829 Y44.9115 F120.00
G01 X96.3258 Y44.9258 F120.00
G01 X96.2704 Y44.9457 F120.00
G01 X96.2172 Y44.9708 F120.00
G01 X96.1667 Y45.0011 F120.00
G01 X96.1194 Y45.0362 F120.00
G01 X96.0757 Y45.0757 F120.00
G01 X96.0362 Y45.1194 F120.00
G01 X96.0011 Y45.1667 F120.00
G01 X95.9708 Y45.2172 F120.00
G01 X95.9457 Y45.2704 F120.00
G01 X95.9258 Y45.3258 F120.00
G01 X95.9115 Y45.3829 F120.00
G01 X95.9029 Y45.4412 F120.00
G01 X95.9000 Y45.5000 F120.00
G01 X95.9029 Y45.5588 F120.00
G01 X95.9115 Y45.6171 F120.00
G01 X95.9258 Y45.6742 F120.00
G01 X95.9457 Y45.7296 F120.00
G01 X95.9708 Y45.7828 F120.00
G01 X96.0011 Y45.8333 F120.00
G01 X96.0362 Y45.8806 F120.00
G01 X96.0757 Y45.9243 F120.00
G01 X96.1194 Y45.9638 F120.00
G01 X96.1667 Y45.9989 F120.00
G01 X96.2172 Y46.0292 F120.00
G01 X96.2704 Y46.0543 F120.00
G01 X96.3258 Y46.0742 F120.00
G01 X96.3829 Y46.0885 F120.00
G01 X96.4412 Y46.0971 F120.00
G01 X96.5000 Y46.1000 F120.00
G01 X96.5588 Y46.0971 F120.00
G01 X96.6171 Y46.0885 F120.00
G01 X96.6742 Y46.0742 F120.00
G01 X96.7296 Y46.0543 F120.00
G01 X96.7828 Y46.0292 F120.00
G01 X96.8333 Y45.9989 F120.00
G01 X96.8806 Y45.9638 F120.00
G01 X96.9243 Y45.9243 F120.00
G01 X96.9638 Y45.8806 F120.00
G01 X96.9989 Y45.8333 F120.00
G01 X97.0292 Y45.7828 F120.00
G01 X97.0543 Y45.7296 F120.00
G01 X97.0742 Y45.6742 F120.00
G01 X97.0885 Y45.6171 F120.00
G01 X97.0971 Y45.5588 F120.00
G01 X97.1000 Y45.5000 F120.00
G00 Z2.0000
G00 X97.1000 Y3.5000
G01 F60.00
G01 Z-0.3000
G01 F120.00
G01 X97.0971 Y3.4412 F120.00
G01 X97.0885 Y3.3829 F120.00
G01 X97.0742 Y3.3258 F120.00
G01 X97.0543 Y3.2704 F120.00
G01 X97.0292 Y3.2172 F120.00
G01 X96.9989 Y3.1667 F120.00
G01 X96.9638 Y3.1194 F120.00
G01 X96.9243 Y3.0757 F120.00
G01 X96.8806 Y3.0362 F120.00
G01 X96.8333 Y3.0011 F120.00
G01 X96.7828 Y2.9708 F120.00
G01 X96.7296 Y2.9457 F120.00
G01 X96.6742 Y2.9258 F120.00
G01 X96.6171 Y2.9115 F120.00
G01 X96.5588 Y2.9029 F120.00
G01 X96.5000 Y2.9000 F120.00
G01 X96.4412 Y2.9029 F120.00
G01 X96.3829 Y2.9115 F120.00
G01 X96.3258 Y2.9258 F120.00
G01 X96.2704 Y2.9457 F120.00
G01 X96.2172 Y2.9708 F120.00
G01 X96.1667 Y3.0011 F120.00
G01 X96.1194 Y3.0362 F120.00
G01 X96.0757 Y3.0757 F120.00
G01 X96.0362 Y3.1194 F120.00
G01 X96.0011 Y3.1667 F120.00
G01 X95.9708 Y3.2172 F120.00
G01 X95.9457 Y3.2704 F120.00
G01 X95.9258 Y3.3258 F120.00
G01 X95.9115 Y3.3829 F120.00
G01 X95.9029 Y3.4412 F120.00
G01 X95.9000 Y3.5000 F120.00
G01 X95.9029 Y3.5588 F120.00
G01 X95.9115 Y3.6171 F120.00
G01 X95.9258 Y3.6742 F120.00
G01 X95.9457 Y3.7296 F120.00
G01 X95.9708 Y3.7828 F120.00
G01 X96.0011 Y3.8333 F120.00
G01 X96.0362 Y3.8806 F120.00
G01 X96.0757 Y3.9243 F120.00
G01 X96.1194 Y3.9638 F120.00
G01 X96.1667 Y3.9989 F120.00
G01 X96.2172 Y4.0292 F120.00
G01 X96.2704 Y4.0543 F120.00
G01 X96.3258 Y4.0742 F120.00
G01 X96.3829 Y4.0885 F120.00
G01 X96.4412 Y4.0971 F120.00
G01 X96.5000 Y4.1000 F120.00
G01 X96.5588 Y4.0971 F120.00
G01 X96.6171 Y4.0885 F120.00
G01 X96.6742 Y4.0742 F120.00
G01 X96.7296 Y4.0543 F120.00
G01 X96.7828 Y4.0292 F120.00
G01 X96.8333 Y3.9989 F120.00
G01 X96.8806 Y3.9638 F120.00
G01 X96.9243 Y3.9243 F120.00
G01 X96.9638 Y3.8806 F120.00
G01 X96.9989 Y3.8333 F120.00
G01 X97.0292 Y3.7828 F120.00
G01 X97.0543 Y3.7296 F120.00
G01 X97.0742 Y3.6742 F120.00
G01 X97.0885 Y3.6171 F120.00
G01 X97.0971 Y3.5588 F120.00
G01 X97.1000 Y3.5000 F120.00
G00 X97.1000 Y3.5000
G01 F60.00
G01 Z-0.6000
G01 F120.00
G01 X97.0971 Y3.4412 F120.00
G01 X97.0885 Y3.3829 F120.00
G01 X97.0742 Y3.3258 F120.00
G01 X97.0543 Y3.2704 F120.00
G01 X97.0292 Y3.2172 F120.00
G01 X96.9989 Y3.1667 F120.00
G01 X96.9638 Y3.1194 F120.00
G01 X96.9243 Y3.0757 F120.00
G01 X96.8806 Y3.0362 F120.00
G01 X96.8333 Y3.0011 F120.00
G01 X96.7828 Y2.9708 F120.00
G01 X96.7296 Y2.9457 F120.00
G01 X96.6742 Y2.9258 F120.00
G01 X96.6171 Y2.9115 F120.00
G01 X96.5588 Y2.9029 F120.00
G01 X96.5000 Y2.9000 F120.00
G01 X96.4412 Y2.9029 F120.00
G01 X96.3829 Y2.9115 F120.00
G01 X96.3258 Y2.9258 F120.00
G01 X96.2704 Y2.9457 F120.00
G01 X96.2172 Y2.9708 F120.00
G01 X96.1667 Y3.0011 F120.00
G01 X96.1194 Y3.0362 F120.00
G01 X96.0757 Y3.0757 F120.00
G01 X96.0362 Y3.1194 F120.00
G01 X96.0011 Y3.1667 F120.00
G01 X95.9708 Y3.2172 F120.00
G01 X95.9457 Y3.2704 F120.00
G01 X95.9258 Y3.3258 F120.00
G01 X95.9115 Y3.3829 F120.00
G01 X95.9029 Y3.4412 F120.00
G01 X95.9000 Y3.5000 F120.00
G01 X95.9029 Y3.5588 F120.00
G01 X95.9115 Y3.6171 F120.00
G01 X95.9258 Y3.6742 F120.00
G01 X95.9457 Y3.7296 F120.00
G01 X95.9708 Y3.7828 F120.00
G01 X96.0011 Y3.8333 F120.00
G01 X96.0362 Y3.8806 F120.00
G01 X96.0757 Y3.9243 F120.00
G01 X96.1194 Y3.9638 F120.00
G01 X96.1667 Y3.9989 F120.00
G01 X96.2172 Y4.0292 F120.00
G01 X96.2704 Y4.0543 F120.00
G01 X96.3258 Y4.0742 F120.00
G01 X96.3829 Y4.0885 F120.00
G01 X96.4412 Y4.0971 F120.00
G01 X96.5000 Y4.1000 F120.00
G01 X96.5588 Y4.0971 F120.00
G01 X96.6171 Y4.0885 F120.00
G01 X96.6742 Y4.0742 F120.00
G01 X96.7296 Y4.0543 F120.00
G01 X96.7828 Y4.0292 F120.00
G01 X96.8333 Y3.9989 F120.00
G01 X96.8806 Y3.9638 F120.00
G01 X96.9243 Y3.9243 F120.00
G01 X96.9638 Y3.8806 F120.00
G01 X96.9989 Y3.8333 F120.00
G01 X97.0292 Y3.7828 F120.00
G01 X97.0543 Y3.7296 F120.00
G01 X97.0742 Y3.6742 F120.00
G01 X97.0885 Y3.6171 F120.00
G01 X97.0971 Y3.5588 F120.00
G01 X97.1000 Y3.5000 F120.00
G00 X97.1000 Y3.5000
G01 F60.00
G01 Z-0.9000
G01 F120.00
G01 X97.0971 Y3.4412 F120.00
G01 X97.0885 Y3.3829 F120.00
G01 X97.0742 Y3.3258 F120.00
G01 X97.0543 Y3.2704 F120.00
G01 X97.0292 Y3.2172 F120.00
G01 X96.9989 Y3.1667 F120.00
G01 X96.9638 Y3.1194 F120.00
G01 X96.9243 Y3.0757 F120.00
G01 X96.8806 Y3.0362 F120.00
G01 X96.8333 Y3.0011 F120.00
G01 X96.7828 Y2.9708 F120.00
G01 X96.7296 Y2.9457 F120.00
G01 X96.6742 Y2.9258 F120.00
G01 X96.6171 Y2.9115 F120.00
G01 X96.5588 Y2.9029 F120.00
G01 X96.5000 Y2.9000 F120.00
G01 X96.4412 Y2.9029 F120.00
G01 X96.3829 Y2.9115 F120.00
G01 X96.3258 Y2.9258 F120.00
G01 X96.2704 Y2.9457 F120.00
G01 X96.2172 Y2.9708 F120.00
G01 X96.1667 Y3.0011 F120.00
G01 X96.1194 Y3.0362 F120.00
G01 X96.0757 Y3.0757 F120.00
G01 X96.0362 Y3.1194 F120.00
G01 X96.0011 Y3.1667 F120.00
G01 X95.9708 Y3.2172 F120.00
G01 X95.9457 Y3.2704 F120.00
G01 X95.9258 Y3.3258 F120.00
G01 X95.9115 Y3.3829 F120.00
G01 X95.9029 Y3.4412 F120.00
G01 X95.9000 Y3.5000 F120.00
G01 X95.9029 Y3.5588 F120.00
G01 X95.9115 Y3.6171 F120.00
G01 X95.9258 Y3.6742 F120.00
G01 X95.9457 Y3.7296 F120.00
G01 X95.9708 Y3.7828 F120.00
G01 X96.0011 Y3.8333 F120.00
G01 X96.0362 Y3.8806 F120.00
G01 X96.0757 Y3.9243 F120.00
G01 X96.1194 Y3.9638 F120.00
G01 X96.1667 Y3.9989 F120.00
G01 X96.2172 Y4.0292 F120.00
G01 X96.2704 Y4.0543 F120.00
G01 X96.3258 Y4.0742 F120.00
G01 X96.3829 Y4.0885 F120.00
G01 X96.4412 Y4.0971 F120.00
G01 X96.5000 Y4.1000 F120.00
G01 X96.5588 Y4.0971 F120.00
G01 X96.6171 Y4.0885 F120.00
G01 X96.6742 Y4.0742 F120.00
G01 X96.7296 Y4.0543 F120.00
G01 X96.7828 Y4.0292 F120.00
G01 X96.8333 Y3.9989 F120.00
G01 X96.8806 Y3.9638 F120.00
G01 X96.9243 Y3.9243 F120.00
G01 X96.9638 Y3.8806 F120.00
G01 X96.9989 Y3.8333 F120.00
G01 X97.0292 Y3.7828 F120.00
G01 X97.0543 Y3.7296 F120.00
G01 X97.0742 Y3.6742 F120.00
G01 X97.0885 Y3.6171 F120.00
G01 X97.0971 Y3.5588 F120.00
G01 X97.1000 Y3.5000 F120.00
G00 X97.1000 Y3.5000
G01 F60.00
G01 Z-1.2000
G01 F120.00
G01 X97.0971 Y3.4412 F120.00
G01 X97.0885 Y3.3829 F120.00
G01 X97.0742 Y3.3258 F120.00
G01 X97.0543 Y3.2704 F120.00
G01 X97.0292 Y3.2172 F120.00
G01 X96.9989 Y3.1667 F120.00
G01 X96.9638 Y3.1194 F120.00
G01 X96.9243 Y3.0757 F120.00
G01 X96.8806 Y3.0362 F120.00
G01 X96.8333 Y3.0011 F120.00
G01 X96.7828 Y2.9708 F120.00
G01 X96.7296 Y2.9457 F120.00
G01 X96.6742 Y2.9258 F120.00
G01 X96.6171 Y2.9115 F120.00
G01 X96.5588 Y2.9029 F120.00
G01 X96.5000 Y2.9000 F120.00
G01 X96.4412 Y2.9029 F120.00
G01 X96.3829 Y2.9115 F120.00
G01 X96.3258 Y2.9258 F120.00
G01 X96.2704 Y2.9457 F120.00
G01 X96.2172 Y2.9708 F120.00
G01 X96.1667 Y3.0011 F120.00
G01 X96.1194 Y3.0362 F120.00
G01 X96.0757 Y3.0757 F120.00
G01 X96.0362 Y3.1194 F120.00
G01 X96.0011 Y3.1667 F120.00
G01 X95.9708 Y3.2172 F120.00
G01 X95.9457 Y3.2704 F120.00
G01 X95.9258 Y3.3258 F120.00
G01 X95.9115 Y3.3829 F120.00
G01 X95.9029 Y3.4412 F120.00
G01 X95.9000 Y3.5000 F120.00
G01 X95.9029 Y3.5588 F120.00
G01 X95.9115 Y3.6171 F120.00
G01 X95.9258 Y3.6742 F120.00
G01 X95.9457 Y3.7296 F120.00
G01 X95.9708 Y3.7828 F120.00
G01 X96.0011 Y3.8333 F120.00
G01 X96.0362 Y3.8806 F120.00
G01 X96.0757 Y3.9243 F120.00
G01 X96.1194 Y3.9638 F120.00
G01 X96.1667 Y3.9989 F120.00
G01 X96.2172 Y4.0292 F120.00
G01 X96.2704 Y4.0543 F120.00
G01 X96.3258 Y4.0742 F120.00
G01 X96.3829 Y4.0885 F120.00
G01 X96.4412 Y4.0971 F120.00
G01 X96.5000 Y4.1000 F120.00
G01 X96.5588 Y4.0971 F120.00
G01 X96.6171 Y4.0885 F120.00
G01 X96.6742 Y4.0742 F120.00
G01 X96.7296 Y4.0543 F120.00
G01 X96.7828 Y4.0292 F120.00
G01 X96.8333 Y3.9989 F120.00
G01 X96.8806 Y3.9638 F120.00
G01 X96.9243 Y3.9243 F120.00
G01 X96.9638 Y3.8806 F120.00
G01 X96.9989 Y3.8333 F120.00
G01 X97.0292 Y3.7828 F120.00
G01 X97.0543 Y3.7296 F120.00
G01 X97.0742 Y3.6742 F120.00
G01 X97.0885 Y3.6171 F120.00
G01 X97.0971 Y3.5588 F120.00
G01 X97.1000 Y3.5000 F120.00
G00 X97.1000 Y3.5000
G01 F60.00
G01 Z-1.5000
G01 F120.00
G01 X97.0971 Y3.4412 F120.00
G01 X97.0885 Y3.3829 F120.00
G01 X97.0742 Y3.3258 F120.00
G01 X97.0543 Y3.2704 F120.00
G01 X97.0292 Y3.2172 F120.00
G01 X96.9989 Y3.1667 F120.00
G01 X96.9638 Y3.1194 F120.00
G01 X96.9243 Y3.0757 F120.00
G01 X96.8806 Y3.0362 F120.00
G01 X96.8333 Y3.0011 F120.00
G01 X96.7828 Y2.9708 F120.00
G01 X96.7296 Y2.9457 F120.00
G01 X96.6742 Y2.9258 F120.00
G01 X96.6171 Y2.9115 F120.00
G01 X96.5588 Y2.9029 F120.00
G01 X96.5000 Y2.9000 F120.00
G01 X96.4412 Y2.9029 F120.00
G01 X96.3829 Y2.9115 F120.00
G01 X96.3258 Y2.9258 F120.00
G01 X96.2704 Y2.9457 F120.00
G01 X96.2172 Y2.9708 F120.00
G01 X96.1667 Y3.0011 F120.00
G01 X96.1194 Y3.0362 F120.00
G01 X96.0757 Y3.0757 F120.00
G01 X96.0362 Y3.1194 F120.00
G01 X96.0011 Y3.1667 F120.00
G01 X95.9708 Y3.2172 F120.00
G01 X95.9457 Y3.2704 F120.00
G01 X95.9258 Y3.3258 F120.00
G01 X95.9115 Y3.3829 F120.00
G01 X95.9029 Y3.4412 F120.00
G01 X95.9000 Y3.5000 F120.00
G01 X95.9029 Y3.5588 F120.00
G01 X95.9115 Y3.6171 F120.00
G01 X95.9258 Y3.6742 F120.00
G01 X95.9457 Y3.7296 F120.00
G01 X95.9708 Y3.7828 F120.00
G01 X96.0011 Y3.8333 F120.00
G01 X96.0362 Y3.8806 F120.00
G01 X96.0757 Y3.9243 F120.00
G01 X96.1194 Y3.9638 F120.00
G01 X96.1667 Y3.9989 F120.00
G01 X96.2172 Y4.0292 F120.00
G01 X96.2704 Y4.0543 F120.00
G01 X96.3258 Y4.0742 F120.00
G01 X96.3829 Y4.0885 F120.00
G01 X96.4412 Y4.0971 F120.00
G01 X96.5000 Y4.1000 F120.00
G01 X96.5588 Y4.0971 F120.00
G01 X96.6171 Y4.0885 F120.00
G01 X96.6742 Y4.0742 F120.00
G01 X96.7296 Y4.0543 F120.00
G01 X96.7828 Y4.0292 F120.00
G01 X96.8333 Y3.9989 F120.00
G01 X96.8806 Y3.9638 F120.00
G01 X96.9243 Y3.9243 F120.00
G01 X96.9638 Y3.8806 F120.00
G01 X96.9989 Y3.8333 F120.00
G01 X97.0292 Y3.7828 F120.00
G01 X97.0543 Y3.7296 F120.00
G01 X97.0742 Y3.6742 F120.00
G01 X97.0885 Y3.6171 F120.00
G01 X97.0971 Y3.5588 F120.00
G01 X97.1000 Y3.5000 F120.00
G00 X97.1000 Y3.5000
G01 F60.00
G01 Z-1.8000
G01 F120.00
G01 X97.0971 Y3.4412 F120.00
G01 X97.0885 Y3.3829 F120.00
G01 X97.0742 Y3.3258 F120.00
G01 X97.0543 Y3.2704 F120.00
G01 X97.0292 Y3.2172 F120.00
G01 X96.9989 Y3.1667 F120.00
G01 X96.9638 Y3.1194 F120.00
G01 X96.9243 Y3.0757 F120.00
G01 X96.8806 Y3.0362 F120.00
G01 X96.8333 Y3.0011 F120.00
G01 X96.7828 Y2.9708 F120.00
G01 X96.7296 Y2.9457 F120.00
G01 X96.6742 Y2.9258 F120.00
G01 X96.6171 Y2.9115 F120.00
G01 X96.5588 Y2.9029 F120.00
G01 X96.5000 Y2.9000 F120.00
G01 X96.4412 Y2.9029 F120.00
G01 X96.3829 Y2.9115 F120.00
G01 X96.3258 Y2.9258 F120.00
G01 X96.2704 Y2.9457 F120.00
G01 X96.2172 Y2.9708 F120.00
G01 X96.1667 Y3.0011 F120.00
G01 X96.1194 Y3.0362 F120.00
G01 X96.0757 Y3.0757 F120.00
G01 X96.0362 Y3.1194 F120.00
G01 X96.0011 Y3.1667 F120.00
G01 X95.9708 Y3.2172 F120.00
G01 X95.9457 Y3.2704 F120.00
G01 X95.9258 Y3.3258 F120.00
G01 X95.9115 Y3.3829 F120.00
G01 X95.9029 Y3.4412 F120.00
G01 X95.9000 Y3.5000 F120.00
G01 X95.9029 Y3.5588 F120.00
G01 X95.9115 Y3.6171 F120.00
G01 X95.9258 Y3.6742 F120.00
G01 X95.9457 Y3.7296 F120.00
G01 X95.9708 Y3.7828 F120.00
G01 X96.0011 Y3.8333 F120.00
G01 X96.0362 Y3.8806 F120.00
G01 X96.0757 Y3.9243 F120.00
G01 X96.1194 Y3.9638 F120.00
G01 X96.1667 Y3.9989 F120.00
G01 X96.2172 Y4.0292 F120.00
G01 X96.2704 Y4.0543 F120.00
G01 X96.3258 Y4.0742 F120.00
G01 X96.3829 Y4.0885 F120.00
G01 X96.4412 Y4.0971 F120.00
G01 X96.5000 Y4.1000 F120.00
G01 X96.5588 Y4.0971 F120.00
G01 X96.6171 Y4.0885 F120.00
G01 X96.6742 Y4.0742 F120.00
G01 X96.7296 Y4.0543 F120.00
G01 X96.7828 Y4.0292 F120.00
G01 X96.8333 Y3.9989 F120.00
G01 X96.8806 Y3.9638 F120.00
G01 X96.9243 Y3.9243 F120.00
G01 X96.9638 Y3.8806 F120.00
G01 X96.9989 Y3.8333 F120.00
G01 X97.0292 Y3.7828 F120.00
G01 X97.0543 Y3.7296 F120.00
G01 X97.0742 Y3.6742 F120.00
G01 X97.0885 Y3.6171 F120.00
G01 X97.0971 Y3.5588 F120.00
G01 X97.1000 Y3.5000 F120.00
G00 Z2.0000
M05
G00 Z2.0000
G00 Z7.00


