(G-CODE GENERATED BY FLATCAM v8.994 - www.flatcam.org - Version Date: 2020/11/7)

(Name: global_vu-Edge_Cuts.gbr_cutout_cnc)
(Type: G-code from Geometry)
(Units: MM)

(Created on Sunday, 11 August 2024 at 23:15)

(This preprocessor is used with a motion controller loaded with GRBL firmware.)
(It is configured to be compatible with almost any version of GRBL firmware.)

(TOOL DIAMETER: 2.0 mm)
(Feedrate_XY: 120.0 mm/min)
(Feedrate_Z: 60.0 mm/min)
(Feedrate rapids 1500.0 mm/min)

(Z_Cut: -1.8 mm)
(DepthPerCut: 0.6 mm <=>3 passes)
(Z_Move: 2.0 mm)
(Z Start: None mm)
(Z End: 7.0 mm)
(X,Y End: None mm)
(Steps per circle: 64)
(Steps per circle: 64)
(Preprocessor Geometry: GRBL_11_no_M6)

(X range: -101.1251 ...    1.1251  mm)
(Y range:   -1.1251 ...   50.1251  mm)

(Spindle Speed: 1000.0 RPM)
G21
G90
G17
G94


G01 F120.00

M5             
G00 Z7.0000
G00 X0.0000 Y0.0000                
T1
(MSG, Change to Tool Dia = 2.0000)
M0
G00 Z7.0000
        
M03 S1000.0
G01 F120.00
G00 X1.1251 Y21.5000
G01 F60.00
G01 Z-0.6000
G01 F120.00
G01 X1.1251 Y-0.1251 F120.00
G01 X1.1202 Y-0.2231 F120.00
G01 X1.1058 Y-0.3202 F120.00
G01 X1.0820 Y-0.4153 F120.00
G01 X1.0489 Y-0.5077 F120.00
G01 X1.0070 Y-0.5965 F120.00
G01 X0.9565 Y-0.6806 F120.00
G01 X0.8981 Y-0.7595 F120.00
G01 X0.8322 Y-0.8322 F120.00
G01 X0.7595 Y-0.8981 F120.00
G01 X0.6806 Y-0.9565 F120.00
G01 X0.5965 Y-1.0070 F120.00
G01 X0.5077 Y-1.0489 F120.00
G01 X0.4153 Y-1.0820 F120.00
G01 X0.3202 Y-1.1058 F120.00
G01 X0.2231 Y-1.1202 F120.00
G01 X0.1251 Y-1.1251 F120.00
G01 X-47.0000 Y-1.1251 F120.00
G00 X-47.0000 Y-1.1251
G01 F60.00
G01 Z-1.2000
G01 F120.00
G01 X0.1251 Y-1.1251 F120.00
G01 X0.2231 Y-1.1202 F120.00
G01 X0.3202 Y-1.1058 F120.00
G01 X0.4153 Y-1.0820 F120.00
G01 X0.5077 Y-1.0489 F120.00
G01 X0.5965 Y-1.0070 F120.00
G01 X0.6806 Y-0.9565 F120.00
G01 X0.7595 Y-0.8981 F120.00
G01 X0.8322 Y-0.8322 F120.00
G01 X0.8981 Y-0.7595 F120.00
G01 X0.9565 Y-0.6806 F120.00
G01 X1.0070 Y-0.5965 F120.00
G01 X1.0489 Y-0.5077 F120.00
G01 X1.0820 Y-0.4153 F120.00
G01 X1.1058 Y-0.3202 F120.00
G01 X1.1202 Y-0.2231 F120.00
G01 X1.1251 Y-0.1251 F120.00
G01 X1.1251 Y21.5000 F120.00
G00 X1.1251 Y21.5000
G01 F60.00
G01 Z-1.8000
G01 F120.00
G01 X1.1251 Y-0.1251 F120.00
G01 X1.1202 Y-0.2231 F120.00
G01 X1.1058 Y-0.3202 F120.00
G01 X1.0820 Y-0.4153 F120.00
G01 X1.0489 Y-0.5077 F120.00
G01 X1.0070 Y-0.5965 F120.00
G01 X0.9565 Y-0.6806 F120.00
G01 X0.8981 Y-0.7595 F120.00
G01 X0.8322 Y-0.8322 F120.00
G01 X0.7595 Y-0.8981 F120.00
G01 X0.6806 Y-0.9565 F120.00
G01 X0.5965 Y-1.0070 F120.00
G01 X0.5077 Y-1.0489 F120.00
G01 X0.4153 Y-1.0820 F120.00
G01 X0.3202 Y-1.1058 F120.00
G01 X0.2231 Y-1.1202 F120.00
G01 X0.1251 Y-1.1251 F120.00
G01 X-47.0000 Y-1.1251 F120.00
G00 Z2.0000
G00 X-53.0000 Y-1.1251
G01 F60.00
G01 Z-0.6000
G01 F120.00
G01 X-100.1251 Y-1.1251 F120.00
G01 X-100.2231 Y-1.1202 F120.00
G01 X-100.3202 Y-1.1058 F120.00
G01 X-100.4153 Y-1.0820 F120.00
G01 X-100.5077 Y-1.0489 F120.00
G01 X-100.5965 Y-1.0070 F120.00
G01 X-100.6806 Y-0.9565 F120.00
G01 X-100.7595 Y-0.8981 F120.00
G01 X-100.8322 Y-0.8322 F120.00
G01 X-100.8981 Y-0.7595 F120.00
G01 X-100.9565 Y-0.6806 F120.00
G01 X-101.0070 Y-0.5965 F120.00
G01 X-101.0489 Y-0.5077 F120.00
G01 X-101.0820 Y-0.4153 F120.00
G01 X-101.1058 Y-0.3202 F120.00
G01 X-101.1202 Y-0.2231 F120.00
G01 X-101.1251 Y-0.1251 F120.00
G01 X-101.1251 Y21.5000 F120.00
G00 X-101.1251 Y21.5000
G01 F60.00
G01 Z-1.2000
G01 F120.00
G01 X-101.1251 Y-0.1251 F120.00
G01 X-101.1202 Y-0.2231 F120.00
G01 X-101.1058 Y-0.3202 F120.00
G01 X-101.0820 Y-0.4153 F120.00
G01 X-101.0489 Y-0.5077 F120.00
G01 X-101.0070 Y-0.5965 F120.00
G01 X-100.9565 Y-0.6806 F120.00
G01 X-100.8981 Y-0.7595 F120.00
G01 X-100.8322 Y-0.8322 F120.00
G01 X-100.7595 Y-0.8981 F120.00
G01 X-100.6806 Y-0.9565 F120.00
G01 X-100.5965 Y-1.0070 F120.00
G01 X-100.5077 Y-1.0489 F120.00
G01 X-100.4153 Y-1.0820 F120.00
G01 X-100.3202 Y-1.1058 F120.00
G01 X-100.2231 Y-1.1202 F120.00
G01 X-100.1251 Y-1.1251 F120.00
G01 X-53.0000 Y-1.1251 F120.00
G00 X-53.0000 Y-1.1251
G01 F60.00
G01 Z-1.8000
G01 F120.00
G01 X-100.1251 Y-1.1251 F120.00
G01 X-100.2231 Y-1.1202 F120.00
G01 X-100.3202 Y-1.1058 F120.00
G01 X-100.4153 Y-1.0820 F120.00
G01 X-100.5077 Y-1.0489 F120.00
G01 X-100.5965 Y-1.0070 F120.00
G01 X-100.6806 Y-0.9565 F120.00
G01 X-100.7595 Y-0.8981 F120.00
G01 X-100.8322 Y-0.8322 F120.00
G01 X-100.8981 Y-0.7595 F120.00
G01 X-100.9565 Y-0.6806 F120.00
G01 X-101.0070 Y-0.5965 F120.00
G01 X-101.0489 Y-0.5077 F120.00
G01 X-101.0820 Y-0.4153 F120.00
G01 X-101.1058 Y-0.3202 F120.00
G01 X-101.1202 Y-0.2231 F120.00
G01 X-101.1251 Y-0.1251 F120.00
G01 X-101.1251 Y21.5000 F120.00
G00 Z2.0000
G00 X-101.1251 Y27.5000
G01 F60.00
G01 Z-0.6000
G01 F120.00
G01 X-101.1251 Y49.1251 F120.00
G01 X-101.1202 Y49.2231 F120.00
G01 X-101.1058 Y49.3202 F120.00
G01 X-101.0820 Y49.4153 F120.00
G01 X-101.0489 Y49.5077 F120.00
G01 X-101.0070 Y49.5965 F120.00
G01 X-100.9565 Y49.6806 F120.00
G01 X-100.8981 Y49.7595 F120.00
G01 X-100.8322 Y49.8322 F120.00
G01 X-100.7595 Y49.8981 F120.00
G01 X-100.6806 Y49.9565 F120.00
G01 X-100.5965 Y50.0070 F120.00
G01 X-100.5077 Y50.0489 F120.00
G01 X-100.4153 Y50.0820 F120.00
G01 X-100.3202 Y50.1058 F120.00
G01 X-100.2231 Y50.1202 F120.00
G01 X-100.1251 Y50.1251 F120.00
G01 X-53.0000 Y50.1251 F120.00
G00 X-53.0000 Y50.1251
G01 F60.00
G01 Z-1.2000
G01 F120.00
G01 X-100.1251 Y50.1251 F120.00
G01 X-100.2231 Y50.1202 F120.00
G01 X-100.3202 Y50.1058 F120.00
G01 X-100.4153 Y50.0820 F120.00
G01 X-100.5077 Y50.0489 F120.00
G01 X-100.5965 Y50.0070 F120.00
G01 X-100.6806 Y49.9565 F120.00
G01 X-100.7595 Y49.8981 F120.00
G01 X-100.8322 Y49.8322 F120.00
G01 X-100.8981 Y49.7595 F120.00
G01 X-100.9565 Y49.6806 F120.00
G01 X-101.0070 Y49.5965 F120.00
G01 X-101.0489 Y49.5077 F120.00
G01 X-101.0820 Y49.4153 F120.00
G01 X-101.1058 Y49.3202 F120.00
G01 X-101.1202 Y49.2231 F120.00
G01 X-101.1251 Y49.1251 F120.00
G01 X-101.1251 Y27.5000 F120.00
G00 X-101.1251 Y27.5000
G01 F60.00
G01 Z-1.8000
G01 F120.00
G01 X-101.1251 Y49.1251 F120.00
G01 X-101.1202 Y49.2231 F120.00
G01 X-101.1058 Y49.3202 F120.00
G01 X-101.0820 Y49.4153 F120.00
G01 X-101.0489 Y49.5077 F120.00
G01 X-101.0070 Y49.5965 F120.00
G01 X-100.9565 Y49.6806 F120.00
G01 X-100.8981 Y49.7595 F120.00
G01 X-100.8322 Y49.8322 F120.00
G01 X-100.7595 Y49.8981 F120.00
G01 X-100.6806 Y49.9565 F120.00
G01 X-100.5965 Y50.0070 F120.00
G01 X-100.5077 Y50.0489 F120.00
G01 X-100.4153 Y50.0820 F120.00
G01 X-100.3202 Y50.1058 F120.00
G01 X-100.2231 Y50.1202 F120.00
G01 X-100.1251 Y50.1251 F120.00
G01 X-53.0000 Y50.1251 F120.00
G00 Z2.0000
G00 X-47.0000 Y50.1251
G01 F60.00
G01 Z-0.6000
G01 F120.00
G01 X0.1251 Y50.1251 F120.00
G01 X0.2231 Y50.1202 F120.00
G01 X0.3202 Y50.1058 F120.00
G01 X0.4153 Y50.0820 F120.00
G01 X0.5077 Y50.0489 F120.00
G01 X0.5965 Y50.0070 F120.00
G01 X0.6806 Y49.9565 F120.00
G01 X0.7595 Y49.8981 F120.00
G01 X0.8322 Y49.8322 F120.00
G01 X0.8981 Y49.7595 F120.00
G01 X0.9565 Y49.6806 F120.00
G01 X1.0070 Y49.5965 F120.00
G01 X1.0489 Y49.5077 F120.00
G01 X1.0820 Y49.4153 F120.00
G01 X1.1058 Y49.3202 F120.00
G01 X1.1202 Y49.2231 F120.00
G01 X1.1251 Y49.1251 F120.00
G01 X1.1251 Y27.5000 F120.00
G00 X1.1251 Y27.5000
G01 F60.00
G01 Z-1.2000
G01 F120.00
G01 X1.1251 Y49.1251 F120.00
G01 X1.1202 Y49.2231 F120.00
G01 X1.1058 Y49.3202 F120.00
G01 X1.0820 Y49.4153 F120.00
G01 X1.0489 Y49.5077 F120.00
G01 X1.0070 Y49.5965 F120.00
G01 X0.9565 Y49.6806 F120.00
G01 X0.8981 Y49.7595 F120.00
G01 X0.8322 Y49.8322 F120.00
G01 X0.7595 Y49.8981 F120.00
G01 X0.6806 Y49.9565 F120.00
G01 X0.5965 Y50.0070 F120.00
G01 X0.5077 Y50.0489 F120.00
G01 X0.4153 Y50.0820 F120.00
G01 X0.3202 Y50.1058 F120.00
G01 X0.2231 Y50.1202 F120.00
G01 X0.1251 Y50.1251 F120.00
G01 X-47.0000 Y50.1251 F120.00
G00 X-47.0000 Y50.1251
G01 F60.00
G01 Z-1.8000
G01 F120.00
G01 X0.1251 Y50.1251 F120.00
G01 X0.2231 Y50.1202 F120.00
G01 X0.3202 Y50.1058 F120.00
G01 X0.4153 Y50.0820 F120.00
G01 X0.5077 Y50.0489 F120.00
G01 X0.5965 Y50.0070 F120.00
G01 X0.6806 Y49.9565 F120.00
G01 X0.7595 Y49.8981 F120.00
G01 X0.8322 Y49.8322 F120.00
G01 X0.8981 Y49.7595 F120.00
G01 X0.9565 Y49.6806 F120.00
G01 X1.0070 Y49.5965 F120.00
G01 X1.0489 Y49.5077 F120.00
G01 X1.0820 Y49.4153 F120.00
G01 X1.1058 Y49.3202 F120.00
G01 X1.1202 Y49.2231 F120.00
G01 X1.1251 Y49.1251 F120.00
G01 X1.1251 Y27.5000 F120.00
G00 Z2.0000
M05
G00 Z2.0000
G00 Z7.00


