(G-code generated by FlatCAM Evo vUnstable - Version Date: 2023/6/31)

(Name: global_vu-F_Cu.gbr_ncc_cnc)
(Type: G-code from Geometry)
(Units: MM)

(Created on domingo, 11 agosto 2024 at 22:30)

(This preprocessor is used with a motion controller loaded with GRBL firmware.)
(It is configured to be compatible with almost any version of GRBL firmware.)

(TOOL DIAMETER: 2.4 mm)
(Feedrate_XY: 120.0 mm/min)
(Feedrate_Z: 60.0 mm/min)
(Feedrate rapids 1500.0 mm/min)

(Z_Cut: -0.1 mm)
(Z_Move: 2.0 mm)
(Z Start: None mm)
(Z End: 7.0 mm)
(X,Y End: None mm)
(Steps per circle: 16)
(Preprocessor Geometry: GRBL_11)

(X range:  -99.5237 ...   -1.4747  mm)
(Y range:    0.9747 ...   48.0253  mm)

(Spindle Speed: 1000.0 RPM)
G21
G90
G17
G94


G01 F120.00
G00 Z2.0000

M03 S1000.0
G01 F120.00
G00 X-3.5525 Y3.4896
G01 F60.00
G01 Z-0.1000
G01 F120.00
G01 X-3.5353 Y3.5402 F120.00
G01 X-3.4828 Y3.5507 F120.00
G01 X-3.4475 Y3.5104 F120.00
G01 X-3.4598 Y3.4647 F120.00
G01 X-3.5172 Y3.4493 F120.00
G01 X-3.5525 Y3.4896 F120.00
G01 X-3.6129 Y3.4776 F120.00
G01 X-3.6148 Y3.5075 F120.00
G01 X-3.5957 Y3.5639 F120.00
G01 X-3.5509 Y3.6032 F120.00
G01 X-3.5075 Y3.6148 F120.00
G01 X-3.4491 Y3.6032 F120.00
G01 X-3.4135 Y3.5759 F120.00
G01 X-3.3871 Y3.5224 F120.00
G01 X-3.3910 Y3.4630 F120.00
G01 X-3.4135 Y3.4241 F120.00
G01 X-3.4630 Y3.3910 F120.00
G01 X-3.5224 Y3.3871 F120.00
G01 X-3.5865 Y3.4241 F120.00
G01 X-3.6129 Y3.4776 F120.00
G01 X-3.6732 Y3.4655 F120.00
G01 X-3.6763 Y3.4884 F120.00
G01 X-3.6584 Y3.5781 F120.00
G01 X-3.5981 Y3.6469 F120.00
G01 X-3.5116 Y3.6763 F120.00
G01 X-3.4219 Y3.6584 F120.00
G01 X-3.3672 Y3.6165 F120.00
G01 X-3.3268 Y3.5345 F120.00
G01 X-3.3268 Y3.4655 F120.00
G01 X-3.3531 Y3.4019 F120.00
G01 X-3.4432 Y3.3327 F120.00
G01 X-3.5345 Y3.3268 F120.00
G01 X-3.6328 Y3.3835 F120.00
G01 X-3.6732 Y3.4655 F120.00
G01 X-3.7336 Y3.4535 F120.00
G01 X-3.7256 Y3.5766 F120.00
G01 X-3.6981 Y3.6323 F120.00
G01 X-3.6323 Y3.6981 F120.00
G01 X-3.5156 Y3.7377 F120.00
G01 X-3.3946 Y3.7136 F120.00
G01 X-3.3209 Y3.6571 F120.00
G01 X-3.2664 Y3.5465 F120.00
G01 X-3.2664 Y3.4535 F120.00
G01 X-3.3019 Y3.3677 F120.00
G01 X-3.3946 Y3.2864 F120.00
G01 X-3.4535 Y3.2664 F120.00
G01 X-3.5465 Y3.2664 F120.00
G01 X-3.6054 Y3.2864 F120.00
G01 X-3.6791 Y3.3429 F120.00
G01 X-3.7336 Y3.4535 F120.00
G01 X-3.7940 Y3.4415 F120.00
G01 X-3.7991 Y3.5196 F120.00
G01 X-3.7839 Y3.5964 F120.00
G01 X-3.7493 Y3.6666 F120.00
G01 X-3.6666 Y3.7493 F120.00
G01 X-3.5964 Y3.7839 F120.00
G01 X-3.5196 Y3.7991 F120.00
G01 X-3.4415 Y3.7940 F120.00
G01 X-3.3674 Y3.7689 F120.00
G01 X-3.2746 Y3.6977 F120.00
G01 X-3.2311 Y3.6326 F120.00
G01 X-3.2060 Y3.5585 F120.00
G01 X-3.2060 Y3.4415 F120.00
G01 X-3.2507 Y3.3334 F120.00
G01 X-3.3023 Y3.2746 F120.00
G01 X-3.3674 Y3.2311 F120.00
G01 X-3.4415 Y3.2060 F120.00
G01 X-3.5585 Y3.2060 F120.00
G01 X-3.6326 Y3.2311 F120.00
G01 X-3.7254 Y3.3023 F120.00
G01 X-3.7689 Y3.3674 F120.00
G01 X-3.7940 Y3.4415 F120.00
G01 X-3.8544 Y3.4295 F120.00
G01 X-3.8606 Y3.5236 F120.00
G01 X-3.8422 Y3.6162 F120.00
G01 X-3.8005 Y3.7008 F120.00
G01 X-3.7008 Y3.8005 F120.00
G01 X-3.6162 Y3.8422 F120.00
G01 X-3.5236 Y3.8606 F120.00
G01 X-3.4295 Y3.8544 F120.00
G01 X-3.3402 Y3.8241 F120.00
G01 X-3.2283 Y3.7383 F120.00
G01 X-3.1759 Y3.6598 F120.00
G01 X-3.1456 Y3.5705 F120.00
G01 X-3.1456 Y3.4295 F120.00
G01 X-3.1995 Y3.2992 F120.00
G01 X-3.2617 Y3.2283 F120.00
G01 X-3.3402 Y3.1759 F120.00
G01 X-3.4295 Y3.1456 F120.00
G01 X-3.5705 Y3.1456 F120.00
G01 X-3.6598 Y3.1759 F120.00
G01 X-3.7717 Y3.2617 F120.00
G01 X-3.8241 Y3.3402 F120.00
G01 X-3.8544 Y3.4295 F120.00
G01 X-3.9148 Y3.4175 F120.00
G01 X-3.9220 Y3.5277 F120.00
G01 X-3.9005 Y3.6359 F120.00
G01 X-3.8516 Y3.7350 F120.00
G01 X-3.7350 Y3.8516 F120.00
G01 X-3.6359 Y3.9005 F120.00
G01 X-3.5277 Y3.9220 F120.00
G01 X-3.4175 Y3.9148 F120.00
G01 X-3.3129 Y3.8793 F120.00
G01 X-3.1820 Y3.7789 F120.00
G01 X-3.1207 Y3.6871 F120.00
G01 X-3.0852 Y3.5825 F120.00
G01 X-3.0852 Y3.4175 F120.00
G01 X-3.1484 Y3.2650 F120.00
G01 X-3.2211 Y3.1820 F120.00
G01 X-3.3129 Y3.1207 F120.00
G01 X-3.4175 Y3.0852 F120.00
G01 X-3.5825 Y3.0852 F120.00
G01 X-3.6871 Y3.1207 F120.00
G01 X-3.7789 Y3.1820 F120.00
G01 X-3.8793 Y3.3129 F120.00
G01 X-3.9148 Y3.4175 F120.00
G01 X-3.9752 Y3.4055 F120.00
G01 X-3.9835 Y3.5317 F120.00
G01 X-3.9588 Y3.6557 F120.00
G01 X-3.9028 Y3.7692 F120.00
G01 X-3.7692 Y3.9028 F120.00
G01 X-3.6557 Y3.9588 F120.00
G01 X-3.5317 Y3.9835 F120.00
G01 X-3.4055 Y3.9752 F120.00
G01 X-3.2857 Y3.9345 F120.00
G01 X-3.1357 Y3.8195 F120.00
G01 X-3.0655 Y3.7143 F120.00
G01 X-3.0248 Y3.5945 F120.00
G01 X-3.0248 Y3.4055 F120.00
G01 X-3.0972 Y3.2308 F120.00
G01 X-3.1805 Y3.1357 F120.00
G01 X-3.2857 Y3.0655 F120.00
G01 X-3.4055 Y3.0248 F120.00
G01 X-3.5945 Y3.0248 F120.00
G01 X-3.7143 Y3.0655 F120.00
G01 X-3.8195 Y3.1357 F120.00
G01 X-3.9345 Y3.2857 F120.00
G01 X-3.9752 Y3.4055 F120.00
G01 X-4.0356 Y3.3935 F120.00
G01 X-4.0449 Y3.5357 F120.00
G01 X-4.0171 Y3.6755 F120.00
G01 X-3.9540 Y3.8034 F120.00
G01 X-3.8034 Y3.9540 F120.00
G01 X-3.6755 Y4.0171 F120.00
G01 X-3.5357 Y4.0449 F120.00
G01 X-3.3935 Y4.0356 F120.00
G01 X-3.1966 Y3.9540 F120.00
G01 X-3.0460 Y3.8034 F120.00
G01 X-2.9644 Y3.6065 F120.00
G01 X-2.9644 Y3.3935 F120.00
G01 X-3.0460 Y3.1966 F120.00
G01 X-3.1400 Y3.0894 F120.00
G01 X-3.2585 Y3.0102 F120.00
G01 X-3.3935 Y2.9644 F120.00
G01 X-3.6065 Y2.9644 F120.00
G01 X-3.7415 Y3.0102 F120.00
G01 X-3.8601 Y3.0894 F120.00
G01 X-3.9898 Y3.2585 F120.00
G01 X-4.0356 Y3.3935 F120.00
G01 X-4.0960 Y3.3815 F120.00
G01 X-4.1063 Y3.5397 F120.00
G01 X-4.0754 Y3.6953 F120.00
G01 X-4.0052 Y3.8376 F120.00
G01 X-3.9007 Y3.9568 F120.00
G01 X-3.8376 Y4.0052 F120.00
G01 X-3.6953 Y4.0754 F120.00
G01 X-3.5397 Y4.1063 F120.00
G01 X-3.3815 Y4.0960 F120.00
G01 X-3.2312 Y4.0450 F120.00
G01 X-3.1624 Y4.0052 F120.00
G01 X-3.0432 Y3.9007 F120.00
G01 X-2.9948 Y3.8376 F120.00
G01 X-2.9246 Y3.6953 F120.00
G01 X-2.9040 Y3.6185 F120.00
G01 X-2.8937 Y3.4603 F120.00
G01 X-2.9040 Y3.3815 F120.00
G01 X-2.9550 Y3.2312 F120.00
G01 X-3.0432 Y3.0994 F120.00
G01 X-3.1624 Y2.9948 F120.00
G01 X-3.2312 Y2.9550 F120.00
G01 X-3.3815 Y2.9040 F120.00
G01 X-3.5397 Y2.8937 F120.00
G01 X-3.6953 Y2.9246 F120.00
G01 X-3.7688 Y2.9550 F120.00
G01 X-3.9007 Y3.0432 F120.00
G01 X-4.0052 Y3.1624 F120.00
G01 X-4.0450 Y3.2312 F120.00
G01 X-4.0960 Y3.3815 F120.00
G01 X-4.1564 Y3.3694 F120.00
G01 X-4.1678 Y3.5438 F120.00
G01 X-4.1337 Y3.7151 F120.00
G01 X-4.0564 Y3.8718 F120.00
G01 X-3.9412 Y4.0031 F120.00
G01 X-3.7960 Y4.1002 F120.00
G01 X-3.6306 Y4.1564 F120.00
G01 X-3.4562 Y4.1678 F120.00
G01 X-3.2849 Y4.1337 F120.00
G01 X-3.1282 Y4.0564 F120.00
G01 X-3.0588 Y4.0031 F120.00
G01 X-2.9436 Y3.8718 F120.00
G01 X-2.8998 Y3.7960 F120.00
G01 X-2.8436 Y3.6306 F120.00
G01 X-2.8322 Y3.5438 F120.00
G01 X-2.8436 Y3.3694 F120.00
G01 X-2.8663 Y3.2849 F120.00
G01 X-2.9436 Y3.1282 F120.00
G01 X-2.9969 Y3.0588 F120.00
G01 X-3.1282 Y2.9436 F120.00
G01 X-3.2040 Y2.8998 F120.00
G01 X-3.3694 Y2.8436 F120.00
G01 X-3.5438 Y2.8322 F120.00
G01 X-3.6306 Y2.8436 F120.00
G01 X-3.7960 Y2.8998 F120.00
G01 X-3.9412 Y2.9969 F120.00
G01 X-4.0564 Y3.1282 F120.00
G01 X-4.1002 Y3.2040 F120.00
G01 X-4.1564 Y3.3694 F120.00
G01 X-4.2167 Y3.3574 F120.00
G01 X-4.2292 Y3.5478 F120.00
G01 X-4.1920 Y3.7349 F120.00
G01 X-4.1076 Y3.9060 F120.00
G01 X-3.9818 Y4.0494 F120.00
G01 X-3.8232 Y4.1554 F120.00
G01 X-3.6426 Y4.2167 F120.00
G01 X-3.4522 Y4.2292 F120.00
G01 X-3.2651 Y4.1920 F120.00
G01 X-3.0940 Y4.1076 F120.00
G01 X-3.0182 Y4.0494 F120.00
G01 X-2.8924 Y3.9060 F120.00
G01 X-2.8446 Y3.8232 F120.00
G01 X-2.7833 Y3.6426 F120.00
G01 X-2.7708 Y3.5478 F120.00
G01 X-2.7833 Y3.3574 F120.00
G01 X-2.8080 Y3.2651 F120.00
G01 X-2.8924 Y3.0940 F120.00
G01 X-2.9506 Y3.0182 F120.00
G01 X-3.0940 Y2.8924 F120.00
G01 X-3.1768 Y2.8446 F120.00
G01 X-3.3574 Y2.7833 F120.00
G01 X-3.5478 Y2.7708 F120.00
G01 X-3.6426 Y2.7833 F120.00
G01 X-3.8232 Y2.8446 F120.00
G01 X-3.9818 Y2.9506 F120.00
G01 X-4.1076 Y3.0940 F120.00
G01 X-4.1554 Y3.1768 F120.00
G01 X-4.2167 Y3.3574 F120.00
G01 X-4.2771 Y3.3454 F120.00
G01 X-4.2907 Y3.5518 F120.00
G01 X-4.2503 Y3.7547 F120.00
G01 X-4.1588 Y3.9402 F120.00
G01 X-4.0957 Y4.0224 F120.00
G01 X-3.9402 Y4.1588 F120.00
G01 X-3.7547 Y4.2503 F120.00
G01 X-3.5518 Y4.2907 F120.00
G01 X-3.3454 Y4.2771 F120.00
G01 X-3.2453 Y4.2503 F120.00
G01 X-3.0598 Y4.1588 F120.00
G01 X-2.9043 Y4.0224 F120.00
G01 X-2.8412 Y3.9402 F120.00
G01 X-2.7894 Y3.8505 F120.00
G01 X-2.7229 Y3.6546 F120.00
G01 X-2.7093 Y3.4482 F120.00
G01 X-2.7229 Y3.3454 F120.00
G01 X-2.7894 Y3.1495 F120.00
G01 X-2.9043 Y2.9776 F120.00
G01 X-2.9776 Y2.9043 F120.00
G01 X-3.1495 Y2.7894 F120.00
G01 X-3.3454 Y2.7229 F120.00
G01 X-3.4482 Y2.7093 F120.00
G01 X-3.6546 Y2.7229 F120.00
G01 X-3.8505 Y2.7894 F120.00
G01 X-3.9402 Y2.8412 F120.00
G01 X-4.0224 Y2.9043 F120.00
G01 X-4.1588 Y3.0598 F120.00
G01 X-4.2503 Y3.2453 F120.00
G01 X-4.2771 Y3.3454 F120.00
G01 X-4.3375 Y3.3334 F120.00
G01 X-4.3521 Y3.5559 F120.00
G01 X-4.3086 Y3.7745 F120.00
G01 X-4.2100 Y3.9744 F120.00
G01 X-4.1420 Y4.0630 F120.00
G01 X-3.9744 Y4.2100 F120.00
G01 X-3.7745 Y4.3086 F120.00
G01 X-3.5559 Y4.3521 F120.00
G01 X-3.3334 Y4.3375 F120.00
G01 X-3.2255 Y4.3086 F120.00
G01 X-3.0256 Y4.2100 F120.00
G01 X-2.8580 Y4.0630 F120.00
G01 X-2.7900 Y3.9744 F120.00
G01 X-2.7341 Y3.8777 F120.00
G01 X-2.6625 Y3.6666 F120.00
G01 X-2.6479 Y3.4441 F120.00
G01 X-2.6625 Y3.3334 F120.00
G01 X-2.7341 Y3.1223 F120.00
G01 X-2.8580 Y2.9370 F120.00
G01 X-2.9370 Y2.8580 F120.00
G01 X-3.1223 Y2.7341 F120.00
G01 X-3.3334 Y2.6625 F120.00
G01 X-3.4441 Y2.6479 F120.00
G01 X-3.6666 Y2.6625 F120.00
G01 X-3.8777 Y2.7341 F120.00
G01 X-3.9744 Y2.7900 F120.00
G01 X-4.0630 Y2.8580 F120.00
G01 X-4.2100 Y3.0256 F120.00
G01 X-4.3086 Y3.2255 F120.00
G01 X-4.3375 Y3.3334 F120.00
G01 X-4.3979 Y3.3214 F120.00
G01 X-4.4135 Y3.5599 F120.00
G01 X-4.3669 Y3.7943 F120.00
G01 X-4.2612 Y4.0086 F120.00
G01 X-4.1883 Y4.1036 F120.00
G01 X-4.0086 Y4.2612 F120.00
G01 X-3.7943 Y4.3669 F120.00
G01 X-3.5599 Y4.4135 F120.00
G01 X-3.3214 Y4.3979 F120.00
G01 X-3.2057 Y4.3669 F120.00
G01 X-2.9914 Y4.2612 F120.00
G01 X-2.8117 Y4.1036 F120.00
G01 X-2.7388 Y4.0086 F120.00
G01 X-2.6789 Y3.9049 F120.00
G01 X-2.6021 Y3.6786 F120.00
G01 X-2.5865 Y3.4401 F120.00
G01 X-2.6021 Y3.3214 F120.00
G01 X-2.6789 Y3.0951 F120.00
G01 X-2.8117 Y2.8964 F120.00
G01 X-2.8964 Y2.8117 F120.00
G01 X-3.0951 Y2.6789 F120.00
G01 X-3.3214 Y2.6021 F120.00
G01 X-3.5599 Y2.5865 F120.00
G01 X-3.7943 Y2.6331 F120.00
G01 X-4.0086 Y2.7388 F120.00
G01 X-4.1036 Y2.8117 F120.00
G01 X-4.2612 Y2.9914 F120.00
G01 X-4.3669 Y3.2057 F120.00
G01 X-4.3979 Y3.3214 F120.00
G01 X-4.4583 Y3.3094 F120.00
G01 X-4.4750 Y3.4361 F120.00
G01 X-4.4583 Y3.6906 F120.00
G01 X-4.3763 Y3.9321 F120.00
G01 X-4.3124 Y4.0428 F120.00
G01 X-4.1442 Y4.2346 F120.00
G01 X-3.9321 Y4.3763 F120.00
G01 X-3.6906 Y4.4583 F120.00
G01 X-3.4361 Y4.4750 F120.00
G01 X-3.3094 Y4.4583 F120.00
G01 X-3.0679 Y4.3763 F120.00
G01 X-2.9572 Y4.3124 F120.00
G01 X-2.7654 Y4.1442 F120.00
G01 X-2.6876 Y4.0428 F120.00
G01 X-2.5748 Y3.8141 F120.00
G01 X-2.5417 Y3.6906 F120.00
G01 X-2.5250 Y3.4361 F120.00
G01 X-2.5417 Y3.3094 F120.00
G01 X-2.6237 Y3.0679 F120.00
G01 X-2.7654 Y2.8558 F120.00
G01 X-2.9572 Y2.6876 F120.00
G01 X-3.1859 Y2.5748 F120.00
G01 X-3.4361 Y2.5250 F120.00
G01 X-3.6906 Y2.5417 F120.00
G01 X-3.9321 Y2.6237 F120.00
G01 X-4.0428 Y2.6876 F120.00
G01 X-4.2346 Y2.8558 F120.00
G01 X-4.3763 Y3.0679 F120.00
G01 X-4.4583 Y3.3094 F120.00
G01 X-4.5187 Y3.2974 F120.00
G01 X-4.5364 Y3.4321 F120.00
G01 X-4.5187 Y3.7026 F120.00
G01 X-4.4315 Y3.9594 F120.00
G01 X-4.3636 Y4.0770 F120.00
G01 X-4.1848 Y4.2809 F120.00
G01 X-3.9594 Y4.4315 F120.00
G01 X-3.7026 Y4.5187 F120.00
G01 X-3.4321 Y4.5364 F120.00
G01 X-3.2974 Y4.5187 F120.00
G01 X-3.0406 Y4.4315 F120.00
G01 X-2.9230 Y4.3636 F120.00
G01 X-2.7191 Y4.1848 F120.00
G01 X-2.6364 Y4.0770 F120.00
G01 X-2.5165 Y3.8339 F120.00
G01 X-2.4813 Y3.7026 F120.00
G01 X-2.4636 Y3.4321 F120.00
G01 X-2.4813 Y3.2974 F120.00
G01 X-2.5685 Y3.0406 F120.00
G01 X-2.7191 Y2.8152 F120.00
G01 X-2.9230 Y2.6364 F120.00
G01 X-3.1661 Y2.5165 F120.00
G01 X-3.4321 Y2.4636 F120.00
G01 X-3.7026 Y2.4813 F120.00
G01 X-3.9594 Y2.5685 F120.00
G01 X-4.0770 Y2.6364 F120.00
G01 X-4.2809 Y2.8152 F120.00
G01 X-4.4315 Y3.0406 F120.00
G01 X-4.5187 Y3.2974 F120.00
G01 X-4.5791 Y3.2854 F120.00
G01 X-4.5979 Y3.4280 F120.00
G01 X-4.5791 Y3.7146 F120.00
G01 X-4.4868 Y3.9866 F120.00
G01 X-4.4148 Y4.1113 F120.00
G01 X-4.2254 Y4.3272 F120.00
G01 X-3.9866 Y4.4868 F120.00
G01 X-3.7146 Y4.5791 F120.00
G01 X-3.4280 Y4.5979 F120.00
G01 X-3.2854 Y4.5791 F120.00
G01 X-3.0134 Y4.4868 F120.00
G01 X-2.8888 Y4.4148 F120.00
G01 X-2.6728 Y4.2254 F120.00
G01 X-2.5852 Y4.1112 F120.00
G01 X-2.4582 Y3.8537 F120.00
G01 X-2.4209 Y3.7146 F120.00
G01 X-2.4021 Y3.4280 F120.00
G01 X-2.4209 Y3.2854 F120.00
G01 X-2.5132 Y3.0134 F120.00
G01 X-2.6728 Y2.7746 F120.00
G01 X-2.8888 Y2.5852 F120.00
G01 X-3.1463 Y2.4582 F120.00
G01 X-3.4280 Y2.4021 F120.00
G01 X-3.7146 Y2.4209 F120.00
G01 X-3.9866 Y2.5132 F120.00
G01 X-4.1112 Y2.5852 F120.00
G01 X-4.3272 Y2.7746 F120.00
G01 X-4.4868 Y3.0134 F120.00
G01 X-4.5791 Y3.2854 F120.00
G01 X-4.6395 Y3.2733 F120.00
G01 X-4.6593 Y3.4240 F120.00
G01 X-4.6395 Y3.7267 F120.00
G01 X-4.5420 Y4.0138 F120.00
G01 X-4.4660 Y4.1455 F120.00
G01 X-4.2660 Y4.3735 F120.00
G01 X-4.0138 Y4.5420 F120.00
G01 X-3.7267 Y4.6395 F120.00
G01 X-3.4240 Y4.6593 F120.00
G01 X-3.2734 Y4.6395 F120.00
G01 X-2.9862 Y4.5420 F120.00
G01 X-2.8545 Y4.4660 F120.00
G01 X-2.6265 Y4.2660 F120.00
G01 X-2.5340 Y4.1455 F120.00
G01 X-2.3999 Y3.8734 F120.00
G01 X-2.3605 Y3.7267 F120.00
G01 X-2.3407 Y3.4240 F120.00
G01 X-2.3605 Y3.2733 F120.00
G01 X-2.4580 Y2.9862 F120.00
G01 X-2.6265 Y2.7340 F120.00
G01 X-2.8545 Y2.5340 F120.00
G01 X-3.1266 Y2.3999 F120.00
G01 X-3.4240 Y2.3407 F120.00
G01 X-3.7267 Y2.3605 F120.00
G01 X-4.0138 Y2.4580 F120.00
G01 X-4.1455 Y2.5340 F120.00
G01 X-4.3735 Y2.7340 F120.00
G01 X-4.5420 Y2.9862 F120.00
G01 X-4.6395 Y3.2733 F120.00
G01 X-4.6999 Y3.2613 F120.00
G01 X-4.7207 Y3.4200 F120.00
G01 X-4.7207 Y3.5800 F120.00
G01 X-4.6999 Y3.7387 F120.00
G01 X-4.6584 Y3.8932 F120.00
G01 X-4.5972 Y4.0411 F120.00
G01 X-4.5172 Y4.1797 F120.00
G01 X-4.4198 Y4.3066 F120.00
G01 X-4.3066 Y4.4198 F120.00
G01 X-4.1797 Y4.5172 F120.00
G01 X-4.0411 Y4.5972 F120.00
G01 X-3.8932 Y4.6584 F120.00
G01 X-3.7387 Y4.6999 F120.00
G01 X-3.5800 Y4.7207 F120.00
G01 X-3.4200 Y4.7207 F120.00
G01 X-3.2613 Y4.6999 F120.00
G01 X-3.1068 Y4.6584 F120.00
G01 X-2.9589 Y4.5972 F120.00
G01 X-2.8203 Y4.5172 F120.00
G01 X-2.6934 Y4.4198 F120.00
G01 X-2.5802 Y4.3066 F120.00
G01 X-2.4828 Y4.1797 F120.00
G01 X-2.4028 Y4.0411 F120.00
G01 X-2.3416 Y3.8932 F120.00
G01 X-2.3001 Y3.7387 F120.00
G01 X-2.2793 Y3.5800 F120.00
G01 X-2.2793 Y3.4200 F120.00
G01 X-2.3001 Y3.2613 F120.00
G01 X-2.3416 Y3.1068 F120.00
G01 X-2.4028 Y2.9589 F120.00
G01 X-2.4828 Y2.8203 F120.00
G01 X-2.5802 Y2.6934 F120.00
G01 X-2.6934 Y2.5802 F120.00
G01 X-2.8203 Y2.4828 F120.00
G01 X-2.9589 Y2.4028 F120.00
G01 X-3.1068 Y2.3416 F120.00
G01 X-3.2613 Y2.3001 F120.00
G01 X-3.4200 Y2.2793 F120.00
G01 X-3.5800 Y2.2793 F120.00
G01 X-3.7387 Y2.3001 F120.00
G01 X-3.8932 Y2.3416 F120.00
G01 X-4.0411 Y2.4028 F120.00
G01 X-4.1797 Y2.4828 F120.00
G01 X-4.3066 Y2.5802 F120.00
G01 X-4.4198 Y2.6934 F120.00
G01 X-4.5172 Y2.8203 F120.00
G01 X-4.5972 Y2.9589 F120.00
G01 X-4.6584 Y3.1068 F120.00
G01 X-4.6999 Y3.2613 F120.00
G01 X-4.7602 Y3.2493 F120.00
G01 X-4.7822 Y3.4160 F120.00
G01 X-4.7822 Y3.5840 F120.00
G01 X-4.7602 Y3.7507 F120.00
G01 X-4.7167 Y3.9130 F120.00
G01 X-4.6524 Y4.0683 F120.00
G01 X-4.5684 Y4.2139 F120.00
G01 X-4.4661 Y4.3472 F120.00
G01 X-4.3472 Y4.4661 F120.00
G01 X-4.2139 Y4.5684 F120.00
G01 X-4.0683 Y4.6524 F120.00
G01 X-3.9130 Y4.7167 F120.00
G01 X-3.7507 Y4.7602 F120.00
G01 X-3.5840 Y4.7822 F120.00
G01 X-3.4160 Y4.7822 F120.00
G01 X-3.2493 Y4.7602 F120.00
G01 X-3.0870 Y4.7167 F120.00
G01 X-2.9317 Y4.6524 F120.00
G01 X-2.7861 Y4.5684 F120.00
G01 X-2.6528 Y4.4661 F120.00
G01 X-2.5339 Y4.3472 F120.00
G01 X-2.4316 Y4.2139 F120.00
G01 X-2.3476 Y4.0683 F120.00
G01 X-2.2833 Y3.9130 F120.00
G01 X-2.2398 Y3.7507 F120.00
G01 X-2.2178 Y3.5840 F120.00
G01 X-2.2178 Y3.4160 F120.00
G01 X-2.2398 Y3.2493 F120.00
G01 X-2.2833 Y3.0870 F120.00
G01 X-2.3476 Y2.9317 F120.00
G01 X-2.4316 Y2.7861 F120.00
G01 X-2.5339 Y2.6528 F120.00
G01 X-2.6528 Y2.5339 F120.00
G01 X-2.7861 Y2.4316 F120.00
G01 X-2.9317 Y2.3476 F120.00
G01 X-3.0870 Y2.2833 F120.00
G01 X-3.2493 Y2.2398 F120.00
G01 X-3.4160 Y2.2178 F120.00
G01 X-3.5840 Y2.2178 F120.00
G01 X-3.7507 Y2.2398 F120.00
G01 X-3.9130 Y2.2833 F120.00
G01 X-4.0683 Y2.3476 F120.00
G01 X-4.2139 Y2.4316 F120.00
G01 X-4.3472 Y2.5339 F120.00
G01 X-4.4661 Y2.6528 F120.00
G01 X-4.5684 Y2.7861 F120.00
G01 X-4.6524 Y2.9317 F120.00
G01 X-4.7167 Y3.0870 F120.00
G01 X-4.7602 Y3.2493 F120.00
G01 X-4.8206 Y3.2373 F120.00
G01 X-4.8436 Y3.4119 F120.00
G01 X-4.8436 Y3.5881 F120.00
G01 X-4.8206 Y3.7627 F120.00
G01 X-4.7750 Y3.9328 F120.00
G01 X-4.7076 Y4.0955 F120.00
G01 X-4.6196 Y4.2481 F120.00
G01 X-4.5124 Y4.3878 F120.00
G01 X-4.3878 Y4.5124 F120.00
G01 X-4.2481 Y4.6196 F120.00
G01 X-4.0955 Y4.7076 F120.00
G01 X-3.9328 Y4.7750 F120.00
G01 X-3.7627 Y4.8206 F120.00
G01 X-3.5881 Y4.8436 F120.00
G01 X-3.4119 Y4.8436 F120.00
G01 X-3.2373 Y4.8206 F120.00
G01 X-3.0672 Y4.7750 F120.00
G01 X-2.9045 Y4.7076 F120.00
G01 X-2.7519 Y4.6196 F120.00
G01 X-2.6122 Y4.5124 F120.00
G01 X-2.4877 Y4.3878 F120.00
G01 X-2.3804 Y4.2481 F120.00
G01 X-2.2924 Y4.0955 F120.00
G01 X-2.2250 Y3.9328 F120.00
G01 X-2.1794 Y3.7627 F120.00
G01 X-2.1564 Y3.5881 F120.00
G01 X-2.1564 Y3.4119 F120.00
G01 X-2.1794 Y3.2373 F120.00
G01 X-2.2250 Y3.0672 F120.00
G01 X-2.2924 Y2.9045 F120.00
G01 X-2.3804 Y2.7519 F120.00
G01 X-2.4876 Y2.6122 F120.00
G01 X-2.6122 Y2.4876 F120.00
G01 X-2.7519 Y2.3804 F120.00
G01 X-2.9045 Y2.2924 F120.00
G01 X-3.0672 Y2.2250 F120.00
G01 X-3.2373 Y2.1794 F120.00
G01 X-3.4119 Y2.1564 F120.00
G01 X-3.5881 Y2.1564 F120.00
G01 X-3.7627 Y2.1794 F120.00
G01 X-3.9328 Y2.2250 F120.00
G01 X-4.0955 Y2.2924 F120.00
G01 X-4.2481 Y2.3804 F120.00
G01 X-4.3878 Y2.4877 F120.00
G01 X-4.5124 Y2.6122 F120.00
G01 X-4.6196 Y2.7519 F120.00
G01 X-4.7076 Y2.9045 F120.00
G01 X-4.7750 Y3.0672 F120.00
G01 X-4.8206 Y3.2373 F120.00
G01 X-4.8810 Y3.2253 F120.00
G01 X-4.9051 Y3.4079 F120.00
G01 X-4.9051 Y3.5921 F120.00
G01 X-4.8810 Y3.7747 F120.00
G01 X-4.8333 Y3.9526 F120.00
G01 X-4.7629 Y4.1228 F120.00
G01 X-4.6708 Y4.2823 F120.00
G01 X-4.5586 Y4.4284 F120.00
G01 X-4.4284 Y4.5586 F120.00
G01 X-4.2823 Y4.6708 F120.00
G01 X-4.1228 Y4.7629 F120.00
G01 X-3.9526 Y4.8333 F120.00
G01 X-3.7747 Y4.8810 F120.00
G01 X-3.5921 Y4.9051 F120.00
G01 X-3.4079 Y4.9051 F120.00
G01 X-3.2253 Y4.8810 F120.00
G01 X-3.0474 Y4.8333 F120.00
G01 X-2.8772 Y4.7629 F120.00
G01 X-2.7177 Y4.6708 F120.00
G01 X-2.5716 Y4.5586 F120.00
G01 X-2.4414 Y4.4284 F120.00
G01 X-2.3292 Y4.2823 F120.00
G01 X-2.2371 Y4.1228 F120.00
G01 X-2.1667 Y3.9526 F120.00
G01 X-2.1190 Y3.7747 F120.00
G01 X-2.0949 Y3.5921 F120.00
G01 X-2.0949 Y3.4079 F120.00
G01 X-2.1190 Y3.2253 F120.00
G01 X-2.1667 Y3.0474 F120.00
G01 X-2.2371 Y2.8772 F120.00
G01 X-2.3292 Y2.7177 F120.00
G01 X-2.4414 Y2.5716 F120.00
G01 X-2.5716 Y2.4414 F120.00
G01 X-2.7177 Y2.3292 F120.00
G01 X-2.8772 Y2.2371 F120.00
G01 X-3.0474 Y2.1667 F120.00
G01 X-3.2253 Y2.1190 F120.00
G01 X-3.4079 Y2.0949 F120.00
G01 X-3.5921 Y2.0949 F120.00
G01 X-3.7747 Y2.1190 F120.00
G01 X-3.9526 Y2.1667 F120.00
G01 X-4.1228 Y2.2371 F120.00
G01 X-4.2823 Y2.3292 F120.00
G01 X-4.4284 Y2.4414 F120.00
G01 X-4.5586 Y2.5716 F120.00
G01 X-4.6708 Y2.7177 F120.00
G01 X-4.7629 Y2.8772 F120.00
G01 X-4.8333 Y3.0474 F120.00
G01 X-4.8810 Y3.2253 F120.00
G01 X-4.9414 Y3.2133 F120.00
G01 X-4.9665 Y3.4039 F120.00
G01 X-4.9665 Y3.5961 F120.00
G01 X-4.9414 Y3.7867 F120.00
G01 X-4.8917 Y3.9724 F120.00
G01 X-4.8181 Y4.1500 F120.00
G01 X-4.7220 Y4.3165 F120.00
G01 X-4.6049 Y4.4690 F120.00
G01 X-4.4690 Y4.6049 F120.00
G01 X-4.3165 Y4.7220 F120.00
G01 X-4.1500 Y4.8181 F120.00
G01 X-3.9724 Y4.8917 F120.00
G01 X-3.7867 Y4.9414 F120.00
G01 X-3.5961 Y4.9665 F120.00
G01 X-3.4039 Y4.9665 F120.00
G01 X-3.2133 Y4.9414 F120.00
G01 X-3.0276 Y4.8917 F120.00
G01 X-2.8500 Y4.8181 F120.00
G01 X-2.6835 Y4.7220 F120.00
G01 X-2.5310 Y4.6049 F120.00
G01 X-2.3951 Y4.4690 F120.00
G01 X-2.2780 Y4.3165 F120.00
G01 X-2.1819 Y4.1500 F120.00
G01 X-2.1083 Y3.9724 F120.00
G01 X-2.0586 Y3.7867 F120.00
G01 X-2.0335 Y3.5961 F120.00
G01 X-2.0335 Y3.4039 F120.00
G01 X-2.0586 Y3.2133 F120.00
G01 X-2.1083 Y3.0276 F120.00
G01 X-2.1819 Y2.8500 F120.00
G01 X-2.2780 Y2.6835 F120.00
G01 X-2.3951 Y2.5310 F120.00
G01 X-2.5310 Y2.3951 F120.00
G01 X-2.6835 Y2.2780 F120.00
G01 X-2.8500 Y2.1819 F120.00
G01 X-3.0276 Y2.1083 F120.00
G01 X-3.2133 Y2.0586 F120.00
G01 X-3.4039 Y2.0335 F120.00
G01 X-3.5961 Y2.0335 F120.00
G01 X-3.7867 Y2.0586 F120.00
G01 X-3.9724 Y2.1083 F120.00
G01 X-4.1500 Y2.1819 F120.00
G01 X-4.3165 Y2.2780 F120.00
G01 X-4.4690 Y2.3951 F120.00
G01 X-4.6049 Y2.5310 F120.00
G01 X-4.7220 Y2.6835 F120.00
G01 X-4.8181 Y2.8500 F120.00
G01 X-4.8917 Y3.0276 F120.00
G01 X-4.9414 Y3.2133 F120.00
G01 X-5.0018 Y3.2013 F120.00
G01 X-5.0279 Y3.3999 F120.00
G01 X-5.0279 Y3.6001 F120.00
G01 X-5.0018 Y3.7987 F120.00
G01 X-4.9500 Y3.9922 F120.00
G01 X-4.8733 Y4.1772 F120.00
G01 X-4.7732 Y4.3507 F120.00
G01 X-4.6512 Y4.5096 F120.00
G01 X-4.5096 Y4.6512 F120.00
G01 X-4.3507 Y4.7732 F120.00
G01 X-4.1772 Y4.8733 F120.00
G01 X-3.9922 Y4.9500 F120.00
G01 X-3.7987 Y5.0018 F120.00
G01 X-3.6001 Y5.0279 F120.00
G01 X-3.3999 Y5.0279 F120.00
G01 X-3.2013 Y5.0018 F120.00
G01 X-3.0078 Y4.9500 F120.00
G01 X-2.8228 Y4.8733 F120.00
G01 X-2.6493 Y4.7732 F120.00
G01 X-2.4904 Y4.6512 F120.00
G01 X-2.3488 Y4.5096 F120.00
G01 X-2.2268 Y4.3507 F120.00
G01 X-2.1267 Y4.1772 F120.00
G01 X-2.0500 Y3.9922 F120.00
G01 X-1.9982 Y3.7987 F120.00
G01 X-1.9721 Y3.6001 F120.00
G01 X-1.9721 Y3.3999 F120.00
G01 X-1.9982 Y3.2013 F120.00
G01 X-2.0500 Y3.0078 F120.00
G01 X-2.1267 Y2.8228 F120.00
G01 X-2.2268 Y2.6493 F120.00
G01 X-2.3488 Y2.4904 F120.00
G01 X-2.4904 Y2.3488 F120.00
G01 X-2.6493 Y2.2268 F120.00
G01 X-2.8228 Y2.1267 F120.00
G01 X-3.0078 Y2.0500 F120.00
G01 X-3.2013 Y1.9982 F120.00
G01 X-3.3999 Y1.9721 F120.00
G01 X-3.6001 Y1.9721 F120.00
G01 X-3.7987 Y1.9982 F120.00
G01 X-3.9922 Y2.0500 F120.00
G01 X-4.1772 Y2.1267 F120.00
G01 X-4.3507 Y2.2268 F120.00
G01 X-4.5096 Y2.3488 F120.00
G01 X-4.6512 Y2.4904 F120.00
G01 X-4.7732 Y2.6493 F120.00
G01 X-4.8733 Y2.8228 F120.00
G01 X-4.9500 Y3.0078 F120.00
G01 X-5.0018 Y3.2013 F120.00
G01 X-5.0622 Y3.1893 F120.00
G01 X-5.0894 Y3.3958 F120.00
G01 X-5.0894 Y3.6042 F120.00
G01 X-5.0622 Y3.8107 F120.00
G01 X-5.0083 Y4.0120 F120.00
G01 X-4.9285 Y4.2045 F120.00
G01 X-4.8244 Y4.3849 F120.00
G01 X-4.6975 Y4.5502 F120.00
G01 X-4.5502 Y4.6975 F120.00
G01 X-4.3849 Y4.8244 F120.00
G01 X-4.2045 Y4.9285 F120.00
G01 X-4.0120 Y5.0083 F120.00
G01 X-3.8107 Y5.0622 F120.00
G01 X-3.6042 Y5.0894 F120.00
G01 X-3.3958 Y5.0894 F120.00
G01 X-3.1893 Y5.0622 F120.00
G01 X-2.9880 Y5.0083 F120.00
G01 X-2.7955 Y4.9285 F120.00
G01 X-2.6151 Y4.8244 F120.00
G01 X-2.4498 Y4.6975 F120.00
G01 X-2.3025 Y4.5502 F120.00
G01 X-2.1756 Y4.3849 F120.00
G01 X-2.0715 Y4.2045 F120.00
G01 X-1.9917 Y4.0120 F120.00
G01 X-1.9378 Y3.8107 F120.00
G01 X-1.9106 Y3.6042 F120.00
G01 X-1.9106 Y3.3958 F120.00
G01 X-1.9378 Y3.1893 F120.00
G01 X-1.9917 Y2.9880 F120.00
G01 X-2.0715 Y2.7955 F120.00
G01 X-2.1756 Y2.6151 F120.00
G01 X-2.3025 Y2.4498 F120.00
G01 X-2.4498 Y2.3025 F120.00
G01 X-2.6151 Y2.1756 F120.00
G01 X-2.7955 Y2.0715 F120.00
G01 X-2.9880 Y1.9917 F120.00
G01 X-3.1893 Y1.9378 F120.00
G01 X-3.3958 Y1.9106 F120.00
G01 X-3.6042 Y1.9106 F120.00
G01 X-3.8107 Y1.9378 F120.00
G01 X-4.0120 Y1.9917 F120.00
G01 X-4.2045 Y2.0715 F120.00
G01 X-4.3849 Y2.1756 F120.00
G01 X-4.5502 Y2.3025 F120.00
G01 X-4.6975 Y2.4498 F120.00
G01 X-4.8244 Y2.6151 F120.00
G01 X-4.9285 Y2.7955 F120.00
G01 X-5.0083 Y2.9880 F120.00
G01 X-5.0622 Y3.1893 F120.00
G01 X-5.1226 Y3.1773 F120.00
G01 X-5.1508 Y3.3918 F120.00
G01 X-5.1508 Y3.6082 F120.00
G01 X-5.1226 Y3.8227 F120.00
G01 X-5.0666 Y4.0318 F120.00
G01 X-4.9838 Y4.2317 F120.00
G01 X-4.8755 Y4.4191 F120.00
G01 X-4.7438 Y4.5908 F120.00
G01 X-4.5908 Y4.7438 F120.00
G01 X-4.4191 Y4.8755 F120.00
G01 X-4.2317 Y4.9838 F120.00
G01 X-4.0318 Y5.0666 F120.00
G01 X-3.8227 Y5.1226 F120.00
G01 X-3.6082 Y5.1508 F120.00
G01 X-3.3918 Y5.1508 F120.00
G01 X-3.1773 Y5.1226 F120.00
G01 X-2.9682 Y5.0666 F120.00
G01 X-2.7683 Y4.9838 F120.00
G01 X-2.5809 Y4.8755 F120.00
G01 X-2.4092 Y4.7438 F120.00
G01 X-2.2562 Y4.5908 F120.00
G01 X-2.1244 Y4.4191 F120.00
G01 X-2.0162 Y4.2317 F120.00
G01 X-1.9334 Y4.0318 F120.00
G01 X-1.8774 Y3.8227 F120.00
G01 X-1.8492 Y3.6082 F120.00
G01 X-1.8492 Y3.3918 F120.00
G01 X-1.8774 Y3.1773 F120.00
G01 X-1.9334 Y2.9682 F120.00
G01 X-2.0162 Y2.7683 F120.00
G01 X-2.1244 Y2.5809 F120.00
G01 X-2.2562 Y2.4092 F120.00
G01 X-2.4092 Y2.2562 F120.00
G01 X-2.5809 Y2.1244 F120.00
G01 X-2.7683 Y2.0162 F120.00
G01 X-2.9682 Y1.9334 F120.00
G01 X-3.1773 Y1.8774 F120.00
G01 X-3.3918 Y1.8492 F120.00
G01 X-3.6082 Y1.8492 F120.00
G01 X-3.8227 Y1.8774 F120.00
G01 X-4.0318 Y1.9334 F120.00
G01 X-4.2317 Y2.0162 F120.00
G01 X-4.4191 Y2.1244 F120.00
G01 X-4.5908 Y2.2562 F120.00
G01 X-4.7438 Y2.4092 F120.00
G01 X-4.8755 Y2.5809 F120.00
G01 X-4.9838 Y2.7683 F120.00
G01 X-5.0666 Y2.9682 F120.00
G01 X-5.1226 Y3.1773 F120.00
G01 X-5.1830 Y3.1652 F120.00
G01 X-5.2123 Y3.3878 F120.00
G01 X-5.2123 Y3.6122 F120.00
G01 X-5.1830 Y3.8348 F120.00
G01 X-5.1249 Y4.0516 F120.00
G01 X-5.0390 Y4.2589 F120.00
G01 X-4.9267 Y4.4533 F120.00
G01 X-4.7901 Y4.6314 F120.00
G01 X-4.6314 Y4.7901 F120.00
G01 X-4.4533 Y4.9267 F120.00
G01 X-4.2589 Y5.0390 F120.00
G01 X-4.0516 Y5.1249 F120.00
G01 X-3.8348 Y5.1830 F120.00
G01 X-3.6122 Y5.2123 F120.00
G01 X-3.3878 Y5.2123 F120.00
G01 X-3.1652 Y5.1830 F120.00
G01 X-2.9484 Y5.1249 F120.00
G01 X-2.7411 Y5.0390 F120.00
G01 X-2.5467 Y4.9267 F120.00
G01 X-2.3686 Y4.7901 F120.00
G01 X-2.2099 Y4.6314 F120.00
G01 X-2.0733 Y4.4533 F120.00
G01 X-1.9610 Y4.2589 F120.00
G01 X-1.8751 Y4.0516 F120.00
G01 X-1.8170 Y3.8348 F120.00
G01 X-1.7877 Y3.6122 F120.00
G01 X-1.7877 Y3.3878 F120.00
G01 X-1.8170 Y3.1652 F120.00
G01 X-1.8751 Y2.9484 F120.00
G01 X-1.9610 Y2.7411 F120.00
G01 X-2.0733 Y2.5467 F120.00
G01 X-2.2099 Y2.3686 F120.00
G01 X-2.3686 Y2.2099 F120.00
G01 X-2.5467 Y2.0733 F120.00
G01 X-2.7411 Y1.9610 F120.00
G01 X-2.9484 Y1.8751 F120.00
G01 X-3.1652 Y1.8170 F120.00
G01 X-3.3878 Y1.7877 F120.00
G01 X-3.6122 Y1.7877 F120.00
G01 X-3.8348 Y1.8170 F120.00
G01 X-4.0516 Y1.8751 F120.00
G01 X-4.2589 Y1.9610 F120.00
G01 X-4.4533 Y2.0733 F120.00
G01 X-4.6314 Y2.2099 F120.00
G01 X-4.7901 Y2.3686 F120.00
G01 X-4.9267 Y2.5467 F120.00
G01 X-5.0390 Y2.7411 F120.00
G01 X-5.1249 Y2.9484 F120.00
G01 X-5.1830 Y3.1652 F120.00
G01 X-5.2434 Y3.1532 F120.00
G01 X-5.2737 Y3.3837 F120.00
G01 X-5.2737 Y3.6163 F120.00
G01 X-5.2434 Y3.8468 F120.00
G01 X-5.1832 Y4.0714 F120.00
G01 X-5.0942 Y4.2862 F120.00
G01 X-4.9779 Y4.4875 F120.00
G01 X-4.8364 Y4.6720 F120.00
G01 X-4.6720 Y4.8364 F120.00
G01 X-4.4875 Y4.9779 F120.00
G01 X-4.2862 Y5.0942 F120.00
G01 X-4.0714 Y5.1832 F120.00
G01 X-3.8468 Y5.2434 F120.00
G01 X-3.6163 Y5.2737 F120.00
G01 X-3.3837 Y5.2737 F120.00
G01 X-3.1532 Y5.2434 F120.00
G01 X-2.9286 Y5.1832 F120.00
G01 X-2.7138 Y5.0942 F120.00
G01 X-2.5125 Y4.9779 F120.00
G01 X-2.3280 Y4.8364 F120.00
G01 X-2.1636 Y4.6720 F120.00
G01 X-2.0221 Y4.4875 F120.00
G01 X-1.9058 Y4.2862 F120.00
G01 X-1.8168 Y4.0714 F120.00
G01 X-1.7566 Y3.8468 F120.00
G01 X-1.7263 Y3.6163 F120.00
G01 X-1.7263 Y3.3837 F120.00
G01 X-1.7566 Y3.1532 F120.00
G01 X-1.8168 Y2.9286 F120.00
G01 X-1.9058 Y2.7138 F120.00
G01 X-2.0221 Y2.5125 F120.00
G01 X-2.1636 Y2.3280 F120.00
G01 X-2.3280 Y2.1636 F120.00
G01 X-2.5125 Y2.0221 F120.00
G01 X-2.7138 Y1.9058 F120.00
G01 X-2.9286 Y1.8168 F120.00
G01 X-3.1532 Y1.7566 F120.00
G01 X-3.3837 Y1.7263 F120.00
G01 X-3.6163 Y1.7263 F120.00
G01 X-3.8468 Y1.7566 F120.00
G01 X-4.0714 Y1.8168 F120.00
G01 X-4.2862 Y1.9058 F120.00
G01 X-4.4875 Y2.0221 F120.00
G01 X-4.6720 Y2.1636 F120.00
G01 X-4.8364 Y2.3280 F120.00
G01 X-4.9779 Y2.5125 F120.00
G01 X-5.0942 Y2.7138 F120.00
G01 X-5.1832 Y2.9286 F120.00
G01 X-5.2434 Y3.1532 F120.00
G00 Z2.0000
G00 X-12.4397 Y7.5199
G01 F60.00
G01 Z-0.1000
G01 F120.00
G01 X-12.4427 Y7.5443 F120.00
G01 X-12.4142 Y7.5729 F120.00
G01 X-12.4397 Y7.5199 F120.00
G00 Z2.0000
G00 X-12.9309 Y8.0822
G01 F60.00
G01 Z-0.1000
G01 F120.00
G01 X-12.9539 Y8.0591 F120.00
G01 X-12.9735 Y8.0596 F120.00
G01 X-12.9598 Y8.0664 F120.00
G01 X-12.9309 Y8.0822 F120.00
G00 Z2.0000
G00 X-13.6105 Y12.2158
G01 F60.00
G01 Z-0.1000
G01 F120.00
G01 X-11.5793 Y14.2469 F120.00
G01 X-11.4718 Y14.2073 F120.00
G01 X-11.2518 Y14.1635 F120.00
G01 X-10.9832 Y14.1598 F120.00
G01 X-10.7109 Y14.2121 F120.00
G01 X-10.4534 Y14.3203 F120.00
G01 X-11.2266 Y13.5471 F120.00
G01 X-11.9354 Y13.5453 F120.00
G01 X-12.0380 Y13.5239 F120.00
G01 X-12.1796 Y13.4639 F120.00
G01 X-12.2807 Y13.3891 F120.00
G01 X-13.5468 Y12.1231 F120.00
G01 X-13.6105 Y12.2158 F120.00
G01 X-13.6961 Y12.2207 F120.00
G01 X-11.5938 Y14.3194 F120.00
G01 X-11.4611 Y14.2680 F120.00
G01 X-11.2414 Y14.2240 F120.00
G01 X-10.9380 Y14.2275 F120.00
G01 X-10.7244 Y14.2722 F120.00
G01 X-10.5082 Y14.3608 F120.00
G01 X-10.1942 Y14.5900 F120.00
G01 X-10.0341 Y14.7842 F120.00
G01 X-9.9198 Y14.9948 F120.00
G01 X-9.8204 Y15.4046 F120.00
G01 X-9.8228 Y15.6319 F120.00
G01 X-9.8765 Y15.8885 F120.00
G01 X-10.0216 Y16.1961 F120.00
G01 X-10.1554 Y16.3553 F120.00
G01 X-9.5842 Y16.3596 F120.00
G01 X-9.4809 Y16.3857 F120.00
G01 X-9.3886 Y16.4394 F120.00
G01 X-7.1503 Y18.6636 F120.00
G01 X-7.0912 Y18.7396 F120.00
G01 X-7.0304 Y18.8902 F120.00
G01 X-7.0144 Y18.9946 F120.00
G01 X-7.0143 Y23.2988 F120.00
G01 X-5.7988 Y24.5143 F120.00
G01 X-5.1188 Y24.5143 F120.00
G01 X-4.9921 Y24.4850 F120.00
G01 X-4.6051 Y24.4843 F120.00
G01 X-4.5471 Y24.3609 F120.00
G01 X-4.3743 Y24.1271 F120.00
G01 X-4.1742 Y23.9535 F120.00
G01 X-3.9318 Y23.8239 F120.00
G01 X-3.5905 Y23.7415 F120.00
G01 X-3.2498 Y23.7570 F120.00
G01 X-2.9917 Y23.8347 F120.00
G01 X-2.7634 Y23.9630 F120.00
G01 X-2.5479 Y24.1578 F120.00
G01 X-2.4857 Y24.2382 F120.00
G01 X-2.4857 Y23.1632 F120.00
G01 X-2.6206 Y23.3196 F120.00
G01 X-2.8873 Y23.5150 F120.00
G01 X-3.1190 Y23.6115 F120.00
G01 X-3.3712 Y23.6593 F120.00
G01 X-3.6029 Y23.6573 F120.00
G01 X-3.8631 Y23.6004 F120.00
G01 X-4.1574 Y23.4581 F120.00
G01 X-4.3840 Y23.2604 F120.00
G01 X-4.5730 Y22.9921 F120.00
G01 X-4.6552 Y22.7902 F120.00
G01 X-4.6985 Y22.5830 F120.00
G01 X-4.7015 Y22.2958 F120.00
G01 X-4.6600 Y22.0865 F120.00
G01 X-4.6174 Y21.9741 F120.00
G01 X-6.4027 Y20.1764 F120.00
G01 X-6.4479 Y20.0857 F120.00
G01 X-6.4843 Y19.9374 F120.00
G01 X-6.4857 Y19.2010 F120.00
G01 X-8.3570 Y17.3271 F120.00
G01 X-8.4166 Y17.2492 F120.00
G01 X-8.4520 Y17.1679 F120.00
G01 X-8.4848 Y17.0247 F120.00
G01 X-8.4857 Y16.2012 F120.00
G01 X-11.2012 Y13.4857 F120.00
G01 X-11.9306 Y13.4841 F120.00
G01 X-12.0269 Y13.4627 F120.00
G01 X-12.1704 Y13.3982 F120.00
G01 X-13.5703 Y12.0126 F120.00
G01 X-13.6136 Y12.1168 F120.00
G01 X-13.6961 Y12.2207 F120.00
G01 X-13.7955 Y12.2303 F120.00
G01 X-13.7070 Y12.2931 F120.00
G01 X-11.6082 Y14.3919 F120.00
G01 X-11.4455 Y14.3274 F120.00
G01 X-11.2138 Y14.2828 F120.00
G01 X-10.9817 Y14.2832 F120.00
G01 X-10.7545 Y14.3274 F120.00
G01 X-10.4854 Y14.4459 F120.00
G01 X-10.2450 Y14.6264 F120.00
G01 X-10.0935 Y14.8066 F120.00
G01 X-9.9558 Y15.0767 F120.00
G01 X-9.8845 Y15.3701 F120.00
G01 X-9.8845 Y15.6296 F120.00
G01 X-9.9342 Y15.8674 F120.00
G01 X-10.0658 Y16.1494 F120.00
G01 X-10.2941 Y16.4167 F120.00
G01 X-9.5995 Y16.4198 F120.00
G01 X-9.5124 Y16.4394 F120.00
G01 X-9.4326 Y16.4831 F120.00
G01 X-7.1937 Y18.7070 F120.00
G01 X-7.1421 Y18.7743 F120.00
G01 X-7.0892 Y18.9082 F120.00
G01 X-7.0758 Y18.9960 F120.00
G01 X-7.0758 Y23.3243 F120.00
G01 X-5.8243 Y24.5758 F120.00
G01 X-5.1065 Y24.5758 F120.00
G01 X-4.9878 Y24.5463 F120.00
G01 X-4.5640 Y24.5458 F120.00
G01 X-4.4987 Y24.3993 F120.00
G01 X-4.3292 Y24.1690 F120.00
G01 X-4.1409 Y24.0053 F120.00
G01 X-3.9075 Y23.8805 F120.00
G01 X-3.5696 Y23.8017 F120.00
G01 X-3.2323 Y23.8231 F120.00
G01 X-3.0277 Y23.8861 F120.00
G01 X-2.8412 Y23.9841 F120.00
G01 X-2.5757 Y24.2178 F120.00
G01 X-2.4242 Y24.4602 F120.00
G01 X-2.4242 Y22.9428 F120.00
G01 X-2.5028 Y23.0855 F120.00
G01 X-2.6370 Y23.2499 F120.00
G01 X-2.8866 Y23.4419 F120.00
G01 X-3.1249 Y23.5489 F120.00
G01 X-3.3414 Y23.5945 F120.00
G01 X-3.5884 Y23.5970 F120.00
G01 X-3.8318 Y23.5466 F120.00
G01 X-4.1172 Y23.4109 F120.00
G01 X-4.3170 Y23.2454 F120.00
G01 X-4.5156 Y22.9700 F120.00
G01 X-4.5965 Y22.7722 F120.00
G01 X-4.6383 Y22.5709 F120.00
G01 X-4.6397 Y22.2975 F120.00
G01 X-4.5986 Y22.0951 F120.00
G01 X-4.5449 Y21.9597 F120.00
G01 X-6.3517 Y20.1421 F120.00
G01 X-6.3898 Y20.0655 F120.00
G01 X-6.4232 Y19.9306 F120.00
G01 X-6.4242 Y19.1756 F120.00
G01 X-8.3132 Y17.2840 F120.00
G01 X-8.3635 Y17.2183 F120.00
G01 X-8.4237 Y17.0185 F120.00
G01 X-8.4242 Y16.1757 F120.00
G01 X-11.1757 Y13.4242 F120.00
G01 X-11.9229 Y13.4231 F120.00
G01 X-12.0062 Y13.4048 F120.00
G01 X-12.1390 Y13.3454 F120.00
G01 X-13.6120 Y11.8840 F120.00
G01 X-13.6574 Y12.0694 F120.00
G01 X-13.7955 Y12.2303 F120.00
G00 Z2.0000
G00 X-12.2395 Y13.4999
G01 F60.00
G01 Z-0.1000
G01 F120.00
G01 X-11.5649 Y14.1745 F120.00
G01 X-11.4663 Y14.1429 F120.00
G01 X-11.2048 Y14.0977 F120.00
G01 X-10.9601 Y14.1001 F120.00
G01 X-10.7133 Y14.1477 F120.00
G01 X-11.2521 Y13.6085 F120.00
G01 X-11.9510 Y13.6055 F120.00
G01 X-12.0706 Y13.5776 F120.00
G01 X-12.2395 Y13.4999 F120.00
G01 X-11.9904 Y13.6621 F120.00
G01 X-11.5499 Y14.1027 F120.00
G01 X-11.2364 Y14.0381 F120.00
G01 X-10.9014 Y14.0468 F120.00
G01 X-11.2776 Y13.6700 F120.00
G01 X-11.9904 Y13.6621 F120.00
G01 X-11.8337 Y13.7314 F120.00
G01 X-11.5328 Y14.0328 F120.00
G01 X-11.2673 Y13.9796 F120.00
G01 X-11.0613 Y13.9746 F120.00
G01 X-11.3031 Y13.7314 F120.00
G01 X-11.8337 Y13.7314 F120.00
G01 X-11.4940 Y13.8978 F120.00
G01 X-11.3414 Y13.8674 F120.00
G01 X-11.3544 Y13.8543 F120.00
G01 X-11.5374 Y13.8543 F120.00
G01 X-11.4940 Y13.8978 F120.00
G01 X-11.5140 Y13.9647 F120.00
G01 X-11.2087 Y13.9135 F120.00
G01 X-11.3287 Y13.7929 F120.00
G01 X-11.6855 Y13.7929 F120.00
G01 X-11.5140 Y13.9647 F120.00
G00 Z2.0000
G00 X-12.1358 Y14.9778
G01 F60.00
G01 Z-0.1000
G01 F120.00
G01 X-14.1567 Y12.9564 F120.00
G01 X-15.5364 Y12.9564 F120.00
G01 X-12.0143 Y16.4728 F120.00
G01 X-11.7250 Y16.4737 F120.00
G01 X-11.8160 Y16.4128 F120.00
G01 X-11.8188 Y16.4109 F120.00
G01 X-11.8435 Y16.3917 F120.00
G01 X-12.0041 Y16.2283 F120.00
G01 X-12.1251 Y16.0453 F120.00
G01 X-12.2134 Y15.8291 F120.00
G01 X-12.2557 Y15.6123 F120.00
G01 X-12.2557 Y15.3884 F120.00
G01 X-12.2118 Y15.1651 F120.00
G01 X-12.1358 Y14.9778 F120.00
G01 X-12.6620 Y15.2185 F120.00
G01 X-12.6357 Y15.0878 F120.00
G01 X-14.3349 Y13.3865 F120.00
G01 X-14.4969 Y13.3865 F120.00
G01 X-12.6620 Y15.2185 F120.00
G01 X-12.6219 Y15.3453 F120.00
G01 X-12.6135 Y15.2898 F120.00
G01 X-12.6134 Y15.2891 F120.00
G01 X-12.5789 Y15.1159 F120.00
G01 X-12.5780 Y15.1117 F120.00
G01 X-12.5673 Y15.0676 F120.00
G01 X-14.3094 Y13.3250 F120.00
G01 X-14.6454 Y13.3250 F120.00
G01 X-12.6219 Y15.3453 F120.00
G01 X-12.5640 Y15.4899 F120.00
G01 X-12.5575 Y15.3263 F120.00
G01 X-12.5532 Y15.3016 F120.00
G01 X-12.5531 Y15.3011 F120.00
G01 X-12.5186 Y15.1279 F120.00
G01 X-12.5168 Y15.1192 F120.00
G01 X-12.4975 Y15.0505 F120.00
G01 X-14.2839 Y13.2636 F120.00
G01 X-14.7939 Y13.2636 F120.00
G01 X-12.5640 Y15.4899 F120.00
G01 X-12.4998 Y15.6408 F120.00
G01 X-12.4989 Y15.3517 F120.00
G01 X-12.4931 Y15.3146 F120.00
G01 X-12.4583 Y15.1394 F120.00
G01 X-12.4568 Y15.1322 F120.00
G01 X-12.4562 Y15.1296 F120.00
G01 X-12.4553 Y15.1255 F120.00
G01 X-12.4551 Y15.1246 F120.00
G01 X-12.4551 Y15.1244 F120.00
G01 X-12.4549 Y15.1236 F120.00
G01 X-12.4548 Y15.1235 F120.00
G01 X-12.4257 Y15.0354 F120.00
G01 X-14.2585 Y13.2021 F120.00
G01 X-14.9424 Y13.2021 F120.00
G01 X-12.4998 Y15.6408 F120.00
G01 X-12.4029 Y15.8244 F120.00
G01 X-12.4395 Y15.6258 F120.00
G01 X-12.4402 Y15.3839 F120.00
G01 X-12.3943 Y15.1346 F120.00
G01 X-12.3880 Y15.1112 F120.00
G01 X-12.3836 Y15.0972 F120.00
G01 X-12.3819 Y15.0921 F120.00
G01 X-12.3812 Y15.0902 F120.00
G01 X-12.3811 Y15.0901 F120.00
G01 X-12.3801 Y15.0873 F120.00
G01 X-12.3799 Y15.0866 F120.00
G01 X-12.3532 Y15.0210 F120.00
G01 X-14.2330 Y13.1407 F120.00
G01 X-15.0909 Y13.1407 F120.00
G01 X-12.4029 Y15.8244 F120.00
G01 X-12.2527 Y16.0612 F120.00
G01 X-12.3319 Y15.8617 F120.00
G01 X-12.3795 Y15.5997 F120.00
G01 X-12.3746 Y15.3495 F120.00
G01 X-12.3319 Y15.1383 F120.00
G01 X-12.3187 Y15.0985 F120.00
G01 X-12.3161 Y15.0919 F120.00
G01 X-12.3160 Y15.0918 F120.00
G01 X-12.2807 Y15.0066 F120.00
G01 X-14.2076 Y13.0793 F120.00
G01 X-15.2394 Y13.0793 F120.00
G01 X-12.2527 Y16.0612 F120.00
G01 X-11.9112 Y16.4116 F120.00
G01 X-12.0467 Y16.2735 F120.00
G01 X-12.0486 Y16.2712 F120.00
G01 X-12.0488 Y16.2709 F120.00
G01 X-12.0511 Y16.2679 F120.00
G01 X-12.0518 Y16.2670 F120.00
G01 X-12.0557 Y16.2619 F120.00
G01 X-12.0635 Y16.2508 F120.00
G01 X-12.1674 Y16.0949 F120.00
G01 X-12.2772 Y15.8262 F120.00
G01 X-12.3169 Y15.6172 F120.00
G01 X-12.3171 Y15.3851 F120.00
G01 X-12.2716 Y15.1509 F120.00
G01 X-12.2607 Y15.1188 F120.00
G01 X-12.2593 Y15.1153 F120.00
G01 X-12.2083 Y14.9922 F120.00
G01 X-14.1821 Y13.0178 F120.00
G01 X-15.3879 Y13.0178 F120.00
G01 X-11.9888 Y16.4114 F120.00
G01 X-11.9112 Y16.4116 F120.00
G01 X-11.4614 Y16.5359 F120.00
G01 X-11.6197 Y16.4691 F120.00
G01 X-11.7825 Y16.3613 F120.00
G01 X-11.9385 Y16.2105 F120.00
G01 X-12.0684 Y16.0210 F120.00
G01 X-12.1482 Y15.8314 F120.00
G01 X-12.1942 Y15.6093 F120.00
G01 X-12.1942 Y15.3907 F120.00
G01 X-12.1519 Y15.1793 F120.00
G01 X-12.0604 Y14.9658 F120.00
G01 X-14.1312 Y12.8949 F120.00
G01 X-15.6849 Y12.8949 F120.00
G01 X-12.0398 Y16.5341 F120.00
G01 X-11.4614 Y16.5359 F120.00
G00 Z2.0000
G00 X-12.0768 Y17.1400
G01 F60.00
G01 Z-0.1000
G01 F120.00
G01 X-12.0543 Y17.0857 F120.00
G01 X-12.0000 Y17.0632 F120.00
G01 X-10.2000 Y17.0632 F120.00
G01 X-10.1573 Y17.0761 F120.00
G01 X-10.1306 Y17.1072 F120.00
G01 X-10.1265 Y18.9623 F120.00
G01 X-10.1513 Y18.9994 F120.00
G01 X-10.1925 Y19.0164 F120.00
G01 X-10.7326 Y19.0168 F120.00
G01 X-10.7326 Y19.7248 F120.00
G01 X-10.2760 Y19.7387 F120.00
G01 X-10.1413 Y19.8216 F120.00
G01 X-10.0868 Y19.8959 F120.00
G01 X-10.0553 Y19.9825 F120.00
G01 X-10.0502 Y20.8856 F120.00
G01 X-10.0731 Y20.9751 F120.00
G01 X-10.1201 Y21.0543 F120.00
G01 X-10.2431 Y21.1487 F120.00
G01 X-10.3751 Y21.1768 F120.00
G01 X-11.6571 Y21.1752 F120.00
G01 X-11.7501 Y21.1519 F120.00
G01 X-11.8293 Y21.1049 F120.00
G01 X-11.9237 Y20.9819 F120.00
G01 X-11.9518 Y20.8491 F120.00
G01 X-11.9376 Y19.9547 F120.00
G01 X-11.8561 Y19.8189 F120.00
G01 X-11.7240 Y19.7387 F120.00
G01 X-11.2674 Y19.7248 F120.00
G01 X-11.2674 Y19.0168 F120.00
G01 X-12.0038 Y19.0167 F120.00
G01 X-12.0659 Y18.9795 F120.00
G01 X-12.0768 Y18.9400 F120.00
G01 X-12.0768 Y17.1400 F120.00
G01 X-12.2611 Y17.2908 F120.00
G01 X-12.2611 Y17.1805 F120.00
G01 X-12.3289 Y17.1576 F120.00
G01 X-12.2875 Y17.2169 F120.00
G01 X-12.2611 Y17.2908 F120.00
G00 Z2.0000
G00 X-11.8028 Y19.4415
G01 F60.00
G01 Z-0.1000
G01 F120.00
G01 X-11.5746 Y19.4241 F120.00
G01 X-11.5746 Y19.3240 F120.00
G01 X-11.8240 Y19.3240 F120.00
G01 X-11.8028 Y19.4415 F120.00
G01 X-11.8600 Y19.5321 F120.00
G01 X-11.7405 Y19.4911 F120.00
G01 X-11.5132 Y19.4842 F120.00
G01 X-11.5132 Y19.2626 F120.00
G01 X-11.9236 Y19.2626 F120.00
G01 X-11.8731 Y19.3752 F120.00
G01 X-11.8600 Y19.5321 F120.00
G01 X-11.9721 Y19.6754 F120.00
G01 X-11.7618 Y19.5577 F120.00
G01 X-11.4517 Y19.5444 F120.00
G01 X-11.4517 Y19.2011 F120.00
G01 X-12.0591 Y19.1943 F120.00
G01 X-11.9655 Y19.3106 F120.00
G01 X-11.9304 Y19.4015 F120.00
G01 X-11.9240 Y19.5564 F120.00
G01 X-11.9721 Y19.6754 F120.00
G00 Z2.0000
G00 X-10.2866 Y19.4271
G01 F60.00
G01 Z-0.1000
G01 F120.00
G01 X-10.2796 Y19.3240 F120.00
G01 X-10.4254 Y19.3240 F120.00
G01 X-10.4254 Y19.4241 F120.00
G01 X-10.2866 Y19.4271 F120.00
G01 X-10.2183 Y19.4994 F120.00
G01 X-10.2245 Y19.4123 F120.00
G01 X-10.2040 Y19.2626 F120.00
G01 X-10.4868 Y19.2626 F120.00
G01 X-10.4868 Y19.4842 F120.00
G01 X-10.2183 Y19.4994 F120.00
G01 X-10.0789 Y19.1713 F120.00
G01 X-10.1834 Y19.2006 F120.00
G01 X-10.5483 Y19.2011 F120.00
G01 X-10.5483 Y19.5444 F120.00
G01 X-10.2516 Y19.5547 F120.00
G01 X-10.0901 Y19.6336 F120.00
G01 X-10.1485 Y19.5210 F120.00
G01 X-10.1636 Y19.4255 F120.00
G01 X-10.1631 Y19.4149 F120.00
G01 X-10.1631 Y19.4145 F120.00
G01 X-10.1581 Y19.3448 F120.00
G01 X-10.1567 Y19.3305 F120.00
G01 X-10.1452 Y19.2804 F120.00
G01 X-10.0789 Y19.1713 F120.00
G00 Z2.0000
G00 X-9.8774 Y17.6261
G01 F60.00
G01 Z-0.1000
G01 F120.00
G01 X-9.7407 Y17.5366 F120.00
G01 X-9.7329 Y17.5335 F120.00
G01 X-9.7274 Y17.5315 F120.00
G01 X-9.7261 Y17.5310 F120.00
G01 X-9.7226 Y17.5298 F120.00
G01 X-9.7076 Y17.5251 F120.00
G01 X-9.6752 Y17.5176 F120.00
G01 X-9.5902 Y17.5097 F120.00
G01 X-9.8405 Y17.2594 F120.00
G01 X-9.8774 Y17.2594 F120.00
G01 X-9.8774 Y17.6261 F120.00
G01 X-9.8160 Y17.5057 F120.00
G01 X-9.7216 Y17.4652 F120.00
G01 X-9.8160 Y17.3708 F120.00
G01 X-9.8160 Y17.5057 F120.00
G01 X-9.3976 Y17.6154 F120.00
G01 X-9.8151 Y17.1980 F120.00
G01 X-9.9389 Y17.1980 F120.00
G01 X-9.9389 Y17.8380 F120.00
G01 X-9.8690 Y17.7025 F120.00
G01 X-9.7183 Y17.5937 F120.00
G01 X-9.6520 Y17.5762 F120.00
G01 X-9.6378 Y17.5748 F120.00
G01 X-9.6375 Y17.5747 F120.00
G01 X-9.5678 Y17.5697 F120.00
G01 X-9.5645 Y17.5695 F120.00
G01 X-9.5320 Y17.5697 F120.00
G01 X-9.3976 Y17.6154 F120.00
G00 Z2.0000
G00 X-9.9016 Y16.2332
G01 F60.00
G01 Z-0.1000
G01 F120.00
G01 X-9.5544 Y16.2395 F120.00
G01 X-9.4524 Y16.2650 F120.00
G01 X-9.3586 Y16.3106 F120.00
G01 X-9.2727 Y16.3778 F120.00
G01 X-8.6069 Y17.0404 F120.00
G01 X-8.6085 Y16.2521 F120.00
G01 X-9.7597 Y15.1009 F120.00
G01 X-9.7003 Y15.3583 F120.00
G01 X-9.6992 Y15.3699 F120.00
G01 X-9.6992 Y15.3703 F120.00
G01 X-9.6991 Y15.3711 F120.00
G01 X-9.6991 Y15.3713 F120.00
G01 X-9.6990 Y15.3724 F120.00
G01 X-9.6986 Y15.3773 F120.00
G01 X-9.6983 Y15.3827 F120.00
G01 X-9.6975 Y15.4073 F120.00
G01 X-9.6975 Y15.5895 F120.00
G01 X-9.7016 Y15.6525 F120.00
G01 X-9.7598 Y15.9270 F120.00
G01 X-9.9016 Y16.2332 F120.00
G01 X-9.8039 Y16.1711 F120.00
G01 X-9.6204 Y16.1730 F120.00
G01 X-9.4851 Y16.1907 F120.00
G01 X-9.3596 Y16.2393 F120.00
G01 X-9.2365 Y16.3274 F120.00
G01 X-8.6700 Y16.8909 F120.00
G01 X-8.6700 Y16.2775 F120.00
G01 X-9.6470 Y15.3004 F120.00
G01 X-9.6360 Y15.4101 F120.00
G01 X-9.6360 Y15.4116 F120.00
G01 X-9.6360 Y15.5882 F120.00
G01 X-9.6360 Y15.5888 F120.00
G01 X-9.6364 Y15.6073 F120.00
G01 X-9.6453 Y15.6902 F120.00
G01 X-9.6985 Y15.9376 F120.00
G01 X-9.8039 Y16.1711 F120.00
G01 X-9.6062 Y16.1119 F120.00
G01 X-9.4638 Y16.1327 F120.00
G01 X-9.3307 Y16.1850 F120.00
G01 X-9.1969 Y16.2803 F120.00
G01 X-8.7314 Y16.7431 F120.00
G01 X-8.7314 Y16.3030 F120.00
G01 X-9.5746 Y15.4598 F120.00
G01 X-9.5747 Y15.5994 F120.00
G01 X-9.5758 Y15.6279 F120.00
G01 X-9.5770 Y15.6432 F120.00
G01 X-9.5772 Y15.6453 F120.00
G01 X-9.5773 Y15.6467 F120.00
G01 X-9.5774 Y15.6475 F120.00
G01 X-9.5774 Y15.6477 F120.00
G01 X-9.5774 Y15.6481 F120.00
G01 X-9.5775 Y15.6483 F120.00
G01 X-9.5783 Y15.6565 F120.00
G01 X-9.6215 Y15.8862 F120.00
G01 X-9.7074 Y16.1107 F120.00
G01 X-9.6233 Y16.1115 F120.00
G01 X-9.6109 Y16.0503 F120.00
G01 X-9.5933 Y16.0509 F120.00
G01 X-9.4445 Y16.0743 F120.00
G01 X-9.3031 Y16.1301 F120.00
G01 X-9.1601 Y16.2307 F120.00
G01 X-8.7929 Y16.5952 F120.00
G01 X-8.7929 Y16.3284 F120.00
G01 X-9.5134 Y15.6078 F120.00
G01 X-9.5224 Y15.7010 F120.00
G01 X-9.5264 Y15.7228 F120.00
G01 X-9.5264 Y15.7229 F120.00
G01 X-9.5608 Y15.8961 F120.00
G01 X-9.5609 Y15.8964 F120.00
G01 X-9.5635 Y15.9089 F120.00
G01 X-9.6109 Y16.0503 F120.00
G01 X-9.5236 Y15.9957 F120.00
G01 X-9.3964 Y16.0245 F120.00
G01 X-9.2762 Y16.0748 F120.00
G01 X-9.1275 Y16.1773 F120.00
G01 X-8.8543 Y16.4474 F120.00
G01 X-8.8543 Y16.3539 F120.00
G01 X-9.4673 Y15.7408 F120.00
G01 X-9.5006 Y15.9081 F120.00
G01 X-9.5006 Y15.9084 F120.00
G01 X-9.5035 Y15.9221 F120.00
G01 X-9.5236 Y15.9957 F120.00
G01 X-9.4462 Y15.9473 F120.00
G01 X-9.2995 Y15.9955 F120.00
G01 X-9.4295 Y15.8656 F120.00
G01 X-9.4462 Y15.9473 F120.00
G01 X-9.9303 Y14.8434 F120.00
G01 X-9.8469 Y15.0119 F120.00
G01 X-9.8367 Y15.0463 F120.00
G01 X-9.8364 Y15.0473 F120.00
G01 X-9.7722 Y15.3036 F120.00
G01 X-9.7722 Y15.3037 F120.00
G01 X-9.7692 Y15.3168 F120.00
G01 X-9.7597 Y15.6145 F120.00
G01 X-9.8221 Y15.9187 F120.00
G01 X-9.9568 Y16.2061 F120.00
G01 X-10.0174 Y16.2944 F120.00
G01 X-9.5775 Y16.2985 F120.00
G01 X-9.4812 Y16.3200 F120.00
G01 X-9.3912 Y16.3627 F120.00
G01 X-9.3137 Y16.4236 F120.00
G01 X-8.4878 Y17.2456 F120.00
G01 X-8.5463 Y17.0256 F120.00
G01 X-8.5471 Y16.2266 F120.00
G01 X-9.9303 Y14.8434 F120.00
G00 Z2.0000
G00 X-11.2408 Y12.6372
G01 F60.00
G01 Z-0.1000
G01 F120.00
G01 X-22.0153 Y1.8628 F120.00
G01 X-22.5231 Y1.8628 F120.00
G01 X-11.7459 Y12.6372 F120.00
G01 X-11.2408 Y12.6372 F120.00
G01 X-11.3891 Y12.5758 F120.00
G01 X-22.0407 Y1.9242 F120.00
G01 X-22.3747 Y1.9242 F120.00
G01 X-11.7205 Y12.5758 F120.00
G01 X-11.3891 Y12.5758 F120.00
G01 X-11.5375 Y12.5143 F120.00
G01 X-22.0662 Y1.9857 F120.00
G01 X-22.2264 Y1.9857 F120.00
G01 X-11.6950 Y12.5143 F120.00
G01 X-11.5375 Y12.5143 F120.00
G00 Z2.0000
G00 X-15.2188 Y14.2935
G01 F60.00
G01 Z-0.1000
G01 F120.00
G01 X-16.1502 Y13.3627 F120.00
G01 X-18.2747 Y13.3623 F120.00
G01 X-17.1726 Y14.4644 F120.00
G01 X-16.9732 Y14.3851 F120.00
G01 X-16.6741 Y14.3400 F120.00
G01 X-16.3334 Y14.3836 F120.00
G01 X-16.1067 Y14.4739 F120.00
G01 X-15.9337 Y14.5874 F120.00
G01 X-15.7534 Y14.7747 F120.00
G01 X-15.7815 Y14.6492 F120.00
G01 X-15.7781 Y14.5685 F120.00
G01 X-15.7305 Y14.4362 F120.00
G01 X-15.6722 Y14.3600 F120.00
G01 X-15.5681 Y14.2839 F120.00
G01 X-15.4806 Y14.2542 F120.00
G01 X-15.3804 Y14.2464 F120.00
G01 X-15.3680 Y14.2463 F120.00
G01 X-15.3621 Y14.2464 F120.00
G01 X-15.3614 Y14.2465 F120.00
G01 X-15.3577 Y14.2466 F120.00
G01 X-15.3555 Y14.2468 F120.00
G01 X-15.3323 Y14.2493 F120.00
G01 X-15.2188 Y14.2935 F120.00
G01 X-16.5490 Y13.8542 F120.00
G01 X-16.3206 Y13.8880 F120.00
G01 X-16.3542 Y13.8542 F120.00
G01 X-16.5490 Y13.8542 F120.00
G01 X-17.0439 Y13.8979 F120.00
G01 X-16.7507 Y13.8541 F120.00
G01 X-17.0878 Y13.8541 F120.00
G01 X-17.0439 Y13.8979 F120.00
G01 X-17.0641 Y13.9647 F120.00
G01 X-16.6227 Y13.9094 F120.00
G01 X-16.2637 Y13.9590 F120.00
G01 X-16.1210 Y14.0015 F120.00
G01 X-16.3286 Y13.7928 F120.00
G01 X-17.2361 Y13.7926 F120.00
G01 X-17.0641 Y13.9647 F120.00
G01 X-17.0828 Y14.0328 F120.00
G01 X-16.7250 Y13.9747 F120.00
G01 X-16.5937 Y13.9728 F120.00
G01 X-16.2328 Y14.0286 F120.00
G01 X-15.9656 Y14.1328 F120.00
G01 X-15.9351 Y14.1013 F120.00
G01 X-16.3031 Y13.7314 F120.00
G01 X-17.3845 Y13.7311 F120.00
G01 X-17.0828 Y14.0328 F120.00
G01 X-17.0999 Y14.1027 F120.00
G01 X-16.7283 Y14.0371 F120.00
G01 X-16.5975 Y14.0341 F120.00
G01 X-16.2406 Y14.0901 F120.00
G01 X-15.9495 Y14.2096 F120.00
G01 X-15.8443 Y14.1039 F120.00
G01 X-16.2775 Y13.6699 F120.00
G01 X-17.5329 Y13.6696 F120.00
G01 X-17.0999 Y14.1027 F120.00
G01 X-17.0857 Y14.1629 F120.00
G01 X-16.7182 Y14.0977 F120.00
G01 X-16.5932 Y14.0963 F120.00
G01 X-16.2444 Y14.1529 F120.00
G01 X-15.9320 Y14.2929 F120.00
G01 X-15.8577 Y14.1975 F120.00
G01 X-15.8172 Y14.1608 F120.00
G01 X-15.8027 Y14.1494 F120.00
G01 X-15.8015 Y14.1485 F120.00
G01 X-15.7508 Y14.1106 F120.00
G01 X-16.2521 Y13.6085 F120.00
G01 X-17.6812 Y13.6082 F120.00
G01 X-17.1149 Y14.1745 F120.00
G01 X-17.0857 Y14.1629 F120.00
G01 X-17.0656 Y14.2209 F120.00
G01 X-16.7079 Y14.1584 F120.00
G01 X-16.5873 Y14.1590 F120.00
G01 X-16.2509 Y14.2152 F120.00
G01 X-16.0299 Y14.3062 F120.00
G01 X-15.9086 Y14.3825 F120.00
G01 X-15.8168 Y14.2435 F120.00
G01 X-15.7650 Y14.1979 F120.00
G01 X-15.6962 Y14.1468 F120.00
G01 X-15.6862 Y14.1400 F120.00
G01 X-15.6856 Y14.1397 F120.00
G01 X-15.6856 Y14.1396 F120.00
G01 X-15.6850 Y14.1392 F120.00
G01 X-15.6843 Y14.1388 F120.00
G01 X-15.6803 Y14.1362 F120.00
G01 X-15.6755 Y14.1332 F120.00
G01 X-15.6534 Y14.1204 F120.00
G01 X-16.2266 Y13.5471 F120.00
G01 X-17.8296 Y13.5467 F120.00
G01 X-17.1293 Y14.2469 F120.00
G01 X-17.0656 Y14.2209 F120.00
G01 X-17.0477 Y14.2798 F120.00
G01 X-16.6615 Y14.2162 F120.00
G01 X-16.3260 Y14.2599 F120.00
G01 X-16.0587 Y14.3605 F120.00
G01 X-15.8785 Y14.4765 F120.00
G01 X-15.8319 Y14.3652 F120.00
G01 X-15.7681 Y14.2817 F120.00
G01 X-15.6445 Y14.1863 F120.00
G01 X-15.6207 Y14.1726 F120.00
G01 X-15.6077 Y14.1661 F120.00
G01 X-15.6068 Y14.1657 F120.00
G01 X-15.6067 Y14.1656 F120.00
G01 X-15.6063 Y14.1654 F120.00
G01 X-15.6048 Y14.1647 F120.00
G01 X-15.6030 Y14.1639 F120.00
G01 X-15.5957 Y14.1606 F120.00
G01 X-15.5440 Y14.1422 F120.00
G01 X-16.2011 Y13.4856 F120.00
G01 X-17.9780 Y13.4852 F120.00
G01 X-17.1438 Y14.3194 F120.00
G01 X-17.0477 Y14.2798 F120.00
G01 X-17.0312 Y14.3393 F120.00
G01 X-16.6481 Y14.2775 F120.00
G01 X-16.3240 Y14.3228 F120.00
G01 X-16.0714 Y14.4231 F120.00
G01 X-15.8427 Y14.5848 F120.00
G01 X-15.7890 Y14.4159 F120.00
G01 X-15.7165 Y14.3173 F120.00
G01 X-15.5700 Y14.2164 F120.00
G01 X-15.5357 Y14.2038 F120.00
G01 X-15.5195 Y14.1993 F120.00
G01 X-15.5145 Y14.1981 F120.00
G01 X-15.5120 Y14.1976 F120.00
G01 X-15.5117 Y14.1975 F120.00
G01 X-15.5088 Y14.1969 F120.00
G01 X-15.5006 Y14.1952 F120.00
G01 X-15.4124 Y14.1869 F120.00
G01 X-16.1757 Y13.4242 F120.00
G01 X-18.1263 Y13.4238 F120.00
G01 X-17.1582 Y14.3919 F120.00
G01 X-17.0312 Y14.3393 F120.00
G00 Z2.0000
G00 X-17.7311 Y15.0873
G01 F60.00
G01 Z-0.1000
G01 F120.00
G01 X-17.6858 Y14.9778 F120.00
G01 X-17.7682 Y14.8954 F120.00
G01 X-17.7385 Y14.9752 F120.00
G01 X-17.7311 Y15.0873 F120.00
G00 Z2.0000
G00 X-18.7678 Y13.8952
G01 F60.00
G01 Z-0.1000
G01 F120.00
G01 X-18.8004 Y13.8627 F120.00
G01 X-18.8465 Y13.8627 F120.00
G01 X-18.7678 Y13.8952 F120.00
G00 Z2.0000
G00 X-21.4594 Y13.8607
G01 F60.00
G01 Z-0.1000
G01 F120.00
G01 X-23.3277 Y13.8593 F120.00
G01 X-22.7226 Y14.4644 F120.00
G01 X-22.5356 Y14.3885 F120.00
G01 X-22.3392 Y14.3482 F120.00
G01 X-22.1084 Y14.3432 F120.00
G01 X-21.8644 Y14.3885 F120.00
G01 X-21.6429 Y14.4815 F120.00
G01 X-21.6841 Y14.4197 F120.00
G01 X-21.7335 Y14.2946 F120.00
G01 X-21.7176 Y14.0996 F120.00
G01 X-21.6814 Y14.0249 F120.00
G01 X-21.5992 Y13.9303 F120.00
G01 X-21.5848 Y13.9179 F120.00
G01 X-21.5814 Y13.9152 F120.00
G01 X-21.5802 Y13.9143 F120.00
G01 X-21.5796 Y13.9139 F120.00
G01 X-21.5767 Y13.9117 F120.00
G01 X-21.5702 Y13.9070 F120.00
G01 X-21.5381 Y13.8881 F120.00
G01 X-21.4594 Y13.8607 F120.00
G01 X-22.0132 Y14.1071 F120.00
G01 X-21.9711 Y14.1155 F120.00
G01 X-21.9699 Y14.1072 F120.00
G01 X-22.0132 Y14.1071 F120.00
G01 X-22.5958 Y14.2791 F120.00
G01 X-22.2955 Y14.2204 F120.00
G01 X-22.0756 Y14.2221 F120.00
G01 X-21.8609 Y14.2627 F120.00
G01 X-21.8431 Y14.0948 F120.00
G01 X-21.8260 Y14.0371 F120.00
G01 X-21.8212 Y14.0251 F120.00
G01 X-21.8194 Y14.0211 F120.00
G01 X-21.8191 Y14.0204 F120.00
G01 X-21.8191 Y14.0202 F120.00
G01 X-21.8188 Y14.0197 F120.00
G01 X-21.8180 Y14.0177 F120.00
G01 X-21.8144 Y14.0099 F120.00
G01 X-21.8004 Y13.9833 F120.00
G01 X-23.0308 Y13.9824 F120.00
G01 X-22.6938 Y14.3194 F120.00
G01 X-22.6079 Y14.2838 F120.00
G01 X-22.6023 Y14.2816 F120.00
G01 X-22.5977 Y14.2798 F120.00
G01 X-22.5970 Y14.2796 F120.00
G01 X-22.5963 Y14.2793 F120.00
G01 X-22.5958 Y14.2791 F120.00
G01 X-22.6131 Y14.2200 F120.00
G01 X-22.3617 Y14.1650 F120.00
G01 X-22.2959 Y14.1590 F120.00
G01 X-22.2883 Y14.1589 F120.00
G01 X-22.1118 Y14.1589 F120.00
G01 X-22.1113 Y14.1589 F120.00
G01 X-22.0876 Y14.1596 F120.00
G01 X-21.9194 Y14.1884 F120.00
G01 X-21.9059 Y14.0960 F120.00
G01 X-21.9007 Y14.0711 F120.00
G01 X-21.8970 Y14.0568 F120.00
G01 X-21.8967 Y14.0557 F120.00
G01 X-21.8967 Y14.0554 F120.00
G01 X-21.8966 Y14.0551 F120.00
G01 X-21.8965 Y14.0547 F120.00
G01 X-21.8955 Y14.0513 F120.00
G01 X-21.8935 Y14.0447 F120.00
G01 X-22.8823 Y14.0440 F120.00
G01 X-22.6793 Y14.2469 F120.00
G01 X-22.6296 Y14.2264 F120.00
G01 X-22.6197 Y14.2225 F120.00
G01 X-22.6170 Y14.2214 F120.00
G01 X-22.6149 Y14.2207 F120.00
G01 X-22.6138 Y14.2203 F120.00
G01 X-22.6135 Y14.2202 F120.00
G01 X-22.6134 Y14.2201 F120.00
G01 X-22.6131 Y14.2200 F120.00
G01 X-22.6302 Y14.1609 F120.00
G01 X-22.3830 Y14.1064 F120.00
G01 X-22.7337 Y14.1057 F120.00
G01 X-22.6649 Y14.1745 F120.00
G01 X-22.6302 Y14.1609 F120.00
G01 X-22.5798 Y14.3388 F120.00
G01 X-22.3258 Y14.2840 F120.00
G01 X-22.1063 Y14.2818 F120.00
G01 X-21.8662 Y14.3245 F120.00
G01 X-21.7800 Y14.3554 F120.00
G01 X-21.7999 Y14.2456 F120.00
G01 X-21.7813 Y14.1000 F120.00
G01 X-21.7446 Y14.0095 F120.00
G01 X-21.7327 Y13.9911 F120.00
G01 X-21.7270 Y13.9831 F120.00
G01 X-21.7237 Y13.9787 F120.00
G01 X-21.7228 Y13.9775 F120.00
G01 X-21.7221 Y13.9766 F120.00
G01 X-21.7201 Y13.9741 F120.00
G01 X-21.6754 Y13.9220 F120.00
G01 X-23.1792 Y13.9209 F120.00
G01 X-22.7082 Y14.3919 F120.00
G01 X-22.5798 Y14.3388 F120.00
G00 Z2.0000
G00 X-23.2811 Y15.0873
G01 F60.00
G01 Z-0.1000
G01 F120.00
G01 X-23.2358 Y14.9778 F120.00
G01 X-23.3182 Y14.8953 F120.00
G01 X-23.2885 Y14.9752 F120.00
G01 X-23.2811 Y15.0873 F120.00
G01 X-23.8178 Y14.3952 F120.00
G01 X-23.8503 Y14.3628 F120.00
G01 X-23.8962 Y14.3628 F120.00
G01 X-23.8178 Y14.3952 F120.00
G00 Z2.0000
G00 X-25.2268 Y13.1994
G01 F60.00
G01 Z-0.1000
G01 F120.00
G01 X-28.8796 Y9.5465 F120.00
G01 X-29.0979 Y9.5465 F120.00
G01 X-29.0582 Y9.6683 F120.00
G01 X-29.0562 Y11.8228 F120.00
G01 X-29.1075 Y11.9829 F120.00
G01 X-29.1887 Y12.0737 F120.00
G01 X-29.2537 Y12.1127 F120.00
G01 X-29.2537 Y12.8202 F120.00
G01 X-28.8752 Y13.1987 F120.00
G01 X-25.2268 Y13.1994 F120.00
G00 Z2.0000
G00 X-24.2296 Y12.2309
G01 F60.00
G01 Z-0.1000
G01 F120.00
G01 X-24.2835 Y12.2034 F120.00
G01 X-24.2561 Y12.2308 F120.00
G01 X-24.2296 Y12.2309 F120.00
G01 X-24.2909 Y12.1294 F120.00
G01 X-30.1915 Y6.2283 F120.00
G01 X-30.2362 Y6.1513 F120.00
G01 X-30.2552 Y6.0251 F120.00
G01 X-30.2440 Y5.9569 F120.00
G01 X-30.1934 Y5.8495 F120.00
G01 X-30.1352 Y5.7917 F120.00
G01 X-29.9999 Y5.7244 F120.00
G01 X-29.8778 Y5.7226 F120.00
G01 X-29.7487 Y5.7507 F120.00
G01 X-29.3315 Y5.7481 F120.00
G01 X-29.2246 Y5.7170 F120.00
G01 X-29.0119 Y5.6010 F120.00
G01 X-28.8816 Y5.5907 F120.00
G01 X-28.7994 Y5.6143 F120.00
G01 X-28.6924 Y5.6817 F120.00
G01 X-26.5521 Y7.8220 F120.00
G01 X-26.4603 Y7.8750 F120.00
G01 X-26.3580 Y7.9024 F120.00
G01 X-22.0727 Y7.9026 F120.00
G01 X-21.9300 Y7.9424 F120.00
G01 X-21.7623 Y8.0447 F120.00
G01 X-21.6345 Y8.0895 F120.00
G01 X-21.5000 Y8.1046 F120.00
G01 X-21.3655 Y8.0895 F120.00
G01 X-21.2377 Y8.0447 F120.00
G01 X-21.1230 Y7.9727 F120.00
G01 X-21.0273 Y7.8770 F120.00
G01 X-20.9553 Y7.7623 F120.00
G01 X-20.9105 Y7.6345 F120.00
G01 X-20.8954 Y7.5000 F120.00
G01 X-20.9105 Y7.3655 F120.00
G01 X-20.9553 Y7.2377 F120.00
G01 X-21.0273 Y7.1230 F120.00
G01 X-21.1230 Y7.0273 F120.00
G01 X-21.2377 Y6.9553 F120.00
G01 X-21.3655 Y6.9105 F120.00
G01 X-21.5000 Y6.8954 F120.00
G01 X-21.6345 Y6.9105 F120.00
G01 X-21.7619 Y6.9551 F120.00
G01 X-21.9296 Y7.0595 F120.00
G01 X-22.0740 Y7.0975 F120.00
G01 X-26.0330 Y7.0947 F120.00
G01 X-26.1019 Y7.0815 F120.00
G01 X-26.1946 Y7.0328 F120.00
G01 X-28.8902 Y4.3367 F120.00
G01 X-28.9538 Y4.1594 F120.00
G01 X-28.9570 Y3.1261 F120.00
G01 X-28.9891 Y3.0156 F120.00
G01 X-29.0940 Y2.8179 F120.00
G01 X-29.1082 Y2.7476 F120.00
G01 X-29.0730 Y2.5773 F120.00
G01 X-28.9954 Y2.4819 F120.00
G01 X-28.9418 Y2.4430 F120.00
G01 X-28.7865 Y2.4024 F120.00
G01 X-23.1705 Y2.4053 F120.00
G01 X-23.0992 Y2.4184 F120.00
G01 X-23.0041 Y2.4687 F120.00
G01 X-13.8266 Y11.6386 F120.00
G01 X-13.7506 Y11.7682 F120.00
G01 X-13.7331 Y11.8465 F120.00
G01 X-13.7585 Y11.9959 F120.00
G01 X-13.8420 Y12.1075 F120.00
G01 X-13.9129 Y12.1566 F120.00
G01 X-14.0490 Y12.1911 F120.00
G01 X-24.1321 Y12.1883 F120.00
G01 X-24.2019 Y12.1757 F120.00
G01 X-24.2909 Y12.1294 F120.00
G01 X-24.2596 Y12.0765 F120.00
G01 X-30.1469 Y6.1860 F120.00
G01 X-30.1782 Y6.1307 F120.00
G01 X-30.1937 Y6.0183 F120.00
G01 X-30.1404 Y5.8807 F120.00
G01 X-30.0419 Y5.8046 F120.00
G01 X-29.9867 Y5.7845 F120.00
G01 X-29.8811 Y5.7841 F120.00
G01 X-29.7555 Y5.8122 F120.00
G01 X-29.3225 Y5.8095 F120.00
G01 X-29.2000 Y5.7739 F120.00
G01 X-28.9896 Y5.6591 F120.00
G01 X-28.8665 Y5.6545 F120.00
G01 X-28.7668 Y5.7021 F120.00
G01 X-26.5898 Y7.8712 F120.00
G01 X-26.4840 Y7.9322 F120.00
G01 X-26.3661 Y7.9639 F120.00
G01 X-22.0755 Y7.9640 F120.00
G01 X-21.9535 Y7.9991 F120.00
G01 X-21.7892 Y8.1005 F120.00
G01 X-21.6483 Y8.1497 F120.00
G01 X-21.5000 Y8.1665 F120.00
G01 X-21.3517 Y8.1497 F120.00
G01 X-21.2108 Y8.1005 F120.00
G01 X-21.0845 Y8.0211 F120.00
G01 X-20.9789 Y7.9155 F120.00
G01 X-20.8995 Y7.7892 F120.00
G01 X-20.8503 Y7.6483 F120.00
G01 X-20.8335 Y7.5000 F120.00
G01 X-20.8503 Y7.3517 F120.00
G01 X-20.8995 Y7.2108 F120.00
G01 X-20.9789 Y7.0845 F120.00
G01 X-21.0845 Y6.9789 F120.00
G01 X-21.2108 Y6.8995 F120.00
G01 X-21.3517 Y6.8503 F120.00
G01 X-21.5000 Y6.8335 F120.00
G01 X-21.6483 Y6.8503 F120.00
G01 X-21.7889 Y6.8994 F120.00
G01 X-21.9550 Y7.0035 F120.00
G01 X-22.0754 Y7.0360 F120.00
G01 X-26.0322 Y7.0333 F120.00
G01 X-26.1626 Y6.9804 F120.00
G01 X-28.8360 Y4.3077 F120.00
G01 X-28.8926 Y4.1533 F120.00
G01 X-28.8956 Y3.1173 F120.00
G01 X-28.9319 Y2.9922 F120.00
G01 X-29.0340 Y2.8018 F120.00
G01 X-29.0467 Y2.7496 F120.00
G01 X-29.0208 Y2.6100 F120.00
G01 X-28.9149 Y2.4983 F120.00
G01 X-28.7858 Y2.4639 F120.00
G01 X-23.1705 Y2.4667 F120.00
G01 X-23.1182 Y2.4770 F120.00
G01 X-23.0360 Y2.5212 F120.00
G01 X-13.8701 Y11.6821 F120.00
G01 X-13.8068 Y11.7929 F120.00
G01 X-13.7946 Y11.8471 F120.00
G01 X-13.8149 Y11.9717 F120.00
G01 X-13.8874 Y12.0661 F120.00
G01 X-13.9385 Y12.1007 F120.00
G01 X-14.0541 Y12.1297 F120.00
G01 X-24.1320 Y12.1269 F120.00
G01 X-24.2596 Y12.0765 F120.00
G01 X-24.2301 Y12.0226 F120.00
G01 X-30.1024 Y6.1437 F120.00
G01 X-30.1323 Y6.0196 F120.00
G01 X-30.0894 Y5.9150 F120.00
G01 X-29.9719 Y5.8448 F120.00
G01 X-29.8879 Y5.8452 F120.00
G01 X-29.7622 Y5.8736 F120.00
G01 X-29.3136 Y5.8709 F120.00
G01 X-29.1754 Y5.8307 F120.00
G01 X-28.9735 Y5.7187 F120.00
G01 X-28.8781 Y5.7149 F120.00
G01 X-28.7963 Y5.7560 F120.00
G01 X-26.6275 Y7.9203 F120.00
G01 X-26.5078 Y7.9895 F120.00
G01 X-26.3742 Y8.0253 F120.00
G01 X-22.0769 Y8.0254 F120.00
G01 X-21.9737 Y8.0575 F120.00
G01 X-21.8160 Y8.1562 F120.00
G01 X-21.6621 Y8.2100 F120.00
G01 X-21.5000 Y8.2283 F120.00
G01 X-21.3379 Y8.2100 F120.00
G01 X-21.1840 Y8.1562 F120.00
G01 X-21.0459 Y8.0694 F120.00
G01 X-20.9306 Y7.9541 F120.00
G01 X-20.8438 Y7.8160 F120.00
G01 X-20.7900 Y7.6621 F120.00
G01 X-20.7717 Y7.5000 F120.00
G01 X-20.7900 Y7.3379 F120.00
G01 X-20.8438 Y7.1840 F120.00
G01 X-20.9306 Y7.0459 F120.00
G01 X-21.0459 Y6.9306 F120.00
G01 X-21.1840 Y6.8438 F120.00
G01 X-21.3379 Y6.7900 F120.00
G01 X-21.5000 Y6.7717 F120.00
G01 X-21.6621 Y6.7900 F120.00
G01 X-21.8158 Y6.8438 F120.00
G01 X-21.9784 Y6.9466 F120.00
G01 X-22.0768 Y6.9746 F120.00
G01 X-26.0307 Y6.9719 F120.00
G01 X-26.1287 Y6.9290 F120.00
G01 X-28.7841 Y4.2748 F120.00
G01 X-28.8312 Y4.1516 F120.00
G01 X-28.8342 Y3.1085 F120.00
G01 X-28.8747 Y2.9688 F120.00
G01 X-28.9853 Y2.7478 F120.00
G01 X-28.9669 Y2.6394 F120.00
G01 X-28.8881 Y2.5535 F120.00
G01 X-28.7858 Y2.5253 F120.00
G01 X-23.1705 Y2.5281 F120.00
G01 X-23.0693 Y2.5728 F120.00
G01 X-13.9135 Y11.7255 F120.00
G01 X-13.8560 Y11.8492 F120.00
G01 X-13.8729 Y11.9509 F120.00
G01 X-13.9329 Y12.0248 F120.00
G01 X-14.0555 Y12.0683 F120.00
G01 X-24.1320 Y12.0655 F120.00
G01 X-24.2301 Y12.0226 F120.00
G00 Z2.0000
G00 X-26.5463 Y14.3628
G01 F60.00
G01 Z-0.1000
G01 F120.00
G01 X-27.5697 Y14.3628 F120.00
G01 X-27.4093 Y14.3900 F120.00
G01 X-27.3892 Y14.3974 F120.00
G01 X-27.3888 Y14.3975 F120.00
G01 X-27.2258 Y14.4650 F120.00
G01 X-27.2244 Y14.4656 F120.00
G01 X-27.1896 Y14.4835 F120.00
G01 X-26.9394 Y14.6691 F120.00
G01 X-26.8041 Y14.8292 F120.00
G01 X-26.8171 Y14.7174 F120.00
G01 X-26.7757 Y14.5479 F120.00
G01 X-26.6659 Y14.4188 F120.00
G01 X-26.5463 Y14.3628 F120.00
G01 X-26.9786 Y14.4857 F120.00
G01 X-26.9066 Y14.5390 F120.00
G01 X-26.8817 Y14.4857 F120.00
G01 X-26.9786 Y14.4857 F120.00
G01 X-27.1693 Y14.4242 F120.00
G01 X-26.8700 Y14.6522 F120.00
G01 X-26.8362 Y14.5310 F120.00
G01 X-26.7572 Y14.4242 F120.00
G01 X-27.1693 Y14.4242 F120.00
G01 X-27.9303 Y14.3628 F120.00
G01 X-29.5143 Y14.3624 F120.00
G01 X-29.6543 Y14.3266 F120.00
G01 X-29.7377 Y14.2725 F120.00
G01 X-31.0837 Y12.9293 F120.00
G01 X-31.1664 Y12.7972 F120.00
G01 X-31.1832 Y12.7142 F120.00
G01 X-31.1866 Y12.1496 F120.00
G01 X-31.2580 Y12.0974 F120.00
G01 X-31.3383 Y11.9903 F120.00
G01 X-31.3856 Y11.8166 F120.00
G01 X-31.3861 Y9.6989 F120.00
G01 X-31.3712 Y9.6081 F120.00
G01 X-31.5463 Y9.6080 F120.00
G01 X-31.5346 Y9.6849 F120.00
G01 X-31.5350 Y11.8290 F120.00
G01 X-31.5899 Y12.0069 F120.00
G01 X-31.7322 Y12.1515 F120.00
G01 X-31.7322 Y13.2547 F120.00
G01 X-29.8497 Y15.1372 F120.00
G01 X-28.8463 Y15.1372 F120.00
G01 X-28.8190 Y15.0470 F120.00
G01 X-28.7211 Y14.8638 F120.00
G01 X-28.5549 Y14.6642 F120.00
G01 X-28.2879 Y14.4712 F120.00
G01 X-28.0856 Y14.3885 F120.00
G01 X-27.9303 Y14.3628 F120.00
G00 Z2.0000
G00 X-29.2171 Y13.6989
G01 F60.00
G01 Z-0.1000
G01 F120.00
G01 X-29.7727 Y13.1533 F120.00
G01 X-29.8476 Y13.0164 F120.00
G01 X-29.8560 Y12.1104 F120.00
G01 X-29.9354 Y12.0629 F120.00
G01 X-30.0104 Y11.9671 F120.00
G01 X-30.0543 Y11.8113 F120.00
G01 X-30.0547 Y9.6977 F120.00
G01 X-30.0190 Y9.5465 F120.00
G01 X-30.3671 Y9.5465 F120.00
G01 X-30.3261 Y9.6830 F120.00
G01 X-30.3264 Y11.8260 F120.00
G01 X-30.3784 Y11.9841 F120.00
G01 X-30.4587 Y12.0737 F120.00
G01 X-30.5237 Y12.1127 F120.00
G01 X-30.5237 Y12.5502 F120.00
G01 X-29.3751 Y13.6987 F120.00
G01 X-29.2171 Y13.6989 F120.00
G00 Z2.0000
G00 X-29.8006 Y14.6650
G01 F60.00
G01 Z-0.1000
G01 F120.00
G01 X-29.6970 Y14.7686 F120.00
G01 X-29.0887 Y14.7686 F120.00
G01 X-29.0694 Y14.7324 F120.00
G01 X-29.5571 Y14.7288 F120.00
G01 X-29.8006 Y14.6650 F120.00
G00 Z2.0000
G00 X-28.8023 Y15.9824
G01 F60.00
G01 Z-0.1000
G01 F120.00
G01 X-28.8517 Y15.8632 F120.00
G01 X-28.9768 Y15.8631 F120.00
G01 X-28.8888 Y15.9019 F120.00
G01 X-28.8023 Y15.9824 F120.00
G01 X-28.3954 Y16.7560 F120.00
G01 X-28.0156 Y16.7560 F120.00
G01 X-28.3549 Y16.6326 F120.00
G01 X-28.3954 Y16.7560 F120.00
G01 X-28.4978 Y16.8174 F120.00
G01 X-26.9963 Y16.8174 F120.00
G01 X-27.0662 Y16.6962 F120.00
G01 X-27.0892 Y16.5236 F120.00
G01 X-27.1861 Y16.5845 F120.00
G01 X-27.3966 Y16.6703 F120.00
G01 X-27.7519 Y16.7225 F120.00
G01 X-28.0210 Y16.6908 F120.00
G01 X-28.3029 Y16.5895 F120.00
G01 X-28.4116 Y16.5193 F120.00
G01 X-28.4217 Y16.6477 F120.00
G01 X-28.4293 Y16.6712 F120.00
G01 X-28.4295 Y16.6717 F120.00
G01 X-28.4539 Y16.7371 F120.00
G01 X-28.4545 Y16.7385 F120.00
G01 X-28.4616 Y16.7557 F120.00
G01 X-28.4978 Y16.8174 F120.00
G00 Z2.0000
G00 X-28.7268 Y17.1400
G01 F60.00
G01 Z-0.1000
G01 F120.00
G01 X-28.7043 Y17.0857 F120.00
G01 X-28.6500 Y17.0632 F120.00
G01 X-26.8500 Y17.0632 F120.00
G01 X-26.8073 Y17.0761 F120.00
G01 X-26.7806 Y17.1072 F120.00
G01 X-26.7777 Y18.9659 F120.00
G01 X-26.8043 Y19.0017 F120.00
G01 X-26.8462 Y19.0167 F120.00
G01 X-27.4826 Y19.0168 F120.00
G01 X-27.4826 Y19.7233 F120.00
G01 X-26.8318 Y19.7267 F120.00
G01 X-26.7084 Y19.7702 F120.00
G01 X-26.6078 Y19.8624 F120.00
G01 X-26.5623 Y19.9551 F120.00
G01 X-26.5482 Y20.0501 F120.00
G01 X-26.5517 Y20.8932 F120.00
G01 X-26.6033 Y21.0316 F120.00
G01 X-26.7056 Y21.1274 F120.00
G01 X-26.8713 Y21.1767 F120.00
G01 X-28.1571 Y21.1752 F120.00
G01 X-28.3066 Y21.1217 F120.00
G01 X-28.4149 Y21.0007 F120.00
G01 X-28.4517 Y20.8534 F120.00
G01 X-28.4455 Y19.9860 F120.00
G01 X-28.3776 Y19.8427 F120.00
G01 X-28.2602 Y19.7532 F120.00
G01 X-28.1573 Y19.7248 F120.00
G01 X-28.0174 Y19.7236 F120.00
G01 X-28.0174 Y19.0168 F120.00
G01 X-28.6538 Y19.0167 F120.00
G01 X-28.6927 Y19.0039 F120.00
G01 X-28.7210 Y18.9694 F120.00
G01 X-28.7268 Y17.1400 F120.00
G01 X-28.7881 Y17.1347 F120.00
G01 X-28.7488 Y17.0433 F120.00
G01 X-28.6553 Y17.0019 F120.00
G01 X-26.8447 Y17.0019 F120.00
G01 X-26.7745 Y17.0242 F120.00
G01 X-26.7244 Y17.0823 F120.00
G01 X-26.7118 Y17.1400 F120.00
G01 X-26.7194 Y18.9851 F120.00
G01 X-26.7611 Y19.0459 F120.00
G01 X-26.8312 Y19.0769 F120.00
G01 X-27.4212 Y19.0782 F120.00
G01 X-27.4212 Y19.6620 F120.00
G01 X-26.8450 Y19.6631 F120.00
G01 X-26.7170 Y19.6972 F120.00
G01 X-26.5637 Y19.8194 F120.00
G01 X-26.5021 Y19.9424 F120.00
G01 X-26.4868 Y20.0502 F120.00
G01 X-26.4935 Y20.9132 F120.00
G01 X-26.5514 Y21.0644 F120.00
G01 X-26.6654 Y21.1739 F120.00
G01 X-26.7156 Y21.2023 F120.00
G01 X-26.8698 Y21.2381 F120.00
G01 X-28.1684 Y21.2357 F120.00
G01 X-28.3419 Y21.1720 F120.00
G01 X-28.4698 Y21.0283 F120.00
G01 X-28.5132 Y20.8546 F120.00
G01 X-28.5060 Y19.9753 F120.00
G01 X-28.4284 Y19.8079 F120.00
G01 X-28.3030 Y19.7080 F120.00
G01 X-28.1781 Y19.6660 F120.00
G01 X-28.0788 Y19.6626 F120.00
G01 X-28.0788 Y19.0782 F120.00
G01 X-28.6688 Y19.0769 F120.00
G01 X-28.7365 Y19.0478 F120.00
G01 X-28.7783 Y18.9915 F120.00
G01 X-28.7882 Y17.1400 F120.00
G01 X-28.8495 Y17.1317 F120.00
G01 X-28.8333 Y17.0608 F120.00
G01 X-28.7901 Y16.9978 F120.00
G01 X-28.7292 Y16.9567 F120.00
G01 X-28.6568 Y16.9404 F120.00
G01 X-26.8387 Y16.9407 F120.00
G01 X-26.7403 Y16.9731 F120.00
G01 X-26.6708 Y17.0519 F120.00
G01 X-26.6503 Y17.1392 F120.00
G01 X-26.6571 Y18.9914 F120.00
G01 X-26.7137 Y19.0859 F120.00
G01 X-26.8096 Y19.1355 F120.00
G01 X-27.3597 Y19.1397 F120.00
G01 X-27.3597 Y19.6007 F120.00
G01 X-26.8389 Y19.6019 F120.00
G01 X-26.6963 Y19.6393 F120.00
G01 X-26.6358 Y19.6710 F120.00
G01 X-26.5212 Y19.7748 F120.00
G01 X-26.4519 Y19.8996 F120.00
G01 X-26.4254 Y20.0472 F120.00
G01 X-26.4289 Y20.9055 F120.00
G01 X-26.5028 Y21.1023 F120.00
G01 X-26.6691 Y21.2497 F120.00
G01 X-26.8684 Y21.2996 F120.00
G01 X-28.1707 Y21.2973 F120.00
G01 X-28.3761 Y21.2230 F120.00
G01 X-28.5223 Y21.0606 F120.00
G01 X-28.5745 Y20.8574 F120.00
G01 X-28.5662 Y19.9631 F120.00
G01 X-28.4950 Y19.7986 F120.00
G01 X-28.4472 Y19.7390 F120.00
G01 X-28.3033 Y19.6373 F120.00
G01 X-28.1403 Y19.6015 F120.00
G01 X-28.1403 Y19.1397 F120.00
G01 X-28.6875 Y19.1361 F120.00
G01 X-28.7818 Y19.0900 F120.00
G01 X-28.8385 Y19.0058 F120.00
G01 X-28.8497 Y18.9400 F120.00
G01 X-28.8497 Y17.1377 F120.00
G00 Z2.0000
G00 X-27.5329 Y16.7560
G01 F60.00
G01 Z-0.1000
G01 F120.00
G01 X-27.1089 Y16.7560 F120.00
G01 X-27.1416 Y16.6307 F120.00
G01 X-27.3717 Y16.7270 F120.00
G01 X-27.5329 Y16.7560 F120.00
G01 X-26.9752 Y16.3611 F120.00
G01 X-27.1948 Y16.5196 F120.00
G01 X-27.2100 Y16.5278 F120.00
G01 X-27.2107 Y16.5281 F120.00
G01 X-27.2121 Y16.5288 F120.00
G01 X-27.2127 Y16.5291 F120.00
G01 X-27.2175 Y16.5314 F120.00
G01 X-27.2244 Y16.5344 F120.00
G01 X-27.3930 Y16.6042 F120.00
G01 X-27.7485 Y16.6611 F120.00
G01 X-27.9868 Y16.6365 F120.00
G01 X-28.2700 Y16.5367 F120.00
G01 X-28.5186 Y16.3635 F120.00
G01 X-28.4736 Y16.5200 F120.00
G01 X-28.4801 Y16.6286 F120.00
G01 X-28.5450 Y16.7779 F120.00
G01 X-28.6609 Y16.8791 F120.00
G01 X-26.8444 Y16.8790 F120.00
G01 X-26.9662 Y16.7569 F120.00
G01 X-27.0120 Y16.6621 F120.00
G01 X-27.0260 Y16.4976 F120.00
G01 X-26.9752 Y16.3611 F120.00
G00 Z2.0000
G00 X-26.7049 Y19.1571
G01 F60.00
G01 Z-0.1000
G01 F120.00
G01 X-26.8289 Y19.2003 F120.00
G01 X-27.2983 Y19.2011 F120.00
G01 X-27.2983 Y19.5393 F120.00
G01 X-26.8283 Y19.5410 F120.00
G01 X-26.6470 Y19.5928 F120.00
G01 X-26.7141 Y19.5013 F120.00
G01 X-26.7490 Y19.3620 F120.00
G01 X-26.7456 Y19.2733 F120.00
G01 X-26.7049 Y19.1571 F120.00
G01 X-26.8055 Y19.2595 F120.00
G01 X-27.2368 Y19.2626 F120.00
G01 X-27.2368 Y19.4780 F120.00
G01 X-26.7851 Y19.4854 F120.00
G01 X-26.8115 Y19.3558 F120.00
G01 X-26.8055 Y19.2595 F120.00
G01 X-26.8741 Y19.3240 F120.00
G01 X-27.1754 Y19.3240 F120.00
G01 X-27.1754 Y19.4167 F120.00
G01 X-26.8636 Y19.4172 F120.00
G01 X-26.8741 Y19.3240 F120.00
G00 Z2.0000
G00 X-28.3370 Y19.4531
G01 F60.00
G01 Z-0.1000
G01 F120.00
G01 X-28.3249 Y19.4495 F120.00
G01 X-28.3248 Y19.3240 F120.00
G01 X-28.3772 Y19.3240 F120.00
G01 X-28.3370 Y19.4531 F120.00
G01 X-28.3897 Y19.5443 F120.00
G01 X-28.2636 Y19.4972 F120.00
G01 X-28.2632 Y19.2626 F120.00
G01 X-28.4845 Y19.2626 F120.00
G01 X-28.4287 Y19.3615 F120.00
G01 X-28.3896 Y19.5343 F120.00
G01 X-28.4848 Y19.6903 F120.00
G01 X-28.3404 Y19.5870 F120.00
G01 X-28.2017 Y19.5454 F120.00
G01 X-28.2017 Y19.2011 F120.00
G01 X-28.6497 Y19.2011 F120.00
G01 X-28.5380 Y19.2946 F120.00
G01 X-28.4853 Y19.3858 F120.00
G01 X-28.4510 Y19.5336 F120.00
G01 X-28.4848 Y19.6903 F120.00
G00 Z2.0000
G00 X-27.0503 Y22.7009
G01 F60.00
G01 Z-0.1000
G01 F120.00
G01 X-26.8194 Y22.7040 F120.00
G01 X-26.6393 Y22.7675 F120.00
G01 X-26.4967 Y22.9072 F120.00
G01 X-26.4456 Y23.0166 F120.00
G01 X-26.4347 Y23.1003 F120.00
G01 X-26.3317 Y23.1003 F120.00
G01 X-26.3341 Y23.0329 F120.00
G01 X-26.3728 Y22.9158 F120.00
G01 X-26.4404 Y22.8063 F120.00
G01 X-26.5313 Y22.7154 F120.00
G01 X-26.6408 Y22.6478 F120.00
G01 X-26.7644 Y22.6069 F120.00
G01 X-27.0503 Y22.5997 F120.00
G01 X-27.0503 Y22.7009 F120.00
G01 X-27.1118 Y22.7622 F120.00
G01 X-26.8315 Y22.7643 F120.00
G01 X-26.6756 Y22.8178 F120.00
G01 X-26.5445 Y22.9473 F120.00
G01 X-26.5013 Y23.0454 F120.00
G01 X-26.4933 Y23.1618 F120.00
G01 X-26.2681 Y23.1618 F120.00
G01 X-26.2730 Y23.0219 F120.00
G01 X-26.3168 Y22.8897 F120.00
G01 X-26.3919 Y22.7680 F120.00
G01 X-26.4930 Y22.6669 F120.00
G01 X-26.6147 Y22.5918 F120.00
G01 X-26.7514 Y22.5465 F120.00
G01 X-27.1118 Y22.5382 F120.00
G01 X-27.1118 Y22.7622 F120.00
G01 X-27.1732 Y22.8234 F120.00
G01 X-26.8428 Y22.8248 F120.00
G01 X-26.7067 Y22.8712 F120.00
G01 X-26.6078 Y22.9624 F120.00
G01 X-26.5648 Y23.0480 F120.00
G01 X-26.5518 Y23.2232 F120.00
G01 X-26.2045 Y23.2232 F120.00
G01 X-26.2119 Y23.0110 F120.00
G01 X-26.2607 Y22.8636 F120.00
G01 X-26.3433 Y22.7296 F120.00
G01 X-26.4546 Y22.6183 F120.00
G01 X-26.5886 Y22.5357 F120.00
G01 X-26.7385 Y22.4860 F120.00
G01 X-26.8289 Y22.4768 F120.00
G01 X-27.1732 Y22.4768 F120.00
G01 X-27.1732 Y22.8234 F120.00
G00 Z2.0000
G00 X-26.5518 Y23.8768
G01 F60.00
G01 Z-0.1000
G01 F120.00
G01 X-26.2045 Y23.8768 F120.00
G01 X-26.2119 Y24.0890 F120.00
G01 X-26.2607 Y24.2364 F120.00
G01 X-26.3433 Y24.3704 F120.00
G01 X-26.4546 Y24.4817 F120.00
G01 X-26.5886 Y24.5643 F120.00
G01 X-26.7354 Y24.6130 F120.00
G01 X-27.1732 Y24.6217 F120.00
G01 X-27.1732 Y24.2766 F120.00
G01 X-26.8428 Y24.2752 F120.00
G01 X-26.6934 Y24.2217 F120.00
G01 X-26.6201 Y24.1543 F120.00
G01 X-26.5648 Y24.0519 F120.00
G01 X-26.5518 Y23.8768 F120.00
G01 X-26.4933 Y23.9382 F120.00
G01 X-26.2681 Y23.9382 F120.00
G01 X-26.2730 Y24.0781 F120.00
G01 X-26.3168 Y24.2103 F120.00
G01 X-26.3919 Y24.3320 F120.00
G01 X-26.4930 Y24.4331 F120.00
G01 X-26.6147 Y24.5082 F120.00
G01 X-26.7459 Y24.5517 F120.00
G01 X-27.1118 Y24.5590 F120.00
G01 X-27.1118 Y24.3378 F120.00
G01 X-26.8315 Y24.3357 F120.00
G01 X-26.6606 Y24.2736 F120.00
G01 X-26.5739 Y24.1951 F120.00
G01 X-26.5115 Y24.0830 F120.00
G01 X-26.4933 Y23.9382 F120.00
G01 X-26.4347 Y23.9997 F120.00
G01 X-26.3317 Y23.9997 F120.00
G01 X-26.3341 Y24.0671 F120.00
G01 X-26.3728 Y24.1842 F120.00
G01 X-26.4404 Y24.2937 F120.00
G01 X-26.5313 Y24.3846 F120.00
G01 X-26.6408 Y24.4522 F120.00
G01 X-26.7565 Y24.4905 F120.00
G01 X-27.0503 Y24.4963 F120.00
G01 X-27.0503 Y24.3991 F120.00
G01 X-26.8128 Y24.3949 F120.00
G01 X-26.6106 Y24.3132 F120.00
G01 X-26.5071 Y24.2054 F120.00
G01 X-26.4472 Y24.0884 F120.00
G01 X-26.4347 Y23.9997 F120.00
G00 Z2.0000
G00 X-27.5003 Y25.2759
G01 F60.00
G01 Z-0.1000
G01 F120.00
G01 X-27.2694 Y25.2790 F120.00
G01 X-27.0893 Y25.3425 F120.00
G01 X-26.9613 Y25.4625 F120.00
G01 X-26.8983 Y25.5838 F120.00
G01 X-26.8847 Y25.6753 F120.00
G01 X-26.7817 Y25.6753 F120.00
G01 X-26.7841 Y25.6079 F120.00
G01 X-26.8228 Y25.4908 F120.00
G01 X-26.8904 Y25.3813 F120.00
G01 X-26.9813 Y25.2904 F120.00
G01 X-27.0908 Y25.2228 F120.00
G01 X-27.2144 Y25.1819 F120.00
G01 X-27.5003 Y25.1747 F120.00
G01 X-27.5003 Y25.2759 F120.00
G01 X-27.5618 Y25.3372 F120.00
G01 X-27.2815 Y25.3393 F120.00
G01 X-27.1256 Y25.3928 F120.00
G01 X-27.0259 Y25.4775 F120.00
G01 X-26.9638 Y25.5873 F120.00
G01 X-26.9433 Y25.7368 F120.00
G01 X-26.7181 Y25.7368 F120.00
G01 X-26.7230 Y25.5969 F120.00
G01 X-26.7668 Y25.4647 F120.00
G01 X-26.8419 Y25.3430 F120.00
G01 X-26.9430 Y25.2419 F120.00
G01 X-27.0647 Y25.1668 F120.00
G01 X-27.2014 Y25.1215 F120.00
G01 X-27.5618 Y25.1132 F120.00
G01 X-27.5618 Y25.3372 F120.00
G01 X-27.6232 Y25.3984 F120.00
G01 X-27.2928 Y25.3998 F120.00
G01 X-27.1567 Y25.4462 F120.00
G01 X-27.0724 Y25.5177 F120.00
G01 X-27.0148 Y25.6231 F120.00
G01 X-27.0018 Y25.7982 F120.00
G01 X-26.6545 Y25.7982 F120.00
G01 X-26.6619 Y25.5860 F120.00
G01 X-26.7107 Y25.4386 F120.00
G01 X-26.7933 Y25.3046 F120.00
G01 X-26.9046 Y25.1933 F120.00
G01 X-27.0386 Y25.1107 F120.00
G01 X-27.1885 Y25.0610 F120.00
G01 X-27.2789 Y25.0518 F120.00
G01 X-27.6232 Y25.0518 F120.00
G01 X-27.6232 Y25.3984 F120.00
G00 Z2.0000
G00 X-27.0018 Y26.4518
G01 F60.00
G01 Z-0.1000
G01 F120.00
G01 X-27.0148 Y26.6269 F120.00
G01 X-27.0701 Y26.7293 F120.00
G01 X-27.1434 Y26.7967 F120.00
G01 X-27.2928 Y26.8502 F120.00
G01 X-27.6232 Y26.8516 F120.00
G01 X-27.6232 Y27.1967 F120.00
G01 X-27.1854 Y27.1880 F120.00
G01 X-27.0386 Y27.1393 F120.00
G01 X-26.9046 Y27.0567 F120.00
G01 X-26.7933 Y26.9454 F120.00
G01 X-26.7107 Y26.8114 F120.00
G01 X-26.6619 Y26.6640 F120.00
G01 X-26.6545 Y26.4518 F120.00
G01 X-27.0018 Y26.4518 F120.00
G01 X-26.9433 Y26.5132 F120.00
G01 X-26.9513 Y26.6296 F120.00
G01 X-27.0177 Y26.7616 F120.00
G01 X-27.0973 Y26.8388 F120.00
G01 X-27.2785 Y26.9103 F120.00
G01 X-27.5618 Y26.9128 F120.00
G01 X-27.5618 Y27.1340 F120.00
G01 X-27.1959 Y27.1267 F120.00
G01 X-27.0647 Y27.0832 F120.00
G01 X-26.9430 Y27.0081 F120.00
G01 X-26.8419 Y26.9070 F120.00
G01 X-26.7668 Y26.7853 F120.00
G01 X-26.7230 Y26.6531 F120.00
G01 X-26.7181 Y26.5132 F120.00
G01 X-26.9433 Y26.5132 F120.00
G01 X-26.8847 Y26.5747 F120.00
G01 X-26.8983 Y26.6662 F120.00
G01 X-26.9755 Y26.8079 F120.00
G01 X-27.0848 Y26.9049 F120.00
G01 X-27.2679 Y26.9708 F120.00
G01 X-27.5003 Y26.9741 F120.00
G01 X-27.5003 Y27.0713 F120.00
G01 X-27.2065 Y27.0655 F120.00
G01 X-27.0908 Y27.0272 F120.00
G01 X-26.9813 Y26.9596 F120.00
G01 X-26.8904 Y26.8687 F120.00
G01 X-26.8228 Y26.7592 F120.00
G01 X-26.7841 Y26.6421 F120.00
G01 X-26.7817 Y26.5747 F120.00
G01 X-26.8847 Y26.5747 F120.00
G00 Z2.0000
G00 X-28.8982 Y25.7982
G01 F60.00
G01 Z-0.1000
G01 F120.00
G01 X-28.8852 Y25.6231 F120.00
G01 X-28.8299 Y25.5207 F120.00
G01 X-28.7566 Y25.4533 F120.00
G01 X-28.6072 Y25.3998 F120.00
G01 X-28.2768 Y25.3984 F120.00
G01 X-28.2768 Y25.0533 F120.00
G01 X-28.7146 Y25.0620 F120.00
G01 X-28.8614 Y25.1107 F120.00
G01 X-28.9954 Y25.1933 F120.00
G01 X-29.1067 Y25.3046 F120.00
G01 X-29.1893 Y25.4386 F120.00
G01 X-29.2381 Y25.5860 F120.00
G01 X-29.2455 Y25.7982 F120.00
G01 X-28.8982 Y25.7982 F120.00
G01 X-28.9567 Y25.7368 F120.00
G01 X-28.9487 Y25.6204 F120.00
G01 X-28.8823 Y25.4884 F120.00
G01 X-28.8027 Y25.4112 F120.00
G01 X-28.6215 Y25.3397 F120.00
G01 X-28.3382 Y25.3372 F120.00
G01 X-28.3382 Y25.1160 F120.00
G01 X-28.7041 Y25.1233 F120.00
G01 X-28.8353 Y25.1668 F120.00
G01 X-28.9570 Y25.2419 F120.00
G01 X-29.0581 Y25.3430 F120.00
G01 X-29.1332 Y25.4647 F120.00
G01 X-29.1770 Y25.5969 F120.00
G01 X-29.1819 Y25.7368 F120.00
G01 X-28.9567 Y25.7368 F120.00
G01 X-29.0153 Y25.6753 F120.00
G01 X-29.0017 Y25.5838 F120.00
G01 X-28.9245 Y25.4421 F120.00
G01 X-28.8152 Y25.3451 F120.00
G01 X-28.6321 Y25.2792 F120.00
G01 X-28.3997 Y25.2759 F120.00
G01 X-28.3997 Y25.1787 F120.00
G01 X-28.6935 Y25.1845 F120.00
G01 X-28.8092 Y25.2228 F120.00
G01 X-28.9187 Y25.2904 F120.00
G01 X-29.0096 Y25.3813 F120.00
G01 X-29.0772 Y25.4908 F120.00
G01 X-29.1159 Y25.6079 F120.00
G01 X-29.1183 Y25.6753 F120.00
G01 X-29.0153 Y25.6753 F120.00
G00 Z2.0000
G00 X-29.2455 Y26.4518
G01 F60.00
G01 Z-0.1000
G01 F120.00
G01 X-28.8982 Y26.4518 F120.00
G01 X-28.8852 Y26.6269 F120.00
G01 X-28.8276 Y26.7323 F120.00
G01 X-28.7433 Y26.8038 F120.00
G01 X-28.6072 Y26.8502 F120.00
G01 X-28.2768 Y26.8516 F120.00
G01 X-28.2768 Y27.1967 F120.00
G01 X-28.7146 Y27.1880 F120.00
G01 X-28.8614 Y27.1393 F120.00
G01 X-28.9954 Y27.0567 F120.00
G01 X-29.1067 Y26.9454 F120.00
G01 X-29.1893 Y26.8114 F120.00
G01 X-29.2381 Y26.6640 F120.00
G01 X-29.2455 Y26.4518 F120.00
G01 X-29.1819 Y26.5132 F120.00
G01 X-28.9567 Y26.5132 F120.00
G01 X-28.9362 Y26.6627 F120.00
G01 X-28.8741 Y26.7725 F120.00
G01 X-28.7777 Y26.8555 F120.00
G01 X-28.6185 Y26.9107 F120.00
G01 X-28.3382 Y26.9128 F120.00
G01 X-28.3382 Y27.1340 F120.00
G01 X-28.7041 Y27.1267 F120.00
G01 X-28.8353 Y27.0832 F120.00
G01 X-28.9570 Y27.0081 F120.00
G01 X-29.0581 Y26.9070 F120.00
G01 X-29.1332 Y26.7853 F120.00
G01 X-29.1770 Y26.6531 F120.00
G01 X-29.1819 Y26.5132 F120.00
G01 X-29.1183 Y26.5747 F120.00
G01 X-29.0153 Y26.5747 F120.00
G01 X-29.0017 Y26.6662 F120.00
G01 X-28.9387 Y26.7875 F120.00
G01 X-28.8152 Y26.9049 F120.00
G01 X-28.6321 Y26.9708 F120.00
G01 X-28.3997 Y26.9741 F120.00
G01 X-28.3997 Y27.0713 F120.00
G01 X-28.6935 Y27.0655 F120.00
G01 X-28.8092 Y27.0272 F120.00
G01 X-28.9187 Y26.9596 F120.00
G01 X-29.0096 Y26.8687 F120.00
G01 X-29.0772 Y26.7592 F120.00
G01 X-29.1159 Y26.6421 F120.00
G01 X-29.1183 Y26.5747 F120.00
G00 Z2.0000
G00 X-28.6683 Y23.9997
G01 F60.00
G01 Z-0.1000
G01 F120.00
G01 X-28.6659 Y24.0671 F120.00
G01 X-28.6272 Y24.1842 F120.00
G01 X-28.5596 Y24.2937 F120.00
G01 X-28.4687 Y24.3846 F120.00
G01 X-28.3592 Y24.4522 F120.00
G01 X-28.2435 Y24.4905 F120.00
G01 X-27.9497 Y24.4963 F120.00
G01 X-27.9497 Y24.3991 F120.00
G01 X-28.1821 Y24.3958 F120.00
G01 X-28.3652 Y24.3299 F120.00
G01 X-28.5033 Y24.1928 F120.00
G01 X-28.5544 Y24.0834 F120.00
G01 X-28.5653 Y23.9997 F120.00
G01 X-28.6683 Y23.9997 F120.00
G01 X-28.7319 Y23.9382 F120.00
G01 X-28.7270 Y24.0781 F120.00
G01 X-28.6832 Y24.2103 F120.00
G01 X-28.6081 Y24.3320 F120.00
G01 X-28.5070 Y24.4331 F120.00
G01 X-28.3853 Y24.5082 F120.00
G01 X-28.2541 Y24.5517 F120.00
G01 X-27.8882 Y24.5590 F120.00
G01 X-27.8882 Y24.3378 F120.00
G01 X-28.1685 Y24.3357 F120.00
G01 X-28.3277 Y24.2805 F120.00
G01 X-28.4555 Y24.1527 F120.00
G01 X-28.4987 Y24.0546 F120.00
G01 X-28.5067 Y23.9382 F120.00
G01 X-28.7319 Y23.9382 F120.00
G01 X-28.7955 Y23.8768 F120.00
G01 X-28.7881 Y24.0890 F120.00
G01 X-28.7393 Y24.2364 F120.00
G01 X-28.6567 Y24.3704 F120.00
G01 X-28.5454 Y24.4817 F120.00
G01 X-28.4114 Y24.5643 F120.00
G01 X-28.2646 Y24.6130 F120.00
G01 X-27.8268 Y24.6217 F120.00
G01 X-27.8268 Y24.2766 F120.00
G01 X-28.1572 Y24.2752 F120.00
G01 X-28.2933 Y24.2288 F120.00
G01 X-28.3922 Y24.1376 F120.00
G01 X-28.4352 Y24.0520 F120.00
G01 X-28.4482 Y23.8768 F120.00
G01 X-28.7955 Y23.8768 F120.00
G00 Z2.0000
G00 X-28.4482 Y23.2232
G01 F60.00
G01 Z-0.1000
G01 F120.00
G01 X-28.4352 Y23.0481 F120.00
G01 X-28.3799 Y22.9457 F120.00
G01 X-28.3066 Y22.8783 F120.00
G01 X-28.1572 Y22.8248 F120.00
G01 X-27.8268 Y22.8234 F120.00
G01 X-27.8268 Y22.4783 F120.00
G01 X-28.2646 Y22.4870 F120.00
G01 X-28.4114 Y22.5357 F120.00
G01 X-28.5454 Y22.6183 F120.00
G01 X-28.6567 Y22.7296 F120.00
G01 X-28.7393 Y22.8636 F120.00
G01 X-28.7881 Y23.0110 F120.00
G01 X-28.7955 Y23.2232 F120.00
G01 X-28.4482 Y23.2232 F120.00
G01 X-28.5067 Y23.1618 F120.00
G01 X-28.4987 Y23.0454 F120.00
G01 X-28.4323 Y22.9134 F120.00
G01 X-28.3527 Y22.8362 F120.00
G01 X-28.1715 Y22.7647 F120.00
G01 X-27.8882 Y22.7622 F120.00
G01 X-27.8882 Y22.5410 F120.00
G01 X-28.2541 Y22.5483 F120.00
G01 X-28.3853 Y22.5918 F120.00
G01 X-28.5070 Y22.6669 F120.00
G01 X-28.6081 Y22.7680 F120.00
G01 X-28.6832 Y22.8897 F120.00
G01 X-28.7270 Y23.0219 F120.00
G01 X-28.7319 Y23.1618 F120.00
G01 X-28.5067 Y23.1618 F120.00
G01 X-28.5653 Y23.1003 F120.00
G01 X-28.5517 Y23.0088 F120.00
G01 X-28.4745 Y22.8671 F120.00
G01 X-28.3652 Y22.7701 F120.00
G01 X-28.1821 Y22.7042 F120.00
G01 X-27.9497 Y22.7009 F120.00
G01 X-27.9497 Y22.6037 F120.00
G01 X-28.2435 Y22.6095 F120.00
G01 X-28.3592 Y22.6478 F120.00
G01 X-28.4687 Y22.7154 F120.00
G01 X-28.5596 Y22.8063 F120.00
G01 X-28.6272 Y22.9158 F120.00
G01 X-28.6659 Y23.0329 F120.00
G01 X-28.6683 Y23.1003 F120.00
G01 X-28.5653 Y23.1003 F120.00
G00 Z2.0000
G00 X-32.4347 Y23.9997
G01 F60.00
G01 Z-0.1000
G01 F120.00
G01 X-32.4451 Y24.0819 F120.00
G01 X-32.4925 Y24.1857 F120.00
G01 X-32.6106 Y24.3132 F120.00
G01 X-32.8128 Y24.3949 F120.00
G01 X-33.0503 Y24.3991 F120.00
G01 X-33.0503 Y24.4963 F120.00
G01 X-32.7565 Y24.4905 F120.00
G01 X-32.6408 Y24.4522 F120.00
G01 X-32.5313 Y24.3846 F120.00
G01 X-32.4404 Y24.2937 F120.00
G01 X-32.3728 Y24.1842 F120.00
G01 X-32.3341 Y24.0671 F120.00
G01 X-32.3317 Y23.9997 F120.00
G01 X-32.4347 Y23.9997 F120.00
G01 X-32.4933 Y23.9382 F120.00
G01 X-32.5013 Y24.0546 F120.00
G01 X-32.5428 Y24.1494 F120.00
G01 X-32.6606 Y24.2736 F120.00
G01 X-32.8315 Y24.3357 F120.00
G01 X-33.1118 Y24.3378 F120.00
G01 X-33.1118 Y24.5590 F120.00
G01 X-32.7459 Y24.5517 F120.00
G01 X-32.6147 Y24.5082 F120.00
G01 X-32.4930 Y24.4331 F120.00
G01 X-32.3919 Y24.3320 F120.00
G01 X-32.3168 Y24.2103 F120.00
G01 X-32.2730 Y24.0781 F120.00
G01 X-32.2681 Y23.9382 F120.00
G01 X-32.4933 Y23.9382 F120.00
G01 X-32.5518 Y23.8768 F120.00
G01 X-32.5648 Y24.0520 F120.00
G01 X-32.6054 Y24.1346 F120.00
G01 X-32.6934 Y24.2217 F120.00
G01 X-32.8428 Y24.2752 F120.00
G01 X-33.1732 Y24.2766 F120.00
G01 X-33.1732 Y24.6217 F120.00
G01 X-32.7354 Y24.6130 F120.00
G01 X-32.5886 Y24.5643 F120.00
G01 X-32.4546 Y24.4817 F120.00
G01 X-32.3433 Y24.3704 F120.00
G01 X-32.2607 Y24.2364 F120.00
G01 X-32.2119 Y24.0890 F120.00
G01 X-32.2045 Y23.8768 F120.00
G01 X-32.5518 Y23.8768 F120.00
G00 Z2.0000
G00 X-33.1732 Y22.8234
G01 F60.00
G01 Z-0.1000
G01 F120.00
G01 X-33.1732 Y22.4768 F120.00
G01 X-32.8289 Y22.4768 F120.00
G01 X-32.7385 Y22.4860 F120.00
G01 X-32.5886 Y22.5357 F120.00
G01 X-32.4546 Y22.6183 F120.00
G01 X-32.3433 Y22.7296 F120.00
G01 X-32.2607 Y22.8636 F120.00
G01 X-32.2119 Y23.0110 F120.00
G01 X-32.2045 Y23.2232 F120.00
G01 X-32.5518 Y23.2232 F120.00
G01 X-32.5648 Y23.0480 F120.00
G01 X-32.6078 Y22.9624 F120.00
G01 X-32.7067 Y22.8712 F120.00
G01 X-32.8428 Y22.8248 F120.00
G01 X-33.1732 Y22.8234 F120.00
G01 X-33.1118 Y22.7622 F120.00
G01 X-33.1118 Y22.5382 F120.00
G01 X-32.7514 Y22.5465 F120.00
G01 X-32.6147 Y22.5918 F120.00
G01 X-32.4930 Y22.6669 F120.00
G01 X-32.3919 Y22.7680 F120.00
G01 X-32.3168 Y22.8897 F120.00
G01 X-32.2730 Y23.0219 F120.00
G01 X-32.2681 Y23.1618 F120.00
G01 X-32.4933 Y23.1618 F120.00
G01 X-32.5013 Y23.0454 F120.00
G01 X-32.5445 Y22.9473 F120.00
G01 X-32.6756 Y22.8178 F120.00
G01 X-32.8315 Y22.7643 F120.00
G01 X-33.1118 Y22.7622 F120.00
G01 X-33.0503 Y22.7009 F120.00
G01 X-33.0503 Y22.5997 F120.00
G01 X-32.7644 Y22.6069 F120.00
G01 X-32.6408 Y22.6478 F120.00
G01 X-32.5313 Y22.7154 F120.00
G01 X-32.4404 Y22.8063 F120.00
G01 X-32.3728 Y22.9158 F120.00
G01 X-32.3341 Y23.0329 F120.00
G01 X-32.3317 Y23.1003 F120.00
G01 X-32.4347 Y23.1003 F120.00
G01 X-32.4456 Y23.0166 F120.00
G01 X-32.4967 Y22.9072 F120.00
G01 X-32.6393 Y22.7675 F120.00
G01 X-32.8194 Y22.7040 F120.00
G01 X-33.0503 Y22.7009 F120.00
G00 Z2.0000
G00 X-34.4482 Y23.2232
G01 F60.00
G01 Z-0.1000
G01 F120.00
G01 X-34.4352 Y23.0480 F120.00
G01 X-34.3946 Y22.9654 F120.00
G01 X-34.3066 Y22.8783 F120.00
G01 X-34.1572 Y22.8248 F120.00
G01 X-33.8268 Y22.8234 F120.00
G01 X-33.8268 Y22.4783 F120.00
G01 X-34.2646 Y22.4870 F120.00
G01 X-34.4114 Y22.5357 F120.00
G01 X-34.5454 Y22.6183 F120.00
G01 X-34.6567 Y22.7296 F120.00
G01 X-34.7393 Y22.8636 F120.00
G01 X-34.7881 Y23.0110 F120.00
G01 X-34.7955 Y23.2232 F120.00
G01 X-34.4482 Y23.2232 F120.00
G01 X-34.5067 Y23.1618 F120.00
G01 X-34.4987 Y23.0454 F120.00
G01 X-34.4470 Y22.9331 F120.00
G01 X-34.3527 Y22.8362 F120.00
G01 X-34.1715 Y22.7647 F120.00
G01 X-33.8882 Y22.7622 F120.00
G01 X-33.8882 Y22.5410 F120.00
G01 X-34.2541 Y22.5483 F120.00
G01 X-34.3853 Y22.5918 F120.00
G01 X-34.5070 Y22.6669 F120.00
G01 X-34.6081 Y22.7680 F120.00
G01 X-34.6832 Y22.8897 F120.00
G01 X-34.7270 Y23.0219 F120.00
G01 X-34.7319 Y23.1618 F120.00
G01 X-34.5067 Y23.1618 F120.00
G01 X-34.5653 Y23.1003 F120.00
G01 X-34.5517 Y23.0088 F120.00
G01 X-34.4891 Y22.8868 F120.00
G01 X-34.3652 Y22.7701 F120.00
G01 X-34.1821 Y22.7042 F120.00
G01 X-33.9497 Y22.7009 F120.00
G01 X-33.9497 Y22.6037 F120.00
G01 X-34.2435 Y22.6095 F120.00
G01 X-34.3592 Y22.6478 F120.00
G01 X-34.4687 Y22.7154 F120.00
G01 X-34.5596 Y22.8063 F120.00
G01 X-34.6272 Y22.9158 F120.00
G01 X-34.6659 Y23.0329 F120.00
G01 X-34.6683 Y23.1003 F120.00
G01 X-34.5653 Y23.1003 F120.00
G00 Z2.0000
G00 X-34.7955 Y23.8768
G01 F60.00
G01 Z-0.1000
G01 F120.00
G01 X-34.4482 Y23.8768 F120.00
G01 X-34.4352 Y24.0520 F120.00
G01 X-34.3922 Y24.1376 F120.00
G01 X-34.2933 Y24.2288 F120.00
G01 X-34.1572 Y24.2752 F120.00
G01 X-33.8268 Y24.2766 F120.00
G01 X-33.8268 Y24.6217 F120.00
G01 X-34.2646 Y24.6130 F120.00
G01 X-34.4114 Y24.5643 F120.00
G01 X-34.5454 Y24.4817 F120.00
G01 X-34.6567 Y24.3704 F120.00
G01 X-34.7393 Y24.2364 F120.00
G01 X-34.7881 Y24.0890 F120.00
G01 X-34.7955 Y23.8768 F120.00
G01 X-34.7319 Y23.9382 F120.00
G01 X-34.5067 Y23.9382 F120.00
G01 X-34.4987 Y24.0546 F120.00
G01 X-34.4555 Y24.1527 F120.00
G01 X-34.3277 Y24.2805 F120.00
G01 X-34.1685 Y24.3357 F120.00
G01 X-33.8882 Y24.3378 F120.00
G01 X-33.8882 Y24.5590 F120.00
G01 X-34.2541 Y24.5517 F120.00
G01 X-34.3853 Y24.5082 F120.00
G01 X-34.5070 Y24.4331 F120.00
G01 X-34.6081 Y24.3320 F120.00
G01 X-34.6832 Y24.2103 F120.00
G01 X-34.7270 Y24.0781 F120.00
G01 X-34.7319 Y23.9382 F120.00
G01 X-34.6683 Y23.9997 F120.00
G01 X-34.5653 Y23.9997 F120.00
G01 X-34.5544 Y24.0834 F120.00
G01 X-34.5033 Y24.1928 F120.00
G01 X-34.3652 Y24.3299 F120.00
G01 X-34.1821 Y24.3958 F120.00
G01 X-33.9497 Y24.3991 F120.00
G01 X-33.9497 Y24.4963 F120.00
G01 X-34.2435 Y24.4905 F120.00
G01 X-34.3592 Y24.4522 F120.00
G01 X-34.4687 Y24.3846 F120.00
G01 X-34.5596 Y24.2937 F120.00
G01 X-34.6272 Y24.1842 F120.00
G01 X-34.6659 Y24.0671 F120.00
G01 X-34.6683 Y23.9997 F120.00
G00 Z2.0000
G00 X-34.5153 Y25.6753
G01 F60.00
G01 Z-0.1000
G01 F120.00
G01 X-34.6183 Y25.6753 F120.00
G01 X-34.6159 Y25.6079 F120.00
G01 X-34.5772 Y25.4908 F120.00
G01 X-34.5096 Y25.3813 F120.00
G01 X-34.4187 Y25.2904 F120.00
G01 X-34.3092 Y25.2228 F120.00
G01 X-34.1935 Y25.1845 F120.00
G01 X-33.8997 Y25.1787 F120.00
G01 X-33.8997 Y25.2759 F120.00
G01 X-34.1321 Y25.2792 F120.00
G01 X-34.3152 Y25.3451 F120.00
G01 X-34.4391 Y25.4618 F120.00
G01 X-34.5017 Y25.5838 F120.00
G01 X-34.5153 Y25.6753 F120.00
G01 X-34.4567 Y25.7368 F120.00
G01 X-34.6819 Y25.7368 F120.00
G01 X-34.6770 Y25.5969 F120.00
G01 X-34.6332 Y25.4647 F120.00
G01 X-34.5581 Y25.3430 F120.00
G01 X-34.4570 Y25.2419 F120.00
G01 X-34.3353 Y25.1668 F120.00
G01 X-34.2041 Y25.1233 F120.00
G01 X-33.8382 Y25.1160 F120.00
G01 X-33.8382 Y25.3372 F120.00
G01 X-34.1215 Y25.3397 F120.00
G01 X-34.3027 Y25.4112 F120.00
G01 X-34.3970 Y25.5081 F120.00
G01 X-34.4487 Y25.6204 F120.00
G01 X-34.4567 Y25.7368 F120.00
G01 X-34.3982 Y25.7982 F120.00
G01 X-34.7455 Y25.7982 F120.00
G01 X-34.7381 Y25.5860 F120.00
G01 X-34.6893 Y25.4386 F120.00
G01 X-34.6067 Y25.3046 F120.00
G01 X-34.4954 Y25.1933 F120.00
G01 X-34.3614 Y25.1107 F120.00
G01 X-34.2146 Y25.0620 F120.00
G01 X-33.7768 Y25.0533 F120.00
G01 X-33.7768 Y25.3984 F120.00
G01 X-34.1072 Y25.3998 F120.00
G01 X-34.2566 Y25.4533 F120.00
G01 X-34.3446 Y25.5404 F120.00
G01 X-34.3852 Y25.6230 F120.00
G01 X-34.3982 Y25.7982 F120.00
G00 Z2.0000
G00 X-34.7455 Y26.4518
G01 F60.00
G01 Z-0.1000
G01 F120.00
G01 X-34.3982 Y26.4518 F120.00
G01 X-34.3852 Y26.6270 F120.00
G01 X-34.3422 Y26.7126 F120.00
G01 X-34.2433 Y26.8038 F120.00
G01 X-34.1072 Y26.8502 F120.00
G01 X-33.7768 Y26.8516 F120.00
G01 X-33.7768 Y27.1967 F120.00
G01 X-34.2146 Y27.1880 F120.00
G01 X-34.3614 Y27.1393 F120.00
G01 X-34.4954 Y27.0567 F120.00
G01 X-34.6067 Y26.9454 F120.00
G01 X-34.6893 Y26.8114 F120.00
G01 X-34.7381 Y26.6640 F120.00
G01 X-34.7455 Y26.4518 F120.00
G01 X-34.6819 Y26.5132 F120.00
G01 X-34.4567 Y26.5132 F120.00
G01 X-34.4487 Y26.6296 F120.00
G01 X-34.4055 Y26.7277 F120.00
G01 X-34.2777 Y26.8555 F120.00
G01 X-34.1185 Y26.9107 F120.00
G01 X-33.8382 Y26.9128 F120.00
G01 X-33.8382 Y27.1340 F120.00
G01 X-34.2041 Y27.1267 F120.00
G01 X-34.3353 Y27.0832 F120.00
G01 X-34.4570 Y27.0081 F120.00
G01 X-34.5581 Y26.9070 F120.00
G01 X-34.6332 Y26.7853 F120.00
G01 X-34.6770 Y26.6531 F120.00
G01 X-34.6819 Y26.5132 F120.00
G01 X-34.6183 Y26.5747 F120.00
G01 X-34.5153 Y26.5747 F120.00
G01 X-34.5044 Y26.6584 F120.00
G01 X-34.4533 Y26.7678 F120.00
G01 X-34.3152 Y26.9049 F120.00
G01 X-34.1321 Y26.9708 F120.00
G01 X-33.8997 Y26.9741 F120.00
G01 X-33.8997 Y27.0713 F120.00
G01 X-34.1935 Y27.0655 F120.00
G01 X-34.3092 Y27.0272 F120.00
G01 X-34.4187 Y26.9596 F120.00
G01 X-34.5096 Y26.8687 F120.00
G01 X-34.5772 Y26.7592 F120.00
G01 X-34.6159 Y26.6421 F120.00
G01 X-34.6183 Y26.5747 F120.00
G00 Z2.0000
G00 X-33.1232 Y25.3984
G01 F60.00
G01 Z-0.1000
G01 F120.00
G01 X-33.1232 Y25.0518 F120.00
G01 X-32.7789 Y25.0518 F120.00
G01 X-32.6885 Y25.0610 F120.00
G01 X-32.5386 Y25.1107 F120.00
G01 X-32.4046 Y25.1933 F120.00
G01 X-32.2933 Y25.3046 F120.00
G01 X-32.2107 Y25.4386 F120.00
G01 X-32.1619 Y25.5860 F120.00
G01 X-32.1545 Y25.7982 F120.00
G01 X-32.5018 Y25.7982 F120.00
G01 X-32.5148 Y25.6230 F120.00
G01 X-32.5578 Y25.5374 F120.00
G01 X-32.6567 Y25.4462 F120.00
G01 X-32.7928 Y25.3998 F120.00
G01 X-33.1232 Y25.3984 F120.00
G01 X-33.0618 Y25.3372 F120.00
G01 X-33.0618 Y25.1132 F120.00
G01 X-32.7014 Y25.1215 F120.00
G01 X-32.5647 Y25.1668 F120.00
G01 X-32.4430 Y25.2419 F120.00
G01 X-32.3419 Y25.3430 F120.00
G01 X-32.2668 Y25.4647 F120.00
G01 X-32.2230 Y25.5969 F120.00
G01 X-32.2181 Y25.7368 F120.00
G01 X-32.4433 Y25.7368 F120.00
G01 X-32.4513 Y25.6204 F120.00
G01 X-32.4945 Y25.5223 F120.00
G01 X-32.6256 Y25.3928 F120.00
G01 X-32.7815 Y25.3393 F120.00
G01 X-33.0618 Y25.3372 F120.00
G01 X-33.0003 Y25.2759 F120.00
G01 X-33.0003 Y25.1747 F120.00
G01 X-32.7144 Y25.1819 F120.00
G01 X-32.5908 Y25.2228 F120.00
G01 X-32.4813 Y25.2904 F120.00
G01 X-32.3904 Y25.3813 F120.00
G01 X-32.3228 Y25.4908 F120.00
G01 X-32.2841 Y25.6079 F120.00
G01 X-32.2817 Y25.6753 F120.00
G01 X-32.3847 Y25.6753 F120.00
G01 X-32.3956 Y25.5916 F120.00
G01 X-32.4467 Y25.4822 F120.00
G01 X-32.5893 Y25.3425 F120.00
G01 X-32.7694 Y25.2790 F120.00
G01 X-33.0003 Y25.2759 F120.00
G00 Z2.0000
G00 X-32.5018 Y26.4518
G01 F60.00
G01 Z-0.1000
G01 F120.00
G01 X-32.1545 Y26.4518 F120.00
G01 X-32.1619 Y26.6640 F120.00
G01 X-32.2107 Y26.8114 F120.00
G01 X-32.2933 Y26.9454 F120.00
G01 X-32.4046 Y27.0567 F120.00
G01 X-32.5386 Y27.1393 F120.00
G01 X-32.6854 Y27.1880 F120.00
G01 X-33.1232 Y27.1967 F120.00
G01 X-33.1232 Y26.8516 F120.00
G01 X-32.7928 Y26.8502 F120.00
G01 X-32.6434 Y26.7967 F120.00
G01 X-32.5554 Y26.7096 F120.00
G01 X-32.5148 Y26.6270 F120.00
G01 X-32.5018 Y26.4518 F120.00
G01 X-32.4433 Y26.5132 F120.00
G01 X-32.2181 Y26.5132 F120.00
G01 X-32.2230 Y26.6531 F120.00
G01 X-32.2668 Y26.7853 F120.00
G01 X-32.3419 Y26.9070 F120.00
G01 X-32.4430 Y27.0081 F120.00
G01 X-32.5647 Y27.0832 F120.00
G01 X-32.6959 Y27.1267 F120.00
G01 X-33.0618 Y27.1340 F120.00
G01 X-33.0618 Y26.9128 F120.00
G01 X-32.7815 Y26.9107 F120.00
G01 X-32.6106 Y26.8486 F120.00
G01 X-32.4928 Y26.7244 F120.00
G01 X-32.4513 Y26.6296 F120.00
G01 X-32.4433 Y26.5132 F120.00
G01 X-32.3847 Y26.5747 F120.00
G01 X-32.2817 Y26.5747 F120.00
G01 X-32.2841 Y26.6421 F120.00
G01 X-32.3228 Y26.7592 F120.00
G01 X-32.3904 Y26.8687 F120.00
G01 X-32.4813 Y26.9596 F120.00
G01 X-32.5908 Y27.0272 F120.00
G01 X-32.7065 Y27.0655 F120.00
G01 X-33.0003 Y27.0713 F120.00
G01 X-33.0003 Y26.9741 F120.00
G01 X-32.7628 Y26.9699 F120.00
G01 X-32.5606 Y26.8882 F120.00
G01 X-32.4425 Y26.7607 F120.00
G01 X-32.3951 Y26.6569 F120.00
G01 X-32.3847 Y26.5747 F120.00
G00 Z2.0000
G00 X-32.7578 Y30.3099
G01 F60.00
G01 Z-0.1000
G01 F120.00
G01 X-32.8140 Y30.3111 F120.00
G01 X-32.8140 Y30.3796 F120.00
G01 X-32.7471 Y30.3796 F120.00
G01 X-32.7578 Y30.3099 F120.00
G01 X-32.7008 Y30.2447 F120.00
G01 X-32.8754 Y30.2509 F120.00
G01 X-32.8754 Y30.4410 F120.00
G01 X-32.6609 Y30.4410 F120.00
G01 X-32.6898 Y30.3538 F120.00
G01 X-32.7008 Y30.2447 F120.00
G01 X-32.6383 Y30.1659 F120.00
G01 X-32.7261 Y30.1857 F120.00
G01 X-32.9368 Y30.1908 F120.00
G01 X-32.9368 Y30.5024 F120.00
G01 X-32.5480 Y30.5024 F120.00
G01 X-32.6247 Y30.3623 F120.00
G01 X-32.6383 Y30.1659 F120.00
G01 X-32.3941 Y30.5640 F120.00
G01 X-32.4807 Y30.4898 F120.00
G01 X-32.5416 Y30.4045 F120.00
G01 X-32.5691 Y30.3308 F120.00
G01 X-32.5736 Y30.3000 F120.00
G01 X-32.5740 Y30.2960 F120.00
G01 X-32.5790 Y30.2263 F120.00
G01 X-32.5795 Y30.2161 F120.00
G01 X-32.5745 Y30.1565 F120.00
G01 X-32.5082 Y30.0222 F120.00
G01 X-32.6959 Y30.1192 F120.00
G01 X-32.9983 Y30.1306 F120.00
G01 X-32.9983 Y30.5639 F120.00
G01 X-32.3941 Y30.5640 F120.00
G00 Z2.0000
G00 X-34.0873 Y30.2546
G01 F60.00
G01 Z-0.1000
G01 F120.00
G01 X-34.0933 Y30.4408 F120.00
G01 X-34.0246 Y30.4409 F120.00
G01 X-34.0246 Y30.2552 F120.00
G01 X-34.0873 Y30.2546 F120.00
G01 X-34.1678 Y30.1897 F120.00
G01 X-34.1448 Y30.3152 F120.00
G01 X-34.1743 Y30.5024 F120.00
G01 X-33.9632 Y30.5024 F120.00
G01 X-33.9632 Y30.1944 F120.00
G01 X-34.1678 Y30.1897 F120.00
G01 X-34.3081 Y30.0718 F120.00
G01 X-34.2279 Y30.2053 F120.00
G01 X-34.2062 Y30.3076 F120.00
G01 X-34.2266 Y30.4672 F120.00
G01 X-34.3053 Y30.5861 F120.00
G01 X-34.2143 Y30.5643 F120.00
G01 X-33.9017 Y30.5639 F120.00
G01 X-33.9017 Y30.1335 F120.00
G01 X-34.1623 Y30.1284 F120.00
G01 X-34.3081 Y30.0718 F120.00
G00 Z2.0000
G00 X-34.2768 Y30.8250
G01 F60.00
G01 Z-0.1000
G01 F120.00
G01 X-34.2768 Y32.6250 F120.00
G01 X-34.2543 Y32.6793 F120.00
G01 X-34.2000 Y32.7018 F120.00
G01 X-32.4000 Y32.7018 F120.00
G01 X-32.3457 Y32.6793 F120.00
G01 X-32.3232 Y32.6250 F120.00
G01 X-32.3290 Y30.7956 F120.00
G01 X-32.3573 Y30.7611 F120.00
G01 X-32.3962 Y30.7483 F120.00
G01 X-33.1826 Y30.7482 F120.00
G01 X-33.1826 Y29.9502 F120.00
G01 X-32.7260 Y29.9363 F120.00
G01 X-32.5939 Y29.8561 F120.00
G01 X-32.5114 Y29.7167 F120.00
G01 X-32.4997 Y28.7935 F120.00
G01 X-32.5386 Y28.6677 F120.00
G01 X-32.6404 Y28.5554 F120.00
G01 X-32.7301 Y28.5123 F120.00
G01 X-32.8212 Y28.4983 F120.00
G01 X-34.0825 Y28.4986 F120.00
G01 X-34.2386 Y28.5428 F120.00
G01 X-34.3422 Y28.6374 F120.00
G01 X-34.3852 Y28.7230 F120.00
G01 X-34.4018 Y28.8250 F120.00
G01 X-34.4018 Y29.6250 F120.00
G01 X-34.3632 Y29.7791 F120.00
G01 X-34.2793 Y29.8799 F120.00
G01 X-34.1428 Y29.9446 F120.00
G01 X-33.7174 Y29.9510 F120.00
G01 X-33.7174 Y30.7482 F120.00
G01 X-34.2113 Y30.7490 F120.00
G01 X-34.2594 Y30.7763 F120.00
G01 X-34.2768 Y30.8250 F120.00
G01 X-34.3382 Y30.8250 F120.00
G01 X-34.3377 Y32.6370 F120.00
G01 X-34.2967 Y32.7238 F120.00
G01 X-34.2053 Y32.7631 F120.00
G01 X-32.3985 Y32.7632 F120.00
G01 X-32.3457 Y32.7521 F120.00
G01 X-32.3012 Y32.7217 F120.00
G01 X-32.2618 Y32.6265 F120.00
G01 X-32.2717 Y30.7735 F120.00
G01 X-32.3165 Y30.7149 F120.00
G01 X-32.3850 Y30.6876 F120.00
G01 X-33.1212 Y30.6868 F120.00
G01 X-33.1212 Y30.0103 F120.00
G01 X-32.7001 Y29.9922 F120.00
G01 X-32.5468 Y29.8957 F120.00
G01 X-32.4515 Y29.7305 F120.00
G01 X-32.4392 Y28.7825 F120.00
G01 X-32.4852 Y28.6374 F120.00
G01 X-32.6050 Y28.5052 F120.00
G01 X-32.7109 Y28.4539 F120.00
G01 X-32.8197 Y28.4369 F120.00
G01 X-34.0900 Y28.4376 F120.00
G01 X-34.2740 Y28.4926 F120.00
G01 X-34.3907 Y28.5996 F120.00
G01 X-34.4414 Y28.6981 F120.00
G01 X-34.4632 Y28.8235 F120.00
G01 X-34.4632 Y29.6265 F120.00
G01 X-34.4181 Y29.8067 F120.00
G01 X-34.3171 Y29.9284 F120.00
G01 X-34.1657 Y30.0019 F120.00
G01 X-33.7788 Y30.0119 F120.00
G01 X-33.7788 Y30.6868 F120.00
G01 X-34.2284 Y30.6897 F120.00
G01 X-34.3078 Y30.7385 F120.00
G01 X-34.3382 Y30.8250 F120.00
G01 X-34.3997 Y30.8227 F120.00
G01 X-34.3990 Y32.6416 F120.00
G01 X-34.3811 Y32.7090 F120.00
G01 X-34.3390 Y32.7683 F120.00
G01 X-34.2792 Y32.8083 F120.00
G01 X-34.2113 Y32.8243 F120.00
G01 X-32.3932 Y32.8246 F120.00
G01 X-32.3208 Y32.8083 F120.00
G01 X-32.2567 Y32.7640 F120.00
G01 X-32.2150 Y32.7000 F120.00
G01 X-32.2004 Y32.6280 F120.00
G01 X-32.2003 Y30.8242 F120.00
G01 X-32.2130 Y30.7549 F120.00
G01 X-32.2745 Y30.6697 F120.00
G01 X-32.3692 Y30.6277 F120.00
G01 X-33.0597 Y30.6253 F120.00
G01 X-33.0597 Y30.0705 F120.00
G01 X-32.7373 Y30.0633 F120.00
G01 X-32.6638 Y30.0431 F120.00
G01 X-32.4993 Y29.9347 F120.00
G01 X-32.3908 Y29.7407 F120.00
G01 X-32.3783 Y28.7738 F120.00
G01 X-32.4340 Y28.6032 F120.00
G01 X-32.5696 Y28.4550 F120.00
G01 X-32.6916 Y28.3956 F120.00
G01 X-32.8137 Y28.3757 F120.00
G01 X-34.0863 Y28.3757 F120.00
G01 X-34.2856 Y28.4277 F120.00
G01 X-34.4414 Y28.5648 F120.00
G01 X-34.5044 Y28.6916 F120.00
G01 X-34.5246 Y28.8182 F120.00
G01 X-34.5245 Y29.6333 F120.00
G01 X-34.4811 Y29.8165 F120.00
G01 X-34.3626 Y29.9707 F120.00
G01 X-34.1977 Y30.0557 F120.00
G01 X-34.1339 Y30.0696 F120.00
G01 X-33.8403 Y30.0727 F120.00
G01 X-33.8403 Y30.6253 F120.00
G01 X-34.2658 Y30.6365 F120.00
G01 X-34.3622 Y30.7085 F120.00
G01 X-34.3997 Y30.8227 F120.00
G00 Z2.0000
G00 X-34.0537 Y32.9476
G01 F60.00
G01 Z-0.1000
G01 F120.00
G01 X-32.5522 Y32.9476 F120.00
G01 X-32.6269 Y33.1124 F120.00
G01 X-32.6393 Y33.2370 F120.00
G01 X-32.8767 Y33.1208 F120.00
G01 X-32.8772 Y33.1206 F120.00
G01 X-33.1334 Y33.0564 F120.00
G01 X-33.1341 Y33.0563 F120.00
G01 X-33.1663 Y33.0500 F120.00
G01 X-33.3888 Y33.0468 F120.00
G01 X-33.4489 Y33.0525 F120.00
G01 X-33.6279 Y33.0882 F120.00
G01 X-33.6371 Y33.0902 F120.00
G01 X-33.6415 Y33.0913 F120.00
G01 X-33.6422 Y33.0915 F120.00
G01 X-33.6426 Y33.0916 F120.00
G01 X-33.6440 Y33.0920 F120.00
G01 X-33.6455 Y33.0924 F120.00
G01 X-33.6653 Y33.0984 F120.00
G01 X-33.8645 Y33.1808 F120.00
G01 X-33.9608 Y33.2414 F120.00
G01 X-33.9838 Y33.0688 F120.00
G01 X-34.0537 Y32.9476 F120.00
G01 X-33.9411 Y33.0090 F120.00
G01 X-33.5450 Y33.0090 F120.00
G01 X-33.6871 Y33.0410 F120.00
G01 X-33.7075 Y33.0487 F120.00
G01 X-33.7082 Y33.0490 F120.00
G01 X-33.8712 Y33.1165 F120.00
G01 X-33.8729 Y33.1172 F120.00
G01 X-33.9084 Y33.1343 F120.00
G01 X-33.9411 Y33.0090 F120.00
G01 X-32.5336 Y33.3975 F120.00
G01 X-32.6619 Y33.2951 F120.00
G01 X-32.6769 Y33.2864 F120.00
G01 X-32.8325 Y33.2032 F120.00
G01 X-32.8338 Y33.2025 F120.00
G01 X-32.8712 Y33.1864 F120.00
G01 X-33.1720 Y33.1113 F120.00
G01 X-33.3886 Y33.1082 F120.00
G01 X-33.4358 Y33.1126 F120.00
G01 X-33.4392 Y33.1132 F120.00
G01 X-33.6122 Y33.1477 F120.00
G01 X-33.6126 Y33.1477 F120.00
G01 X-33.6327 Y33.1526 F120.00
G01 X-33.8270 Y33.2312 F120.00
G01 X-34.0748 Y33.4039 F120.00
G01 X-34.0240 Y33.2674 F120.00
G01 X-34.0380 Y33.1029 F120.00
G01 X-34.0838 Y33.0081 F120.00
G01 X-34.2056 Y32.8860 F120.00
G01 X-32.3891 Y32.8859 F120.00
G01 X-32.5050 Y32.9871 F120.00
G01 X-32.5695 Y33.1350 F120.00
G01 X-32.5771 Y33.2407 F120.00
G01 X-32.5336 Y33.3975 F120.00
G01 X-33.0699 Y33.0090 F120.00
G01 X-32.6546 Y33.0090 F120.00
G01 X-32.6960 Y33.1369 F120.00
G01 X-32.8314 Y33.0702 F120.00
G01 X-33.0699 Y33.0090 F120.00
G00 Z2.0000
G00 X-32.7499 Y35.0675
G01 F60.00
G01 Z-0.1000
G01 F120.00
G01 X-32.8430 Y35.1282 F120.00
G01 X-33.0201 Y35.2007 F120.00
G01 X-33.2043 Y35.2371 F120.00
G01 X-33.3995 Y35.2366 F120.00
G01 X-33.5836 Y35.1997 F120.00
G01 X-33.7605 Y35.1265 F120.00
G01 X-33.9197 Y35.0201 F120.00
G01 X-34.0574 Y34.8817 F120.00
G01 X-34.1615 Y34.7255 F120.00
G01 X-34.2347 Y34.5486 F120.00
G01 X-34.2721 Y34.3607 F120.00
G01 X-34.2721 Y34.1693 F120.00
G01 X-34.2347 Y33.9814 F120.00
G01 X-34.1615 Y33.8045 F120.00
G01 X-34.0551 Y33.6453 F120.00
G01 X-33.9167 Y33.5076 F120.00
G01 X-33.7605 Y33.4035 F120.00
G01 X-33.5836 Y33.3303 F120.00
G01 X-33.3957 Y33.2929 F120.00
G01 X-33.2080 Y33.2926 F120.00
G01 X-32.9227 Y33.3641 F120.00
G01 X-32.7573 Y33.4528 F120.00
G01 X-32.6093 Y33.5743 F120.00
G01 X-32.4878 Y33.7223 F120.00
G01 X-32.3991 Y33.8877 F120.00
G01 X-32.3279 Y34.1693 F120.00
G01 X-32.3279 Y34.3607 F120.00
G01 X-32.3643 Y34.5449 F120.00
G01 X-32.4368 Y34.7220 F120.00
G01 X-32.4975 Y34.8151 F120.00
G01 X-31.4911 Y35.8215 F120.00
G01 X-26.0000 Y35.8215 F120.00
G01 X-25.9037 Y35.8498 F120.00
G01 X-25.5116 Y36.2534 F120.00
G01 X-25.4973 Y36.9760 F120.00
G01 X-25.3874 Y37.0210 F120.00
G01 X-25.3344 Y37.0772 F120.00
G01 X-25.3015 Y37.1631 F120.00
G01 X-25.2986 Y39.3075 F120.00
G01 X-25.3434 Y39.4349 F120.00
G01 X-25.4022 Y39.4906 F120.00
G01 X-25.4878 Y39.5235 F120.00
G01 X-25.8618 Y39.5228 F120.00
G01 X-25.9854 Y39.4604 F120.00
G01 X-26.0474 Y39.3443 F120.00
G01 X-26.0510 Y37.1816 F120.00
G01 X-26.0040 Y37.0624 F120.00
G01 X-25.9478 Y37.0094 F120.00
G01 X-25.8535 Y36.9760 F120.00
G01 X-25.8535 Y36.3989 F120.00
G01 X-26.0739 Y36.1784 F120.00
G01 X-31.6035 Y36.1742 F120.00
