(G-CODE GENERATED BY FLATCAM v8.994 - www.flatcam.org - Version Date: 2020/11/7)

(Name: Encoders-LCD-NPTH.drl_cnc)
(Type: G-code from Geometry)
(Units: MM)

(Created on Monday, 19 August 2024 at 10:03)

(This preprocessor is the default preprocessor used by FlatCAM.)
(It is made to work with MACH3 compatible motion controllers.)


(TOOLS DIAMETER: )
(Tool: 1 -> Dia: 2.0)
(Tool: 2 -> Dia: 3.2)

(FEEDRATE Z: )
(Tool: 1 -> Feedrate: 30.0)
(Tool: 2 -> Feedrate: 30.0)

(FEEDRATE RAPIDS: )
(Tool: 1 -> Feedrate Rapids: 1500)
(Tool: 2 -> Feedrate Rapids: 1500)

(Z_CUT: )
(Tool: 1 -> Z_Cut: -2.4000000000000004)
(Tool: 2 -> Z_Cut: -2.4000000000000004)

(Tools Offset: )
(Tool: 1 -> Offset Z: 0.0)

(DEPTH_PER_CUT: )
(Tool: 1 -> DeptPerCut: 0.6)
(Tool: 2 -> DeptPerCut: 0.6)

(Z_MOVE: )
(Tool: 1 -> Z_Move: 2)
(Tool: 2 -> Z_Move: 2)

(Z Toolchange: 7.0 mm)
(X,Y Toolchange: 0.0000, 0.0000 mm)
(Z Start: None mm)
(Z End: 5.5 mm)
(X,Y End: None mm)
(Steps per circle: 64)
(Preprocessor Excellon: default)

(X range:    3.6500 ...  106.6000  mm)
(Y range:   11.9000 ...   72.8500  mm)

(Spindle Speed: 1000 RPM)
G21
G90
G94

G01 F30.00

M5
G00 Z7.0000
T1
G00 X0.0000 Y0.0000                
M6
(MSG, Change to Tool Dia = 2.0000 ||| Total drills for tool T1 = 8)
M0
G00 Z7.0000

G01 F30.00
M03 S1000
G00 X102.4000 Y56.1750
G01 Z-0.6000
G01 Z0
G00 Z2.0000
G01 Z-1.2000
G01 Z0
G00 Z2.0000
G01 Z-1.8000
G01 Z0
G00 Z2.0000
G01 Z-2.4000
G01 Z0
G00 Z2.0000
G01 Z-2.4000
G01 Z0
G00 Z2.0000
G00 X102.4000 Y37.4750
G01 Z-0.6000
G01 Z0
G00 Z2.0000
G01 Z-1.2000
G01 Z0
G00 Z2.0000
G01 Z-1.8000
G01 Z0
G00 Z2.0000
G01 Z-2.4000
G01 Z0
G00 Z2.0000
G01 Z-2.4000
G01 Z0
G00 Z2.0000
G00 X77.6000 Y37.4750
G01 Z-0.6000
G01 Z0
G00 Z2.0000
G01 Z-1.2000
G01 Z0
G00 Z2.0000
G01 Z-1.8000
G01 Z0
G00 Z2.0000
G01 Z-2.4000
G01 Z0
G00 Z2.0000
G01 Z-2.4000
G01 Z0
G00 Z2.0000
G00 X32.4000 Y37.7250
G01 Z-0.6000
G01 Z0
G00 Z2.0000
G01 Z-1.2000
G01 Z0
G00 Z2.0000
G01 Z-1.8000
G01 Z0
G00 Z2.0000
G01 Z-2.4000
G01 Z0
G00 Z2.0000
G01 Z-2.4000
G01 Z0
G00 Z2.0000
G00 X7.6000 Y37.7250
G01 Z-0.6000
G01 Z0
G00 Z2.0000
G01 Z-1.2000
G01 Z0
G00 Z2.0000
G01 Z-1.8000
G01 Z0
G00 Z2.0000
G01 Z-2.4000
G01 Z0
G00 Z2.0000
G01 Z-2.4000
G01 Z0
G00 Z2.0000
G00 X7.6000 Y56.4250
G01 Z-0.6000
G01 Z0
G00 Z2.0000
G01 Z-1.2000
G01 Z0
G00 Z2.0000
G01 Z-1.8000
G01 Z0
G00 Z2.0000
G01 Z-2.4000
G01 Z0
G00 Z2.0000
G01 Z-2.4000
G01 Z0
G00 Z2.0000
G00 X32.4000 Y56.4250
G01 Z-0.6000
G01 Z0
G00 Z2.0000
G01 Z-1.2000
G01 Z0
G00 Z2.0000
G01 Z-1.8000
G01 Z0
G00 Z2.0000
G01 Z-2.4000
G01 Z0
G00 Z2.0000
G01 Z-2.4000
G01 Z0
G00 Z2.0000
G00 X77.6000 Y56.1750
G01 Z-0.6000
G01 Z0
G00 Z2.0000
G01 Z-1.2000
G01 Z0
G00 Z2.0000
G01 Z-1.8000
G01 Z0
G00 Z2.0000
G01 Z-2.4000
G01 Z0
G00 Z2.0000
G01 Z-2.4000
G01 Z0
G00 Z2.0000
M05
G00 Z5.50


