(G-CODE GENERATED BY FLATCAM v8.994 - www.flatcam.org - Version Date: 2020/11/7)

(Name: Encoders-LCD-NPTH.drl_conv_cnc)
(Type: G-code from Geometry)
(Units: MM)

(Created on Monday, 19 August 2024 at 14:12)

(This preprocessor is used with a motion controller loaded with GRBL firmware.)
(It is configured to be compatible with almost any version of GRBL firmware.)

(TOOL DIAMETER: 2.0 mm)
(Feedrate_XY: 120.0 mm/min)
(Feedrate_Z: 60.0 mm/min)
(Feedrate rapids 1500.0 mm/min)

(Z_Cut: -2.4 mm)
(DepthPerCut: 0.40000000000000013 mm <=>6 passes)
(Z_Move: 2.0 mm)
(Z Start: None mm)
(Z End: 7.0 mm)
(X,Y End: None mm)
(Steps per circle: 64)
(Steps per circle: 64)
(Preprocessor Geometry: GRBL_11_no_M6)

(X range:    0.0000 ...    0.0000  mm)
(Y range:    0.0000 ...    0.0000  mm)

(Spindle Speed: 1000.0 RPM)
G21
G90
G17
G94


G01 F120.00

M5             
G00 Z7.0000
G00 X0.0000 Y0.0000                
T1
(MSG, Change to Tool Dia = 2.0000)
M0
G00 Z7.0000
        
M03 S1000.0
G01 F120.00
G00 X7.1538 Y37.1340
G01 F60.00
G01 Z-0.4000
G01 F120.00
G01 X7.1521 Y37.0998 F120.00
G01 X7.1471 Y37.0660 F120.00
G01 X7.1388 Y37.0328 F120.00
G01 X7.1272 Y37.0005 F120.00
G01 X7.1126 Y36.9696 F120.00
G01 X7.0950 Y36.9402 F120.00
G01 X7.0746 Y36.9127 F120.00
G01 X7.0516 Y36.8874 F120.00
G01 X7.0263 Y36.8644 F120.00
G01 X6.9988 Y36.8440 F120.00
G01 X6.9694 Y36.8264 F120.00
G01 X6.9385 Y36.8118 F120.00
G01 X6.9062 Y36.8002 F120.00
G01 X6.8730 Y36.7919 F120.00
G01 X6.8392 Y36.7869 F120.00
G01 X6.8050 Y36.7852 F120.00
G01 X6.7708 Y36.7869 F120.00
G01 X6.7370 Y36.7919 F120.00
G01 X6.7038 Y36.8002 F120.00
G01 X6.6715 Y36.8118 F120.00
G01 X6.6406 Y36.8264 F120.00
G01 X6.6112 Y36.8440 F120.00
G01 X6.5837 Y36.8644 F120.00
G01 X6.5584 Y36.8874 F120.00
G01 X6.5354 Y36.9127 F120.00
G01 X6.5150 Y36.9402 F120.00
G01 X6.4974 Y36.9696 F120.00
G01 X6.4828 Y37.0005 F120.00
G01 X6.4712 Y37.0328 F120.00
G01 X6.4629 Y37.0660 F120.00
G01 X6.4579 Y37.0998 F120.00
G01 X6.4562 Y37.1340 F120.00
G01 X6.4579 Y37.1682 F120.00
G01 X6.4629 Y37.2020 F120.00
G01 X6.4712 Y37.2352 F120.00
G01 X6.4828 Y37.2675 F120.00
G01 X6.4974 Y37.2984 F120.00
G01 X6.5150 Y37.3278 F120.00
G01 X6.5354 Y37.3553 F120.00
G01 X6.5584 Y37.3806 F120.00
G01 X6.5837 Y37.4036 F120.00
G01 X6.6112 Y37.4240 F120.00
G01 X6.6406 Y37.4416 F120.00
G01 X6.6715 Y37.4562 F120.00
G01 X6.7038 Y37.4678 F120.00
G01 X6.7370 Y37.4761 F120.00
G01 X6.7708 Y37.4811 F120.00
G01 X6.8050 Y37.4828 F120.00
G01 X6.8392 Y37.4811 F120.00
G01 X6.8730 Y37.4761 F120.00
G01 X6.9062 Y37.4678 F120.00
G01 X6.9385 Y37.4562 F120.00
G01 X6.9694 Y37.4416 F120.00
G01 X6.9988 Y37.4240 F120.00
G01 X7.0263 Y37.4036 F120.00
G01 X7.0516 Y37.3806 F120.00
G01 X7.0746 Y37.3553 F120.00
G01 X7.0950 Y37.3278 F120.00
G01 X7.1126 Y37.2984 F120.00
G01 X7.1272 Y37.2675 F120.00
G01 X7.1388 Y37.2352 F120.00
G01 X7.1471 Y37.2020 F120.00
G01 X7.1521 Y37.1682 F120.00
G01 X7.1538 Y37.1340 F120.00
G00 X7.1538 Y37.1340
G01 F60.00
G01 Z-0.8000
G01 F120.00
G01 X7.1521 Y37.0998 F120.00
G01 X7.1471 Y37.0660 F120.00
G01 X7.1388 Y37.0328 F120.00
G01 X7.1272 Y37.0005 F120.00
G01 X7.1126 Y36.9696 F120.00
G01 X7.0950 Y36.9402 F120.00
G01 X7.0746 Y36.9127 F120.00
G01 X7.0516 Y36.8874 F120.00
G01 X7.0263 Y36.8644 F120.00
G01 X6.9988 Y36.8440 F120.00
G01 X6.9694 Y36.8264 F120.00
G01 X6.9385 Y36.8118 F120.00
G01 X6.9062 Y36.8002 F120.00
G01 X6.8730 Y36.7919 F120.00
G01 X6.8392 Y36.7869 F120.00
G01 X6.8050 Y36.7852 F120.00
G01 X6.7708 Y36.7869 F120.00
G01 X6.7370 Y36.7919 F120.00
G01 X6.7038 Y36.8002 F120.00
G01 X6.6715 Y36.8118 F120.00
G01 X6.6406 Y36.8264 F120.00
G01 X6.6112 Y36.8440 F120.00
G01 X6.5837 Y36.8644 F120.00
G01 X6.5584 Y36.8874 F120.00
G01 X6.5354 Y36.9127 F120.00
G01 X6.5150 Y36.9402 F120.00
G01 X6.4974 Y36.9696 F120.00
G01 X6.4828 Y37.0005 F120.00
G01 X6.4712 Y37.0328 F120.00
G01 X6.4629 Y37.0660 F120.00
G01 X6.4579 Y37.0998 F120.00
G01 X6.4562 Y37.1340 F120.00
G01 X6.4579 Y37.1682 F120.00
G01 X6.4629 Y37.2020 F120.00
G01 X6.4712 Y37.2352 F120.00
G01 X6.4828 Y37.2675 F120.00
G01 X6.4974 Y37.2984 F120.00
G01 X6.5150 Y37.3278 F120.00
G01 X6.5354 Y37.3553 F120.00
G01 X6.5584 Y37.3806 F120.00
G01 X6.5837 Y37.4036 F120.00
G01 X6.6112 Y37.4240 F120.00
G01 X6.6406 Y37.4416 F120.00
G01 X6.6715 Y37.4562 F120.00
G01 X6.7038 Y37.4678 F120.00
G01 X6.7370 Y37.4761 F120.00
G01 X6.7708 Y37.4811 F120.00
G01 X6.8050 Y37.4828 F120.00
G01 X6.8392 Y37.4811 F120.00
G01 X6.8730 Y37.4761 F120.00
G01 X6.9062 Y37.4678 F120.00
G01 X6.9385 Y37.4562 F120.00
G01 X6.9694 Y37.4416 F120.00
G01 X6.9988 Y37.4240 F120.00
G01 X7.0263 Y37.4036 F120.00
G01 X7.0516 Y37.3806 F120.00
G01 X7.0746 Y37.3553 F120.00
G01 X7.0950 Y37.3278 F120.00
G01 X7.1126 Y37.2984 F120.00
G01 X7.1272 Y37.2675 F120.00
G01 X7.1388 Y37.2352 F120.00
G01 X7.1471 Y37.2020 F120.00
G01 X7.1521 Y37.1682 F120.00
G01 X7.1538 Y37.1340 F120.00
G00 X7.1538 Y37.1340
G01 F60.00
G01 Z-1.2000
G01 F120.00
G01 X7.1521 Y37.0998 F120.00
G01 X7.1471 Y37.0660 F120.00
G01 X7.1388 Y37.0328 F120.00
G01 X7.1272 Y37.0005 F120.00
G01 X7.1126 Y36.9696 F120.00
G01 X7.0950 Y36.9402 F120.00
G01 X7.0746 Y36.9127 F120.00
G01 X7.0516 Y36.8874 F120.00
G01 X7.0263 Y36.8644 F120.00
G01 X6.9988 Y36.8440 F120.00
G01 X6.9694 Y36.8264 F120.00
G01 X6.9385 Y36.8118 F120.00
G01 X6.9062 Y36.8002 F120.00
G01 X6.8730 Y36.7919 F120.00
G01 X6.8392 Y36.7869 F120.00
G01 X6.8050 Y36.7852 F120.00
G01 X6.7708 Y36.7869 F120.00
G01 X6.7370 Y36.7919 F120.00
G01 X6.7038 Y36.8002 F120.00
G01 X6.6715 Y36.8118 F120.00
G01 X6.6406 Y36.8264 F120.00
G01 X6.6112 Y36.8440 F120.00
G01 X6.5837 Y36.8644 F120.00
G01 X6.5584 Y36.8874 F120.00
G01 X6.5354 Y36.9127 F120.00
G01 X6.5150 Y36.9402 F120.00
G01 X6.4974 Y36.9696 F120.00
G01 X6.4828 Y37.0005 F120.00
G01 X6.4712 Y37.0328 F120.00
G01 X6.4629 Y37.0660 F120.00
G01 X6.4579 Y37.0998 F120.00
G01 X6.4562 Y37.1340 F120.00
G01 X6.4579 Y37.1682 F120.00
G01 X6.4629 Y37.2020 F120.00
G01 X6.4712 Y37.2352 F120.00
G01 X6.4828 Y37.2675 F120.00
G01 X6.4974 Y37.2984 F120.00
G01 X6.5150 Y37.3278 F120.00
G01 X6.5354 Y37.3553 F120.00
G01 X6.5584 Y37.3806 F120.00
G01 X6.5837 Y37.4036 F120.00
G01 X6.6112 Y37.4240 F120.00
G01 X6.6406 Y37.4416 F120.00
G01 X6.6715 Y37.4562 F120.00
G01 X6.7038 Y37.4678 F120.00
G01 X6.7370 Y37.4761 F120.00
G01 X6.7708 Y37.4811 F120.00
G01 X6.8050 Y37.4828 F120.00
G01 X6.8392 Y37.4811 F120.00
G01 X6.8730 Y37.4761 F120.00
G01 X6.9062 Y37.4678 F120.00
G01 X6.9385 Y37.4562 F120.00
G01 X6.9694 Y37.4416 F120.00
G01 X6.9988 Y37.4240 F120.00
G01 X7.0263 Y37.4036 F120.00
G01 X7.0516 Y37.3806 F120.00
G01 X7.0746 Y37.3553 F120.00
G01 X7.0950 Y37.3278 F120.00
G01 X7.1126 Y37.2984 F120.00
G01 X7.1272 Y37.2675 F120.00
G01 X7.1388 Y37.2352 F120.00
G01 X7.1471 Y37.2020 F120.00
G01 X7.1521 Y37.1682 F120.00
G01 X7.1538 Y37.1340 F120.00
G00 X7.1538 Y37.1340
G01 F60.00
G01 Z-1.6000
G01 F120.00
G01 X7.1521 Y37.0998 F120.00
G01 X7.1471 Y37.0660 F120.00
G01 X7.1388 Y37.0328 F120.00
G01 X7.1272 Y37.0005 F120.00
G01 X7.1126 Y36.9696 F120.00
G01 X7.0950 Y36.9402 F120.00
G01 X7.0746 Y36.9127 F120.00
G01 X7.0516 Y36.8874 F120.00
G01 X7.0263 Y36.8644 F120.00
G01 X6.9988 Y36.8440 F120.00
G01 X6.9694 Y36.8264 F120.00
G01 X6.9385 Y36.8118 F120.00
G01 X6.9062 Y36.8002 F120.00
G01 X6.8730 Y36.7919 F120.00
G01 X6.8392 Y36.7869 F120.00
G01 X6.8050 Y36.7852 F120.00
G01 X6.7708 Y36.7869 F120.00
G01 X6.7370 Y36.7919 F120.00
G01 X6.7038 Y36.8002 F120.00
G01 X6.6715 Y36.8118 F120.00
G01 X6.6406 Y36.8264 F120.00
G01 X6.6112 Y36.8440 F120.00
G01 X6.5837 Y36.8644 F120.00
G01 X6.5584 Y36.8874 F120.00
G01 X6.5354 Y36.9127 F120.00
G01 X6.5150 Y36.9402 F120.00
G01 X6.4974 Y36.9696 F120.00
G01 X6.4828 Y37.0005 F120.00
G01 X6.4712 Y37.0328 F120.00
G01 X6.4629 Y37.0660 F120.00
G01 X6.4579 Y37.0998 F120.00
G01 X6.4562 Y37.1340 F120.00
G01 X6.4579 Y37.1682 F120.00
G01 X6.4629 Y37.2020 F120.00
G01 X6.4712 Y37.2352 F120.00
G01 X6.4828 Y37.2675 F120.00
G01 X6.4974 Y37.2984 F120.00
G01 X6.5150 Y37.3278 F120.00
G01 X6.5354 Y37.3553 F120.00
G01 X6.5584 Y37.3806 F120.00
G01 X6.5837 Y37.4036 F120.00
G01 X6.6112 Y37.4240 F120.00
G01 X6.6406 Y37.4416 F120.00
G01 X6.6715 Y37.4562 F120.00
G01 X6.7038 Y37.4678 F120.00
G01 X6.7370 Y37.4761 F120.00
G01 X6.7708 Y37.4811 F120.00
G01 X6.8050 Y37.4828 F120.00
G01 X6.8392 Y37.4811 F120.00
G01 X6.8730 Y37.4761 F120.00
G01 X6.9062 Y37.4678 F120.00
G01 X6.9385 Y37.4562 F120.00
G01 X6.9694 Y37.4416 F120.00
G01 X6.9988 Y37.4240 F120.00
G01 X7.0263 Y37.4036 F120.00
G01 X7.0516 Y37.3806 F120.00
G01 X7.0746 Y37.3553 F120.00
G01 X7.0950 Y37.3278 F120.00
G01 X7.1126 Y37.2984 F120.00
G01 X7.1272 Y37.2675 F120.00
G01 X7.1388 Y37.2352 F120.00
G01 X7.1471 Y37.2020 F120.00
G01 X7.1521 Y37.1682 F120.00
G01 X7.1538 Y37.1340 F120.00
G00 X7.1538 Y37.1340
G01 F60.00
G01 Z-2.0000
G01 F120.00
G01 X7.1521 Y37.0998 F120.00
G01 X7.1471 Y37.0660 F120.00
G01 X7.1388 Y37.0328 F120.00
G01 X7.1272 Y37.0005 F120.00
G01 X7.1126 Y36.9696 F120.00
G01 X7.0950 Y36.9402 F120.00
G01 X7.0746 Y36.9127 F120.00
G01 X7.0516 Y36.8874 F120.00
G01 X7.0263 Y36.8644 F120.00
G01 X6.9988 Y36.8440 F120.00
G01 X6.9694 Y36.8264 F120.00
G01 X6.9385 Y36.8118 F120.00
G01 X6.9062 Y36.8002 F120.00
G01 X6.8730 Y36.7919 F120.00
G01 X6.8392 Y36.7869 F120.00
G01 X6.8050 Y36.7852 F120.00
G01 X6.7708 Y36.7869 F120.00
G01 X6.7370 Y36.7919 F120.00
G01 X6.7038 Y36.8002 F120.00
G01 X6.6715 Y36.8118 F120.00
G01 X6.6406 Y36.8264 F120.00
G01 X6.6112 Y36.8440 F120.00
G01 X6.5837 Y36.8644 F120.00
G01 X6.5584 Y36.8874 F120.00
G01 X6.5354 Y36.9127 F120.00
G01 X6.5150 Y36.9402 F120.00
G01 X6.4974 Y36.9696 F120.00
G01 X6.4828 Y37.0005 F120.00
G01 X6.4712 Y37.0328 F120.00
G01 X6.4629 Y37.0660 F120.00
G01 X6.4579 Y37.0998 F120.00
G01 X6.4562 Y37.1340 F120.00
G01 X6.4579 Y37.1682 F120.00
G01 X6.4629 Y37.2020 F120.00
G01 X6.4712 Y37.2352 F120.00
G01 X6.4828 Y37.2675 F120.00
G01 X6.4974 Y37.2984 F120.00
G01 X6.5150 Y37.3278 F120.00
G01 X6.5354 Y37.3553 F120.00
G01 X6.5584 Y37.3806 F120.00
G01 X6.5837 Y37.4036 F120.00
G01 X6.6112 Y37.4240 F120.00
G01 X6.6406 Y37.4416 F120.00
G01 X6.6715 Y37.4562 F120.00
G01 X6.7038 Y37.4678 F120.00
G01 X6.7370 Y37.4761 F120.00
G01 X6.7708 Y37.4811 F120.00
G01 X6.8050 Y37.4828 F120.00
G01 X6.8392 Y37.4811 F120.00
G01 X6.8730 Y37.4761 F120.00
G01 X6.9062 Y37.4678 F120.00
G01 X6.9385 Y37.4562 F120.00
G01 X6.9694 Y37.4416 F120.00
G01 X6.9988 Y37.4240 F120.00
G01 X7.0263 Y37.4036 F120.00
G01 X7.0516 Y37.3806 F120.00
G01 X7.0746 Y37.3553 F120.00
G01 X7.0950 Y37.3278 F120.00
G01 X7.1126 Y37.2984 F120.00
G01 X7.1272 Y37.2675 F120.00
G01 X7.1388 Y37.2352 F120.00
G01 X7.1471 Y37.2020 F120.00
G01 X7.1521 Y37.1682 F120.00
G01 X7.1538 Y37.1340 F120.00
G00 X7.1538 Y37.1340
G01 F60.00
G01 Z-2.4000
G01 F120.00
G01 X7.1521 Y37.0998 F120.00
G01 X7.1471 Y37.0660 F120.00
G01 X7.1388 Y37.0328 F120.00
G01 X7.1272 Y37.0005 F120.00
G01 X7.1126 Y36.9696 F120.00
G01 X7.0950 Y36.9402 F120.00
G01 X7.0746 Y36.9127 F120.00
G01 X7.0516 Y36.8874 F120.00
G01 X7.0263 Y36.8644 F120.00
G01 X6.9988 Y36.8440 F120.00
G01 X6.9694 Y36.8264 F120.00
G01 X6.9385 Y36.8118 F120.00
G01 X6.9062 Y36.8002 F120.00
G01 X6.8730 Y36.7919 F120.00
G01 X6.8392 Y36.7869 F120.00
G01 X6.8050 Y36.7852 F120.00
G01 X6.7708 Y36.7869 F120.00
G01 X6.7370 Y36.7919 F120.00
G01 X6.7038 Y36.8002 F120.00
G01 X6.6715 Y36.8118 F120.00
G01 X6.6406 Y36.8264 F120.00
G01 X6.6112 Y36.8440 F120.00
G01 X6.5837 Y36.8644 F120.00
G01 X6.5584 Y36.8874 F120.00
G01 X6.5354 Y36.9127 F120.00
G01 X6.5150 Y36.9402 F120.00
G01 X6.4974 Y36.9696 F120.00
G01 X6.4828 Y37.0005 F120.00
G01 X6.4712 Y37.0328 F120.00
G01 X6.4629 Y37.0660 F120.00
G01 X6.4579 Y37.0998 F120.00
G01 X6.4562 Y37.1340 F120.00
G01 X6.4579 Y37.1682 F120.00
G01 X6.4629 Y37.2020 F120.00
G01 X6.4712 Y37.2352 F120.00
G01 X6.4828 Y37.2675 F120.00
G01 X6.4974 Y37.2984 F120.00
G01 X6.5150 Y37.3278 F120.00
G01 X6.5354 Y37.3553 F120.00
G01 X6.5584 Y37.3806 F120.00
G01 X6.5837 Y37.4036 F120.00
G01 X6.6112 Y37.4240 F120.00
G01 X6.6406 Y37.4416 F120.00
G01 X6.6715 Y37.4562 F120.00
G01 X6.7038 Y37.4678 F120.00
G01 X6.7370 Y37.4761 F120.00
G01 X6.7708 Y37.4811 F120.00
G01 X6.8050 Y37.4828 F120.00
G01 X6.8392 Y37.4811 F120.00
G01 X6.8730 Y37.4761 F120.00
G01 X6.9062 Y37.4678 F120.00
G01 X6.9385 Y37.4562 F120.00
G01 X6.9694 Y37.4416 F120.00
G01 X6.9988 Y37.4240 F120.00
G01 X7.0263 Y37.4036 F120.00
G01 X7.0516 Y37.3806 F120.00
G01 X7.0746 Y37.3553 F120.00
G01 X7.0950 Y37.3278 F120.00
G01 X7.1126 Y37.2984 F120.00
G01 X7.1272 Y37.2675 F120.00
G01 X7.1388 Y37.2352 F120.00
G01 X7.1471 Y37.2020 F120.00
G01 X7.1521 Y37.1682 F120.00
G01 X7.1538 Y37.1340 F120.00
G00 Z2.0000
G00 X7.1638 Y60.5940
G01 F60.00
G01 Z-0.4000
G01 F120.00
G01 X7.1621 Y60.5598 F120.00
G01 X7.1571 Y60.5260 F120.00
G01 X7.1488 Y60.4928 F120.00
G01 X7.1372 Y60.4605 F120.00
G01 X7.1226 Y60.4296 F120.00
G01 X7.1050 Y60.4002 F120.00
G01 X7.0846 Y60.3727 F120.00
G01 X7.0616 Y60.3474 F120.00
G01 X7.0363 Y60.3244 F120.00
G01 X7.0088 Y60.3040 F120.00
G01 X6.9794 Y60.2864 F120.00
G01 X6.9485 Y60.2718 F120.00
G01 X6.9162 Y60.2602 F120.00
G01 X6.8830 Y60.2519 F120.00
G01 X6.8492 Y60.2469 F120.00
G01 X6.8150 Y60.2452 F120.00
G01 X6.7808 Y60.2469 F120.00
G01 X6.7470 Y60.2519 F120.00
G01 X6.7138 Y60.2602 F120.00
G01 X6.6815 Y60.2718 F120.00
G01 X6.6506 Y60.2864 F120.00
G01 X6.6212 Y60.3040 F120.00
G01 X6.5937 Y60.3244 F120.00
G01 X6.5684 Y60.3474 F120.00
G01 X6.5454 Y60.3727 F120.00
G01 X6.5250 Y60.4002 F120.00
G01 X6.5074 Y60.4296 F120.00
G01 X6.4928 Y60.4605 F120.00
G01 X6.4812 Y60.4928 F120.00
G01 X6.4729 Y60.5260 F120.00
G01 X6.4679 Y60.5598 F120.00
G01 X6.4662 Y60.5940 F120.00
G01 X6.4679 Y60.6282 F120.00
G01 X6.4729 Y60.6620 F120.00
G01 X6.4812 Y60.6952 F120.00
G01 X6.4928 Y60.7275 F120.00
G01 X6.5074 Y60.7584 F120.00
G01 X6.5250 Y60.7878 F120.00
G01 X6.5454 Y60.8153 F120.00
G01 X6.5684 Y60.8406 F120.00
G01 X6.5937 Y60.8636 F120.00
G01 X6.6212 Y60.8840 F120.00
G01 X6.6506 Y60.9016 F120.00
G01 X6.6815 Y60.9162 F120.00
G01 X6.7138 Y60.9278 F120.00
G01 X6.7470 Y60.9361 F120.00
G01 X6.7808 Y60.9411 F120.00
G01 X6.8150 Y60.9428 F120.00
G01 X6.8492 Y60.9411 F120.00
G01 X6.8830 Y60.9361 F120.00
G01 X6.9162 Y60.9278 F120.00
G01 X6.9485 Y60.9162 F120.00
G01 X6.9794 Y60.9016 F120.00
G01 X7.0088 Y60.8840 F120.00
G01 X7.0363 Y60.8636 F120.00
G01 X7.0616 Y60.8406 F120.00
G01 X7.0846 Y60.8153 F120.00
G01 X7.1050 Y60.7878 F120.00
G01 X7.1226 Y60.7584 F120.00
G01 X7.1372 Y60.7275 F120.00
G01 X7.1488 Y60.6952 F120.00
G01 X7.1571 Y60.6620 F120.00
G01 X7.1621 Y60.6282 F120.00
G01 X7.1638 Y60.5940 F120.00
G00 X7.1638 Y60.5940
G01 F60.00
G01 Z-0.8000
G01 F120.00
G01 X7.1621 Y60.5598 F120.00
G01 X7.1571 Y60.5260 F120.00
G01 X7.1488 Y60.4928 F120.00
G01 X7.1372 Y60.4605 F120.00
G01 X7.1226 Y60.4296 F120.00
G01 X7.1050 Y60.4002 F120.00
G01 X7.0846 Y60.3727 F120.00
G01 X7.0616 Y60.3474 F120.00
G01 X7.0363 Y60.3244 F120.00
G01 X7.0088 Y60.3040 F120.00
G01 X6.9794 Y60.2864 F120.00
G01 X6.9485 Y60.2718 F120.00
G01 X6.9162 Y60.2602 F120.00
G01 X6.8830 Y60.2519 F120.00
G01 X6.8492 Y60.2469 F120.00
G01 X6.8150 Y60.2452 F120.00
G01 X6.7808 Y60.2469 F120.00
G01 X6.7470 Y60.2519 F120.00
G01 X6.7138 Y60.2602 F120.00
G01 X6.6815 Y60.2718 F120.00
G01 X6.6506 Y60.2864 F120.00
G01 X6.6212 Y60.3040 F120.00
G01 X6.5937 Y60.3244 F120.00
G01 X6.5684 Y60.3474 F120.00
G01 X6.5454 Y60.3727 F120.00
G01 X6.5250 Y60.4002 F120.00
G01 X6.5074 Y60.4296 F120.00
G01 X6.4928 Y60.4605 F120.00
G01 X6.4812 Y60.4928 F120.00
G01 X6.4729 Y60.5260 F120.00
G01 X6.4679 Y60.5598 F120.00
G01 X6.4662 Y60.5940 F120.00
G01 X6.4679 Y60.6282 F120.00
G01 X6.4729 Y60.6620 F120.00
G01 X6.4812 Y60.6952 F120.00
G01 X6.4928 Y60.7275 F120.00
G01 X6.5074 Y60.7584 F120.00
G01 X6.5250 Y60.7878 F120.00
G01 X6.5454 Y60.8153 F120.00
G01 X6.5684 Y60.8406 F120.00
G01 X6.5937 Y60.8636 F120.00
G01 X6.6212 Y60.8840 F120.00
G01 X6.6506 Y60.9016 F120.00
G01 X6.6815 Y60.9162 F120.00
G01 X6.7138 Y60.9278 F120.00
G01 X6.7470 Y60.9361 F120.00
G01 X6.7808 Y60.9411 F120.00
G01 X6.8150 Y60.9428 F120.00
G01 X6.8492 Y60.9411 F120.00
G01 X6.8830 Y60.9361 F120.00
G01 X6.9162 Y60.9278 F120.00
G01 X6.9485 Y60.9162 F120.00
G01 X6.9794 Y60.9016 F120.00
G01 X7.0088 Y60.8840 F120.00
G01 X7.0363 Y60.8636 F120.00
G01 X7.0616 Y60.8406 F120.00
G01 X7.0846 Y60.8153 F120.00
G01 X7.1050 Y60.7878 F120.00
G01 X7.1226 Y60.7584 F120.00
G01 X7.1372 Y60.7275 F120.00
G01 X7.1488 Y60.6952 F120.00
G01 X7.1571 Y60.6620 F120.00
G01 X7.1621 Y60.6282 F120.00
G01 X7.1638 Y60.5940 F120.00
G00 X7.1638 Y60.5940
G01 F60.00
G01 Z-1.2000
G01 F120.00
G01 X7.1621 Y60.5598 F120.00
G01 X7.1571 Y60.5260 F120.00
G01 X7.1488 Y60.4928 F120.00
G01 X7.1372 Y60.4605 F120.00
G01 X7.1226 Y60.4296 F120.00
G01 X7.1050 Y60.4002 F120.00
G01 X7.0846 Y60.3727 F120.00
G01 X7.0616 Y60.3474 F120.00
G01 X7.0363 Y60.3244 F120.00
G01 X7.0088 Y60.3040 F120.00
G01 X6.9794 Y60.2864 F120.00
G01 X6.9485 Y60.2718 F120.00
G01 X6.9162 Y60.2602 F120.00
G01 X6.8830 Y60.2519 F120.00
G01 X6.8492 Y60.2469 F120.00
G01 X6.8150 Y60.2452 F120.00
G01 X6.7808 Y60.2469 F120.00
G01 X6.7470 Y60.2519 F120.00
G01 X6.7138 Y60.2602 F120.00
G01 X6.6815 Y60.2718 F120.00
G01 X6.6506 Y60.2864 F120.00
G01 X6.6212 Y60.3040 F120.00
G01 X6.5937 Y60.3244 F120.00
G01 X6.5684 Y60.3474 F120.00
G01 X6.5454 Y60.3727 F120.00
G01 X6.5250 Y60.4002 F120.00
G01 X6.5074 Y60.4296 F120.00
G01 X6.4928 Y60.4605 F120.00
G01 X6.4812 Y60.4928 F120.00
G01 X6.4729 Y60.5260 F120.00
G01 X6.4679 Y60.5598 F120.00
G01 X6.4662 Y60.5940 F120.00
G01 X6.4679 Y60.6282 F120.00
G01 X6.4729 Y60.6620 F120.00
G01 X6.4812 Y60.6952 F120.00
G01 X6.4928 Y60.7275 F120.00
G01 X6.5074 Y60.7584 F120.00
G01 X6.5250 Y60.7878 F120.00
G01 X6.5454 Y60.8153 F120.00
G01 X6.5684 Y60.8406 F120.00
G01 X6.5937 Y60.8636 F120.00
G01 X6.6212 Y60.8840 F120.00
G01 X6.6506 Y60.9016 F120.00
G01 X6.6815 Y60.9162 F120.00
G01 X6.7138 Y60.9278 F120.00
G01 X6.7470 Y60.9361 F120.00
G01 X6.7808 Y60.9411 F120.00
G01 X6.8150 Y60.9428 F120.00
G01 X6.8492 Y60.9411 F120.00
G01 X6.8830 Y60.9361 F120.00
G01 X6.9162 Y60.9278 F120.00
G01 X6.9485 Y60.9162 F120.00
G01 X6.9794 Y60.9016 F120.00
G01 X7.0088 Y60.8840 F120.00
G01 X7.0363 Y60.8636 F120.00
G01 X7.0616 Y60.8406 F120.00
G01 X7.0846 Y60.8153 F120.00
G01 X7.1050 Y60.7878 F120.00
G01 X7.1226 Y60.7584 F120.00
G01 X7.1372 Y60.7275 F120.00
G01 X7.1488 Y60.6952 F120.00
G01 X7.1571 Y60.6620 F120.00
G01 X7.1621 Y60.6282 F120.00
G01 X7.1638 Y60.5940 F120.00
G00 X7.1638 Y60.5940
G01 F60.00
G01 Z-1.6000
G01 F120.00
G01 X7.1621 Y60.5598 F120.00
G01 X7.1571 Y60.5260 F120.00
G01 X7.1488 Y60.4928 F120.00
G01 X7.1372 Y60.4605 F120.00
G01 X7.1226 Y60.4296 F120.00
G01 X7.1050 Y60.4002 F120.00
G01 X7.0846 Y60.3727 F120.00
G01 X7.0616 Y60.3474 F120.00
G01 X7.0363 Y60.3244 F120.00
G01 X7.0088 Y60.3040 F120.00
G01 X6.9794 Y60.2864 F120.00
G01 X6.9485 Y60.2718 F120.00
G01 X6.9162 Y60.2602 F120.00
G01 X6.8830 Y60.2519 F120.00
G01 X6.8492 Y60.2469 F120.00
G01 X6.8150 Y60.2452 F120.00
G01 X6.7808 Y60.2469 F120.00
G01 X6.7470 Y60.2519 F120.00
G01 X6.7138 Y60.2602 F120.00
G01 X6.6815 Y60.2718 F120.00
G01 X6.6506 Y60.2864 F120.00
G01 X6.6212 Y60.3040 F120.00
G01 X6.5937 Y60.3244 F120.00
G01 X6.5684 Y60.3474 F120.00
G01 X6.5454 Y60.3727 F120.00
G01 X6.5250 Y60.4002 F120.00
G01 X6.5074 Y60.4296 F120.00
G01 X6.4928 Y60.4605 F120.00
G01 X6.4812 Y60.4928 F120.00
G01 X6.4729 Y60.5260 F120.00
G01 X6.4679 Y60.5598 F120.00
G01 X6.4662 Y60.5940 F120.00
G01 X6.4679 Y60.6282 F120.00
G01 X6.4729 Y60.6620 F120.00
G01 X6.4812 Y60.6952 F120.00
G01 X6.4928 Y60.7275 F120.00
G01 X6.5074 Y60.7584 F120.00
G01 X6.5250 Y60.7878 F120.00
G01 X6.5454 Y60.8153 F120.00
G01 X6.5684 Y60.8406 F120.00
G01 X6.5937 Y60.8636 F120.00
G01 X6.6212 Y60.8840 F120.00
G01 X6.6506 Y60.9016 F120.00
G01 X6.6815 Y60.9162 F120.00
G01 X6.7138 Y60.9278 F120.00
G01 X6.7470 Y60.9361 F120.00
G01 X6.7808 Y60.9411 F120.00
G01 X6.8150 Y60.9428 F120.00
G01 X6.8492 Y60.9411 F120.00
G01 X6.8830 Y60.9361 F120.00
G01 X6.9162 Y60.9278 F120.00
G01 X6.9485 Y60.9162 F120.00
G01 X6.9794 Y60.9016 F120.00
G01 X7.0088 Y60.8840 F120.00
G01 X7.0363 Y60.8636 F120.00
G01 X7.0616 Y60.8406 F120.00
G01 X7.0846 Y60.8153 F120.00
G01 X7.1050 Y60.7878 F120.00
G01 X7.1226 Y60.7584 F120.00
G01 X7.1372 Y60.7275 F120.00
G01 X7.1488 Y60.6952 F120.00
G01 X7.1571 Y60.6620 F120.00
G01 X7.1621 Y60.6282 F120.00
G01 X7.1638 Y60.5940 F120.00
G00 X7.1638 Y60.5940
G01 F60.00
G01 Z-2.0000
G01 F120.00
G01 X7.1621 Y60.5598 F120.00
G01 X7.1571 Y60.5260 F120.00
G01 X7.1488 Y60.4928 F120.00
G01 X7.1372 Y60.4605 F120.00
G01 X7.1226 Y60.4296 F120.00
G01 X7.1050 Y60.4002 F120.00
G01 X7.0846 Y60.3727 F120.00
G01 X7.0616 Y60.3474 F120.00
G01 X7.0363 Y60.3244 F120.00
G01 X7.0088 Y60.3040 F120.00
G01 X6.9794 Y60.2864 F120.00
G01 X6.9485 Y60.2718 F120.00
G01 X6.9162 Y60.2602 F120.00
G01 X6.8830 Y60.2519 F120.00
G01 X6.8492 Y60.2469 F120.00
G01 X6.8150 Y60.2452 F120.00
G01 X6.7808 Y60.2469 F120.00
G01 X6.7470 Y60.2519 F120.00
G01 X6.7138 Y60.2602 F120.00
G01 X6.6815 Y60.2718 F120.00
G01 X6.6506 Y60.2864 F120.00
G01 X6.6212 Y60.3040 F120.00
G01 X6.5937 Y60.3244 F120.00
G01 X6.5684 Y60.3474 F120.00
G01 X6.5454 Y60.3727 F120.00
G01 X6.5250 Y60.4002 F120.00
G01 X6.5074 Y60.4296 F120.00
G01 X6.4928 Y60.4605 F120.00
G01 X6.4812 Y60.4928 F120.00
G01 X6.4729 Y60.5260 F120.00
G01 X6.4679 Y60.5598 F120.00
G01 X6.4662 Y60.5940 F120.00
G01 X6.4679 Y60.6282 F120.00
G01 X6.4729 Y60.6620 F120.00
G01 X6.4812 Y60.6952 F120.00
G01 X6.4928 Y60.7275 F120.00
G01 X6.5074 Y60.7584 F120.00
G01 X6.5250 Y60.7878 F120.00
G01 X6.5454 Y60.8153 F120.00
G01 X6.5684 Y60.8406 F120.00
G01 X6.5937 Y60.8636 F120.00
G01 X6.6212 Y60.8840 F120.00
G01 X6.6506 Y60.9016 F120.00
G01 X6.6815 Y60.9162 F120.00
G01 X6.7138 Y60.9278 F120.00
G01 X6.7470 Y60.9361 F120.00
G01 X6.7808 Y60.9411 F120.00
G01 X6.8150 Y60.9428 F120.00
G01 X6.8492 Y60.9411 F120.00
G01 X6.8830 Y60.9361 F120.00
G01 X6.9162 Y60.9278 F120.00
G01 X6.9485 Y60.9162 F120.00
G01 X6.9794 Y60.9016 F120.00
G01 X7.0088 Y60.8840 F120.00
G01 X7.0363 Y60.8636 F120.00
G01 X7.0616 Y60.8406 F120.00
G01 X7.0846 Y60.8153 F120.00
G01 X7.1050 Y60.7878 F120.00
G01 X7.1226 Y60.7584 F120.00
G01 X7.1372 Y60.7275 F120.00
G01 X7.1488 Y60.6952 F120.00
G01 X7.1571 Y60.6620 F120.00
G01 X7.1621 Y60.6282 F120.00
G01 X7.1638 Y60.5940 F120.00
G00 X7.1638 Y60.5940
G01 F60.00
G01 Z-2.4000
G01 F120.00
G01 X7.1621 Y60.5598 F120.00
G01 X7.1571 Y60.5260 F120.00
G01 X7.1488 Y60.4928 F120.00
G01 X7.1372 Y60.4605 F120.00
G01 X7.1226 Y60.4296 F120.00
G01 X7.1050 Y60.4002 F120.00
G01 X7.0846 Y60.3727 F120.00
G01 X7.0616 Y60.3474 F120.00
G01 X7.0363 Y60.3244 F120.00
G01 X7.0088 Y60.3040 F120.00
G01 X6.9794 Y60.2864 F120.00
G01 X6.9485 Y60.2718 F120.00
G01 X6.9162 Y60.2602 F120.00
G01 X6.8830 Y60.2519 F120.00
G01 X6.8492 Y60.2469 F120.00
G01 X6.8150 Y60.2452 F120.00
G01 X6.7808 Y60.2469 F120.00
G01 X6.7470 Y60.2519 F120.00
G01 X6.7138 Y60.2602 F120.00
G01 X6.6815 Y60.2718 F120.00
G01 X6.6506 Y60.2864 F120.00
G01 X6.6212 Y60.3040 F120.00
G01 X6.5937 Y60.3244 F120.00
G01 X6.5684 Y60.3474 F120.00
G01 X6.5454 Y60.3727 F120.00
G01 X6.5250 Y60.4002 F120.00
G01 X6.5074 Y60.4296 F120.00
G01 X6.4928 Y60.4605 F120.00
G01 X6.4812 Y60.4928 F120.00
G01 X6.4729 Y60.5260 F120.00
G01 X6.4679 Y60.5598 F120.00
G01 X6.4662 Y60.5940 F120.00
G01 X6.4679 Y60.6282 F120.00
G01 X6.4729 Y60.6620 F120.00
G01 X6.4812 Y60.6952 F120.00
G01 X6.4928 Y60.7275 F120.00
G01 X6.5074 Y60.7584 F120.00
G01 X6.5250 Y60.7878 F120.00
G01 X6.5454 Y60.8153 F120.00
G01 X6.5684 Y60.8406 F120.00
G01 X6.5937 Y60.8636 F120.00
G01 X6.6212 Y60.8840 F120.00
G01 X6.6506 Y60.9016 F120.00
G01 X6.6815 Y60.9162 F120.00
G01 X6.7138 Y60.9278 F120.00
G01 X6.7470 Y60.9361 F120.00
G01 X6.7808 Y60.9411 F120.00
G01 X6.8150 Y60.9428 F120.00
G01 X6.8492 Y60.9411 F120.00
G01 X6.8830 Y60.9361 F120.00
G01 X6.9162 Y60.9278 F120.00
G01 X6.9485 Y60.9162 F120.00
G01 X6.9794 Y60.9016 F120.00
G01 X7.0088 Y60.8840 F120.00
G01 X7.0363 Y60.8636 F120.00
G01 X7.0616 Y60.8406 F120.00
G01 X7.0846 Y60.8153 F120.00
G01 X7.1050 Y60.7878 F120.00
G01 X7.1226 Y60.7584 F120.00
G01 X7.1372 Y60.7275 F120.00
G01 X7.1488 Y60.6952 F120.00
G01 X7.1571 Y60.6620 F120.00
G01 X7.1621 Y60.6282 F120.00
G01 X7.1638 Y60.5940 F120.00
G00 Z2.0000
G00 X5.8488 Y71.0000
G01 F60.00
G01 Z-0.4000
G01 F120.00
G01 X5.8459 Y70.9413 F120.00
G01 X5.8373 Y70.8832 F120.00
G01 X5.8230 Y70.8262 F120.00
G01 X5.8032 Y70.7709 F120.00
G01 X5.7781 Y70.7177 F120.00
G01 X5.7479 Y70.6673 F120.00
G01 X5.7129 Y70.6201 F120.00
G01 X5.6734 Y70.5766 F120.00
G01 X5.6299 Y70.5371 F120.00
G01 X5.5827 Y70.5021 F120.00
G01 X5.5323 Y70.4719 F120.00
G01 X5.4791 Y70.4468 F120.00
G01 X5.4238 Y70.4270 F120.00
G01 X5.3668 Y70.4127 F120.00
G01 X5.3087 Y70.4041 F120.00
G01 X5.2500 Y70.4012 F120.00
G01 X5.1913 Y70.4041 F120.00
G01 X5.1332 Y70.4127 F120.00
G01 X5.0762 Y70.4270 F120.00
G01 X5.0209 Y70.4468 F120.00
G01 X4.9677 Y70.4719 F120.00
G01 X4.9173 Y70.5021 F120.00
G01 X4.8701 Y70.5371 F120.00
G01 X4.8266 Y70.5766 F120.00
G01 X4.7871 Y70.6201 F120.00
G01 X4.7521 Y70.6673 F120.00
G01 X4.7219 Y70.7177 F120.00
G01 X4.6968 Y70.7709 F120.00
G01 X4.6770 Y70.8262 F120.00
G01 X4.6627 Y70.8832 F120.00
G01 X4.6541 Y70.9413 F120.00
G01 X4.6512 Y71.0000 F120.00
G01 X4.6541 Y71.0587 F120.00
G01 X4.6627 Y71.1168 F120.00
G01 X4.6770 Y71.1738 F120.00
G01 X4.6968 Y71.2291 F120.00
G01 X4.7219 Y71.2823 F120.00
G01 X4.7521 Y71.3327 F120.00
G01 X4.7871 Y71.3799 F120.00
G01 X4.8266 Y71.4234 F120.00
G01 X4.8701 Y71.4629 F120.00
G01 X4.9173 Y71.4979 F120.00
G01 X4.9677 Y71.5281 F120.00
G01 X5.0209 Y71.5532 F120.00
G01 X5.0762 Y71.5730 F120.00
G01 X5.1332 Y71.5873 F120.00
G01 X5.1913 Y71.5959 F120.00
G01 X5.2500 Y71.5988 F120.00
G01 X5.3087 Y71.5959 F120.00
G01 X5.3668 Y71.5873 F120.00
G01 X5.4238 Y71.5730 F120.00
G01 X5.4791 Y71.5532 F120.00
G01 X5.5323 Y71.5281 F120.00
G01 X5.5827 Y71.4979 F120.00
G01 X5.6299 Y71.4629 F120.00
G01 X5.6734 Y71.4234 F120.00
G01 X5.7129 Y71.3799 F120.00
G01 X5.7479 Y71.3327 F120.00
G01 X5.7781 Y71.2823 F120.00
G01 X5.8032 Y71.2291 F120.00
G01 X5.8230 Y71.1738 F120.00
G01 X5.8373 Y71.1168 F120.00
G01 X5.8459 Y71.0587 F120.00
G01 X5.8488 Y71.0000 F120.00
G00 X5.8488 Y71.0000
G01 F60.00
G01 Z-0.8000
G01 F120.00
G01 X5.8459 Y70.9413 F120.00
G01 X5.8373 Y70.8832 F120.00
G01 X5.8230 Y70.8262 F120.00
G01 X5.8032 Y70.7709 F120.00
G01 X5.7781 Y70.7177 F120.00
G01 X5.7479 Y70.6673 F120.00
G01 X5.7129 Y70.6201 F120.00
G01 X5.6734 Y70.5766 F120.00
G01 X5.6299 Y70.5371 F120.00
G01 X5.5827 Y70.5021 F120.00
G01 X5.5323 Y70.4719 F120.00
G01 X5.4791 Y70.4468 F120.00
G01 X5.4238 Y70.4270 F120.00
G01 X5.3668 Y70.4127 F120.00
G01 X5.3087 Y70.4041 F120.00
G01 X5.2500 Y70.4012 F120.00
G01 X5.1913 Y70.4041 F120.00
G01 X5.1332 Y70.4127 F120.00
G01 X5.0762 Y70.4270 F120.00
G01 X5.0209 Y70.4468 F120.00
G01 X4.9677 Y70.4719 F120.00
G01 X4.9173 Y70.5021 F120.00
G01 X4.8701 Y70.5371 F120.00
G01 X4.8266 Y70.5766 F120.00
G01 X4.7871 Y70.6201 F120.00
G01 X4.7521 Y70.6673 F120.00
G01 X4.7219 Y70.7177 F120.00
G01 X4.6968 Y70.7709 F120.00
G01 X4.6770 Y70.8262 F120.00
G01 X4.6627 Y70.8832 F120.00
G01 X4.6541 Y70.9413 F120.00
G01 X4.6512 Y71.0000 F120.00
G01 X4.6541 Y71.0587 F120.00
G01 X4.6627 Y71.1168 F120.00
G01 X4.6770 Y71.1738 F120.00
G01 X4.6968 Y71.2291 F120.00
G01 X4.7219 Y71.2823 F120.00
G01 X4.7521 Y71.3327 F120.00
G01 X4.7871 Y71.3799 F120.00
G01 X4.8266 Y71.4234 F120.00
G01 X4.8701 Y71.4629 F120.00
G01 X4.9173 Y71.4979 F120.00
G01 X4.9677 Y71.5281 F120.00
G01 X5.0209 Y71.5532 F120.00
G01 X5.0762 Y71.5730 F120.00
G01 X5.1332 Y71.5873 F120.00
G01 X5.1913 Y71.5959 F120.00
G01 X5.2500 Y71.5988 F120.00
G01 X5.3087 Y71.5959 F120.00
G01 X5.3668 Y71.5873 F120.00
G01 X5.4238 Y71.5730 F120.00
G01 X5.4791 Y71.5532 F120.00
G01 X5.5323 Y71.5281 F120.00
G01 X5.5827 Y71.4979 F120.00
G01 X5.6299 Y71.4629 F120.00
G01 X5.6734 Y71.4234 F120.00
G01 X5.7129 Y71.3799 F120.00
G01 X5.7479 Y71.3327 F120.00
G01 X5.7781 Y71.2823 F120.00
G01 X5.8032 Y71.2291 F120.00
G01 X5.8230 Y71.1738 F120.00
G01 X5.8373 Y71.1168 F120.00
G01 X5.8459 Y71.0587 F120.00
G01 X5.8488 Y71.0000 F120.00
G00 X5.8488 Y71.0000
G01 F60.00
G01 Z-1.2000
G01 F120.00
G01 X5.8459 Y70.9413 F120.00
G01 X5.8373 Y70.8832 F120.00
G01 X5.8230 Y70.8262 F120.00
G01 X5.8032 Y70.7709 F120.00
G01 X5.7781 Y70.7177 F120.00
G01 X5.7479 Y70.6673 F120.00
G01 X5.7129 Y70.6201 F120.00
G01 X5.6734 Y70.5766 F120.00
G01 X5.6299 Y70.5371 F120.00
G01 X5.5827 Y70.5021 F120.00
G01 X5.5323 Y70.4719 F120.00
G01 X5.4791 Y70.4468 F120.00
G01 X5.4238 Y70.4270 F120.00
G01 X5.3668 Y70.4127 F120.00
G01 X5.3087 Y70.4041 F120.00
G01 X5.2500 Y70.4012 F120.00
G01 X5.1913 Y70.4041 F120.00
G01 X5.1332 Y70.4127 F120.00
G01 X5.0762 Y70.4270 F120.00
G01 X5.0209 Y70.4468 F120.00
G01 X4.9677 Y70.4719 F120.00
G01 X4.9173 Y70.5021 F120.00
G01 X4.8701 Y70.5371 F120.00
G01 X4.8266 Y70.5766 F120.00
G01 X4.7871 Y70.6201 F120.00
G01 X4.7521 Y70.6673 F120.00
G01 X4.7219 Y70.7177 F120.00
G01 X4.6968 Y70.7709 F120.00
G01 X4.6770 Y70.8262 F120.00
G01 X4.6627 Y70.8832 F120.00
G01 X4.6541 Y70.9413 F120.00
G01 X4.6512 Y71.0000 F120.00
G01 X4.6541 Y71.0587 F120.00
G01 X4.6627 Y71.1168 F120.00
G01 X4.6770 Y71.1738 F120.00
G01 X4.6968 Y71.2291 F120.00
G01 X4.7219 Y71.2823 F120.00
G01 X4.7521 Y71.3327 F120.00
G01 X4.7871 Y71.3799 F120.00
G01 X4.8266 Y71.4234 F120.00
G01 X4.8701 Y71.4629 F120.00
G01 X4.9173 Y71.4979 F120.00
G01 X4.9677 Y71.5281 F120.00
G01 X5.0209 Y71.5532 F120.00
G01 X5.0762 Y71.5730 F120.00
G01 X5.1332 Y71.5873 F120.00
G01 X5.1913 Y71.5959 F120.00
G01 X5.2500 Y71.5988 F120.00
G01 X5.3087 Y71.5959 F120.00
G01 X5.3668 Y71.5873 F120.00
G01 X5.4238 Y71.5730 F120.00
G01 X5.4791 Y71.5532 F120.00
G01 X5.5323 Y71.5281 F120.00
G01 X5.5827 Y71.4979 F120.00
G01 X5.6299 Y71.4629 F120.00
G01 X5.6734 Y71.4234 F120.00
G01 X5.7129 Y71.3799 F120.00
G01 X5.7479 Y71.3327 F120.00
G01 X5.7781 Y71.2823 F120.00
G01 X5.8032 Y71.2291 F120.00
G01 X5.8230 Y71.1738 F120.00
G01 X5.8373 Y71.1168 F120.00
G01 X5.8459 Y71.0587 F120.00
G01 X5.8488 Y71.0000 F120.00
G00 X5.8488 Y71.0000
G01 F60.00
G01 Z-1.6000
G01 F120.00
G01 X5.8459 Y70.9413 F120.00
G01 X5.8373 Y70.8832 F120.00
G01 X5.8230 Y70.8262 F120.00
G01 X5.8032 Y70.7709 F120.00
G01 X5.7781 Y70.7177 F120.00
G01 X5.7479 Y70.6673 F120.00
G01 X5.7129 Y70.6201 F120.00
G01 X5.6734 Y70.5766 F120.00
G01 X5.6299 Y70.5371 F120.00
G01 X5.5827 Y70.5021 F120.00
G01 X5.5323 Y70.4719 F120.00
G01 X5.4791 Y70.4468 F120.00
G01 X5.4238 Y70.4270 F120.00
G01 X5.3668 Y70.4127 F120.00
G01 X5.3087 Y70.4041 F120.00
G01 X5.2500 Y70.4012 F120.00
G01 X5.1913 Y70.4041 F120.00
G01 X5.1332 Y70.4127 F120.00
G01 X5.0762 Y70.4270 F120.00
G01 X5.0209 Y70.4468 F120.00
G01 X4.9677 Y70.4719 F120.00
G01 X4.9173 Y70.5021 F120.00
G01 X4.8701 Y70.5371 F120.00
G01 X4.8266 Y70.5766 F120.00
G01 X4.7871 Y70.6201 F120.00
G01 X4.7521 Y70.6673 F120.00
G01 X4.7219 Y70.7177 F120.00
G01 X4.6968 Y70.7709 F120.00
G01 X4.6770 Y70.8262 F120.00
G01 X4.6627 Y70.8832 F120.00
G01 X4.6541 Y70.9413 F120.00
G01 X4.6512 Y71.0000 F120.00
G01 X4.6541 Y71.0587 F120.00
G01 X4.6627 Y71.1168 F120.00
G01 X4.6770 Y71.1738 F120.00
G01 X4.6968 Y71.2291 F120.00
G01 X4.7219 Y71.2823 F120.00
G01 X4.7521 Y71.3327 F120.00
G01 X4.7871 Y71.3799 F120.00
G01 X4.8266 Y71.4234 F120.00
G01 X4.8701 Y71.4629 F120.00
G01 X4.9173 Y71.4979 F120.00
G01 X4.9677 Y71.5281 F120.00
G01 X5.0209 Y71.5532 F120.00
G01 X5.0762 Y71.5730 F120.00
G01 X5.1332 Y71.5873 F120.00
G01 X5.1913 Y71.5959 F120.00
G01 X5.2500 Y71.5988 F120.00
G01 X5.3087 Y71.5959 F120.00
G01 X5.3668 Y71.5873 F120.00
G01 X5.4238 Y71.5730 F120.00
G01 X5.4791 Y71.5532 F120.00
G01 X5.5323 Y71.5281 F120.00
G01 X5.5827 Y71.4979 F120.00
G01 X5.6299 Y71.4629 F120.00
G01 X5.6734 Y71.4234 F120.00
G01 X5.7129 Y71.3799 F120.00
G01 X5.7479 Y71.3327 F120.00
G01 X5.7781 Y71.2823 F120.00
G01 X5.8032 Y71.2291 F120.00
G01 X5.8230 Y71.1738 F120.00
G01 X5.8373 Y71.1168 F120.00
G01 X5.8459 Y71.0587 F120.00
G01 X5.8488 Y71.0000 F120.00
G00 X5.8488 Y71.0000
G01 F60.00
G01 Z-2.0000
G01 F120.00
G01 X5.8459 Y70.9413 F120.00
G01 X5.8373 Y70.8832 F120.00
G01 X5.8230 Y70.8262 F120.00
G01 X5.8032 Y70.7709 F120.00
G01 X5.7781 Y70.7177 F120.00
G01 X5.7479 Y70.6673 F120.00
G01 X5.7129 Y70.6201 F120.00
G01 X5.6734 Y70.5766 F120.00
G01 X5.6299 Y70.5371 F120.00
G01 X5.5827 Y70.5021 F120.00
G01 X5.5323 Y70.4719 F120.00
G01 X5.4791 Y70.4468 F120.00
G01 X5.4238 Y70.4270 F120.00
G01 X5.3668 Y70.4127 F120.00
G01 X5.3087 Y70.4041 F120.00
G01 X5.2500 Y70.4012 F120.00
G01 X5.1913 Y70.4041 F120.00
G01 X5.1332 Y70.4127 F120.00
G01 X5.0762 Y70.4270 F120.00
G01 X5.0209 Y70.4468 F120.00
G01 X4.9677 Y70.4719 F120.00
G01 X4.9173 Y70.5021 F120.00
G01 X4.8701 Y70.5371 F120.00
G01 X4.8266 Y70.5766 F120.00
G01 X4.7871 Y70.6201 F120.00
G01 X4.7521 Y70.6673 F120.00
G01 X4.7219 Y70.7177 F120.00
G01 X4.6968 Y70.7709 F120.00
G01 X4.6770 Y70.8262 F120.00
G01 X4.6627 Y70.8832 F120.00
G01 X4.6541 Y70.9413 F120.00
G01 X4.6512 Y71.0000 F120.00
G01 X4.6541 Y71.0587 F120.00
G01 X4.6627 Y71.1168 F120.00
G01 X4.6770 Y71.1738 F120.00
G01 X4.6968 Y71.2291 F120.00
G01 X4.7219 Y71.2823 F120.00
G01 X4.7521 Y71.3327 F120.00
G01 X4.7871 Y71.3799 F120.00
G01 X4.8266 Y71.4234 F120.00
G01 X4.8701 Y71.4629 F120.00
G01 X4.9173 Y71.4979 F120.00
G01 X4.9677 Y71.5281 F120.00
G01 X5.0209 Y71.5532 F120.00
G01 X5.0762 Y71.5730 F120.00
G01 X5.1332 Y71.5873 F120.00
G01 X5.1913 Y71.5959 F120.00
G01 X5.2500 Y71.5988 F120.00
G01 X5.3087 Y71.5959 F120.00
G01 X5.3668 Y71.5873 F120.00
G01 X5.4238 Y71.5730 F120.00
G01 X5.4791 Y71.5532 F120.00
G01 X5.5323 Y71.5281 F120.00
G01 X5.5827 Y71.4979 F120.00
G01 X5.6299 Y71.4629 F120.00
G01 X5.6734 Y71.4234 F120.00
G01 X5.7129 Y71.3799 F120.00
G01 X5.7479 Y71.3327 F120.00
G01 X5.7781 Y71.2823 F120.00
G01 X5.8032 Y71.2291 F120.00
G01 X5.8230 Y71.1738 F120.00
G01 X5.8373 Y71.1168 F120.00
G01 X5.8459 Y71.0587 F120.00
G01 X5.8488 Y71.0000 F120.00
G00 X5.8488 Y71.0000
G01 F60.00
G01 Z-2.4000
G01 F120.00
G01 X5.8459 Y70.9413 F120.00
G01 X5.8373 Y70.8832 F120.00
G01 X5.8230 Y70.8262 F120.00
G01 X5.8032 Y70.7709 F120.00
G01 X5.7781 Y70.7177 F120.00
G01 X5.7479 Y70.6673 F120.00
G01 X5.7129 Y70.6201 F120.00
G01 X5.6734 Y70.5766 F120.00
G01 X5.6299 Y70.5371 F120.00
G01 X5.5827 Y70.5021 F120.00
G01 X5.5323 Y70.4719 F120.00
G01 X5.4791 Y70.4468 F120.00
G01 X5.4238 Y70.4270 F120.00
G01 X5.3668 Y70.4127 F120.00
G01 X5.3087 Y70.4041 F120.00
G01 X5.2500 Y70.4012 F120.00
G01 X5.1913 Y70.4041 F120.00
G01 X5.1332 Y70.4127 F120.00
G01 X5.0762 Y70.4270 F120.00
G01 X5.0209 Y70.4468 F120.00
G01 X4.9677 Y70.4719 F120.00
G01 X4.9173 Y70.5021 F120.00
G01 X4.8701 Y70.5371 F120.00
G01 X4.8266 Y70.5766 F120.00
G01 X4.7871 Y70.6201 F120.00
G01 X4.7521 Y70.6673 F120.00
G01 X4.7219 Y70.7177 F120.00
G01 X4.6968 Y70.7709 F120.00
G01 X4.6770 Y70.8262 F120.00
G01 X4.6627 Y70.8832 F120.00
G01 X4.6541 Y70.9413 F120.00
G01 X4.6512 Y71.0000 F120.00
G01 X4.6541 Y71.0587 F120.00
G01 X4.6627 Y71.1168 F120.00
G01 X4.6770 Y71.1738 F120.00
G01 X4.6968 Y71.2291 F120.00
G01 X4.7219 Y71.2823 F120.00
G01 X4.7521 Y71.3327 F120.00
G01 X4.7871 Y71.3799 F120.00
G01 X4.8266 Y71.4234 F120.00
G01 X4.8701 Y71.4629 F120.00
G01 X4.9173 Y71.4979 F120.00
G01 X4.9677 Y71.5281 F120.00
G01 X5.0209 Y71.5532 F120.00
G01 X5.0762 Y71.5730 F120.00
G01 X5.1332 Y71.5873 F120.00
G01 X5.1913 Y71.5959 F120.00
G01 X5.2500 Y71.5988 F120.00
G01 X5.3087 Y71.5959 F120.00
G01 X5.3668 Y71.5873 F120.00
G01 X5.4238 Y71.5730 F120.00
G01 X5.4791 Y71.5532 F120.00
G01 X5.5323 Y71.5281 F120.00
G01 X5.5827 Y71.4979 F120.00
G01 X5.6299 Y71.4629 F120.00
G01 X5.6734 Y71.4234 F120.00
G01 X5.7129 Y71.3799 F120.00
G01 X5.7479 Y71.3327 F120.00
G01 X5.7781 Y71.2823 F120.00
G01 X5.8032 Y71.2291 F120.00
G01 X5.8230 Y71.1738 F120.00
G01 X5.8373 Y71.1168 F120.00
G01 X5.8459 Y71.0587 F120.00
G01 X5.8488 Y71.0000 F120.00
G00 Z2.0000
G00 X33.4338 Y60.5840
G01 F60.00
G01 Z-0.4000
G01 F120.00
G01 X33.4321 Y60.5498 F120.00
G01 X33.4271 Y60.5160 F120.00
G01 X33.4188 Y60.4828 F120.00
G01 X33.4072 Y60.4505 F120.00
G01 X33.3926 Y60.4196 F120.00
G01 X33.3750 Y60.3902 F120.00
G01 X33.3546 Y60.3627 F120.00
G01 X33.3316 Y60.3374 F120.00
G01 X33.3063 Y60.3144 F120.00
G01 X33.2788 Y60.2940 F120.00
G01 X33.2494 Y60.2764 F120.00
G01 X33.2185 Y60.2618 F120.00
G01 X33.1862 Y60.2502 F120.00
G01 X33.1530 Y60.2419 F120.00
G01 X33.1192 Y60.2369 F120.00
G01 X33.0850 Y60.2352 F120.00
G01 X33.0508 Y60.2369 F120.00
G01 X33.0170 Y60.2419 F120.00
G01 X32.9838 Y60.2502 F120.00
G01 X32.9515 Y60.2618 F120.00
G01 X32.9206 Y60.2764 F120.00
G01 X32.8912 Y60.2940 F120.00
G01 X32.8637 Y60.3144 F120.00
G01 X32.8384 Y60.3374 F120.00
G01 X32.8154 Y60.3627 F120.00
G01 X32.7950 Y60.3902 F120.00
G01 X32.7774 Y60.4196 F120.00
G01 X32.7628 Y60.4505 F120.00
G01 X32.7512 Y60.4828 F120.00
G01 X32.7429 Y60.5160 F120.00
G01 X32.7379 Y60.5498 F120.00
G01 X32.7362 Y60.5840 F120.00
G01 X32.7379 Y60.6182 F120.00
G01 X32.7429 Y60.6520 F120.00
G01 X32.7512 Y60.6852 F120.00
G01 X32.7628 Y60.7175 F120.00
G01 X32.7774 Y60.7484 F120.00
G01 X32.7950 Y60.7778 F120.00
G01 X32.8154 Y60.8053 F120.00
G01 X32.8384 Y60.8306 F120.00
G01 X32.8637 Y60.8536 F120.00
G01 X32.8912 Y60.8740 F120.00
G01 X32.9206 Y60.8916 F120.00
G01 X32.9515 Y60.9062 F120.00
G01 X32.9838 Y60.9178 F120.00
G01 X33.0170 Y60.9261 F120.00
G01 X33.0508 Y60.9311 F120.00
G01 X33.0850 Y60.9328 F120.00
G01 X33.1192 Y60.9311 F120.00
G01 X33.1530 Y60.9261 F120.00
G01 X33.1862 Y60.9178 F120.00
G01 X33.2185 Y60.9062 F120.00
G01 X33.2494 Y60.8916 F120.00
G01 X33.2788 Y60.8740 F120.00
G01 X33.3063 Y60.8536 F120.00
G01 X33.3316 Y60.8306 F120.00
G01 X33.3546 Y60.8053 F120.00
G01 X33.3750 Y60.7778 F120.00
G01 X33.3926 Y60.7484 F120.00
G01 X33.4072 Y60.7175 F120.00
G01 X33.4188 Y60.6852 F120.00
G01 X33.4271 Y60.6520 F120.00
G01 X33.4321 Y60.6182 F120.00
G01 X33.4338 Y60.5840 F120.00
G00 X33.4338 Y60.5840
G01 F60.00
G01 Z-0.8000
G01 F120.00
G01 X33.4321 Y60.5498 F120.00
G01 X33.4271 Y60.5160 F120.00
G01 X33.4188 Y60.4828 F120.00
G01 X33.4072 Y60.4505 F120.00
G01 X33.3926 Y60.4196 F120.00
G01 X33.3750 Y60.3902 F120.00
G01 X33.3546 Y60.3627 F120.00
G01 X33.3316 Y60.3374 F120.00
G01 X33.3063 Y60.3144 F120.00
G01 X33.2788 Y60.2940 F120.00
G01 X33.2494 Y60.2764 F120.00
G01 X33.2185 Y60.2618 F120.00
G01 X33.1862 Y60.2502 F120.00
G01 X33.1530 Y60.2419 F120.00
G01 X33.1192 Y60.2369 F120.00
G01 X33.0850 Y60.2352 F120.00
G01 X33.0508 Y60.2369 F120.00
G01 X33.0170 Y60.2419 F120.00
G01 X32.9838 Y60.2502 F120.00
G01 X32.9515 Y60.2618 F120.00
G01 X32.9206 Y60.2764 F120.00
G01 X32.8912 Y60.2940 F120.00
G01 X32.8637 Y60.3144 F120.00
G01 X32.8384 Y60.3374 F120.00
G01 X32.8154 Y60.3627 F120.00
G01 X32.7950 Y60.3902 F120.00
G01 X32.7774 Y60.4196 F120.00
G01 X32.7628 Y60.4505 F120.00
G01 X32.7512 Y60.4828 F120.00
G01 X32.7429 Y60.5160 F120.00
G01 X32.7379 Y60.5498 F120.00
G01 X32.7362 Y60.5840 F120.00
G01 X32.7379 Y60.6182 F120.00
G01 X32.7429 Y60.6520 F120.00
G01 X32.7512 Y60.6852 F120.00
G01 X32.7628 Y60.7175 F120.00
G01 X32.7774 Y60.7484 F120.00
G01 X32.7950 Y60.7778 F120.00
G01 X32.8154 Y60.8053 F120.00
G01 X32.8384 Y60.8306 F120.00
G01 X32.8637 Y60.8536 F120.00
G01 X32.8912 Y60.8740 F120.00
G01 X32.9206 Y60.8916 F120.00
G01 X32.9515 Y60.9062 F120.00
G01 X32.9838 Y60.9178 F120.00
G01 X33.0170 Y60.9261 F120.00
G01 X33.0508 Y60.9311 F120.00
G01 X33.0850 Y60.9328 F120.00
G01 X33.1192 Y60.9311 F120.00
G01 X33.1530 Y60.9261 F120.00
G01 X33.1862 Y60.9178 F120.00
G01 X33.2185 Y60.9062 F120.00
G01 X33.2494 Y60.8916 F120.00
G01 X33.2788 Y60.8740 F120.00
G01 X33.3063 Y60.8536 F120.00
G01 X33.3316 Y60.8306 F120.00
G01 X33.3546 Y60.8053 F120.00
G01 X33.3750 Y60.7778 F120.00
G01 X33.3926 Y60.7484 F120.00
G01 X33.4072 Y60.7175 F120.00
G01 X33.4188 Y60.6852 F120.00
G01 X33.4271 Y60.6520 F120.00
G01 X33.4321 Y60.6182 F120.00
G01 X33.4338 Y60.5840 F120.00
G00 X33.4338 Y60.5840
G01 F60.00
G01 Z-1.2000
G01 F120.00
G01 X33.4321 Y60.5498 F120.00
G01 X33.4271 Y60.5160 F120.00
G01 X33.4188 Y60.4828 F120.00
G01 X33.4072 Y60.4505 F120.00
G01 X33.3926 Y60.4196 F120.00
G01 X33.3750 Y60.3902 F120.00
G01 X33.3546 Y60.3627 F120.00
G01 X33.3316 Y60.3374 F120.00
G01 X33.3063 Y60.3144 F120.00
G01 X33.2788 Y60.2940 F120.00
G01 X33.2494 Y60.2764 F120.00
G01 X33.2185 Y60.2618 F120.00
G01 X33.1862 Y60.2502 F120.00
G01 X33.1530 Y60.2419 F120.00
G01 X33.1192 Y60.2369 F120.00
G01 X33.0850 Y60.2352 F120.00
G01 X33.0508 Y60.2369 F120.00
G01 X33.0170 Y60.2419 F120.00
G01 X32.9838 Y60.2502 F120.00
G01 X32.9515 Y60.2618 F120.00
G01 X32.9206 Y60.2764 F120.00
G01 X32.8912 Y60.2940 F120.00
G01 X32.8637 Y60.3144 F120.00
G01 X32.8384 Y60.3374 F120.00
G01 X32.8154 Y60.3627 F120.00
G01 X32.7950 Y60.3902 F120.00
G01 X32.7774 Y60.4196 F120.00
G01 X32.7628 Y60.4505 F120.00
G01 X32.7512 Y60.4828 F120.00
G01 X32.7429 Y60.5160 F120.00
G01 X32.7379 Y60.5498 F120.00
G01 X32.7362 Y60.5840 F120.00
G01 X32.7379 Y60.6182 F120.00
G01 X32.7429 Y60.6520 F120.00
G01 X32.7512 Y60.6852 F120.00
G01 X32.7628 Y60.7175 F120.00
G01 X32.7774 Y60.7484 F120.00
G01 X32.7950 Y60.7778 F120.00
G01 X32.8154 Y60.8053 F120.00
G01 X32.8384 Y60.8306 F120.00
G01 X32.8637 Y60.8536 F120.00
G01 X32.8912 Y60.8740 F120.00
G01 X32.9206 Y60.8916 F120.00
G01 X32.9515 Y60.9062 F120.00
G01 X32.9838 Y60.9178 F120.00
G01 X33.0170 Y60.9261 F120.00
G01 X33.0508 Y60.9311 F120.00
G01 X33.0850 Y60.9328 F120.00
G01 X33.1192 Y60.9311 F120.00
G01 X33.1530 Y60.9261 F120.00
G01 X33.1862 Y60.9178 F120.00
G01 X33.2185 Y60.9062 F120.00
G01 X33.2494 Y60.8916 F120.00
G01 X33.2788 Y60.8740 F120.00
G01 X33.3063 Y60.8536 F120.00
G01 X33.3316 Y60.8306 F120.00
G01 X33.3546 Y60.8053 F120.00
G01 X33.3750 Y60.7778 F120.00
G01 X33.3926 Y60.7484 F120.00
G01 X33.4072 Y60.7175 F120.00
G01 X33.4188 Y60.6852 F120.00
G01 X33.4271 Y60.6520 F120.00
G01 X33.4321 Y60.6182 F120.00
G01 X33.4338 Y60.5840 F120.00
G00 X33.4338 Y60.5840
G01 F60.00
G01 Z-1.6000
G01 F120.00
G01 X33.4321 Y60.5498 F120.00
G01 X33.4271 Y60.5160 F120.00
G01 X33.4188 Y60.4828 F120.00
G01 X33.4072 Y60.4505 F120.00
G01 X33.3926 Y60.4196 F120.00
G01 X33.3750 Y60.3902 F120.00
G01 X33.3546 Y60.3627 F120.00
G01 X33.3316 Y60.3374 F120.00
G01 X33.3063 Y60.3144 F120.00
G01 X33.2788 Y60.2940 F120.00
G01 X33.2494 Y60.2764 F120.00
G01 X33.2185 Y60.2618 F120.00
G01 X33.1862 Y60.2502 F120.00
G01 X33.1530 Y60.2419 F120.00
G01 X33.1192 Y60.2369 F120.00
G01 X33.0850 Y60.2352 F120.00
G01 X33.0508 Y60.2369 F120.00
G01 X33.0170 Y60.2419 F120.00
G01 X32.9838 Y60.2502 F120.00
G01 X32.9515 Y60.2618 F120.00
G01 X32.9206 Y60.2764 F120.00
G01 X32.8912 Y60.2940 F120.00
G01 X32.8637 Y60.3144 F120.00
G01 X32.8384 Y60.3374 F120.00
G01 X32.8154 Y60.3627 F120.00
G01 X32.7950 Y60.3902 F120.00
G01 X32.7774 Y60.4196 F120.00
G01 X32.7628 Y60.4505 F120.00
G01 X32.7512 Y60.4828 F120.00
G01 X32.7429 Y60.5160 F120.00
G01 X32.7379 Y60.5498 F120.00
G01 X32.7362 Y60.5840 F120.00
G01 X32.7379 Y60.6182 F120.00
G01 X32.7429 Y60.6520 F120.00
G01 X32.7512 Y60.6852 F120.00
G01 X32.7628 Y60.7175 F120.00
G01 X32.7774 Y60.7484 F120.00
G01 X32.7950 Y60.7778 F120.00
G01 X32.8154 Y60.8053 F120.00
G01 X32.8384 Y60.8306 F120.00
G01 X32.8637 Y60.8536 F120.00
G01 X32.8912 Y60.8740 F120.00
G01 X32.9206 Y60.8916 F120.00
G01 X32.9515 Y60.9062 F120.00
G01 X32.9838 Y60.9178 F120.00
G01 X33.0170 Y60.9261 F120.00
G01 X33.0508 Y60.9311 F120.00
G01 X33.0850 Y60.9328 F120.00
G01 X33.1192 Y60.9311 F120.00
G01 X33.1530 Y60.9261 F120.00
G01 X33.1862 Y60.9178 F120.00
G01 X33.2185 Y60.9062 F120.00
G01 X33.2494 Y60.8916 F120.00
G01 X33.2788 Y60.8740 F120.00
G01 X33.3063 Y60.8536 F120.00
G01 X33.3316 Y60.8306 F120.00
G01 X33.3546 Y60.8053 F120.00
G01 X33.3750 Y60.7778 F120.00
G01 X33.3926 Y60.7484 F120.00
G01 X33.4072 Y60.7175 F120.00
G01 X33.4188 Y60.6852 F120.00
G01 X33.4271 Y60.6520 F120.00
G01 X33.4321 Y60.6182 F120.00
G01 X33.4338 Y60.5840 F120.00
G00 X33.4338 Y60.5840
G01 F60.00
G01 Z-2.0000
G01 F120.00
G01 X33.4321 Y60.5498 F120.00
G01 X33.4271 Y60.5160 F120.00
G01 X33.4188 Y60.4828 F120.00
G01 X33.4072 Y60.4505 F120.00
G01 X33.3926 Y60.4196 F120.00
G01 X33.3750 Y60.3902 F120.00
G01 X33.3546 Y60.3627 F120.00
G01 X33.3316 Y60.3374 F120.00
G01 X33.3063 Y60.3144 F120.00
G01 X33.2788 Y60.2940 F120.00
G01 X33.2494 Y60.2764 F120.00
G01 X33.2185 Y60.2618 F120.00
G01 X33.1862 Y60.2502 F120.00
G01 X33.1530 Y60.2419 F120.00
G01 X33.1192 Y60.2369 F120.00
G01 X33.0850 Y60.2352 F120.00
G01 X33.0508 Y60.2369 F120.00
G01 X33.0170 Y60.2419 F120.00
G01 X32.9838 Y60.2502 F120.00
G01 X32.9515 Y60.2618 F120.00
G01 X32.9206 Y60.2764 F120.00
G01 X32.8912 Y60.2940 F120.00
G01 X32.8637 Y60.3144 F120.00
G01 X32.8384 Y60.3374 F120.00
G01 X32.8154 Y60.3627 F120.00
G01 X32.7950 Y60.3902 F120.00
G01 X32.7774 Y60.4196 F120.00
G01 X32.7628 Y60.4505 F120.00
G01 X32.7512 Y60.4828 F120.00
G01 X32.7429 Y60.5160 F120.00
G01 X32.7379 Y60.5498 F120.00
G01 X32.7362 Y60.5840 F120.00
G01 X32.7379 Y60.6182 F120.00
G01 X32.7429 Y60.6520 F120.00
G01 X32.7512 Y60.6852 F120.00
G01 X32.7628 Y60.7175 F120.00
G01 X32.7774 Y60.7484 F120.00
G01 X32.7950 Y60.7778 F120.00
G01 X32.8154 Y60.8053 F120.00
G01 X32.8384 Y60.8306 F120.00
G01 X32.8637 Y60.8536 F120.00
G01 X32.8912 Y60.8740 F120.00
G01 X32.9206 Y60.8916 F120.00
G01 X32.9515 Y60.9062 F120.00
G01 X32.9838 Y60.9178 F120.00
G01 X33.0170 Y60.9261 F120.00
G01 X33.0508 Y60.9311 F120.00
G01 X33.0850 Y60.9328 F120.00
G01 X33.1192 Y60.9311 F120.00
G01 X33.1530 Y60.9261 F120.00
G01 X33.1862 Y60.9178 F120.00
G01 X33.2185 Y60.9062 F120.00
G01 X33.2494 Y60.8916 F120.00
G01 X33.2788 Y60.8740 F120.00
G01 X33.3063 Y60.8536 F120.00
G01 X33.3316 Y60.8306 F120.00
G01 X33.3546 Y60.8053 F120.00
G01 X33.3750 Y60.7778 F120.00
G01 X33.3926 Y60.7484 F120.00
G01 X33.4072 Y60.7175 F120.00
G01 X33.4188 Y60.6852 F120.00
G01 X33.4271 Y60.6520 F120.00
G01 X33.4321 Y60.6182 F120.00
G01 X33.4338 Y60.5840 F120.00
G00 X33.4338 Y60.5840
G01 F60.00
G01 Z-2.4000
G01 F120.00
G01 X33.4321 Y60.5498 F120.00
G01 X33.4271 Y60.5160 F120.00
G01 X33.4188 Y60.4828 F120.00
G01 X33.4072 Y60.4505 F120.00
G01 X33.3926 Y60.4196 F120.00
G01 X33.3750 Y60.3902 F120.00
G01 X33.3546 Y60.3627 F120.00
G01 X33.3316 Y60.3374 F120.00
G01 X33.3063 Y60.3144 F120.00
G01 X33.2788 Y60.2940 F120.00
G01 X33.2494 Y60.2764 F120.00
G01 X33.2185 Y60.2618 F120.00
G01 X33.1862 Y60.2502 F120.00
G01 X33.1530 Y60.2419 F120.00
G01 X33.1192 Y60.2369 F120.00
G01 X33.0850 Y60.2352 F120.00
G01 X33.0508 Y60.2369 F120.00
G01 X33.0170 Y60.2419 F120.00
G01 X32.9838 Y60.2502 F120.00
G01 X32.9515 Y60.2618 F120.00
G01 X32.9206 Y60.2764 F120.00
G01 X32.8912 Y60.2940 F120.00
G01 X32.8637 Y60.3144 F120.00
G01 X32.8384 Y60.3374 F120.00
G01 X32.8154 Y60.3627 F120.00
G01 X32.7950 Y60.3902 F120.00
G01 X32.7774 Y60.4196 F120.00
G01 X32.7628 Y60.4505 F120.00
G01 X32.7512 Y60.4828 F120.00
G01 X32.7429 Y60.5160 F120.00
G01 X32.7379 Y60.5498 F120.00
G01 X32.7362 Y60.5840 F120.00
G01 X32.7379 Y60.6182 F120.00
G01 X32.7429 Y60.6520 F120.00
G01 X32.7512 Y60.6852 F120.00
G01 X32.7628 Y60.7175 F120.00
G01 X32.7774 Y60.7484 F120.00
G01 X32.7950 Y60.7778 F120.00
G01 X32.8154 Y60.8053 F120.00
G01 X32.8384 Y60.8306 F120.00
G01 X32.8637 Y60.8536 F120.00
G01 X32.8912 Y60.8740 F120.00
G01 X32.9206 Y60.8916 F120.00
G01 X32.9515 Y60.9062 F120.00
G01 X32.9838 Y60.9178 F120.00
G01 X33.0170 Y60.9261 F120.00
G01 X33.0508 Y60.9311 F120.00
G01 X33.0850 Y60.9328 F120.00
G01 X33.1192 Y60.9311 F120.00
G01 X33.1530 Y60.9261 F120.00
G01 X33.1862 Y60.9178 F120.00
G01 X33.2185 Y60.9062 F120.00
G01 X33.2494 Y60.8916 F120.00
G01 X33.2788 Y60.8740 F120.00
G01 X33.3063 Y60.8536 F120.00
G01 X33.3316 Y60.8306 F120.00
G01 X33.3546 Y60.8053 F120.00
G01 X33.3750 Y60.7778 F120.00
G01 X33.3926 Y60.7484 F120.00
G01 X33.4072 Y60.7175 F120.00
G01 X33.4188 Y60.6852 F120.00
G01 X33.4271 Y60.6520 F120.00
G01 X33.4321 Y60.6182 F120.00
G01 X33.4338 Y60.5840 F120.00
G00 Z2.0000
G00 X33.4438 Y37.1440
G01 F60.00
G01 Z-0.4000
G01 F120.00
G01 X33.4421 Y37.1098 F120.00
G01 X33.4371 Y37.0760 F120.00
G01 X33.4288 Y37.0428 F120.00
G01 X33.4172 Y37.0105 F120.00
G01 X33.4026 Y36.9796 F120.00
G01 X33.3850 Y36.9502 F120.00
G01 X33.3646 Y36.9227 F120.00
G01 X33.3416 Y36.8974 F120.00
G01 X33.3163 Y36.8744 F120.00
G01 X33.2888 Y36.8540 F120.00
G01 X33.2594 Y36.8364 F120.00
G01 X33.2285 Y36.8218 F120.00
G01 X33.1962 Y36.8102 F120.00
G01 X33.1630 Y36.8019 F120.00
G01 X33.1292 Y36.7969 F120.00
G01 X33.0950 Y36.7952 F120.00
G01 X33.0608 Y36.7969 F120.00
G01 X33.0270 Y36.8019 F120.00
G01 X32.9938 Y36.8102 F120.00
G01 X32.9615 Y36.8218 F120.00
G01 X32.9306 Y36.8364 F120.00
G01 X32.9012 Y36.8540 F120.00
G01 X32.8737 Y36.8744 F120.00
G01 X32.8484 Y36.8974 F120.00
G01 X32.8254 Y36.9227 F120.00
G01 X32.8050 Y36.9502 F120.00
G01 X32.7874 Y36.9796 F120.00
G01 X32.7728 Y37.0105 F120.00
G01 X32.7612 Y37.0428 F120.00
G01 X32.7529 Y37.0760 F120.00
G01 X32.7479 Y37.1098 F120.00
G01 X32.7462 Y37.1440 F120.00
G01 X32.7479 Y37.1782 F120.00
G01 X32.7529 Y37.2120 F120.00
G01 X32.7612 Y37.2452 F120.00
G01 X32.7728 Y37.2775 F120.00
G01 X32.7874 Y37.3084 F120.00
G01 X32.8050 Y37.3378 F120.00
G01 X32.8254 Y37.3653 F120.00
G01 X32.8484 Y37.3906 F120.00
G01 X32.8737 Y37.4136 F120.00
G01 X32.9012 Y37.4340 F120.00
G01 X32.9306 Y37.4516 F120.00
G01 X32.9615 Y37.4662 F120.00
G01 X32.9938 Y37.4778 F120.00
G01 X33.0270 Y37.4861 F120.00
G01 X33.0608 Y37.4911 F120.00
G01 X33.0950 Y37.4928 F120.00
G01 X33.1292 Y37.4911 F120.00
G01 X33.1630 Y37.4861 F120.00
G01 X33.1962 Y37.4778 F120.00
G01 X33.2285 Y37.4662 F120.00
G01 X33.2594 Y37.4516 F120.00
G01 X33.2888 Y37.4340 F120.00
G01 X33.3163 Y37.4136 F120.00
G01 X33.3416 Y37.3906 F120.00
G01 X33.3646 Y37.3653 F120.00
G01 X33.3850 Y37.3378 F120.00
G01 X33.4026 Y37.3084 F120.00
G01 X33.4172 Y37.2775 F120.00
G01 X33.4288 Y37.2452 F120.00
G01 X33.4371 Y37.2120 F120.00
G01 X33.4421 Y37.1782 F120.00
G01 X33.4438 Y37.1440 F120.00
G00 X33.4438 Y37.1440
G01 F60.00
G01 Z-0.8000
G01 F120.00
G01 X33.4421 Y37.1098 F120.00
G01 X33.4371 Y37.0760 F120.00
G01 X33.4288 Y37.0428 F120.00
G01 X33.4172 Y37.0105 F120.00
G01 X33.4026 Y36.9796 F120.00
G01 X33.3850 Y36.9502 F120.00
G01 X33.3646 Y36.9227 F120.00
G01 X33.3416 Y36.8974 F120.00
G01 X33.3163 Y36.8744 F120.00
G01 X33.2888 Y36.8540 F120.00
G01 X33.2594 Y36.8364 F120.00
G01 X33.2285 Y36.8218 F120.00
G01 X33.1962 Y36.8102 F120.00
G01 X33.1630 Y36.8019 F120.00
G01 X33.1292 Y36.7969 F120.00
G01 X33.0950 Y36.7952 F120.00
G01 X33.0608 Y36.7969 F120.00
G01 X33.0270 Y36.8019 F120.00
G01 X32.9938 Y36.8102 F120.00
G01 X32.9615 Y36.8218 F120.00
G01 X32.9306 Y36.8364 F120.00
G01 X32.9012 Y36.8540 F120.00
G01 X32.8737 Y36.8744 F120.00
G01 X32.8484 Y36.8974 F120.00
G01 X32.8254 Y36.9227 F120.00
G01 X32.8050 Y36.9502 F120.00
G01 X32.7874 Y36.9796 F120.00
G01 X32.7728 Y37.0105 F120.00
G01 X32.7612 Y37.0428 F120.00
G01 X32.7529 Y37.0760 F120.00
G01 X32.7479 Y37.1098 F120.00
G01 X32.7462 Y37.1440 F120.00
G01 X32.7479 Y37.1782 F120.00
G01 X32.7529 Y37.2120 F120.00
G01 X32.7612 Y37.2452 F120.00
G01 X32.7728 Y37.2775 F120.00
G01 X32.7874 Y37.3084 F120.00
G01 X32.8050 Y37.3378 F120.00
G01 X32.8254 Y37.3653 F120.00
G01 X32.8484 Y37.3906 F120.00
G01 X32.8737 Y37.4136 F120.00
G01 X32.9012 Y37.4340 F120.00
G01 X32.9306 Y37.4516 F120.00
G01 X32.9615 Y37.4662 F120.00
G01 X32.9938 Y37.4778 F120.00
G01 X33.0270 Y37.4861 F120.00
G01 X33.0608 Y37.4911 F120.00
G01 X33.0950 Y37.4928 F120.00
G01 X33.1292 Y37.4911 F120.00
G01 X33.1630 Y37.4861 F120.00
G01 X33.1962 Y37.4778 F120.00
G01 X33.2285 Y37.4662 F120.00
G01 X33.2594 Y37.4516 F120.00
G01 X33.2888 Y37.4340 F120.00
G01 X33.3163 Y37.4136 F120.00
G01 X33.3416 Y37.3906 F120.00
G01 X33.3646 Y37.3653 F120.00
G01 X33.3850 Y37.3378 F120.00
G01 X33.4026 Y37.3084 F120.00
G01 X33.4172 Y37.2775 F120.00
G01 X33.4288 Y37.2452 F120.00
G01 X33.4371 Y37.2120 F120.00
G01 X33.4421 Y37.1782 F120.00
G01 X33.4438 Y37.1440 F120.00
G00 X33.4438 Y37.1440
G01 F60.00
G01 Z-1.2000
G01 F120.00
G01 X33.4421 Y37.1098 F120.00
G01 X33.4371 Y37.0760 F120.00
G01 X33.4288 Y37.0428 F120.00
G01 X33.4172 Y37.0105 F120.00
G01 X33.4026 Y36.9796 F120.00
G01 X33.3850 Y36.9502 F120.00
G01 X33.3646 Y36.9227 F120.00
G01 X33.3416 Y36.8974 F120.00
G01 X33.3163 Y36.8744 F120.00
G01 X33.2888 Y36.8540 F120.00
G01 X33.2594 Y36.8364 F120.00
G01 X33.2285 Y36.8218 F120.00
G01 X33.1962 Y36.8102 F120.00
G01 X33.1630 Y36.8019 F120.00
G01 X33.1292 Y36.7969 F120.00
G01 X33.0950 Y36.7952 F120.00
G01 X33.0608 Y36.7969 F120.00
G01 X33.0270 Y36.8019 F120.00
G01 X32.9938 Y36.8102 F120.00
G01 X32.9615 Y36.8218 F120.00
G01 X32.9306 Y36.8364 F120.00
G01 X32.9012 Y36.8540 F120.00
G01 X32.8737 Y36.8744 F120.00
G01 X32.8484 Y36.8974 F120.00
G01 X32.8254 Y36.9227 F120.00
G01 X32.8050 Y36.9502 F120.00
G01 X32.7874 Y36.9796 F120.00
G01 X32.7728 Y37.0105 F120.00
G01 X32.7612 Y37.0428 F120.00
G01 X32.7529 Y37.0760 F120.00
G01 X32.7479 Y37.1098 F120.00
G01 X32.7462 Y37.1440 F120.00
G01 X32.7479 Y37.1782 F120.00
G01 X32.7529 Y37.2120 F120.00
G01 X32.7612 Y37.2452 F120.00
G01 X32.7728 Y37.2775 F120.00
G01 X32.7874 Y37.3084 F120.00
G01 X32.8050 Y37.3378 F120.00
G01 X32.8254 Y37.3653 F120.00
G01 X32.8484 Y37.3906 F120.00
G01 X32.8737 Y37.4136 F120.00
G01 X32.9012 Y37.4340 F120.00
G01 X32.9306 Y37.4516 F120.00
G01 X32.9615 Y37.4662 F120.00
G01 X32.9938 Y37.4778 F120.00
G01 X33.0270 Y37.4861 F120.00
G01 X33.0608 Y37.4911 F120.00
G01 X33.0950 Y37.4928 F120.00
G01 X33.1292 Y37.4911 F120.00
G01 X33.1630 Y37.4861 F120.00
G01 X33.1962 Y37.4778 F120.00
G01 X33.2285 Y37.4662 F120.00
G01 X33.2594 Y37.4516 F120.00
G01 X33.2888 Y37.4340 F120.00
G01 X33.3163 Y37.4136 F120.00
G01 X33.3416 Y37.3906 F120.00
G01 X33.3646 Y37.3653 F120.00
G01 X33.3850 Y37.3378 F120.00
G01 X33.4026 Y37.3084 F120.00
G01 X33.4172 Y37.2775 F120.00
G01 X33.4288 Y37.2452 F120.00
G01 X33.4371 Y37.2120 F120.00
G01 X33.4421 Y37.1782 F120.00
G01 X33.4438 Y37.1440 F120.00
G00 X33.4438 Y37.1440
G01 F60.00
G01 Z-1.6000
G01 F120.00
G01 X33.4421 Y37.1098 F120.00
G01 X33.4371 Y37.0760 F120.00
G01 X33.4288 Y37.0428 F120.00
G01 X33.4172 Y37.0105 F120.00
G01 X33.4026 Y36.9796 F120.00
G01 X33.3850 Y36.9502 F120.00
G01 X33.3646 Y36.9227 F120.00
G01 X33.3416 Y36.8974 F120.00
G01 X33.3163 Y36.8744 F120.00
G01 X33.2888 Y36.8540 F120.00
G01 X33.2594 Y36.8364 F120.00
G01 X33.2285 Y36.8218 F120.00
G01 X33.1962 Y36.8102 F120.00
G01 X33.1630 Y36.8019 F120.00
G01 X33.1292 Y36.7969 F120.00
G01 X33.0950 Y36.7952 F120.00
G01 X33.0608 Y36.7969 F120.00
G01 X33.0270 Y36.8019 F120.00
G01 X32.9938 Y36.8102 F120.00
G01 X32.9615 Y36.8218 F120.00
G01 X32.9306 Y36.8364 F120.00
G01 X32.9012 Y36.8540 F120.00
G01 X32.8737 Y36.8744 F120.00
G01 X32.8484 Y36.8974 F120.00
G01 X32.8254 Y36.9227 F120.00
G01 X32.8050 Y36.9502 F120.00
G01 X32.7874 Y36.9796 F120.00
G01 X32.7728 Y37.0105 F120.00
G01 X32.7612 Y37.0428 F120.00
G01 X32.7529 Y37.0760 F120.00
G01 X32.7479 Y37.1098 F120.00
G01 X32.7462 Y37.1440 F120.00
G01 X32.7479 Y37.1782 F120.00
G01 X32.7529 Y37.2120 F120.00
G01 X32.7612 Y37.2452 F120.00
G01 X32.7728 Y37.2775 F120.00
G01 X32.7874 Y37.3084 F120.00
G01 X32.8050 Y37.3378 F120.00
G01 X32.8254 Y37.3653 F120.00
G01 X32.8484 Y37.3906 F120.00
G01 X32.8737 Y37.4136 F120.00
G01 X32.9012 Y37.4340 F120.00
G01 X32.9306 Y37.4516 F120.00
G01 X32.9615 Y37.4662 F120.00
G01 X32.9938 Y37.4778 F120.00
G01 X33.0270 Y37.4861 F120.00
G01 X33.0608 Y37.4911 F120.00
G01 X33.0950 Y37.4928 F120.00
G01 X33.1292 Y37.4911 F120.00
G01 X33.1630 Y37.4861 F120.00
G01 X33.1962 Y37.4778 F120.00
G01 X33.2285 Y37.4662 F120.00
G01 X33.2594 Y37.4516 F120.00
G01 X33.2888 Y37.4340 F120.00
G01 X33.3163 Y37.4136 F120.00
G01 X33.3416 Y37.3906 F120.00
G01 X33.3646 Y37.3653 F120.00
G01 X33.3850 Y37.3378 F120.00
G01 X33.4026 Y37.3084 F120.00
G01 X33.4172 Y37.2775 F120.00
G01 X33.4288 Y37.2452 F120.00
G01 X33.4371 Y37.2120 F120.00
G01 X33.4421 Y37.1782 F120.00
G01 X33.4438 Y37.1440 F120.00
G00 X33.4438 Y37.1440
G01 F60.00
G01 Z-2.0000
G01 F120.00
G01 X33.4421 Y37.1098 F120.00
G01 X33.4371 Y37.0760 F120.00
G01 X33.4288 Y37.0428 F120.00
G01 X33.4172 Y37.0105 F120.00
G01 X33.4026 Y36.9796 F120.00
G01 X33.3850 Y36.9502 F120.00
G01 X33.3646 Y36.9227 F120.00
G01 X33.3416 Y36.8974 F120.00
G01 X33.3163 Y36.8744 F120.00
G01 X33.2888 Y36.8540 F120.00
G01 X33.2594 Y36.8364 F120.00
G01 X33.2285 Y36.8218 F120.00
G01 X33.1962 Y36.8102 F120.00
G01 X33.1630 Y36.8019 F120.00
G01 X33.1292 Y36.7969 F120.00
G01 X33.0950 Y36.7952 F120.00
G01 X33.0608 Y36.7969 F120.00
G01 X33.0270 Y36.8019 F120.00
G01 X32.9938 Y36.8102 F120.00
G01 X32.9615 Y36.8218 F120.00
G01 X32.9306 Y36.8364 F120.00
G01 X32.9012 Y36.8540 F120.00
G01 X32.8737 Y36.8744 F120.00
G01 X32.8484 Y36.8974 F120.00
G01 X32.8254 Y36.9227 F120.00
G01 X32.8050 Y36.9502 F120.00
G01 X32.7874 Y36.9796 F120.00
G01 X32.7728 Y37.0105 F120.00
G01 X32.7612 Y37.0428 F120.00
G01 X32.7529 Y37.0760 F120.00
G01 X32.7479 Y37.1098 F120.00
G01 X32.7462 Y37.1440 F120.00
G01 X32.7479 Y37.1782 F120.00
G01 X32.7529 Y37.2120 F120.00
G01 X32.7612 Y37.2452 F120.00
G01 X32.7728 Y37.2775 F120.00
G01 X32.7874 Y37.3084 F120.00
G01 X32.8050 Y37.3378 F120.00
G01 X32.8254 Y37.3653 F120.00
G01 X32.8484 Y37.3906 F120.00
G01 X32.8737 Y37.4136 F120.00
G01 X32.9012 Y37.4340 F120.00
G01 X32.9306 Y37.4516 F120.00
G01 X32.9615 Y37.4662 F120.00
G01 X32.9938 Y37.4778 F120.00
G01 X33.0270 Y37.4861 F120.00
G01 X33.0608 Y37.4911 F120.00
G01 X33.0950 Y37.4928 F120.00
G01 X33.1292 Y37.4911 F120.00
G01 X33.1630 Y37.4861 F120.00
G01 X33.1962 Y37.4778 F120.00
G01 X33.2285 Y37.4662 F120.00
G01 X33.2594 Y37.4516 F120.00
G01 X33.2888 Y37.4340 F120.00
G01 X33.3163 Y37.4136 F120.00
G01 X33.3416 Y37.3906 F120.00
G01 X33.3646 Y37.3653 F120.00
G01 X33.3850 Y37.3378 F120.00
G01 X33.4026 Y37.3084 F120.00
G01 X33.4172 Y37.2775 F120.00
G01 X33.4288 Y37.2452 F120.00
G01 X33.4371 Y37.2120 F120.00
G01 X33.4421 Y37.1782 F120.00
G01 X33.4438 Y37.1440 F120.00
G00 X33.4438 Y37.1440
G01 F60.00
G01 Z-2.4000
G01 F120.00
G01 X33.4421 Y37.1098 F120.00
G01 X33.4371 Y37.0760 F120.00
G01 X33.4288 Y37.0428 F120.00
G01 X33.4172 Y37.0105 F120.00
G01 X33.4026 Y36.9796 F120.00
G01 X33.3850 Y36.9502 F120.00
G01 X33.3646 Y36.9227 F120.00
G01 X33.3416 Y36.8974 F120.00
G01 X33.3163 Y36.8744 F120.00
G01 X33.2888 Y36.8540 F120.00
G01 X33.2594 Y36.8364 F120.00
G01 X33.2285 Y36.8218 F120.00
G01 X33.1962 Y36.8102 F120.00
G01 X33.1630 Y36.8019 F120.00
G01 X33.1292 Y36.7969 F120.00
G01 X33.0950 Y36.7952 F120.00
G01 X33.0608 Y36.7969 F120.00
G01 X33.0270 Y36.8019 F120.00
G01 X32.9938 Y36.8102 F120.00
G01 X32.9615 Y36.8218 F120.00
G01 X32.9306 Y36.8364 F120.00
G01 X32.9012 Y36.8540 F120.00
G01 X32.8737 Y36.8744 F120.00
G01 X32.8484 Y36.8974 F120.00
G01 X32.8254 Y36.9227 F120.00
G01 X32.8050 Y36.9502 F120.00
G01 X32.7874 Y36.9796 F120.00
G01 X32.7728 Y37.0105 F120.00
G01 X32.7612 Y37.0428 F120.00
G01 X32.7529 Y37.0760 F120.00
G01 X32.7479 Y37.1098 F120.00
G01 X32.7462 Y37.1440 F120.00
G01 X32.7479 Y37.1782 F120.00
G01 X32.7529 Y37.2120 F120.00
G01 X32.7612 Y37.2452 F120.00
G01 X32.7728 Y37.2775 F120.00
G01 X32.7874 Y37.3084 F120.00
G01 X32.8050 Y37.3378 F120.00
G01 X32.8254 Y37.3653 F120.00
G01 X32.8484 Y37.3906 F120.00
G01 X32.8737 Y37.4136 F120.00
G01 X32.9012 Y37.4340 F120.00
G01 X32.9306 Y37.4516 F120.00
G01 X32.9615 Y37.4662 F120.00
G01 X32.9938 Y37.4778 F120.00
G01 X33.0270 Y37.4861 F120.00
G01 X33.0608 Y37.4911 F120.00
G01 X33.0950 Y37.4928 F120.00
G01 X33.1292 Y37.4911 F120.00
G01 X33.1630 Y37.4861 F120.00
G01 X33.1962 Y37.4778 F120.00
G01 X33.2285 Y37.4662 F120.00
G01 X33.2594 Y37.4516 F120.00
G01 X33.2888 Y37.4340 F120.00
G01 X33.3163 Y37.4136 F120.00
G01 X33.3416 Y37.3906 F120.00
G01 X33.3646 Y37.3653 F120.00
G01 X33.3850 Y37.3378 F120.00
G01 X33.4026 Y37.3084 F120.00
G01 X33.4172 Y37.2775 F120.00
G01 X33.4288 Y37.2452 F120.00
G01 X33.4371 Y37.2120 F120.00
G01 X33.4421 Y37.1782 F120.00
G01 X33.4438 Y37.1440 F120.00
G00 Z2.0000
G00 X32.5988 Y28.7500
G01 F60.00
G01 Z-0.4000
G01 F120.00
G01 X32.5959 Y28.6913 F120.00
G01 X32.5873 Y28.6332 F120.00
G01 X32.5730 Y28.5762 F120.00
G01 X32.5532 Y28.5209 F120.00
G01 X32.5281 Y28.4677 F120.00
G01 X32.4979 Y28.4173 F120.00
G01 X32.4629 Y28.3701 F120.00
G01 X32.4234 Y28.3266 F120.00
G01 X32.3799 Y28.2871 F120.00
G01 X32.3327 Y28.2521 F120.00
G01 X32.2823 Y28.2219 F120.00
G01 X32.2291 Y28.1968 F120.00
G01 X32.1738 Y28.1770 F120.00
G01 X32.1168 Y28.1627 F120.00
G01 X32.0587 Y28.1541 F120.00
G01 X32.0000 Y28.1512 F120.00
G01 X31.9413 Y28.1541 F120.00
G01 X31.8832 Y28.1627 F120.00
G01 X31.8262 Y28.1770 F120.00
G01 X31.7709 Y28.1968 F120.00
G01 X31.7177 Y28.2219 F120.00
G01 X31.6673 Y28.2521 F120.00
G01 X31.6201 Y28.2871 F120.00
G01 X31.5766 Y28.3266 F120.00
G01 X31.5371 Y28.3701 F120.00
G01 X31.5021 Y28.4173 F120.00
G01 X31.4719 Y28.4677 F120.00
G01 X31.4468 Y28.5209 F120.00
G01 X31.4270 Y28.5762 F120.00
G01 X31.4127 Y28.6332 F120.00
G01 X31.4041 Y28.6913 F120.00
G01 X31.4012 Y28.7500 F120.00
G01 X31.4041 Y28.8087 F120.00
G01 X31.4127 Y28.8668 F120.00
G01 X31.4270 Y28.9238 F120.00
G01 X31.4468 Y28.9791 F120.00
G01 X31.4719 Y29.0323 F120.00
G01 X31.5021 Y29.0827 F120.00
G01 X31.5371 Y29.1299 F120.00
G01 X31.5766 Y29.1734 F120.00
G01 X31.6201 Y29.2129 F120.00
G01 X31.6673 Y29.2479 F120.00
G01 X31.7177 Y29.2781 F120.00
G01 X31.7709 Y29.3032 F120.00
G01 X31.8262 Y29.3230 F120.00
G01 X31.8832 Y29.3373 F120.00
G01 X31.9413 Y29.3459 F120.00
G01 X32.0000 Y29.3488 F120.00
G01 X32.0587 Y29.3459 F120.00
G01 X32.1168 Y29.3373 F120.00
G01 X32.1738 Y29.3230 F120.00
G01 X32.2291 Y29.3032 F120.00
G01 X32.2823 Y29.2781 F120.00
G01 X32.3327 Y29.2479 F120.00
G01 X32.3799 Y29.2129 F120.00
G01 X32.4234 Y29.1734 F120.00
G01 X32.4629 Y29.1299 F120.00
G01 X32.4979 Y29.0827 F120.00
G01 X32.5281 Y29.0323 F120.00
G01 X32.5532 Y28.9791 F120.00
G01 X32.5730 Y28.9238 F120.00
G01 X32.5873 Y28.8668 F120.00
G01 X32.5959 Y28.8087 F120.00
G01 X32.5988 Y28.7500 F120.00
G00 X32.5988 Y28.7500
G01 F60.00
G01 Z-0.8000
G01 F120.00
G01 X32.5959 Y28.6913 F120.00
G01 X32.5873 Y28.6332 F120.00
G01 X32.5730 Y28.5762 F120.00
G01 X32.5532 Y28.5209 F120.00
G01 X32.5281 Y28.4677 F120.00
G01 X32.4979 Y28.4173 F120.00
G01 X32.4629 Y28.3701 F120.00
G01 X32.4234 Y28.3266 F120.00
G01 X32.3799 Y28.2871 F120.00
G01 X32.3327 Y28.2521 F120.00
G01 X32.2823 Y28.2219 F120.00
G01 X32.2291 Y28.1968 F120.00
G01 X32.1738 Y28.1770 F120.00
G01 X32.1168 Y28.1627 F120.00
G01 X32.0587 Y28.1541 F120.00
G01 X32.0000 Y28.1512 F120.00
G01 X31.9413 Y28.1541 F120.00
G01 X31.8832 Y28.1627 F120.00
G01 X31.8262 Y28.1770 F120.00
G01 X31.7709 Y28.1968 F120.00
G01 X31.7177 Y28.2219 F120.00
G01 X31.6673 Y28.2521 F120.00
G01 X31.6201 Y28.2871 F120.00
G01 X31.5766 Y28.3266 F120.00
G01 X31.5371 Y28.3701 F120.00
G01 X31.5021 Y28.4173 F120.00
G01 X31.4719 Y28.4677 F120.00
G01 X31.4468 Y28.5209 F120.00
G01 X31.4270 Y28.5762 F120.00
G01 X31.4127 Y28.6332 F120.00
G01 X31.4041 Y28.6913 F120.00
G01 X31.4012 Y28.7500 F120.00
G01 X31.4041 Y28.8087 F120.00
G01 X31.4127 Y28.8668 F120.00
G01 X31.4270 Y28.9238 F120.00
G01 X31.4468 Y28.9791 F120.00
G01 X31.4719 Y29.0323 F120.00
G01 X31.5021 Y29.0827 F120.00
G01 X31.5371 Y29.1299 F120.00
G01 X31.5766 Y29.1734 F120.00
G01 X31.6201 Y29.2129 F120.00
G01 X31.6673 Y29.2479 F120.00
G01 X31.7177 Y29.2781 F120.00
G01 X31.7709 Y29.3032 F120.00
G01 X31.8262 Y29.3230 F120.00
G01 X31.8832 Y29.3373 F120.00
G01 X31.9413 Y29.3459 F120.00
G01 X32.0000 Y29.3488 F120.00
G01 X32.0587 Y29.3459 F120.00
G01 X32.1168 Y29.3373 F120.00
G01 X32.1738 Y29.3230 F120.00
G01 X32.2291 Y29.3032 F120.00
G01 X32.2823 Y29.2781 F120.00
G01 X32.3327 Y29.2479 F120.00
G01 X32.3799 Y29.2129 F120.00
G01 X32.4234 Y29.1734 F120.00
G01 X32.4629 Y29.1299 F120.00
G01 X32.4979 Y29.0827 F120.00
G01 X32.5281 Y29.0323 F120.00
G01 X32.5532 Y28.9791 F120.00
G01 X32.5730 Y28.9238 F120.00
G01 X32.5873 Y28.8668 F120.00
G01 X32.5959 Y28.8087 F120.00
G01 X32.5988 Y28.7500 F120.00
G00 X32.5988 Y28.7500
G01 F60.00
G01 Z-1.2000
G01 F120.00
G01 X32.5959 Y28.6913 F120.00
G01 X32.5873 Y28.6332 F120.00
G01 X32.5730 Y28.5762 F120.00
G01 X32.5532 Y28.5209 F120.00
G01 X32.5281 Y28.4677 F120.00
G01 X32.4979 Y28.4173 F120.00
G01 X32.4629 Y28.3701 F120.00
G01 X32.4234 Y28.3266 F120.00
G01 X32.3799 Y28.2871 F120.00
G01 X32.3327 Y28.2521 F120.00
G01 X32.2823 Y28.2219 F120.00
G01 X32.2291 Y28.1968 F120.00
G01 X32.1738 Y28.1770 F120.00
G01 X32.1168 Y28.1627 F120.00
G01 X32.0587 Y28.1541 F120.00
G01 X32.0000 Y28.1512 F120.00
G01 X31.9413 Y28.1541 F120.00
G01 X31.8832 Y28.1627 F120.00
G01 X31.8262 Y28.1770 F120.00
G01 X31.7709 Y28.1968 F120.00
G01 X31.7177 Y28.2219 F120.00
G01 X31.6673 Y28.2521 F120.00
G01 X31.6201 Y28.2871 F120.00
G01 X31.5766 Y28.3266 F120.00
G01 X31.5371 Y28.3701 F120.00
G01 X31.5021 Y28.4173 F120.00
G01 X31.4719 Y28.4677 F120.00
G01 X31.4468 Y28.5209 F120.00
G01 X31.4270 Y28.5762 F120.00
G01 X31.4127 Y28.6332 F120.00
G01 X31.4041 Y28.6913 F120.00
G01 X31.4012 Y28.7500 F120.00
G01 X31.4041 Y28.8087 F120.00
G01 X31.4127 Y28.8668 F120.00
G01 X31.4270 Y28.9238 F120.00
G01 X31.4468 Y28.9791 F120.00
G01 X31.4719 Y29.0323 F120.00
G01 X31.5021 Y29.0827 F120.00
G01 X31.5371 Y29.1299 F120.00
G01 X31.5766 Y29.1734 F120.00
G01 X31.6201 Y29.2129 F120.00
G01 X31.6673 Y29.2479 F120.00
G01 X31.7177 Y29.2781 F120.00
G01 X31.7709 Y29.3032 F120.00
G01 X31.8262 Y29.3230 F120.00
G01 X31.8832 Y29.3373 F120.00
G01 X31.9413 Y29.3459 F120.00
G01 X32.0000 Y29.3488 F120.00
G01 X32.0587 Y29.3459 F120.00
G01 X32.1168 Y29.3373 F120.00
G01 X32.1738 Y29.3230 F120.00
G01 X32.2291 Y29.3032 F120.00
G01 X32.2823 Y29.2781 F120.00
G01 X32.3327 Y29.2479 F120.00
G01 X32.3799 Y29.2129 F120.00
G01 X32.4234 Y29.1734 F120.00
G01 X32.4629 Y29.1299 F120.00
G01 X32.4979 Y29.0827 F120.00
G01 X32.5281 Y29.0323 F120.00
G01 X32.5532 Y28.9791 F120.00
G01 X32.5730 Y28.9238 F120.00
G01 X32.5873 Y28.8668 F120.00
G01 X32.5959 Y28.8087 F120.00
G01 X32.5988 Y28.7500 F120.00
G00 X32.5988 Y28.7500
G01 F60.00
G01 Z-1.6000
G01 F120.00
G01 X32.5959 Y28.6913 F120.00
G01 X32.5873 Y28.6332 F120.00
G01 X32.5730 Y28.5762 F120.00
G01 X32.5532 Y28.5209 F120.00
G01 X32.5281 Y28.4677 F120.00
G01 X32.4979 Y28.4173 F120.00
G01 X32.4629 Y28.3701 F120.00
G01 X32.4234 Y28.3266 F120.00
G01 X32.3799 Y28.2871 F120.00
G01 X32.3327 Y28.2521 F120.00
G01 X32.2823 Y28.2219 F120.00
G01 X32.2291 Y28.1968 F120.00
G01 X32.1738 Y28.1770 F120.00
G01 X32.1168 Y28.1627 F120.00
G01 X32.0587 Y28.1541 F120.00
G01 X32.0000 Y28.1512 F120.00
G01 X31.9413 Y28.1541 F120.00
G01 X31.8832 Y28.1627 F120.00
G01 X31.8262 Y28.1770 F120.00
G01 X31.7709 Y28.1968 F120.00
G01 X31.7177 Y28.2219 F120.00
G01 X31.6673 Y28.2521 F120.00
G01 X31.6201 Y28.2871 F120.00
G01 X31.5766 Y28.3266 F120.00
G01 X31.5371 Y28.3701 F120.00
G01 X31.5021 Y28.4173 F120.00
G01 X31.4719 Y28.4677 F120.00
G01 X31.4468 Y28.5209 F120.00
G01 X31.4270 Y28.5762 F120.00
G01 X31.4127 Y28.6332 F120.00
G01 X31.4041 Y28.6913 F120.00
G01 X31.4012 Y28.7500 F120.00
G01 X31.4041 Y28.8087 F120.00
G01 X31.4127 Y28.8668 F120.00
G01 X31.4270 Y28.9238 F120.00
G01 X31.4468 Y28.9791 F120.00
G01 X31.4719 Y29.0323 F120.00
G01 X31.5021 Y29.0827 F120.00
G01 X31.5371 Y29.1299 F120.00
G01 X31.5766 Y29.1734 F120.00
G01 X31.6201 Y29.2129 F120.00
G01 X31.6673 Y29.2479 F120.00
G01 X31.7177 Y29.2781 F120.00
G01 X31.7709 Y29.3032 F120.00
G01 X31.8262 Y29.3230 F120.00
G01 X31.8832 Y29.3373 F120.00
G01 X31.9413 Y29.3459 F120.00
G01 X32.0000 Y29.3488 F120.00
G01 X32.0587 Y29.3459 F120.00
G01 X32.1168 Y29.3373 F120.00
G01 X32.1738 Y29.3230 F120.00
G01 X32.2291 Y29.3032 F120.00
G01 X32.2823 Y29.2781 F120.00
G01 X32.3327 Y29.2479 F120.00
G01 X32.3799 Y29.2129 F120.00
G01 X32.4234 Y29.1734 F120.00
G01 X32.4629 Y29.1299 F120.00
G01 X32.4979 Y29.0827 F120.00
G01 X32.5281 Y29.0323 F120.00
G01 X32.5532 Y28.9791 F120.00
G01 X32.5730 Y28.9238 F120.00
G01 X32.5873 Y28.8668 F120.00
G01 X32.5959 Y28.8087 F120.00
G01 X32.5988 Y28.7500 F120.00
G00 X32.5988 Y28.7500
G01 F60.00
G01 Z-2.0000
G01 F120.00
G01 X32.5959 Y28.6913 F120.00
G01 X32.5873 Y28.6332 F120.00
G01 X32.5730 Y28.5762 F120.00
G01 X32.5532 Y28.5209 F120.00
G01 X32.5281 Y28.4677 F120.00
G01 X32.4979 Y28.4173 F120.00
G01 X32.4629 Y28.3701 F120.00
G01 X32.4234 Y28.3266 F120.00
G01 X32.3799 Y28.2871 F120.00
G01 X32.3327 Y28.2521 F120.00
G01 X32.2823 Y28.2219 F120.00
G01 X32.2291 Y28.1968 F120.00
G01 X32.1738 Y28.1770 F120.00
G01 X32.1168 Y28.1627 F120.00
G01 X32.0587 Y28.1541 F120.00
G01 X32.0000 Y28.1512 F120.00
G01 X31.9413 Y28.1541 F120.00
G01 X31.8832 Y28.1627 F120.00
G01 X31.8262 Y28.1770 F120.00
G01 X31.7709 Y28.1968 F120.00
G01 X31.7177 Y28.2219 F120.00
G01 X31.6673 Y28.2521 F120.00
G01 X31.6201 Y28.2871 F120.00
G01 X31.5766 Y28.3266 F120.00
G01 X31.5371 Y28.3701 F120.00
G01 X31.5021 Y28.4173 F120.00
G01 X31.4719 Y28.4677 F120.00
G01 X31.4468 Y28.5209 F120.00
G01 X31.4270 Y28.5762 F120.00
G01 X31.4127 Y28.6332 F120.00
G01 X31.4041 Y28.6913 F120.00
G01 X31.4012 Y28.7500 F120.00
G01 X31.4041 Y28.8087 F120.00
G01 X31.4127 Y28.8668 F120.00
G01 X31.4270 Y28.9238 F120.00
G01 X31.4468 Y28.9791 F120.00
G01 X31.4719 Y29.0323 F120.00
G01 X31.5021 Y29.0827 F120.00
G01 X31.5371 Y29.1299 F120.00
G01 X31.5766 Y29.1734 F120.00
G01 X31.6201 Y29.2129 F120.00
G01 X31.6673 Y29.2479 F120.00
G01 X31.7177 Y29.2781 F120.00
G01 X31.7709 Y29.3032 F120.00
G01 X31.8262 Y29.3230 F120.00
G01 X31.8832 Y29.3373 F120.00
G01 X31.9413 Y29.3459 F120.00
G01 X32.0000 Y29.3488 F120.00
G01 X32.0587 Y29.3459 F120.00
G01 X32.1168 Y29.3373 F120.00
G01 X32.1738 Y29.3230 F120.00
G01 X32.2291 Y29.3032 F120.00
G01 X32.2823 Y29.2781 F120.00
G01 X32.3327 Y29.2479 F120.00
G01 X32.3799 Y29.2129 F120.00
G01 X32.4234 Y29.1734 F120.00
G01 X32.4629 Y29.1299 F120.00
G01 X32.4979 Y29.0827 F120.00
G01 X32.5281 Y29.0323 F120.00
G01 X32.5532 Y28.9791 F120.00
G01 X32.5730 Y28.9238 F120.00
G01 X32.5873 Y28.8668 F120.00
G01 X32.5959 Y28.8087 F120.00
G01 X32.5988 Y28.7500 F120.00
G00 X32.5988 Y28.7500
G01 F60.00
G01 Z-2.4000
G01 F120.00
G01 X32.5959 Y28.6913 F120.00
G01 X32.5873 Y28.6332 F120.00
G01 X32.5730 Y28.5762 F120.00
G01 X32.5532 Y28.5209 F120.00
G01 X32.5281 Y28.4677 F120.00
G01 X32.4979 Y28.4173 F120.00
G01 X32.4629 Y28.3701 F120.00
G01 X32.4234 Y28.3266 F120.00
G01 X32.3799 Y28.2871 F120.00
G01 X32.3327 Y28.2521 F120.00
G01 X32.2823 Y28.2219 F120.00
G01 X32.2291 Y28.1968 F120.00
G01 X32.1738 Y28.1770 F120.00
G01 X32.1168 Y28.1627 F120.00
G01 X32.0587 Y28.1541 F120.00
G01 X32.0000 Y28.1512 F120.00
G01 X31.9413 Y28.1541 F120.00
G01 X31.8832 Y28.1627 F120.00
G01 X31.8262 Y28.1770 F120.00
G01 X31.7709 Y28.1968 F120.00
G01 X31.7177 Y28.2219 F120.00
G01 X31.6673 Y28.2521 F120.00
G01 X31.6201 Y28.2871 F120.00
G01 X31.5766 Y28.3266 F120.00
G01 X31.5371 Y28.3701 F120.00
G01 X31.5021 Y28.4173 F120.00
G01 X31.4719 Y28.4677 F120.00
G01 X31.4468 Y28.5209 F120.00
G01 X31.4270 Y28.5762 F120.00
G01 X31.4127 Y28.6332 F120.00
G01 X31.4041 Y28.6913 F120.00
G01 X31.4012 Y28.7500 F120.00
G01 X31.4041 Y28.8087 F120.00
G01 X31.4127 Y28.8668 F120.00
G01 X31.4270 Y28.9238 F120.00
G01 X31.4468 Y28.9791 F120.00
G01 X31.4719 Y29.0323 F120.00
G01 X31.5021 Y29.0827 F120.00
G01 X31.5371 Y29.1299 F120.00
G01 X31.5766 Y29.1734 F120.00
G01 X31.6201 Y29.2129 F120.00
G01 X31.6673 Y29.2479 F120.00
G01 X31.7177 Y29.2781 F120.00
G01 X31.7709 Y29.3032 F120.00
G01 X31.8262 Y29.3230 F120.00
G01 X31.8832 Y29.3373 F120.00
G01 X31.9413 Y29.3459 F120.00
G01 X32.0000 Y29.3488 F120.00
G01 X32.0587 Y29.3459 F120.00
G01 X32.1168 Y29.3373 F120.00
G01 X32.1738 Y29.3230 F120.00
G01 X32.2291 Y29.3032 F120.00
G01 X32.2823 Y29.2781 F120.00
G01 X32.3327 Y29.2479 F120.00
G01 X32.3799 Y29.2129 F120.00
G01 X32.4234 Y29.1734 F120.00
G01 X32.4629 Y29.1299 F120.00
G01 X32.4979 Y29.0827 F120.00
G01 X32.5281 Y29.0323 F120.00
G01 X32.5532 Y28.9791 F120.00
G01 X32.5730 Y28.9238 F120.00
G01 X32.5873 Y28.8668 F120.00
G01 X32.5959 Y28.8087 F120.00
G01 X32.5988 Y28.7500 F120.00
G00 Z2.0000
G00 X77.1988 Y37.2200
G01 F60.00
G01 Z-0.4000
G01 F120.00
G01 X77.1971 Y37.1858 F120.00
G01 X77.1921 Y37.1520 F120.00
G01 X77.1838 Y37.1188 F120.00
G01 X77.1722 Y37.0865 F120.00
G01 X77.1576 Y37.0556 F120.00
G01 X77.1400 Y37.0262 F120.00
G01 X77.1196 Y36.9987 F120.00
G01 X77.0966 Y36.9734 F120.00
G01 X77.0713 Y36.9504 F120.00
G01 X77.0438 Y36.9300 F120.00
G01 X77.0144 Y36.9124 F120.00
G01 X76.9835 Y36.8978 F120.00
G01 X76.9512 Y36.8862 F120.00
G01 X76.9180 Y36.8779 F120.00
G01 X76.8842 Y36.8729 F120.00
G01 X76.8500 Y36.8712 F120.00
G01 X76.8158 Y36.8729 F120.00
G01 X76.7820 Y36.8779 F120.00
G01 X76.7488 Y36.8862 F120.00
G01 X76.7165 Y36.8978 F120.00
G01 X76.6856 Y36.9124 F120.00
G01 X76.6562 Y36.9300 F120.00
G01 X76.6287 Y36.9504 F120.00
G01 X76.6034 Y36.9734 F120.00
G01 X76.5804 Y36.9987 F120.00
G01 X76.5600 Y37.0262 F120.00
G01 X76.5424 Y37.0556 F120.00
G01 X76.5278 Y37.0865 F120.00
G01 X76.5162 Y37.1188 F120.00
G01 X76.5079 Y37.1520 F120.00
G01 X76.5029 Y37.1858 F120.00
G01 X76.5012 Y37.2200 F120.00
G01 X76.5029 Y37.2542 F120.00
G01 X76.5079 Y37.2880 F120.00
G01 X76.5162 Y37.3212 F120.00
G01 X76.5278 Y37.3535 F120.00
G01 X76.5424 Y37.3844 F120.00
G01 X76.5600 Y37.4138 F120.00
G01 X76.5804 Y37.4413 F120.00
G01 X76.6034 Y37.4666 F120.00
G01 X76.6287 Y37.4896 F120.00
G01 X76.6562 Y37.5100 F120.00
G01 X76.6856 Y37.5276 F120.00
G01 X76.7165 Y37.5422 F120.00
G01 X76.7488 Y37.5538 F120.00
G01 X76.7820 Y37.5621 F120.00
G01 X76.8158 Y37.5671 F120.00
G01 X76.8500 Y37.5688 F120.00
G01 X76.8842 Y37.5671 F120.00
G01 X76.9180 Y37.5621 F120.00
G01 X76.9512 Y37.5538 F120.00
G01 X76.9835 Y37.5422 F120.00
G01 X77.0144 Y37.5276 F120.00
G01 X77.0438 Y37.5100 F120.00
G01 X77.0713 Y37.4896 F120.00
G01 X77.0966 Y37.4666 F120.00
G01 X77.1196 Y37.4413 F120.00
G01 X77.1400 Y37.4138 F120.00
G01 X77.1576 Y37.3844 F120.00
G01 X77.1722 Y37.3535 F120.00
G01 X77.1838 Y37.3212 F120.00
G01 X77.1921 Y37.2880 F120.00
G01 X77.1971 Y37.2542 F120.00
G01 X77.1988 Y37.2200 F120.00
G00 X77.1988 Y37.2200
G01 F60.00
G01 Z-0.8000
G01 F120.00
G01 X77.1971 Y37.1858 F120.00
G01 X77.1921 Y37.1520 F120.00
G01 X77.1838 Y37.1188 F120.00
G01 X77.1722 Y37.0865 F120.00
G01 X77.1576 Y37.0556 F120.00
G01 X77.1400 Y37.0262 F120.00
G01 X77.1196 Y36.9987 F120.00
G01 X77.0966 Y36.9734 F120.00
G01 X77.0713 Y36.9504 F120.00
G01 X77.0438 Y36.9300 F120.00
G01 X77.0144 Y36.9124 F120.00
G01 X76.9835 Y36.8978 F120.00
G01 X76.9512 Y36.8862 F120.00
G01 X76.9180 Y36.8779 F120.00
G01 X76.8842 Y36.8729 F120.00
G01 X76.8500 Y36.8712 F120.00
G01 X76.8158 Y36.8729 F120.00
G01 X76.7820 Y36.8779 F120.00
G01 X76.7488 Y36.8862 F120.00
G01 X76.7165 Y36.8978 F120.00
G01 X76.6856 Y36.9124 F120.00
G01 X76.6562 Y36.9300 F120.00
G01 X76.6287 Y36.9504 F120.00
G01 X76.6034 Y36.9734 F120.00
G01 X76.5804 Y36.9987 F120.00
G01 X76.5600 Y37.0262 F120.00
G01 X76.5424 Y37.0556 F120.00
G01 X76.5278 Y37.0865 F120.00
G01 X76.5162 Y37.1188 F120.00
G01 X76.5079 Y37.1520 F120.00
G01 X76.5029 Y37.1858 F120.00
G01 X76.5012 Y37.2200 F120.00
G01 X76.5029 Y37.2542 F120.00
G01 X76.5079 Y37.2880 F120.00
G01 X76.5162 Y37.3212 F120.00
G01 X76.5278 Y37.3535 F120.00
G01 X76.5424 Y37.3844 F120.00
G01 X76.5600 Y37.4138 F120.00
G01 X76.5804 Y37.4413 F120.00
G01 X76.6034 Y37.4666 F120.00
G01 X76.6287 Y37.4896 F120.00
G01 X76.6562 Y37.5100 F120.00
G01 X76.6856 Y37.5276 F120.00
G01 X76.7165 Y37.5422 F120.00
G01 X76.7488 Y37.5538 F120.00
G01 X76.7820 Y37.5621 F120.00
G01 X76.8158 Y37.5671 F120.00
G01 X76.8500 Y37.5688 F120.00
G01 X76.8842 Y37.5671 F120.00
G01 X76.9180 Y37.5621 F120.00
G01 X76.9512 Y37.5538 F120.00
G01 X76.9835 Y37.5422 F120.00
G01 X77.0144 Y37.5276 F120.00
G01 X77.0438 Y37.5100 F120.00
G01 X77.0713 Y37.4896 F120.00
G01 X77.0966 Y37.4666 F120.00
G01 X77.1196 Y37.4413 F120.00
G01 X77.1400 Y37.4138 F120.00
G01 X77.1576 Y37.3844 F120.00
G01 X77.1722 Y37.3535 F120.00
G01 X77.1838 Y37.3212 F120.00
G01 X77.1921 Y37.2880 F120.00
G01 X77.1971 Y37.2542 F120.00
G01 X77.1988 Y37.2200 F120.00
G00 X77.1988 Y37.2200
G01 F60.00
G01 Z-1.2000
G01 F120.00
G01 X77.1971 Y37.1858 F120.00
G01 X77.1921 Y37.1520 F120.00
G01 X77.1838 Y37.1188 F120.00
G01 X77.1722 Y37.0865 F120.00
G01 X77.1576 Y37.0556 F120.00
G01 X77.1400 Y37.0262 F120.00
G01 X77.1196 Y36.9987 F120.00
G01 X77.0966 Y36.9734 F120.00
G01 X77.0713 Y36.9504 F120.00
G01 X77.0438 Y36.9300 F120.00
G01 X77.0144 Y36.9124 F120.00
G01 X76.9835 Y36.8978 F120.00
G01 X76.9512 Y36.8862 F120.00
G01 X76.9180 Y36.8779 F120.00
G01 X76.8842 Y36.8729 F120.00
G01 X76.8500 Y36.8712 F120.00
G01 X76.8158 Y36.8729 F120.00
G01 X76.7820 Y36.8779 F120.00
G01 X76.7488 Y36.8862 F120.00
G01 X76.7165 Y36.8978 F120.00
G01 X76.6856 Y36.9124 F120.00
G01 X76.6562 Y36.9300 F120.00
G01 X76.6287 Y36.9504 F120.00
G01 X76.6034 Y36.9734 F120.00
G01 X76.5804 Y36.9987 F120.00
G01 X76.5600 Y37.0262 F120.00
G01 X76.5424 Y37.0556 F120.00
G01 X76.5278 Y37.0865 F120.00
G01 X76.5162 Y37.1188 F120.00
G01 X76.5079 Y37.1520 F120.00
G01 X76.5029 Y37.1858 F120.00
G01 X76.5012 Y37.2200 F120.00
G01 X76.5029 Y37.2542 F120.00
G01 X76.5079 Y37.2880 F120.00
G01 X76.5162 Y37.3212 F120.00
G01 X76.5278 Y37.3535 F120.00
G01 X76.5424 Y37.3844 F120.00
G01 X76.5600 Y37.4138 F120.00
G01 X76.5804 Y37.4413 F120.00
G01 X76.6034 Y37.4666 F120.00
G01 X76.6287 Y37.4896 F120.00
G01 X76.6562 Y37.5100 F120.00
G01 X76.6856 Y37.5276 F120.00
G01 X76.7165 Y37.5422 F120.00
G01 X76.7488 Y37.5538 F120.00
G01 X76.7820 Y37.5621 F120.00
G01 X76.8158 Y37.5671 F120.00
G01 X76.8500 Y37.5688 F120.00
G01 X76.8842 Y37.5671 F120.00
G01 X76.9180 Y37.5621 F120.00
G01 X76.9512 Y37.5538 F120.00
G01 X76.9835 Y37.5422 F120.00
G01 X77.0144 Y37.5276 F120.00
G01 X77.0438 Y37.5100 F120.00
G01 X77.0713 Y37.4896 F120.00
G01 X77.0966 Y37.4666 F120.00
G01 X77.1196 Y37.4413 F120.00
G01 X77.1400 Y37.4138 F120.00
G01 X77.1576 Y37.3844 F120.00
G01 X77.1722 Y37.3535 F120.00
G01 X77.1838 Y37.3212 F120.00
G01 X77.1921 Y37.2880 F120.00
G01 X77.1971 Y37.2542 F120.00
G01 X77.1988 Y37.2200 F120.00
G00 X77.1988 Y37.2200
G01 F60.00
G01 Z-1.6000
G01 F120.00
G01 X77.1971 Y37.1858 F120.00
G01 X77.1921 Y37.1520 F120.00
G01 X77.1838 Y37.1188 F120.00
G01 X77.1722 Y37.0865 F120.00
G01 X77.1576 Y37.0556 F120.00
G01 X77.1400 Y37.0262 F120.00
G01 X77.1196 Y36.9987 F120.00
G01 X77.0966 Y36.9734 F120.00
G01 X77.0713 Y36.9504 F120.00
G01 X77.0438 Y36.9300 F120.00
G01 X77.0144 Y36.9124 F120.00
G01 X76.9835 Y36.8978 F120.00
G01 X76.9512 Y36.8862 F120.00
G01 X76.9180 Y36.8779 F120.00
G01 X76.8842 Y36.8729 F120.00
G01 X76.8500 Y36.8712 F120.00
G01 X76.8158 Y36.8729 F120.00
G01 X76.7820 Y36.8779 F120.00
G01 X76.7488 Y36.8862 F120.00
G01 X76.7165 Y36.8978 F120.00
G01 X76.6856 Y36.9124 F120.00
G01 X76.6562 Y36.9300 F120.00
G01 X76.6287 Y36.9504 F120.00
G01 X76.6034 Y36.9734 F120.00
G01 X76.5804 Y36.9987 F120.00
G01 X76.5600 Y37.0262 F120.00
G01 X76.5424 Y37.0556 F120.00
G01 X76.5278 Y37.0865 F120.00
G01 X76.5162 Y37.1188 F120.00
G01 X76.5079 Y37.1520 F120.00
G01 X76.5029 Y37.1858 F120.00
G01 X76.5012 Y37.2200 F120.00
G01 X76.5029 Y37.2542 F120.00
G01 X76.5079 Y37.2880 F120.00
G01 X76.5162 Y37.3212 F120.00
G01 X76.5278 Y37.3535 F120.00
G01 X76.5424 Y37.3844 F120.00
G01 X76.5600 Y37.4138 F120.00
G01 X76.5804 Y37.4413 F120.00
G01 X76.6034 Y37.4666 F120.00
G01 X76.6287 Y37.4896 F120.00
G01 X76.6562 Y37.5100 F120.00
G01 X76.6856 Y37.5276 F120.00
G01 X76.7165 Y37.5422 F120.00
G01 X76.7488 Y37.5538 F120.00
G01 X76.7820 Y37.5621 F120.00
G01 X76.8158 Y37.5671 F120.00
G01 X76.8500 Y37.5688 F120.00
G01 X76.8842 Y37.5671 F120.00
G01 X76.9180 Y37.5621 F120.00
G01 X76.9512 Y37.5538 F120.00
G01 X76.9835 Y37.5422 F120.00
G01 X77.0144 Y37.5276 F120.00
G01 X77.0438 Y37.5100 F120.00
G01 X77.0713 Y37.4896 F120.00
G01 X77.0966 Y37.4666 F120.00
G01 X77.1196 Y37.4413 F120.00
G01 X77.1400 Y37.4138 F120.00
G01 X77.1576 Y37.3844 F120.00
G01 X77.1722 Y37.3535 F120.00
G01 X77.1838 Y37.3212 F120.00
G01 X77.1921 Y37.2880 F120.00
G01 X77.1971 Y37.2542 F120.00
G01 X77.1988 Y37.2200 F120.00
G00 X77.1988 Y37.2200
G01 F60.00
G01 Z-2.0000
G01 F120.00
G01 X77.1971 Y37.1858 F120.00
G01 X77.1921 Y37.1520 F120.00
G01 X77.1838 Y37.1188 F120.00
G01 X77.1722 Y37.0865 F120.00
G01 X77.1576 Y37.0556 F120.00
G01 X77.1400 Y37.0262 F120.00
G01 X77.1196 Y36.9987 F120.00
G01 X77.0966 Y36.9734 F120.00
G01 X77.0713 Y36.9504 F120.00
G01 X77.0438 Y36.9300 F120.00
G01 X77.0144 Y36.9124 F120.00
G01 X76.9835 Y36.8978 F120.00
G01 X76.9512 Y36.8862 F120.00
G01 X76.9180 Y36.8779 F120.00
G01 X76.8842 Y36.8729 F120.00
G01 X76.8500 Y36.8712 F120.00
G01 X76.8158 Y36.8729 F120.00
G01 X76.7820 Y36.8779 F120.00
G01 X76.7488 Y36.8862 F120.00
G01 X76.7165 Y36.8978 F120.00
G01 X76.6856 Y36.9124 F120.00
G01 X76.6562 Y36.9300 F120.00
G01 X76.6287 Y36.9504 F120.00
G01 X76.6034 Y36.9734 F120.00
G01 X76.5804 Y36.9987 F120.00
G01 X76.5600 Y37.0262 F120.00
G01 X76.5424 Y37.0556 F120.00
G01 X76.5278 Y37.0865 F120.00
G01 X76.5162 Y37.1188 F120.00
G01 X76.5079 Y37.1520 F120.00
G01 X76.5029 Y37.1858 F120.00
G01 X76.5012 Y37.2200 F120.00
G01 X76.5029 Y37.2542 F120.00
G01 X76.5079 Y37.2880 F120.00
G01 X76.5162 Y37.3212 F120.00
G01 X76.5278 Y37.3535 F120.00
G01 X76.5424 Y37.3844 F120.00
G01 X76.5600 Y37.4138 F120.00
G01 X76.5804 Y37.4413 F120.00
G01 X76.6034 Y37.4666 F120.00
G01 X76.6287 Y37.4896 F120.00
G01 X76.6562 Y37.5100 F120.00
G01 X76.6856 Y37.5276 F120.00
G01 X76.7165 Y37.5422 F120.00
G01 X76.7488 Y37.5538 F120.00
G01 X76.7820 Y37.5621 F120.00
G01 X76.8158 Y37.5671 F120.00
G01 X76.8500 Y37.5688 F120.00
G01 X76.8842 Y37.5671 F120.00
G01 X76.9180 Y37.5621 F120.00
G01 X76.9512 Y37.5538 F120.00
G01 X76.9835 Y37.5422 F120.00
G01 X77.0144 Y37.5276 F120.00
G01 X77.0438 Y37.5100 F120.00
G01 X77.0713 Y37.4896 F120.00
G01 X77.0966 Y37.4666 F120.00
G01 X77.1196 Y37.4413 F120.00
G01 X77.1400 Y37.4138 F120.00
G01 X77.1576 Y37.3844 F120.00
G01 X77.1722 Y37.3535 F120.00
G01 X77.1838 Y37.3212 F120.00
G01 X77.1921 Y37.2880 F120.00
G01 X77.1971 Y37.2542 F120.00
G01 X77.1988 Y37.2200 F120.00
G00 X77.1988 Y37.2200
G01 F60.00
G01 Z-2.4000
G01 F120.00
G01 X77.1971 Y37.1858 F120.00
G01 X77.1921 Y37.1520 F120.00
G01 X77.1838 Y37.1188 F120.00
G01 X77.1722 Y37.0865 F120.00
G01 X77.1576 Y37.0556 F120.00
G01 X77.1400 Y37.0262 F120.00
G01 X77.1196 Y36.9987 F120.00
G01 X77.0966 Y36.9734 F120.00
G01 X77.0713 Y36.9504 F120.00
G01 X77.0438 Y36.9300 F120.00
G01 X77.0144 Y36.9124 F120.00
G01 X76.9835 Y36.8978 F120.00
G01 X76.9512 Y36.8862 F120.00
G01 X76.9180 Y36.8779 F120.00
G01 X76.8842 Y36.8729 F120.00
G01 X76.8500 Y36.8712 F120.00
G01 X76.8158 Y36.8729 F120.00
G01 X76.7820 Y36.8779 F120.00
G01 X76.7488 Y36.8862 F120.00
G01 X76.7165 Y36.8978 F120.00
G01 X76.6856 Y36.9124 F120.00
G01 X76.6562 Y36.9300 F120.00
G01 X76.6287 Y36.9504 F120.00
G01 X76.6034 Y36.9734 F120.00
G01 X76.5804 Y36.9987 F120.00
G01 X76.5600 Y37.0262 F120.00
G01 X76.5424 Y37.0556 F120.00
G01 X76.5278 Y37.0865 F120.00
G01 X76.5162 Y37.1188 F120.00
G01 X76.5079 Y37.1520 F120.00
G01 X76.5029 Y37.1858 F120.00
G01 X76.5012 Y37.2200 F120.00
G01 X76.5029 Y37.2542 F120.00
G01 X76.5079 Y37.2880 F120.00
G01 X76.5162 Y37.3212 F120.00
G01 X76.5278 Y37.3535 F120.00
G01 X76.5424 Y37.3844 F120.00
G01 X76.5600 Y37.4138 F120.00
G01 X76.5804 Y37.4413 F120.00
G01 X76.6034 Y37.4666 F120.00
G01 X76.6287 Y37.4896 F120.00
G01 X76.6562 Y37.5100 F120.00
G01 X76.6856 Y37.5276 F120.00
G01 X76.7165 Y37.5422 F120.00
G01 X76.7488 Y37.5538 F120.00
G01 X76.7820 Y37.5621 F120.00
G01 X76.8158 Y37.5671 F120.00
G01 X76.8500 Y37.5688 F120.00
G01 X76.8842 Y37.5671 F120.00
G01 X76.9180 Y37.5621 F120.00
G01 X76.9512 Y37.5538 F120.00
G01 X76.9835 Y37.5422 F120.00
G01 X77.0144 Y37.5276 F120.00
G01 X77.0438 Y37.5100 F120.00
G01 X77.0713 Y37.4896 F120.00
G01 X77.0966 Y37.4666 F120.00
G01 X77.1196 Y37.4413 F120.00
G01 X77.1400 Y37.4138 F120.00
G01 X77.1576 Y37.3844 F120.00
G01 X77.1722 Y37.3535 F120.00
G01 X77.1838 Y37.3212 F120.00
G01 X77.1921 Y37.2880 F120.00
G01 X77.1971 Y37.2542 F120.00
G01 X77.1988 Y37.2200 F120.00
G00 Z2.0000
G00 X77.2088 Y60.6800
G01 F60.00
G01 Z-0.4000
G01 F120.00
G01 X77.2071 Y60.6458 F120.00
G01 X77.2021 Y60.6120 F120.00
G01 X77.1938 Y60.5788 F120.00
G01 X77.1822 Y60.5465 F120.00
G01 X77.1676 Y60.5156 F120.00
G01 X77.1500 Y60.4862 F120.00
G01 X77.1296 Y60.4587 F120.00
G01 X77.1066 Y60.4334 F120.00
G01 X77.0813 Y60.4104 F120.00
G01 X77.0538 Y60.3900 F120.00
G01 X77.0244 Y60.3724 F120.00
G01 X76.9935 Y60.3578 F120.00
G01 X76.9612 Y60.3462 F120.00
G01 X76.9280 Y60.3379 F120.00
G01 X76.8942 Y60.3329 F120.00
G01 X76.8600 Y60.3312 F120.00
G01 X76.8258 Y60.3329 F120.00
G01 X76.7920 Y60.3379 F120.00
G01 X76.7588 Y60.3462 F120.00
G01 X76.7265 Y60.3578 F120.00
G01 X76.6956 Y60.3724 F120.00
G01 X76.6662 Y60.3900 F120.00
G01 X76.6387 Y60.4104 F120.00
G01 X76.6134 Y60.4334 F120.00
G01 X76.5904 Y60.4587 F120.00
G01 X76.5700 Y60.4862 F120.00
G01 X76.5524 Y60.5156 F120.00
G01 X76.5378 Y60.5465 F120.00
G01 X76.5262 Y60.5788 F120.00
G01 X76.5179 Y60.6120 F120.00
G01 X76.5129 Y60.6458 F120.00
G01 X76.5112 Y60.6800 F120.00
G01 X76.5129 Y60.7142 F120.00
G01 X76.5179 Y60.7480 F120.00
G01 X76.5262 Y60.7812 F120.00
G01 X76.5378 Y60.8135 F120.00
G01 X76.5524 Y60.8444 F120.00
G01 X76.5700 Y60.8738 F120.00
G01 X76.5904 Y60.9013 F120.00
G01 X76.6134 Y60.9266 F120.00
G01 X76.6387 Y60.9496 F120.00
G01 X76.6662 Y60.9700 F120.00
G01 X76.6956 Y60.9876 F120.00
G01 X76.7265 Y61.0022 F120.00
G01 X76.7588 Y61.0138 F120.00
G01 X76.7920 Y61.0221 F120.00
G01 X76.8258 Y61.0271 F120.00
G01 X76.8600 Y61.0288 F120.00
G01 X76.8942 Y61.0271 F120.00
G01 X76.9280 Y61.0221 F120.00
G01 X76.9612 Y61.0138 F120.00
G01 X76.9935 Y61.0022 F120.00
G01 X77.0244 Y60.9876 F120.00
G01 X77.0538 Y60.9700 F120.00
G01 X77.0813 Y60.9496 F120.00
G01 X77.1066 Y60.9266 F120.00
G01 X77.1296 Y60.9013 F120.00
G01 X77.1500 Y60.8738 F120.00
G01 X77.1676 Y60.8444 F120.00
G01 X77.1822 Y60.8135 F120.00
G01 X77.1938 Y60.7812 F120.00
G01 X77.2021 Y60.7480 F120.00
G01 X77.2071 Y60.7142 F120.00
G01 X77.2088 Y60.6800 F120.00
G00 X77.2088 Y60.6800
G01 F60.00
G01 Z-0.8000
G01 F120.00
G01 X77.2071 Y60.6458 F120.00
G01 X77.2021 Y60.6120 F120.00
G01 X77.1938 Y60.5788 F120.00
G01 X77.1822 Y60.5465 F120.00
G01 X77.1676 Y60.5156 F120.00
G01 X77.1500 Y60.4862 F120.00
G01 X77.1296 Y60.4587 F120.00
G01 X77.1066 Y60.4334 F120.00
G01 X77.0813 Y60.4104 F120.00
G01 X77.0538 Y60.3900 F120.00
G01 X77.0244 Y60.3724 F120.00
G01 X76.9935 Y60.3578 F120.00
G01 X76.9612 Y60.3462 F120.00
G01 X76.9280 Y60.3379 F120.00
G01 X76.8942 Y60.3329 F120.00
G01 X76.8600 Y60.3312 F120.00
G01 X76.8258 Y60.3329 F120.00
G01 X76.7920 Y60.3379 F120.00
G01 X76.7588 Y60.3462 F120.00
G01 X76.7265 Y60.3578 F120.00
G01 X76.6956 Y60.3724 F120.00
G01 X76.6662 Y60.3900 F120.00
G01 X76.6387 Y60.4104 F120.00
G01 X76.6134 Y60.4334 F120.00
G01 X76.5904 Y60.4587 F120.00
G01 X76.5700 Y60.4862 F120.00
G01 X76.5524 Y60.5156 F120.00
G01 X76.5378 Y60.5465 F120.00
G01 X76.5262 Y60.5788 F120.00
G01 X76.5179 Y60.6120 F120.00
G01 X76.5129 Y60.6458 F120.00
G01 X76.5112 Y60.6800 F120.00
G01 X76.5129 Y60.7142 F120.00
G01 X76.5179 Y60.7480 F120.00
G01 X76.5262 Y60.7812 F120.00
G01 X76.5378 Y60.8135 F120.00
G01 X76.5524 Y60.8444 F120.00
G01 X76.5700 Y60.8738 F120.00
G01 X76.5904 Y60.9013 F120.00
G01 X76.6134 Y60.9266 F120.00
G01 X76.6387 Y60.9496 F120.00
G01 X76.6662 Y60.9700 F120.00
G01 X76.6956 Y60.9876 F120.00
G01 X76.7265 Y61.0022 F120.00
G01 X76.7588 Y61.0138 F120.00
G01 X76.7920 Y61.0221 F120.00
G01 X76.8258 Y61.0271 F120.00
G01 X76.8600 Y61.0288 F120.00
G01 X76.8942 Y61.0271 F120.00
G01 X76.9280 Y61.0221 F120.00
G01 X76.9612 Y61.0138 F120.00
G01 X76.9935 Y61.0022 F120.00
G01 X77.0244 Y60.9876 F120.00
G01 X77.0538 Y60.9700 F120.00
G01 X77.0813 Y60.9496 F120.00
G01 X77.1066 Y60.9266 F120.00
G01 X77.1296 Y60.9013 F120.00
G01 X77.1500 Y60.8738 F120.00
G01 X77.1676 Y60.8444 F120.00
G01 X77.1822 Y60.8135 F120.00
G01 X77.1938 Y60.7812 F120.00
G01 X77.2021 Y60.7480 F120.00
G01 X77.2071 Y60.7142 F120.00
G01 X77.2088 Y60.6800 F120.00
G00 X77.2088 Y60.6800
G01 F60.00
G01 Z-1.2000
G01 F120.00
G01 X77.2071 Y60.6458 F120.00
G01 X77.2021 Y60.6120 F120.00
G01 X77.1938 Y60.5788 F120.00
G01 X77.1822 Y60.5465 F120.00
G01 X77.1676 Y60.5156 F120.00
G01 X77.1500 Y60.4862 F120.00
G01 X77.1296 Y60.4587 F120.00
G01 X77.1066 Y60.4334 F120.00
G01 X77.0813 Y60.4104 F120.00
G01 X77.0538 Y60.3900 F120.00
G01 X77.0244 Y60.3724 F120.00
G01 X76.9935 Y60.3578 F120.00
G01 X76.9612 Y60.3462 F120.00
G01 X76.9280 Y60.3379 F120.00
G01 X76.8942 Y60.3329 F120.00
G01 X76.8600 Y60.3312 F120.00
G01 X76.8258 Y60.3329 F120.00
G01 X76.7920 Y60.3379 F120.00
G01 X76.7588 Y60.3462 F120.00
G01 X76.7265 Y60.3578 F120.00
G01 X76.6956 Y60.3724 F120.00
G01 X76.6662 Y60.3900 F120.00
G01 X76.6387 Y60.4104 F120.00
G01 X76.6134 Y60.4334 F120.00
G01 X76.5904 Y60.4587 F120.00
G01 X76.5700 Y60.4862 F120.00
G01 X76.5524 Y60.5156 F120.00
G01 X76.5378 Y60.5465 F120.00
G01 X76.5262 Y60.5788 F120.00
G01 X76.5179 Y60.6120 F120.00
G01 X76.5129 Y60.6458 F120.00
G01 X76.5112 Y60.6800 F120.00
G01 X76.5129 Y60.7142 F120.00
G01 X76.5179 Y60.7480 F120.00
G01 X76.5262 Y60.7812 F120.00
G01 X76.5378 Y60.8135 F120.00
G01 X76.5524 Y60.8444 F120.00
G01 X76.5700 Y60.8738 F120.00
G01 X76.5904 Y60.9013 F120.00
G01 X76.6134 Y60.9266 F120.00
G01 X76.6387 Y60.9496 F120.00
G01 X76.6662 Y60.9700 F120.00
G01 X76.6956 Y60.9876 F120.00
G01 X76.7265 Y61.0022 F120.00
G01 X76.7588 Y61.0138 F120.00
G01 X76.7920 Y61.0221 F120.00
G01 X76.8258 Y61.0271 F120.00
G01 X76.8600 Y61.0288 F120.00
G01 X76.8942 Y61.0271 F120.00
G01 X76.9280 Y61.0221 F120.00
G01 X76.9612 Y61.0138 F120.00
G01 X76.9935 Y61.0022 F120.00
G01 X77.0244 Y60.9876 F120.00
G01 X77.0538 Y60.9700 F120.00
G01 X77.0813 Y60.9496 F120.00
G01 X77.1066 Y60.9266 F120.00
G01 X77.1296 Y60.9013 F120.00
G01 X77.1500 Y60.8738 F120.00
G01 X77.1676 Y60.8444 F120.00
G01 X77.1822 Y60.8135 F120.00
G01 X77.1938 Y60.7812 F120.00
G01 X77.2021 Y60.7480 F120.00
G01 X77.2071 Y60.7142 F120.00
G01 X77.2088 Y60.6800 F120.00
G00 X77.2088 Y60.6800
G01 F60.00
G01 Z-1.6000
G01 F120.00
G01 X77.2071 Y60.6458 F120.00
G01 X77.2021 Y60.6120 F120.00
G01 X77.1938 Y60.5788 F120.00
G01 X77.1822 Y60.5465 F120.00
G01 X77.1676 Y60.5156 F120.00
G01 X77.1500 Y60.4862 F120.00
G01 X77.1296 Y60.4587 F120.00
G01 X77.1066 Y60.4334 F120.00
G01 X77.0813 Y60.4104 F120.00
G01 X77.0538 Y60.3900 F120.00
G01 X77.0244 Y60.3724 F120.00
G01 X76.9935 Y60.3578 F120.00
G01 X76.9612 Y60.3462 F120.00
G01 X76.9280 Y60.3379 F120.00
G01 X76.8942 Y60.3329 F120.00
G01 X76.8600 Y60.3312 F120.00
G01 X76.8258 Y60.3329 F120.00
G01 X76.7920 Y60.3379 F120.00
G01 X76.7588 Y60.3462 F120.00
G01 X76.7265 Y60.3578 F120.00
G01 X76.6956 Y60.3724 F120.00
G01 X76.6662 Y60.3900 F120.00
G01 X76.6387 Y60.4104 F120.00
G01 X76.6134 Y60.4334 F120.00
G01 X76.5904 Y60.4587 F120.00
G01 X76.5700 Y60.4862 F120.00
G01 X76.5524 Y60.5156 F120.00
G01 X76.5378 Y60.5465 F120.00
G01 X76.5262 Y60.5788 F120.00
G01 X76.5179 Y60.6120 F120.00
G01 X76.5129 Y60.6458 F120.00
G01 X76.5112 Y60.6800 F120.00
G01 X76.5129 Y60.7142 F120.00
G01 X76.5179 Y60.7480 F120.00
G01 X76.5262 Y60.7812 F120.00
G01 X76.5378 Y60.8135 F120.00
G01 X76.5524 Y60.8444 F120.00
G01 X76.5700 Y60.8738 F120.00
G01 X76.5904 Y60.9013 F120.00
G01 X76.6134 Y60.9266 F120.00
G01 X76.6387 Y60.9496 F120.00
G01 X76.6662 Y60.9700 F120.00
G01 X76.6956 Y60.9876 F120.00
G01 X76.7265 Y61.0022 F120.00
G01 X76.7588 Y61.0138 F120.00
G01 X76.7920 Y61.0221 F120.00
G01 X76.8258 Y61.0271 F120.00
G01 X76.8600 Y61.0288 F120.00
G01 X76.8942 Y61.0271 F120.00
G01 X76.9280 Y61.0221 F120.00
G01 X76.9612 Y61.0138 F120.00
G01 X76.9935 Y61.0022 F120.00
G01 X77.0244 Y60.9876 F120.00
G01 X77.0538 Y60.9700 F120.00
G01 X77.0813 Y60.9496 F120.00
G01 X77.1066 Y60.9266 F120.00
G01 X77.1296 Y60.9013 F120.00
G01 X77.1500 Y60.8738 F120.00
G01 X77.1676 Y60.8444 F120.00
G01 X77.1822 Y60.8135 F120.00
G01 X77.1938 Y60.7812 F120.00
G01 X77.2021 Y60.7480 F120.00
G01 X77.2071 Y60.7142 F120.00
G01 X77.2088 Y60.6800 F120.00
G00 X77.2088 Y60.6800
G01 F60.00
G01 Z-2.0000
G01 F120.00
G01 X77.2071 Y60.6458 F120.00
G01 X77.2021 Y60.6120 F120.00
G01 X77.1938 Y60.5788 F120.00
G01 X77.1822 Y60.5465 F120.00
G01 X77.1676 Y60.5156 F120.00
G01 X77.1500 Y60.4862 F120.00
G01 X77.1296 Y60.4587 F120.00
G01 X77.1066 Y60.4334 F120.00
G01 X77.0813 Y60.4104 F120.00
G01 X77.0538 Y60.3900 F120.00
G01 X77.0244 Y60.3724 F120.00
G01 X76.9935 Y60.3578 F120.00
G01 X76.9612 Y60.3462 F120.00
G01 X76.9280 Y60.3379 F120.00
G01 X76.8942 Y60.3329 F120.00
G01 X76.8600 Y60.3312 F120.00
G01 X76.8258 Y60.3329 F120.00
G01 X76.7920 Y60.3379 F120.00
G01 X76.7588 Y60.3462 F120.00
G01 X76.7265 Y60.3578 F120.00
G01 X76.6956 Y60.3724 F120.00
G01 X76.6662 Y60.3900 F120.00
G01 X76.6387 Y60.4104 F120.00
G01 X76.6134 Y60.4334 F120.00
G01 X76.5904 Y60.4587 F120.00
G01 X76.5700 Y60.4862 F120.00
G01 X76.5524 Y60.5156 F120.00
G01 X76.5378 Y60.5465 F120.00
G01 X76.5262 Y60.5788 F120.00
G01 X76.5179 Y60.6120 F120.00
G01 X76.5129 Y60.6458 F120.00
G01 X76.5112 Y60.6800 F120.00
G01 X76.5129 Y60.7142 F120.00
G01 X76.5179 Y60.7480 F120.00
G01 X76.5262 Y60.7812 F120.00
G01 X76.5378 Y60.8135 F120.00
G01 X76.5524 Y60.8444 F120.00
G01 X76.5700 Y60.8738 F120.00
G01 X76.5904 Y60.9013 F120.00
G01 X76.6134 Y60.9266 F120.00
G01 X76.6387 Y60.9496 F120.00
G01 X76.6662 Y60.9700 F120.00
G01 X76.6956 Y60.9876 F120.00
G01 X76.7265 Y61.0022 F120.00
G01 X76.7588 Y61.0138 F120.00
G01 X76.7920 Y61.0221 F120.00
G01 X76.8258 Y61.0271 F120.00
G01 X76.8600 Y61.0288 F120.00
G01 X76.8942 Y61.0271 F120.00
G01 X76.9280 Y61.0221 F120.00
G01 X76.9612 Y61.0138 F120.00
G01 X76.9935 Y61.0022 F120.00
G01 X77.0244 Y60.9876 F120.00
G01 X77.0538 Y60.9700 F120.00
G01 X77.0813 Y60.9496 F120.00
G01 X77.1066 Y60.9266 F120.00
G01 X77.1296 Y60.9013 F120.00
G01 X77.1500 Y60.8738 F120.00
G01 X77.1676 Y60.8444 F120.00
G01 X77.1822 Y60.8135 F120.00
G01 X77.1938 Y60.7812 F120.00
G01 X77.2021 Y60.7480 F120.00
G01 X77.2071 Y60.7142 F120.00
G01 X77.2088 Y60.6800 F120.00
G00 X77.2088 Y60.6800
G01 F60.00
G01 Z-2.4000
G01 F120.00
G01 X77.2071 Y60.6458 F120.00
G01 X77.2021 Y60.6120 F120.00
G01 X77.1938 Y60.5788 F120.00
G01 X77.1822 Y60.5465 F120.00
G01 X77.1676 Y60.5156 F120.00
G01 X77.1500 Y60.4862 F120.00
G01 X77.1296 Y60.4587 F120.00
G01 X77.1066 Y60.4334 F120.00
G01 X77.0813 Y60.4104 F120.00
G01 X77.0538 Y60.3900 F120.00
G01 X77.0244 Y60.3724 F120.00
G01 X76.9935 Y60.3578 F120.00
G01 X76.9612 Y60.3462 F120.00
G01 X76.9280 Y60.3379 F120.00
G01 X76.8942 Y60.3329 F120.00
G01 X76.8600 Y60.3312 F120.00
G01 X76.8258 Y60.3329 F120.00
G01 X76.7920 Y60.3379 F120.00
G01 X76.7588 Y60.3462 F120.00
G01 X76.7265 Y60.3578 F120.00
G01 X76.6956 Y60.3724 F120.00
G01 X76.6662 Y60.3900 F120.00
G01 X76.6387 Y60.4104 F120.00
G01 X76.6134 Y60.4334 F120.00
G01 X76.5904 Y60.4587 F120.00
G01 X76.5700 Y60.4862 F120.00
G01 X76.5524 Y60.5156 F120.00
G01 X76.5378 Y60.5465 F120.00
G01 X76.5262 Y60.5788 F120.00
G01 X76.5179 Y60.6120 F120.00
G01 X76.5129 Y60.6458 F120.00
G01 X76.5112 Y60.6800 F120.00
G01 X76.5129 Y60.7142 F120.00
G01 X76.5179 Y60.7480 F120.00
G01 X76.5262 Y60.7812 F120.00
G01 X76.5378 Y60.8135 F120.00
G01 X76.5524 Y60.8444 F120.00
G01 X76.5700 Y60.8738 F120.00
G01 X76.5904 Y60.9013 F120.00
G01 X76.6134 Y60.9266 F120.00
G01 X76.6387 Y60.9496 F120.00
G01 X76.6662 Y60.9700 F120.00
G01 X76.6956 Y60.9876 F120.00
G01 X76.7265 Y61.0022 F120.00
G01 X76.7588 Y61.0138 F120.00
G01 X76.7920 Y61.0221 F120.00
G01 X76.8258 Y61.0271 F120.00
G01 X76.8600 Y61.0288 F120.00
G01 X76.8942 Y61.0271 F120.00
G01 X76.9280 Y61.0221 F120.00
G01 X76.9612 Y61.0138 F120.00
G01 X76.9935 Y61.0022 F120.00
G01 X77.0244 Y60.9876 F120.00
G01 X77.0538 Y60.9700 F120.00
G01 X77.0813 Y60.9496 F120.00
G01 X77.1066 Y60.9266 F120.00
G01 X77.1296 Y60.9013 F120.00
G01 X77.1500 Y60.8738 F120.00
G01 X77.1676 Y60.8444 F120.00
G01 X77.1822 Y60.8135 F120.00
G01 X77.1938 Y60.7812 F120.00
G01 X77.2021 Y60.7480 F120.00
G01 X77.2071 Y60.7142 F120.00
G01 X77.2088 Y60.6800 F120.00
G00 Z2.0000
G00 X103.4788 Y60.6700
G01 F60.00
G01 Z-0.4000
G01 F120.00
G01 X103.4771 Y60.6358 F120.00
G01 X103.4721 Y60.6020 F120.00
G01 X103.4638 Y60.5688 F120.00
G01 X103.4522 Y60.5365 F120.00
G01 X103.4376 Y60.5056 F120.00
G01 X103.4200 Y60.4762 F120.00
G01 X103.3996 Y60.4487 F120.00
G01 X103.3766 Y60.4234 F120.00
G01 X103.3513 Y60.4004 F120.00
G01 X103.3238 Y60.3800 F120.00
G01 X103.2944 Y60.3624 F120.00
G01 X103.2635 Y60.3478 F120.00
G01 X103.2312 Y60.3362 F120.00
G01 X103.1980 Y60.3279 F120.00
G01 X103.1642 Y60.3229 F120.00
G01 X103.1300 Y60.3212 F120.00
G01 X103.0958 Y60.3229 F120.00
G01 X103.0620 Y60.3279 F120.00
G01 X103.0288 Y60.3362 F120.00
G01 X102.9965 Y60.3478 F120.00
G01 X102.9656 Y60.3624 F120.00
G01 X102.9362 Y60.3800 F120.00
G01 X102.9087 Y60.4004 F120.00
G01 X102.8834 Y60.4234 F120.00
G01 X102.8604 Y60.4487 F120.00
G01 X102.8400 Y60.4762 F120.00
G01 X102.8224 Y60.5056 F120.00
G01 X102.8078 Y60.5365 F120.00
G01 X102.7962 Y60.5688 F120.00
G01 X102.7879 Y60.6020 F120.00
G01 X102.7829 Y60.6358 F120.00
G01 X102.7812 Y60.6700 F120.00
G01 X102.7829 Y60.7042 F120.00
G01 X102.7879 Y60.7380 F120.00
G01 X102.7962 Y60.7712 F120.00
G01 X102.8078 Y60.8035 F120.00
G01 X102.8224 Y60.8344 F120.00
G01 X102.8400 Y60.8638 F120.00
G01 X102.8604 Y60.8913 F120.00
G01 X102.8834 Y60.9166 F120.00
G01 X102.9087 Y60.9396 F120.00
G01 X102.9362 Y60.9600 F120.00
G01 X102.9656 Y60.9776 F120.00
G01 X102.9965 Y60.9922 F120.00
G01 X103.0288 Y61.0038 F120.00
G01 X103.0620 Y61.0121 F120.00
G01 X103.0958 Y61.0171 F120.00
G01 X103.1300 Y61.0188 F120.00
G01 X103.1642 Y61.0171 F120.00
G01 X103.1980 Y61.0121 F120.00
G01 X103.2312 Y61.0038 F120.00
G01 X103.2635 Y60.9922 F120.00
G01 X103.2944 Y60.9776 F120.00
G01 X103.3238 Y60.9600 F120.00
G01 X103.3513 Y60.9396 F120.00
G01 X103.3766 Y60.9166 F120.00
G01 X103.3996 Y60.8913 F120.00
G01 X103.4200 Y60.8638 F120.00
G01 X103.4376 Y60.8344 F120.00
G01 X103.4522 Y60.8035 F120.00
G01 X103.4638 Y60.7712 F120.00
G01 X103.4721 Y60.7380 F120.00
G01 X103.4771 Y60.7042 F120.00
G01 X103.4788 Y60.6700 F120.00
G00 X103.4788 Y60.6700
G01 F60.00
G01 Z-0.8000
G01 F120.00
G01 X103.4771 Y60.6358 F120.00
G01 X103.4721 Y60.6020 F120.00
G01 X103.4638 Y60.5688 F120.00
G01 X103.4522 Y60.5365 F120.00
G01 X103.4376 Y60.5056 F120.00
G01 X103.4200 Y60.4762 F120.00
G01 X103.3996 Y60.4487 F120.00
G01 X103.3766 Y60.4234 F120.00
G01 X103.3513 Y60.4004 F120.00
G01 X103.3238 Y60.3800 F120.00
G01 X103.2944 Y60.3624 F120.00
G01 X103.2635 Y60.3478 F120.00
G01 X103.2312 Y60.3362 F120.00
G01 X103.1980 Y60.3279 F120.00
G01 X103.1642 Y60.3229 F120.00
G01 X103.1300 Y60.3212 F120.00
G01 X103.0958 Y60.3229 F120.00
G01 X103.0620 Y60.3279 F120.00
G01 X103.0288 Y60.3362 F120.00
G01 X102.9965 Y60.3478 F120.00
G01 X102.9656 Y60.3624 F120.00
G01 X102.9362 Y60.3800 F120.00
G01 X102.9087 Y60.4004 F120.00
G01 X102.8834 Y60.4234 F120.00
G01 X102.8604 Y60.4487 F120.00
G01 X102.8400 Y60.4762 F120.00
G01 X102.8224 Y60.5056 F120.00
G01 X102.8078 Y60.5365 F120.00
G01 X102.7962 Y60.5688 F120.00
G01 X102.7879 Y60.6020 F120.00
G01 X102.7829 Y60.6358 F120.00
G01 X102.7812 Y60.6700 F120.00
G01 X102.7829 Y60.7042 F120.00
G01 X102.7879 Y60.7380 F120.00
G01 X102.7962 Y60.7712 F120.00
G01 X102.8078 Y60.8035 F120.00
G01 X102.8224 Y60.8344 F120.00
G01 X102.8400 Y60.8638 F120.00
G01 X102.8604 Y60.8913 F120.00
G01 X102.8834 Y60.9166 F120.00
G01 X102.9087 Y60.9396 F120.00
G01 X102.9362 Y60.9600 F120.00
G01 X102.9656 Y60.9776 F120.00
G01 X102.9965 Y60.9922 F120.00
G01 X103.0288 Y61.0038 F120.00
G01 X103.0620 Y61.0121 F120.00
G01 X103.0958 Y61.0171 F120.00
G01 X103.1300 Y61.0188 F120.00
G01 X103.1642 Y61.0171 F120.00
G01 X103.1980 Y61.0121 F120.00
G01 X103.2312 Y61.0038 F120.00
G01 X103.2635 Y60.9922 F120.00
G01 X103.2944 Y60.9776 F120.00
G01 X103.3238 Y60.9600 F120.00
G01 X103.3513 Y60.9396 F120.00
G01 X103.3766 Y60.9166 F120.00
G01 X103.3996 Y60.8913 F120.00
G01 X103.4200 Y60.8638 F120.00
G01 X103.4376 Y60.8344 F120.00
G01 X103.4522 Y60.8035 F120.00
G01 X103.4638 Y60.7712 F120.00
G01 X103.4721 Y60.7380 F120.00
G01 X103.4771 Y60.7042 F120.00
G01 X103.4788 Y60.6700 F120.00
G00 X103.4788 Y60.6700
G01 F60.00
G01 Z-1.2000
G01 F120.00
G01 X103.4771 Y60.6358 F120.00
G01 X103.4721 Y60.6020 F120.00
G01 X103.4638 Y60.5688 F120.00
G01 X103.4522 Y60.5365 F120.00
G01 X103.4376 Y60.5056 F120.00
G01 X103.4200 Y60.4762 F120.00
G01 X103.3996 Y60.4487 F120.00
G01 X103.3766 Y60.4234 F120.00
G01 X103.3513 Y60.4004 F120.00
G01 X103.3238 Y60.3800 F120.00
G01 X103.2944 Y60.3624 F120.00
G01 X103.2635 Y60.3478 F120.00
G01 X103.2312 Y60.3362 F120.00
G01 X103.1980 Y60.3279 F120.00
G01 X103.1642 Y60.3229 F120.00
G01 X103.1300 Y60.3212 F120.00
G01 X103.0958 Y60.3229 F120.00
G01 X103.0620 Y60.3279 F120.00
G01 X103.0288 Y60.3362 F120.00
G01 X102.9965 Y60.3478 F120.00
G01 X102.9656 Y60.3624 F120.00
G01 X102.9362 Y60.3800 F120.00
G01 X102.9087 Y60.4004 F120.00
G01 X102.8834 Y60.4234 F120.00
G01 X102.8604 Y60.4487 F120.00
G01 X102.8400 Y60.4762 F120.00
G01 X102.8224 Y60.5056 F120.00
G01 X102.8078 Y60.5365 F120.00
G01 X102.7962 Y60.5688 F120.00
G01 X102.7879 Y60.6020 F120.00
G01 X102.7829 Y60.6358 F120.00
G01 X102.7812 Y60.6700 F120.00
