(G-CODE GENERATED BY FLATCAM v8.994 - www.flatcam.org - Version Date: 2020/11/7)

(Name: Encoders-LCD-PTH.drl_edit_1_conv_cnc)
(Type: G-code from Geometry)
(Units: MM)

(Created on Monday, 19 August 2024 at 14:10)

(This preprocessor is used with a motion controller loaded with GRBL firmware.)
(It is configured to be compatible with almost any version of GRBL firmware.)

(TOOL DIAMETER: 2.0 mm)
(Feedrate_XY: 120.0 mm/min)
(Feedrate_Z: 60.0 mm/min)
(Feedrate rapids 1500.0 mm/min)

(Z_Cut: -2.4 mm)
(DepthPerCut: 0.4 mm <=>6 passes)
(Z_Move: 2.0 mm)
(Z Start: None mm)
(Z End: 7.0 mm)
(X,Y End: None mm)
(Steps per circle: 64)
(Steps per circle: 64)
(Preprocessor Geometry: GRBL_11_no_M6)

(X range:    0.0000 ...    0.0000  mm)
(Y range:    0.0000 ...    0.0000  mm)

(Spindle Speed: 1000.0 RPM)
G21
G90
G17
G94


G01 F120.00

M5             
G00 Z7.0000
G00 X0.0000 Y0.0000                
T1
(MSG, Change to Tool Dia = 2.0000)
M0
G00 Z7.0000
        
M03 S1000.0
G01 F120.00
G00 X8.4488 Y13.7500
G01 F60.00
G01 Z-0.4000
G01 F120.00
G01 X8.4474 Y13.7207 F120.00
G01 X8.4431 Y13.6917 F120.00
G01 X8.4359 Y13.6633 F120.00
G01 X8.4260 Y13.6357 F120.00
G01 X8.4135 Y13.6091 F120.00
G01 X8.3984 Y13.5840 F120.00
G01 X8.3810 Y13.5604 F120.00
G01 X8.3613 Y13.5387 F120.00
G01 X8.3396 Y13.5190 F120.00
G01 X8.3160 Y13.5016 F120.00
G01 X8.2909 Y13.4865 F120.00
G01 X8.2643 Y13.4740 F120.00
G01 X8.2367 Y13.4641 F120.00
G01 X8.2083 Y13.4569 F120.00
G01 X8.1793 Y13.4526 F120.00
G01 X8.1500 Y13.4512 F120.00
G01 X8.1207 Y13.4526 F120.00
G01 X8.0917 Y13.4569 F120.00
G01 X8.0633 Y13.4641 F120.00
G01 X8.0357 Y13.4740 F120.00
G01 X8.0091 Y13.4865 F120.00
G01 X7.9840 Y13.5016 F120.00
G01 X7.9604 Y13.5190 F120.00
G01 X7.9387 Y13.5387 F120.00
G01 X7.9190 Y13.5604 F120.00
G01 X7.9016 Y13.5840 F120.00
G01 X7.8865 Y13.6091 F120.00
G01 X7.8740 Y13.6357 F120.00
G01 X7.8641 Y13.6633 F120.00
G01 X7.8569 Y13.6917 F120.00
G01 X7.8526 Y13.7207 F120.00
G01 X7.8512 Y13.7500 F120.00
G01 X7.8526 Y13.7793 F120.00
G01 X7.8569 Y13.8083 F120.00
G01 X7.8641 Y13.8367 F120.00
G01 X7.8740 Y13.8643 F120.00
G01 X7.8865 Y13.8909 F120.00
G01 X7.9016 Y13.9160 F120.00
G01 X7.9190 Y13.9396 F120.00
G01 X7.9387 Y13.9613 F120.00
G01 X7.9604 Y13.9810 F120.00
G01 X7.9840 Y13.9984 F120.00
G01 X8.0091 Y14.0135 F120.00
G01 X8.0357 Y14.0260 F120.00
G01 X8.0633 Y14.0359 F120.00
G01 X8.0917 Y14.0431 F120.00
G01 X8.1207 Y14.0474 F120.00
G01 X8.1500 Y14.0488 F120.00
G01 X8.1793 Y14.0474 F120.00
G01 X8.2083 Y14.0431 F120.00
G01 X8.2367 Y14.0359 F120.00
G01 X8.2643 Y14.0260 F120.00
G01 X8.2909 Y14.0135 F120.00
G01 X8.3160 Y13.9984 F120.00
G01 X8.3396 Y13.9810 F120.00
G01 X8.3613 Y13.9613 F120.00
G01 X8.3810 Y13.9396 F120.00
G01 X8.3984 Y13.9160 F120.00
G01 X8.4135 Y13.8909 F120.00
G01 X8.4260 Y13.8643 F120.00
G01 X8.4359 Y13.8367 F120.00
G01 X8.4431 Y13.8083 F120.00
G01 X8.4474 Y13.7793 F120.00
G01 X8.4488 Y13.7500 F120.00
G00 X8.4488 Y13.7500
G01 F60.00
G01 Z-0.8000
G01 F120.00
G01 X8.4474 Y13.7207 F120.00
G01 X8.4431 Y13.6917 F120.00
G01 X8.4359 Y13.6633 F120.00
G01 X8.4260 Y13.6357 F120.00
G01 X8.4135 Y13.6091 F120.00
G01 X8.3984 Y13.5840 F120.00
G01 X8.3810 Y13.5604 F120.00
G01 X8.3613 Y13.5387 F120.00
G01 X8.3396 Y13.5190 F120.00
G01 X8.3160 Y13.5016 F120.00
G01 X8.2909 Y13.4865 F120.00
G01 X8.2643 Y13.4740 F120.00
G01 X8.2367 Y13.4641 F120.00
G01 X8.2083 Y13.4569 F120.00
G01 X8.1793 Y13.4526 F120.00
G01 X8.1500 Y13.4512 F120.00
G01 X8.1207 Y13.4526 F120.00
G01 X8.0917 Y13.4569 F120.00
G01 X8.0633 Y13.4641 F120.00
G01 X8.0357 Y13.4740 F120.00
G01 X8.0091 Y13.4865 F120.00
G01 X7.9840 Y13.5016 F120.00
G01 X7.9604 Y13.5190 F120.00
G01 X7.9387 Y13.5387 F120.00
G01 X7.9190 Y13.5604 F120.00
G01 X7.9016 Y13.5840 F120.00
G01 X7.8865 Y13.6091 F120.00
G01 X7.8740 Y13.6357 F120.00
G01 X7.8641 Y13.6633 F120.00
G01 X7.8569 Y13.6917 F120.00
G01 X7.8526 Y13.7207 F120.00
G01 X7.8512 Y13.7500 F120.00
G01 X7.8526 Y13.7793 F120.00
G01 X7.8569 Y13.8083 F120.00
G01 X7.8641 Y13.8367 F120.00
G01 X7.8740 Y13.8643 F120.00
G01 X7.8865 Y13.8909 F120.00
G01 X7.9016 Y13.9160 F120.00
G01 X7.9190 Y13.9396 F120.00
G01 X7.9387 Y13.9613 F120.00
G01 X7.9604 Y13.9810 F120.00
G01 X7.9840 Y13.9984 F120.00
G01 X8.0091 Y14.0135 F120.00
G01 X8.0357 Y14.0260 F120.00
G01 X8.0633 Y14.0359 F120.00
G01 X8.0917 Y14.0431 F120.00
G01 X8.1207 Y14.0474 F120.00
G01 X8.1500 Y14.0488 F120.00
G01 X8.1793 Y14.0474 F120.00
G01 X8.2083 Y14.0431 F120.00
G01 X8.2367 Y14.0359 F120.00
G01 X8.2643 Y14.0260 F120.00
G01 X8.2909 Y14.0135 F120.00
G01 X8.3160 Y13.9984 F120.00
G01 X8.3396 Y13.9810 F120.00
G01 X8.3613 Y13.9613 F120.00
G01 X8.3810 Y13.9396 F120.00
G01 X8.3984 Y13.9160 F120.00
G01 X8.4135 Y13.8909 F120.00
G01 X8.4260 Y13.8643 F120.00
G01 X8.4359 Y13.8367 F120.00
G01 X8.4431 Y13.8083 F120.00
G01 X8.4474 Y13.7793 F120.00
G01 X8.4488 Y13.7500 F120.00
G00 X8.4488 Y13.7500
G01 F60.00
G01 Z-1.2000
G01 F120.00
G01 X8.4474 Y13.7207 F120.00
G01 X8.4431 Y13.6917 F120.00
G01 X8.4359 Y13.6633 F120.00
G01 X8.4260 Y13.6357 F120.00
G01 X8.4135 Y13.6091 F120.00
G01 X8.3984 Y13.5840 F120.00
G01 X8.3810 Y13.5604 F120.00
G01 X8.3613 Y13.5387 F120.00
G01 X8.3396 Y13.5190 F120.00
G01 X8.3160 Y13.5016 F120.00
G01 X8.2909 Y13.4865 F120.00
G01 X8.2643 Y13.4740 F120.00
G01 X8.2367 Y13.4641 F120.00
G01 X8.2083 Y13.4569 F120.00
G01 X8.1793 Y13.4526 F120.00
G01 X8.1500 Y13.4512 F120.00
G01 X8.1207 Y13.4526 F120.00
G01 X8.0917 Y13.4569 F120.00
G01 X8.0633 Y13.4641 F120.00
G01 X8.0357 Y13.4740 F120.00
G01 X8.0091 Y13.4865 F120.00
G01 X7.9840 Y13.5016 F120.00
G01 X7.9604 Y13.5190 F120.00
G01 X7.9387 Y13.5387 F120.00
G01 X7.9190 Y13.5604 F120.00
G01 X7.9016 Y13.5840 F120.00
G01 X7.8865 Y13.6091 F120.00
G01 X7.8740 Y13.6357 F120.00
G01 X7.8641 Y13.6633 F120.00
G01 X7.8569 Y13.6917 F120.00
G01 X7.8526 Y13.7207 F120.00
G01 X7.8512 Y13.7500 F120.00
G01 X7.8526 Y13.7793 F120.00
G01 X7.8569 Y13.8083 F120.00
G01 X7.8641 Y13.8367 F120.00
G01 X7.8740 Y13.8643 F120.00
G01 X7.8865 Y13.8909 F120.00
G01 X7.9016 Y13.9160 F120.00
G01 X7.9190 Y13.9396 F120.00
G01 X7.9387 Y13.9613 F120.00
G01 X7.9604 Y13.9810 F120.00
G01 X7.9840 Y13.9984 F120.00
G01 X8.0091 Y14.0135 F120.00
G01 X8.0357 Y14.0260 F120.00
G01 X8.0633 Y14.0359 F120.00
G01 X8.0917 Y14.0431 F120.00
G01 X8.1207 Y14.0474 F120.00
G01 X8.1500 Y14.0488 F120.00
G01 X8.1793 Y14.0474 F120.00
G01 X8.2083 Y14.0431 F120.00
G01 X8.2367 Y14.0359 F120.00
G01 X8.2643 Y14.0260 F120.00
G01 X8.2909 Y14.0135 F120.00
G01 X8.3160 Y13.9984 F120.00
G01 X8.3396 Y13.9810 F120.00
G01 X8.3613 Y13.9613 F120.00
G01 X8.3810 Y13.9396 F120.00
G01 X8.3984 Y13.9160 F120.00
G01 X8.4135 Y13.8909 F120.00
G01 X8.4260 Y13.8643 F120.00
G01 X8.4359 Y13.8367 F120.00
G01 X8.4431 Y13.8083 F120.00
G01 X8.4474 Y13.7793 F120.00
G01 X8.4488 Y13.7500 F120.00
G00 X8.4488 Y13.7500
G01 F60.00
G01 Z-1.6000
G01 F120.00
G01 X8.4474 Y13.7207 F120.00
G01 X8.4431 Y13.6917 F120.00
G01 X8.4359 Y13.6633 F120.00
G01 X8.4260 Y13.6357 F120.00
G01 X8.4135 Y13.6091 F120.00
G01 X8.3984 Y13.5840 F120.00
G01 X8.3810 Y13.5604 F120.00
G01 X8.3613 Y13.5387 F120.00
G01 X8.3396 Y13.5190 F120.00
G01 X8.3160 Y13.5016 F120.00
G01 X8.2909 Y13.4865 F120.00
G01 X8.2643 Y13.4740 F120.00
G01 X8.2367 Y13.4641 F120.00
G01 X8.2083 Y13.4569 F120.00
G01 X8.1793 Y13.4526 F120.00
G01 X8.1500 Y13.4512 F120.00
G01 X8.1207 Y13.4526 F120.00
G01 X8.0917 Y13.4569 F120.00
G01 X8.0633 Y13.4641 F120.00
G01 X8.0357 Y13.4740 F120.00
G01 X8.0091 Y13.4865 F120.00
G01 X7.9840 Y13.5016 F120.00
G01 X7.9604 Y13.5190 F120.00
G01 X7.9387 Y13.5387 F120.00
G01 X7.9190 Y13.5604 F120.00
G01 X7.9016 Y13.5840 F120.00
G01 X7.8865 Y13.6091 F120.00
G01 X7.8740 Y13.6357 F120.00
G01 X7.8641 Y13.6633 F120.00
G01 X7.8569 Y13.6917 F120.00
G01 X7.8526 Y13.7207 F120.00
G01 X7.8512 Y13.7500 F120.00
G01 X7.8526 Y13.7793 F120.00
G01 X7.8569 Y13.8083 F120.00
G01 X7.8641 Y13.8367 F120.00
G01 X7.8740 Y13.8643 F120.00
G01 X7.8865 Y13.8909 F120.00
G01 X7.9016 Y13.9160 F120.00
G01 X7.9190 Y13.9396 F120.00
G01 X7.9387 Y13.9613 F120.00
G01 X7.9604 Y13.9810 F120.00
G01 X7.9840 Y13.9984 F120.00
G01 X8.0091 Y14.0135 F120.00
G01 X8.0357 Y14.0260 F120.00
G01 X8.0633 Y14.0359 F120.00
G01 X8.0917 Y14.0431 F120.00
G01 X8.1207 Y14.0474 F120.00
G01 X8.1500 Y14.0488 F120.00
G01 X8.1793 Y14.0474 F120.00
G01 X8.2083 Y14.0431 F120.00
G01 X8.2367 Y14.0359 F120.00
G01 X8.2643 Y14.0260 F120.00
G01 X8.2909 Y14.0135 F120.00
G01 X8.3160 Y13.9984 F120.00
G01 X8.3396 Y13.9810 F120.00
G01 X8.3613 Y13.9613 F120.00
G01 X8.3810 Y13.9396 F120.00
G01 X8.3984 Y13.9160 F120.00
G01 X8.4135 Y13.8909 F120.00
G01 X8.4260 Y13.8643 F120.00
G01 X8.4359 Y13.8367 F120.00
G01 X8.4431 Y13.8083 F120.00
G01 X8.4474 Y13.7793 F120.00
G01 X8.4488 Y13.7500 F120.00
G00 X8.4488 Y13.7500
G01 F60.00
G01 Z-2.0000
G01 F120.00
G01 X8.4474 Y13.7207 F120.00
G01 X8.4431 Y13.6917 F120.00
G01 X8.4359 Y13.6633 F120.00
G01 X8.4260 Y13.6357 F120.00
G01 X8.4135 Y13.6091 F120.00
G01 X8.3984 Y13.5840 F120.00
G01 X8.3810 Y13.5604 F120.00
G01 X8.3613 Y13.5387 F120.00
G01 X8.3396 Y13.5190 F120.00
G01 X8.3160 Y13.5016 F120.00
G01 X8.2909 Y13.4865 F120.00
G01 X8.2643 Y13.4740 F120.00
G01 X8.2367 Y13.4641 F120.00
G01 X8.2083 Y13.4569 F120.00
G01 X8.1793 Y13.4526 F120.00
G01 X8.1500 Y13.4512 F120.00
G01 X8.1207 Y13.4526 F120.00
G01 X8.0917 Y13.4569 F120.00
G01 X8.0633 Y13.4641 F120.00
G01 X8.0357 Y13.4740 F120.00
G01 X8.0091 Y13.4865 F120.00
G01 X7.9840 Y13.5016 F120.00
G01 X7.9604 Y13.5190 F120.00
G01 X7.9387 Y13.5387 F120.00
G01 X7.9190 Y13.5604 F120.00
G01 X7.9016 Y13.5840 F120.00
G01 X7.8865 Y13.6091 F120.00
G01 X7.8740 Y13.6357 F120.00
G01 X7.8641 Y13.6633 F120.00
G01 X7.8569 Y13.6917 F120.00
G01 X7.8526 Y13.7207 F120.00
G01 X7.8512 Y13.7500 F120.00
G01 X7.8526 Y13.7793 F120.00
G01 X7.8569 Y13.8083 F120.00
G01 X7.8641 Y13.8367 F120.00
G01 X7.8740 Y13.8643 F120.00
G01 X7.8865 Y13.8909 F120.00
G01 X7.9016 Y13.9160 F120.00
G01 X7.9190 Y13.9396 F120.00
G01 X7.9387 Y13.9613 F120.00
G01 X7.9604 Y13.9810 F120.00
G01 X7.9840 Y13.9984 F120.00
G01 X8.0091 Y14.0135 F120.00
G01 X8.0357 Y14.0260 F120.00
G01 X8.0633 Y14.0359 F120.00
G01 X8.0917 Y14.0431 F120.00
G01 X8.1207 Y14.0474 F120.00
G01 X8.1500 Y14.0488 F120.00
G01 X8.1793 Y14.0474 F120.00
G01 X8.2083 Y14.0431 F120.00
G01 X8.2367 Y14.0359 F120.00
G01 X8.2643 Y14.0260 F120.00
G01 X8.2909 Y14.0135 F120.00
G01 X8.3160 Y13.9984 F120.00
G01 X8.3396 Y13.9810 F120.00
G01 X8.3613 Y13.9613 F120.00
G01 X8.3810 Y13.9396 F120.00
G01 X8.3984 Y13.9160 F120.00
G01 X8.4135 Y13.8909 F120.00
G01 X8.4260 Y13.8643 F120.00
G01 X8.4359 Y13.8367 F120.00
G01 X8.4431 Y13.8083 F120.00
G01 X8.4474 Y13.7793 F120.00
G01 X8.4488 Y13.7500 F120.00
G00 X8.4488 Y13.7500
G01 F60.00
G01 Z-2.4000
G01 F120.00
G01 X8.4474 Y13.7207 F120.00
G01 X8.4431 Y13.6917 F120.00
G01 X8.4359 Y13.6633 F120.00
G01 X8.4260 Y13.6357 F120.00
G01 X8.4135 Y13.6091 F120.00
G01 X8.3984 Y13.5840 F120.00
G01 X8.3810 Y13.5604 F120.00
G01 X8.3613 Y13.5387 F120.00
G01 X8.3396 Y13.5190 F120.00
G01 X8.3160 Y13.5016 F120.00
G01 X8.2909 Y13.4865 F120.00
G01 X8.2643 Y13.4740 F120.00
G01 X8.2367 Y13.4641 F120.00
G01 X8.2083 Y13.4569 F120.00
G01 X8.1793 Y13.4526 F120.00
G01 X8.1500 Y13.4512 F120.00
G01 X8.1207 Y13.4526 F120.00
G01 X8.0917 Y13.4569 F120.00
G01 X8.0633 Y13.4641 F120.00
G01 X8.0357 Y13.4740 F120.00
G01 X8.0091 Y13.4865 F120.00
G01 X7.9840 Y13.5016 F120.00
G01 X7.9604 Y13.5190 F120.00
G01 X7.9387 Y13.5387 F120.00
G01 X7.9190 Y13.5604 F120.00
G01 X7.9016 Y13.5840 F120.00
G01 X7.8865 Y13.6091 F120.00
G01 X7.8740 Y13.6357 F120.00
G01 X7.8641 Y13.6633 F120.00
G01 X7.8569 Y13.6917 F120.00
G01 X7.8526 Y13.7207 F120.00
G01 X7.8512 Y13.7500 F120.00
G01 X7.8526 Y13.7793 F120.00
G01 X7.8569 Y13.8083 F120.00
G01 X7.8641 Y13.8367 F120.00
G01 X7.8740 Y13.8643 F120.00
G01 X7.8865 Y13.8909 F120.00
G01 X7.9016 Y13.9160 F120.00
G01 X7.9190 Y13.9396 F120.00
G01 X7.9387 Y13.9613 F120.00
G01 X7.9604 Y13.9810 F120.00
G01 X7.9840 Y13.9984 F120.00
G01 X8.0091 Y14.0135 F120.00
G01 X8.0357 Y14.0260 F120.00
G01 X8.0633 Y14.0359 F120.00
G01 X8.0917 Y14.0431 F120.00
G01 X8.1207 Y14.0474 F120.00
G01 X8.1500 Y14.0488 F120.00
G01 X8.1793 Y14.0474 F120.00
G01 X8.2083 Y14.0431 F120.00
G01 X8.2367 Y14.0359 F120.00
G01 X8.2643 Y14.0260 F120.00
G01 X8.2909 Y14.0135 F120.00
G01 X8.3160 Y13.9984 F120.00
G01 X8.3396 Y13.9810 F120.00
G01 X8.3613 Y13.9613 F120.00
G01 X8.3810 Y13.9396 F120.00
G01 X8.3984 Y13.9160 F120.00
G01 X8.4135 Y13.8909 F120.00
G01 X8.4260 Y13.8643 F120.00
G01 X8.4359 Y13.8367 F120.00
G01 X8.4431 Y13.8083 F120.00
G01 X8.4474 Y13.7793 F120.00
G01 X8.4488 Y13.7500 F120.00
G00 Z2.0000
G00 X19.6488 Y13.7500
G01 F60.00
G01 Z-0.4000
G01 F120.00
G01 X19.6474 Y13.7207 F120.00
G01 X19.6431 Y13.6917 F120.00
G01 X19.6359 Y13.6633 F120.00
G01 X19.6260 Y13.6357 F120.00
G01 X19.6135 Y13.6091 F120.00
G01 X19.5984 Y13.5840 F120.00
G01 X19.5810 Y13.5604 F120.00
G01 X19.5613 Y13.5387 F120.00
G01 X19.5396 Y13.5190 F120.00
G01 X19.5160 Y13.5016 F120.00
G01 X19.4909 Y13.4865 F120.00
G01 X19.4643 Y13.4740 F120.00
G01 X19.4367 Y13.4641 F120.00
G01 X19.4083 Y13.4569 F120.00
G01 X19.3793 Y13.4526 F120.00
G01 X19.3500 Y13.4512 F120.00
G01 X19.3207 Y13.4526 F120.00
G01 X19.2917 Y13.4569 F120.00
G01 X19.2633 Y13.4641 F120.00
G01 X19.2357 Y13.4740 F120.00
G01 X19.2091 Y13.4865 F120.00
G01 X19.1840 Y13.5016 F120.00
G01 X19.1604 Y13.5190 F120.00
G01 X19.1387 Y13.5387 F120.00
G01 X19.1190 Y13.5604 F120.00
G01 X19.1016 Y13.5840 F120.00
G01 X19.0865 Y13.6091 F120.00
G01 X19.0740 Y13.6357 F120.00
G01 X19.0641 Y13.6633 F120.00
G01 X19.0569 Y13.6917 F120.00
G01 X19.0526 Y13.7207 F120.00
G01 X19.0512 Y13.7500 F120.00
G01 X19.0526 Y13.7793 F120.00
G01 X19.0569 Y13.8083 F120.00
G01 X19.0641 Y13.8367 F120.00
G01 X19.0740 Y13.8643 F120.00
G01 X19.0865 Y13.8909 F120.00
G01 X19.1016 Y13.9160 F120.00
G01 X19.1190 Y13.9396 F120.00
G01 X19.1387 Y13.9613 F120.00
G01 X19.1604 Y13.9810 F120.00
G01 X19.1840 Y13.9984 F120.00
G01 X19.2091 Y14.0135 F120.00
G01 X19.2357 Y14.0260 F120.00
G01 X19.2633 Y14.0359 F120.00
G01 X19.2917 Y14.0431 F120.00
G01 X19.3207 Y14.0474 F120.00
G01 X19.3500 Y14.0488 F120.00
G01 X19.3793 Y14.0474 F120.00
G01 X19.4083 Y14.0431 F120.00
G01 X19.4367 Y14.0359 F120.00
G01 X19.4643 Y14.0260 F120.00
G01 X19.4909 Y14.0135 F120.00
G01 X19.5160 Y13.9984 F120.00
G01 X19.5396 Y13.9810 F120.00
G01 X19.5613 Y13.9613 F120.00
G01 X19.5810 Y13.9396 F120.00
G01 X19.5984 Y13.9160 F120.00
G01 X19.6135 Y13.8909 F120.00
G01 X19.6260 Y13.8643 F120.00
G01 X19.6359 Y13.8367 F120.00
G01 X19.6431 Y13.8083 F120.00
G01 X19.6474 Y13.7793 F120.00
G01 X19.6488 Y13.7500 F120.00
G00 X19.6488 Y13.7500
G01 F60.00
G01 Z-0.8000
G01 F120.00
G01 X19.6474 Y13.7207 F120.00
G01 X19.6431 Y13.6917 F120.00
G01 X19.6359 Y13.6633 F120.00
G01 X19.6260 Y13.6357 F120.00
G01 X19.6135 Y13.6091 F120.00
G01 X19.5984 Y13.5840 F120.00
G01 X19.5810 Y13.5604 F120.00
G01 X19.5613 Y13.5387 F120.00
G01 X19.5396 Y13.5190 F120.00
G01 X19.5160 Y13.5016 F120.00
G01 X19.4909 Y13.4865 F120.00
G01 X19.4643 Y13.4740 F120.00
G01 X19.4367 Y13.4641 F120.00
G01 X19.4083 Y13.4569 F120.00
G01 X19.3793 Y13.4526 F120.00
G01 X19.3500 Y13.4512 F120.00
G01 X19.3207 Y13.4526 F120.00
G01 X19.2917 Y13.4569 F120.00
G01 X19.2633 Y13.4641 F120.00
G01 X19.2357 Y13.4740 F120.00
G01 X19.2091 Y13.4865 F120.00
G01 X19.1840 Y13.5016 F120.00
G01 X19.1604 Y13.5190 F120.00
G01 X19.1387 Y13.5387 F120.00
G01 X19.1190 Y13.5604 F120.00
G01 X19.1016 Y13.5840 F120.00
G01 X19.0865 Y13.6091 F120.00
G01 X19.0740 Y13.6357 F120.00
G01 X19.0641 Y13.6633 F120.00
G01 X19.0569 Y13.6917 F120.00
G01 X19.0526 Y13.7207 F120.00
G01 X19.0512 Y13.7500 F120.00
G01 X19.0526 Y13.7793 F120.00
G01 X19.0569 Y13.8083 F120.00
G01 X19.0641 Y13.8367 F120.00
G01 X19.0740 Y13.8643 F120.00
G01 X19.0865 Y13.8909 F120.00
G01 X19.1016 Y13.9160 F120.00
G01 X19.1190 Y13.9396 F120.00
G01 X19.1387 Y13.9613 F120.00
G01 X19.1604 Y13.9810 F120.00
G01 X19.1840 Y13.9984 F120.00
G01 X19.2091 Y14.0135 F120.00
G01 X19.2357 Y14.0260 F120.00
G01 X19.2633 Y14.0359 F120.00
G01 X19.2917 Y14.0431 F120.00
G01 X19.3207 Y14.0474 F120.00
G01 X19.3500 Y14.0488 F120.00
G01 X19.3793 Y14.0474 F120.00
G01 X19.4083 Y14.0431 F120.00
G01 X19.4367 Y14.0359 F120.00
G01 X19.4643 Y14.0260 F120.00
G01 X19.4909 Y14.0135 F120.00
G01 X19.5160 Y13.9984 F120.00
G01 X19.5396 Y13.9810 F120.00
G01 X19.5613 Y13.9613 F120.00
G01 X19.5810 Y13.9396 F120.00
G01 X19.5984 Y13.9160 F120.00
G01 X19.6135 Y13.8909 F120.00
G01 X19.6260 Y13.8643 F120.00
G01 X19.6359 Y13.8367 F120.00
G01 X19.6431 Y13.8083 F120.00
G01 X19.6474 Y13.7793 F120.00
G01 X19.6488 Y13.7500 F120.00
G00 X19.6488 Y13.7500
G01 F60.00
G01 Z-1.2000
G01 F120.00
G01 X19.6474 Y13.7207 F120.00
G01 X19.6431 Y13.6917 F120.00
G01 X19.6359 Y13.6633 F120.00
G01 X19.6260 Y13.6357 F120.00
G01 X19.6135 Y13.6091 F120.00
G01 X19.5984 Y13.5840 F120.00
G01 X19.5810 Y13.5604 F120.00
G01 X19.5613 Y13.5387 F120.00
G01 X19.5396 Y13.5190 F120.00
G01 X19.5160 Y13.5016 F120.00
G01 X19.4909 Y13.4865 F120.00
G01 X19.4643 Y13.4740 F120.00
G01 X19.4367 Y13.4641 F120.00
G01 X19.4083 Y13.4569 F120.00
G01 X19.3793 Y13.4526 F120.00
G01 X19.3500 Y13.4512 F120.00
G01 X19.3207 Y13.4526 F120.00
G01 X19.2917 Y13.4569 F120.00
G01 X19.2633 Y13.4641 F120.00
G01 X19.2357 Y13.4740 F120.00
G01 X19.2091 Y13.4865 F120.00
G01 X19.1840 Y13.5016 F120.00
G01 X19.1604 Y13.5190 F120.00
G01 X19.1387 Y13.5387 F120.00
G01 X19.1190 Y13.5604 F120.00
G01 X19.1016 Y13.5840 F120.00
G01 X19.0865 Y13.6091 F120.00
G01 X19.0740 Y13.6357 F120.00
G01 X19.0641 Y13.6633 F120.00
G01 X19.0569 Y13.6917 F120.00
G01 X19.0526 Y13.7207 F120.00
G01 X19.0512 Y13.7500 F120.00
G01 X19.0526 Y13.7793 F120.00
G01 X19.0569 Y13.8083 F120.00
G01 X19.0641 Y13.8367 F120.00
G01 X19.0740 Y13.8643 F120.00
G01 X19.0865 Y13.8909 F120.00
G01 X19.1016 Y13.9160 F120.00
G01 X19.1190 Y13.9396 F120.00
G01 X19.1387 Y13.9613 F120.00
G01 X19.1604 Y13.9810 F120.00
G01 X19.1840 Y13.9984 F120.00
G01 X19.2091 Y14.0135 F120.00
G01 X19.2357 Y14.0260 F120.00
G01 X19.2633 Y14.0359 F120.00
G01 X19.2917 Y14.0431 F120.00
G01 X19.3207 Y14.0474 F120.00
G01 X19.3500 Y14.0488 F120.00
G01 X19.3793 Y14.0474 F120.00
G01 X19.4083 Y14.0431 F120.00
G01 X19.4367 Y14.0359 F120.00
G01 X19.4643 Y14.0260 F120.00
G01 X19.4909 Y14.0135 F120.00
G01 X19.5160 Y13.9984 F120.00
G01 X19.5396 Y13.9810 F120.00
G01 X19.5613 Y13.9613 F120.00
G01 X19.5810 Y13.9396 F120.00
G01 X19.5984 Y13.9160 F120.00
G01 X19.6135 Y13.8909 F120.00
G01 X19.6260 Y13.8643 F120.00
G01 X19.6359 Y13.8367 F120.00
G01 X19.6431 Y13.8083 F120.00
G01 X19.6474 Y13.7793 F120.00
G01 X19.6488 Y13.7500 F120.00
G00 X19.6488 Y13.7500
G01 F60.00
G01 Z-1.6000
G01 F120.00
G01 X19.6474 Y13.7207 F120.00
G01 X19.6431 Y13.6917 F120.00
G01 X19.6359 Y13.6633 F120.00
G01 X19.6260 Y13.6357 F120.00
G01 X19.6135 Y13.6091 F120.00
G01 X19.5984 Y13.5840 F120.00
G01 X19.5810 Y13.5604 F120.00
G01 X19.5613 Y13.5387 F120.00
G01 X19.5396 Y13.5190 F120.00
G01 X19.5160 Y13.5016 F120.00
G01 X19.4909 Y13.4865 F120.00
G01 X19.4643 Y13.4740 F120.00
G01 X19.4367 Y13.4641 F120.00
G01 X19.4083 Y13.4569 F120.00
G01 X19.3793 Y13.4526 F120.00
G01 X19.3500 Y13.4512 F120.00
G01 X19.3207 Y13.4526 F120.00
G01 X19.2917 Y13.4569 F120.00
G01 X19.2633 Y13.4641 F120.00
G01 X19.2357 Y13.4740 F120.00
G01 X19.2091 Y13.4865 F120.00
G01 X19.1840 Y13.5016 F120.00
G01 X19.1604 Y13.5190 F120.00
G01 X19.1387 Y13.5387 F120.00
G01 X19.1190 Y13.5604 F120.00
G01 X19.1016 Y13.5840 F120.00
G01 X19.0865 Y13.6091 F120.00
G01 X19.0740 Y13.6357 F120.00
G01 X19.0641 Y13.6633 F120.00
G01 X19.0569 Y13.6917 F120.00
G01 X19.0526 Y13.7207 F120.00
G01 X19.0512 Y13.7500 F120.00
G01 X19.0526 Y13.7793 F120.00
G01 X19.0569 Y13.8083 F120.00
G01 X19.0641 Y13.8367 F120.00
G01 X19.0740 Y13.8643 F120.00
G01 X19.0865 Y13.8909 F120.00
G01 X19.1016 Y13.9160 F120.00
G01 X19.1190 Y13.9396 F120.00
G01 X19.1387 Y13.9613 F120.00
G01 X19.1604 Y13.9810 F120.00
G01 X19.1840 Y13.9984 F120.00
G01 X19.2091 Y14.0135 F120.00
G01 X19.2357 Y14.0260 F120.00
G01 X19.2633 Y14.0359 F120.00
G01 X19.2917 Y14.0431 F120.00
G01 X19.3207 Y14.0474 F120.00
G01 X19.3500 Y14.0488 F120.00
G01 X19.3793 Y14.0474 F120.00
G01 X19.4083 Y14.0431 F120.00
G01 X19.4367 Y14.0359 F120.00
G01 X19.4643 Y14.0260 F120.00
G01 X19.4909 Y14.0135 F120.00
G01 X19.5160 Y13.9984 F120.00
G01 X19.5396 Y13.9810 F120.00
G01 X19.5613 Y13.9613 F120.00
G01 X19.5810 Y13.9396 F120.00
G01 X19.5984 Y13.9160 F120.00
G01 X19.6135 Y13.8909 F120.00
G01 X19.6260 Y13.8643 F120.00
G01 X19.6359 Y13.8367 F120.00
G01 X19.6431 Y13.8083 F120.00
G01 X19.6474 Y13.7793 F120.00
G01 X19.6488 Y13.7500 F120.00
G00 X19.6488 Y13.7500
G01 F60.00
G01 Z-2.0000
G01 F120.00
G01 X19.6474 Y13.7207 F120.00
G01 X19.6431 Y13.6917 F120.00
G01 X19.6359 Y13.6633 F120.00
G01 X19.6260 Y13.6357 F120.00
G01 X19.6135 Y13.6091 F120.00
G01 X19.5984 Y13.5840 F120.00
G01 X19.5810 Y13.5604 F120.00
G01 X19.5613 Y13.5387 F120.00
G01 X19.5396 Y13.5190 F120.00
G01 X19.5160 Y13.5016 F120.00
G01 X19.4909 Y13.4865 F120.00
G01 X19.4643 Y13.4740 F120.00
G01 X19.4367 Y13.4641 F120.00
G01 X19.4083 Y13.4569 F120.00
G01 X19.3793 Y13.4526 F120.00
G01 X19.3500 Y13.4512 F120.00
G01 X19.3207 Y13.4526 F120.00
G01 X19.2917 Y13.4569 F120.00
G01 X19.2633 Y13.4641 F120.00
G01 X19.2357 Y13.4740 F120.00
G01 X19.2091 Y13.4865 F120.00
G01 X19.1840 Y13.5016 F120.00
G01 X19.1604 Y13.5190 F120.00
G01 X19.1387 Y13.5387 F120.00
G01 X19.1190 Y13.5604 F120.00
G01 X19.1016 Y13.5840 F120.00
G01 X19.0865 Y13.6091 F120.00
G01 X19.0740 Y13.6357 F120.00
G01 X19.0641 Y13.6633 F120.00
G01 X19.0569 Y13.6917 F120.00
G01 X19.0526 Y13.7207 F120.00
G01 X19.0512 Y13.7500 F120.00
G01 X19.0526 Y13.7793 F120.00
G01 X19.0569 Y13.8083 F120.00
G01 X19.0641 Y13.8367 F120.00
G01 X19.0740 Y13.8643 F120.00
G01 X19.0865 Y13.8909 F120.00
G01 X19.1016 Y13.9160 F120.00
G01 X19.1190 Y13.9396 F120.00
G01 X19.1387 Y13.9613 F120.00
G01 X19.1604 Y13.9810 F120.00
G01 X19.1840 Y13.9984 F120.00
G01 X19.2091 Y14.0135 F120.00
G01 X19.2357 Y14.0260 F120.00
G01 X19.2633 Y14.0359 F120.00
G01 X19.2917 Y14.0431 F120.00
G01 X19.3207 Y14.0474 F120.00
G01 X19.3500 Y14.0488 F120.00
G01 X19.3793 Y14.0474 F120.00
G01 X19.4083 Y14.0431 F120.00
G01 X19.4367 Y14.0359 F120.00
G01 X19.4643 Y14.0260 F120.00
G01 X19.4909 Y14.0135 F120.00
G01 X19.5160 Y13.9984 F120.00
G01 X19.5396 Y13.9810 F120.00
G01 X19.5613 Y13.9613 F120.00
G01 X19.5810 Y13.9396 F120.00
G01 X19.5984 Y13.9160 F120.00
G01 X19.6135 Y13.8909 F120.00
G01 X19.6260 Y13.8643 F120.00
G01 X19.6359 Y13.8367 F120.00
G01 X19.6431 Y13.8083 F120.00
G01 X19.6474 Y13.7793 F120.00
G01 X19.6488 Y13.7500 F120.00
G00 X19.6488 Y13.7500
G01 F60.00
G01 Z-2.4000
G01 F120.00
G01 X19.6474 Y13.7207 F120.00
G01 X19.6431 Y13.6917 F120.00
G01 X19.6359 Y13.6633 F120.00
G01 X19.6260 Y13.6357 F120.00
G01 X19.6135 Y13.6091 F120.00
G01 X19.5984 Y13.5840 F120.00
G01 X19.5810 Y13.5604 F120.00
G01 X19.5613 Y13.5387 F120.00
G01 X19.5396 Y13.5190 F120.00
G01 X19.5160 Y13.5016 F120.00
G01 X19.4909 Y13.4865 F120.00
G01 X19.4643 Y13.4740 F120.00
G01 X19.4367 Y13.4641 F120.00
G01 X19.4083 Y13.4569 F120.00
G01 X19.3793 Y13.4526 F120.00
G01 X19.3500 Y13.4512 F120.00
G01 X19.3207 Y13.4526 F120.00
G01 X19.2917 Y13.4569 F120.00
G01 X19.2633 Y13.4641 F120.00
G01 X19.2357 Y13.4740 F120.00
G01 X19.2091 Y13.4865 F120.00
G01 X19.1840 Y13.5016 F120.00
G01 X19.1604 Y13.5190 F120.00
G01 X19.1387 Y13.5387 F120.00
G01 X19.1190 Y13.5604 F120.00
G01 X19.1016 Y13.5840 F120.00
G01 X19.0865 Y13.6091 F120.00
G01 X19.0740 Y13.6357 F120.00
G01 X19.0641 Y13.6633 F120.00
G01 X19.0569 Y13.6917 F120.00
G01 X19.0526 Y13.7207 F120.00
G01 X19.0512 Y13.7500 F120.00
G01 X19.0526 Y13.7793 F120.00
G01 X19.0569 Y13.8083 F120.00
G01 X19.0641 Y13.8367 F120.00
G01 X19.0740 Y13.8643 F120.00
G01 X19.0865 Y13.8909 F120.00
G01 X19.1016 Y13.9160 F120.00
G01 X19.1190 Y13.9396 F120.00
G01 X19.1387 Y13.9613 F120.00
G01 X19.1604 Y13.9810 F120.00
G01 X19.1840 Y13.9984 F120.00
G01 X19.2091 Y14.0135 F120.00
G01 X19.2357 Y14.0260 F120.00
G01 X19.2633 Y14.0359 F120.00
G01 X19.2917 Y14.0431 F120.00
G01 X19.3207 Y14.0474 F120.00
G01 X19.3500 Y14.0488 F120.00
G01 X19.3793 Y14.0474 F120.00
G01 X19.4083 Y14.0431 F120.00
G01 X19.4367 Y14.0359 F120.00
G01 X19.4643 Y14.0260 F120.00
G01 X19.4909 Y14.0135 F120.00
G01 X19.5160 Y13.9984 F120.00
G01 X19.5396 Y13.9810 F120.00
G01 X19.5613 Y13.9613 F120.00
G01 X19.5810 Y13.9396 F120.00
G01 X19.5984 Y13.9160 F120.00
G01 X19.6135 Y13.8909 F120.00
G01 X19.6260 Y13.8643 F120.00
G01 X19.6359 Y13.8367 F120.00
G01 X19.6431 Y13.8083 F120.00
G01 X19.6474 Y13.7793 F120.00
G01 X19.6488 Y13.7500 F120.00
G00 Z2.0000
G00 X49.7988 Y57.7500
G01 F60.00
G01 Z-0.4000
G01 F120.00
G01 X49.7974 Y57.7207 F120.00
G01 X49.7931 Y57.6917 F120.00
G01 X49.7859 Y57.6633 F120.00
G01 X49.7760 Y57.6357 F120.00
G01 X49.7635 Y57.6091 F120.00
G01 X49.7484 Y57.5840 F120.00
G01 X49.7310 Y57.5604 F120.00
G01 X49.7113 Y57.5387 F120.00
G01 X49.6896 Y57.5190 F120.00
G01 X49.6660 Y57.5016 F120.00
G01 X49.6409 Y57.4865 F120.00
G01 X49.6143 Y57.4740 F120.00
G01 X49.5867 Y57.4641 F120.00
G01 X49.5583 Y57.4569 F120.00
G01 X49.5293 Y57.4526 F120.00
G01 X49.5000 Y57.4512 F120.00
G01 X49.4707 Y57.4526 F120.00
G01 X49.4417 Y57.4569 F120.00
G01 X49.4133 Y57.4641 F120.00
G01 X49.3857 Y57.4740 F120.00
G01 X49.3591 Y57.4865 F120.00
G01 X49.3340 Y57.5016 F120.00
G01 X49.3104 Y57.5190 F120.00
G01 X49.2887 Y57.5387 F120.00
G01 X49.2690 Y57.5604 F120.00
G01 X49.2516 Y57.5840 F120.00
G01 X49.2365 Y57.6091 F120.00
G01 X49.2240 Y57.6357 F120.00
G01 X49.2141 Y57.6633 F120.00
G01 X49.2069 Y57.6917 F120.00
G01 X49.2026 Y57.7207 F120.00
G01 X49.2012 Y57.7500 F120.00
G01 X49.2026 Y57.7793 F120.00
G01 X49.2069 Y57.8083 F120.00
G01 X49.2141 Y57.8367 F120.00
G01 X49.2240 Y57.8643 F120.00
G01 X49.2365 Y57.8909 F120.00
G01 X49.2516 Y57.9160 F120.00
G01 X49.2690 Y57.9396 F120.00
G01 X49.2887 Y57.9613 F120.00
G01 X49.3104 Y57.9810 F120.00
G01 X49.3340 Y57.9984 F120.00
G01 X49.3591 Y58.0135 F120.00
G01 X49.3857 Y58.0260 F120.00
G01 X49.4133 Y58.0359 F120.00
G01 X49.4417 Y58.0431 F120.00
G01 X49.4707 Y58.0474 F120.00
G01 X49.5000 Y58.0488 F120.00
G01 X49.5293 Y58.0474 F120.00
G01 X49.5583 Y58.0431 F120.00
G01 X49.5867 Y58.0359 F120.00
G01 X49.6143 Y58.0260 F120.00
G01 X49.6409 Y58.0135 F120.00
G01 X49.6660 Y57.9984 F120.00
G01 X49.6896 Y57.9810 F120.00
G01 X49.7113 Y57.9613 F120.00
G01 X49.7310 Y57.9396 F120.00
G01 X49.7484 Y57.9160 F120.00
G01 X49.7635 Y57.8909 F120.00
G01 X49.7760 Y57.8643 F120.00
G01 X49.7859 Y57.8367 F120.00
G01 X49.7931 Y57.8083 F120.00
G01 X49.7974 Y57.7793 F120.00
G01 X49.7988 Y57.7500 F120.00
G00 X49.7988 Y57.7500
G01 F60.00
G01 Z-0.8000
G01 F120.00
G01 X49.7974 Y57.7207 F120.00
G01 X49.7931 Y57.6917 F120.00
G01 X49.7859 Y57.6633 F120.00
G01 X49.7760 Y57.6357 F120.00
G01 X49.7635 Y57.6091 F120.00
G01 X49.7484 Y57.5840 F120.00
G01 X49.7310 Y57.5604 F120.00
G01 X49.7113 Y57.5387 F120.00
G01 X49.6896 Y57.5190 F120.00
G01 X49.6660 Y57.5016 F120.00
G01 X49.6409 Y57.4865 F120.00
G01 X49.6143 Y57.4740 F120.00
G01 X49.5867 Y57.4641 F120.00
G01 X49.5583 Y57.4569 F120.00
G01 X49.5293 Y57.4526 F120.00
G01 X49.5000 Y57.4512 F120.00
G01 X49.4707 Y57.4526 F120.00
G01 X49.4417 Y57.4569 F120.00
G01 X49.4133 Y57.4641 F120.00
G01 X49.3857 Y57.4740 F120.00
G01 X49.3591 Y57.4865 F120.00
G01 X49.3340 Y57.5016 F120.00
G01 X49.3104 Y57.5190 F120.00
G01 X49.2887 Y57.5387 F120.00
G01 X49.2690 Y57.5604 F120.00
G01 X49.2516 Y57.5840 F120.00
G01 X49.2365 Y57.6091 F120.00
G01 X49.2240 Y57.6357 F120.00
G01 X49.2141 Y57.6633 F120.00
G01 X49.2069 Y57.6917 F120.00
G01 X49.2026 Y57.7207 F120.00
G01 X49.2012 Y57.7500 F120.00
G01 X49.2026 Y57.7793 F120.00
G01 X49.2069 Y57.8083 F120.00
G01 X49.2141 Y57.8367 F120.00
G01 X49.2240 Y57.8643 F120.00
G01 X49.2365 Y57.8909 F120.00
G01 X49.2516 Y57.9160 F120.00
G01 X49.2690 Y57.9396 F120.00
G01 X49.2887 Y57.9613 F120.00
G01 X49.3104 Y57.9810 F120.00
G01 X49.3340 Y57.9984 F120.00
G01 X49.3591 Y58.0135 F120.00
G01 X49.3857 Y58.0260 F120.00
G01 X49.4133 Y58.0359 F120.00
G01 X49.4417 Y58.0431 F120.00
G01 X49.4707 Y58.0474 F120.00
G01 X49.5000 Y58.0488 F120.00
G01 X49.5293 Y58.0474 F120.00
G01 X49.5583 Y58.0431 F120.00
G01 X49.5867 Y58.0359 F120.00
G01 X49.6143 Y58.0260 F120.00
G01 X49.6409 Y58.0135 F120.00
G01 X49.6660 Y57.9984 F120.00
G01 X49.6896 Y57.9810 F120.00
G01 X49.7113 Y57.9613 F120.00
G01 X49.7310 Y57.9396 F120.00
G01 X49.7484 Y57.9160 F120.00
G01 X49.7635 Y57.8909 F120.00
G01 X49.7760 Y57.8643 F120.00
G01 X49.7859 Y57.8367 F120.00
G01 X49.7931 Y57.8083 F120.00
G01 X49.7974 Y57.7793 F120.00
G01 X49.7988 Y57.7500 F120.00
G00 X49.7988 Y57.7500
G01 F60.00
G01 Z-1.2000
G01 F120.00
G01 X49.7974 Y57.7207 F120.00
G01 X49.7931 Y57.6917 F120.00
G01 X49.7859 Y57.6633 F120.00
G01 X49.7760 Y57.6357 F120.00
G01 X49.7635 Y57.6091 F120.00
G01 X49.7484 Y57.5840 F120.00
G01 X49.7310 Y57.5604 F120.00
G01 X49.7113 Y57.5387 F120.00
G01 X49.6896 Y57.5190 F120.00
G01 X49.6660 Y57.5016 F120.00
G01 X49.6409 Y57.4865 F120.00
G01 X49.6143 Y57.4740 F120.00
G01 X49.5867 Y57.4641 F120.00
G01 X49.5583 Y57.4569 F120.00
G01 X49.5293 Y57.4526 F120.00
G01 X49.5000 Y57.4512 F120.00
G01 X49.4707 Y57.4526 F120.00
G01 X49.4417 Y57.4569 F120.00
G01 X49.4133 Y57.4641 F120.00
G01 X49.3857 Y57.4740 F120.00
G01 X49.3591 Y57.4865 F120.00
G01 X49.3340 Y57.5016 F120.00
G01 X49.3104 Y57.5190 F120.00
G01 X49.2887 Y57.5387 F120.00
G01 X49.2690 Y57.5604 F120.00
G01 X49.2516 Y57.5840 F120.00
G01 X49.2365 Y57.6091 F120.00
G01 X49.2240 Y57.6357 F120.00
G01 X49.2141 Y57.6633 F120.00
G01 X49.2069 Y57.6917 F120.00
G01 X49.2026 Y57.7207 F120.00
G01 X49.2012 Y57.7500 F120.00
G01 X49.2026 Y57.7793 F120.00
G01 X49.2069 Y57.8083 F120.00
G01 X49.2141 Y57.8367 F120.00
G01 X49.2240 Y57.8643 F120.00
G01 X49.2365 Y57.8909 F120.00
G01 X49.2516 Y57.9160 F120.00
G01 X49.2690 Y57.9396 F120.00
G01 X49.2887 Y57.9613 F120.00
G01 X49.3104 Y57.9810 F120.00
G01 X49.3340 Y57.9984 F120.00
G01 X49.3591 Y58.0135 F120.00
G01 X49.3857 Y58.0260 F120.00
G01 X49.4133 Y58.0359 F120.00
G01 X49.4417 Y58.0431 F120.00
G01 X49.4707 Y58.0474 F120.00
G01 X49.5000 Y58.0488 F120.00
G01 X49.5293 Y58.0474 F120.00
G01 X49.5583 Y58.0431 F120.00
G01 X49.5867 Y58.0359 F120.00
G01 X49.6143 Y58.0260 F120.00
G01 X49.6409 Y58.0135 F120.00
G01 X49.6660 Y57.9984 F120.00
G01 X49.6896 Y57.9810 F120.00
G01 X49.7113 Y57.9613 F120.00
G01 X49.7310 Y57.9396 F120.00
G01 X49.7484 Y57.9160 F120.00
G01 X49.7635 Y57.8909 F120.00
G01 X49.7760 Y57.8643 F120.00
G01 X49.7859 Y57.8367 F120.00
G01 X49.7931 Y57.8083 F120.00
G01 X49.7974 Y57.7793 F120.00
G01 X49.7988 Y57.7500 F120.00
G00 X49.7988 Y57.7500
G01 F60.00
G01 Z-1.6000
G01 F120.00
G01 X49.7974 Y57.7207 F120.00
G01 X49.7931 Y57.6917 F120.00
G01 X49.7859 Y57.6633 F120.00
G01 X49.7760 Y57.6357 F120.00
G01 X49.7635 Y57.6091 F120.00
G01 X49.7484 Y57.5840 F120.00
G01 X49.7310 Y57.5604 F120.00
G01 X49.7113 Y57.5387 F120.00
G01 X49.6896 Y57.5190 F120.00
G01 X49.6660 Y57.5016 F120.00
G01 X49.6409 Y57.4865 F120.00
G01 X49.6143 Y57.4740 F120.00
G01 X49.5867 Y57.4641 F120.00
G01 X49.5583 Y57.4569 F120.00
G01 X49.5293 Y57.4526 F120.00
G01 X49.5000 Y57.4512 F120.00
G01 X49.4707 Y57.4526 F120.00
G01 X49.4417 Y57.4569 F120.00
G01 X49.4133 Y57.4641 F120.00
G01 X49.3857 Y57.4740 F120.00
G01 X49.3591 Y57.4865 F120.00
G01 X49.3340 Y57.5016 F120.00
G01 X49.3104 Y57.5190 F120.00
G01 X49.2887 Y57.5387 F120.00
G01 X49.2690 Y57.5604 F120.00
G01 X49.2516 Y57.5840 F120.00
G01 X49.2365 Y57.6091 F120.00
G01 X49.2240 Y57.6357 F120.00
G01 X49.2141 Y57.6633 F120.00
G01 X49.2069 Y57.6917 F120.00
G01 X49.2026 Y57.7207 F120.00
G01 X49.2012 Y57.7500 F120.00
G01 X49.2026 Y57.7793 F120.00
G01 X49.2069 Y57.8083 F120.00
G01 X49.2141 Y57.8367 F120.00
G01 X49.2240 Y57.8643 F120.00
G01 X49.2365 Y57.8909 F120.00
G01 X49.2516 Y57.9160 F120.00
G01 X49.2690 Y57.9396 F120.00
G01 X49.2887 Y57.9613 F120.00
G01 X49.3104 Y57.9810 F120.00
G01 X49.3340 Y57.9984 F120.00
G01 X49.3591 Y58.0135 F120.00
G01 X49.3857 Y58.0260 F120.00
G01 X49.4133 Y58.0359 F120.00
G01 X49.4417 Y58.0431 F120.00
G01 X49.4707 Y58.0474 F120.00
G01 X49.5000 Y58.0488 F120.00
G01 X49.5293 Y58.0474 F120.00
G01 X49.5583 Y58.0431 F120.00
G01 X49.5867 Y58.0359 F120.00
G01 X49.6143 Y58.0260 F120.00
G01 X49.6409 Y58.0135 F120.00
G01 X49.6660 Y57.9984 F120.00
G01 X49.6896 Y57.9810 F120.00
G01 X49.7113 Y57.9613 F120.00
G01 X49.7310 Y57.9396 F120.00
G01 X49.7484 Y57.9160 F120.00
G01 X49.7635 Y57.8909 F120.00
G01 X49.7760 Y57.8643 F120.00
G01 X49.7859 Y57.8367 F120.00
G01 X49.7931 Y57.8083 F120.00
G01 X49.7974 Y57.7793 F120.00
G01 X49.7988 Y57.7500 F120.00
G00 X49.7988 Y57.7500
G01 F60.00
G01 Z-2.0000
G01 F120.00
G01 X49.7974 Y57.7207 F120.00
G01 X49.7931 Y57.6917 F120.00
G01 X49.7859 Y57.6633 F120.00
G01 X49.7760 Y57.6357 F120.00
G01 X49.7635 Y57.6091 F120.00
G01 X49.7484 Y57.5840 F120.00
G01 X49.7310 Y57.5604 F120.00
G01 X49.7113 Y57.5387 F120.00
G01 X49.6896 Y57.5190 F120.00
G01 X49.6660 Y57.5016 F120.00
G01 X49.6409 Y57.4865 F120.00
G01 X49.6143 Y57.4740 F120.00
G01 X49.5867 Y57.4641 F120.00
G01 X49.5583 Y57.4569 F120.00
G01 X49.5293 Y57.4526 F120.00
G01 X49.5000 Y57.4512 F120.00
G01 X49.4707 Y57.4526 F120.00
G01 X49.4417 Y57.4569 F120.00
G01 X49.4133 Y57.4641 F120.00
G01 X49.3857 Y57.4740 F120.00
G01 X49.3591 Y57.4865 F120.00
G01 X49.3340 Y57.5016 F120.00
G01 X49.3104 Y57.5190 F120.00
G01 X49.2887 Y57.5387 F120.00
G01 X49.2690 Y57.5604 F120.00
G01 X49.2516 Y57.5840 F120.00
G01 X49.2365 Y57.6091 F120.00
G01 X49.2240 Y57.6357 F120.00
G01 X49.2141 Y57.6633 F120.00
G01 X49.2069 Y57.6917 F120.00
G01 X49.2026 Y57.7207 F120.00
G01 X49.2012 Y57.7500 F120.00
G01 X49.2026 Y57.7793 F120.00
G01 X49.2069 Y57.8083 F120.00
G01 X49.2141 Y57.8367 F120.00
G01 X49.2240 Y57.8643 F120.00
G01 X49.2365 Y57.8909 F120.00
G01 X49.2516 Y57.9160 F120.00
G01 X49.2690 Y57.9396 F120.00
G01 X49.2887 Y57.9613 F120.00
G01 X49.3104 Y57.9810 F120.00
G01 X49.3340 Y57.9984 F120.00
G01 X49.3591 Y58.0135 F120.00
G01 X49.3857 Y58.0260 F120.00
G01 X49.4133 Y58.0359 F120.00
G01 X49.4417 Y58.0431 F120.00
G01 X49.4707 Y58.0474 F120.00
G01 X49.5000 Y58.0488 F120.00
G01 X49.5293 Y58.0474 F120.00
G01 X49.5583 Y58.0431 F120.00
G01 X49.5867 Y58.0359 F120.00
G01 X49.6143 Y58.0260 F120.00
G01 X49.6409 Y58.0135 F120.00
G01 X49.6660 Y57.9984 F120.00
G01 X49.6896 Y57.9810 F120.00
G01 X49.7113 Y57.9613 F120.00
G01 X49.7310 Y57.9396 F120.00
G01 X49.7484 Y57.9160 F120.00
G01 X49.7635 Y57.8909 F120.00
G01 X49.7760 Y57.8643 F120.00
G01 X49.7859 Y57.8367 F120.00
G01 X49.7931 Y57.8083 F120.00
G01 X49.7974 Y57.7793 F120.00
G01 X49.7988 Y57.7500 F120.00
G00 X49.7988 Y57.7500
G01 F60.00
G01 Z-2.4000
G01 F120.00
G01 X49.7974 Y57.7207 F120.00
G01 X49.7931 Y57.6917 F120.00
G01 X49.7859 Y57.6633 F120.00
G01 X49.7760 Y57.6357 F120.00
G01 X49.7635 Y57.6091 F120.00
G01 X49.7484 Y57.5840 F120.00
G01 X49.7310 Y57.5604 F120.00
G01 X49.7113 Y57.5387 F120.00
G01 X49.6896 Y57.5190 F120.00
G01 X49.6660 Y57.5016 F120.00
G01 X49.6409 Y57.4865 F120.00
G01 X49.6143 Y57.4740 F120.00
G01 X49.5867 Y57.4641 F120.00
G01 X49.5583 Y57.4569 F120.00
G01 X49.5293 Y57.4526 F120.00
G01 X49.5000 Y57.4512 F120.00
G01 X49.4707 Y57.4526 F120.00
G01 X49.4417 Y57.4569 F120.00
G01 X49.4133 Y57.4641 F120.00
G01 X49.3857 Y57.4740 F120.00
G01 X49.3591 Y57.4865 F120.00
G01 X49.3340 Y57.5016 F120.00
G01 X49.3104 Y57.5190 F120.00
G01 X49.2887 Y57.5387 F120.00
G01 X49.2690 Y57.5604 F120.00
G01 X49.2516 Y57.5840 F120.00
G01 X49.2365 Y57.6091 F120.00
G01 X49.2240 Y57.6357 F120.00
G01 X49.2141 Y57.6633 F120.00
G01 X49.2069 Y57.6917 F120.00
G01 X49.2026 Y57.7207 F120.00
G01 X49.2012 Y57.7500 F120.00
G01 X49.2026 Y57.7793 F120.00
G01 X49.2069 Y57.8083 F120.00
G01 X49.2141 Y57.8367 F120.00
G01 X49.2240 Y57.8643 F120.00
G01 X49.2365 Y57.8909 F120.00
G01 X49.2516 Y57.9160 F120.00
G01 X49.2690 Y57.9396 F120.00
G01 X49.2887 Y57.9613 F120.00
G01 X49.3104 Y57.9810 F120.00
G01 X49.3340 Y57.9984 F120.00
G01 X49.3591 Y58.0135 F120.00
G01 X49.3857 Y58.0260 F120.00
G01 X49.4133 Y58.0359 F120.00
G01 X49.4417 Y58.0431 F120.00
G01 X49.4707 Y58.0474 F120.00
G01 X49.5000 Y58.0488 F120.00
G01 X49.5293 Y58.0474 F120.00
G01 X49.5583 Y58.0431 F120.00
G01 X49.5867 Y58.0359 F120.00
G01 X49.6143 Y58.0260 F120.00
G01 X49.6409 Y58.0135 F120.00
G01 X49.6660 Y57.9984 F120.00
G01 X49.6896 Y57.9810 F120.00
G01 X49.7113 Y57.9613 F120.00
G01 X49.7310 Y57.9396 F120.00
G01 X49.7484 Y57.9160 F120.00
G01 X49.7635 Y57.8909 F120.00
G01 X49.7760 Y57.8643 F120.00
G01 X49.7859 Y57.8367 F120.00
G01 X49.7931 Y57.8083 F120.00
G01 X49.7974 Y57.7793 F120.00
G01 X49.7988 Y57.7500 F120.00
G00 Z2.0000
G00 X60.9988 Y57.7500
G01 F60.00
G01 Z-0.4000
G01 F120.00
G01 X60.9974 Y57.7207 F120.00
G01 X60.9931 Y57.6917 F120.00
G01 X60.9859 Y57.6633 F120.00
G01 X60.9760 Y57.6357 F120.00
G01 X60.9635 Y57.6091 F120.00
G01 X60.9484 Y57.5840 F120.00
G01 X60.9310 Y57.5604 F120.00
G01 X60.9113 Y57.5387 F120.00
G01 X60.8896 Y57.5190 F120.00
G01 X60.8660 Y57.5016 F120.00
G01 X60.8409 Y57.4865 F120.00
G01 X60.8143 Y57.4740 F120.00
G01 X60.7867 Y57.4641 F120.00
G01 X60.7583 Y57.4569 F120.00
G01 X60.7293 Y57.4526 F120.00
G01 X60.7000 Y57.4512 F120.00
G01 X60.6707 Y57.4526 F120.00
G01 X60.6417 Y57.4569 F120.00
G01 X60.6133 Y57.4641 F120.00
G01 X60.5857 Y57.4740 F120.00
G01 X60.5591 Y57.4865 F120.00
G01 X60.5340 Y57.5016 F120.00
G01 X60.5104 Y57.5190 F120.00
G01 X60.4887 Y57.5387 F120.00
G01 X60.4690 Y57.5604 F120.00
G01 X60.4516 Y57.5840 F120.00
G01 X60.4365 Y57.6091 F120.00
G01 X60.4240 Y57.6357 F120.00
G01 X60.4141 Y57.6633 F120.00
G01 X60.4069 Y57.6917 F120.00
G01 X60.4026 Y57.7207 F120.00
G01 X60.4012 Y57.7500 F120.00
G01 X60.4026 Y57.7793 F120.00
G01 X60.4069 Y57.8083 F120.00
G01 X60.4141 Y57.8367 F120.00
G01 X60.4240 Y57.8643 F120.00
G01 X60.4365 Y57.8909 F120.00
G01 X60.4516 Y57.9160 F120.00
G01 X60.4690 Y57.9396 F120.00
G01 X60.4887 Y57.9613 F120.00
G01 X60.5104 Y57.9810 F120.00
G01 X60.5340 Y57.9984 F120.00
G01 X60.5591 Y58.0135 F120.00
G01 X60.5857 Y58.0260 F120.00
G01 X60.6133 Y58.0359 F120.00
G01 X60.6417 Y58.0431 F120.00
G01 X60.6707 Y58.0474 F120.00
G01 X60.7000 Y58.0488 F120.00
G01 X60.7293 Y58.0474 F120.00
G01 X60.7583 Y58.0431 F120.00
G01 X60.7867 Y58.0359 F120.00
G01 X60.8143 Y58.0260 F120.00
G01 X60.8409 Y58.0135 F120.00
G01 X60.8660 Y57.9984 F120.00
G01 X60.8896 Y57.9810 F120.00
G01 X60.9113 Y57.9613 F120.00
G01 X60.9310 Y57.9396 F120.00
G01 X60.9484 Y57.9160 F120.00
G01 X60.9635 Y57.8909 F120.00
G01 X60.9760 Y57.8643 F120.00
G01 X60.9859 Y57.8367 F120.00
G01 X60.9931 Y57.8083 F120.00
G01 X60.9974 Y57.7793 F120.00
G01 X60.9988 Y57.7500 F120.00
G00 X60.9988 Y57.7500
G01 F60.00
G01 Z-0.8000
G01 F120.00
G01 X60.9974 Y57.7207 F120.00
G01 X60.9931 Y57.6917 F120.00
G01 X60.9859 Y57.6633 F120.00
G01 X60.9760 Y57.6357 F120.00
G01 X60.9635 Y57.6091 F120.00
G01 X60.9484 Y57.5840 F120.00
G01 X60.9310 Y57.5604 F120.00
G01 X60.9113 Y57.5387 F120.00
G01 X60.8896 Y57.5190 F120.00
G01 X60.8660 Y57.5016 F120.00
G01 X60.8409 Y57.4865 F120.00
G01 X60.8143 Y57.4740 F120.00
G01 X60.7867 Y57.4641 F120.00
G01 X60.7583 Y57.4569 F120.00
G01 X60.7293 Y57.4526 F120.00
G01 X60.7000 Y57.4512 F120.00
G01 X60.6707 Y57.4526 F120.00
G01 X60.6417 Y57.4569 F120.00
G01 X60.6133 Y57.4641 F120.00
G01 X60.5857 Y57.4740 F120.00
G01 X60.5591 Y57.4865 F120.00
G01 X60.5340 Y57.5016 F120.00
G01 X60.5104 Y57.5190 F120.00
G01 X60.4887 Y57.5387 F120.00
G01 X60.4690 Y57.5604 F120.00
G01 X60.4516 Y57.5840 F120.00
G01 X60.4365 Y57.6091 F120.00
G01 X60.4240 Y57.6357 F120.00
G01 X60.4141 Y57.6633 F120.00
G01 X60.4069 Y57.6917 F120.00
G01 X60.4026 Y57.7207 F120.00
G01 X60.4012 Y57.7500 F120.00
G01 X60.4026 Y57.7793 F120.00
G01 X60.4069 Y57.8083 F120.00
G01 X60.4141 Y57.8367 F120.00
G01 X60.4240 Y57.8643 F120.00
G01 X60.4365 Y57.8909 F120.00
G01 X60.4516 Y57.9160 F120.00
G01 X60.4690 Y57.9396 F120.00
G01 X60.4887 Y57.9613 F120.00
G01 X60.5104 Y57.9810 F120.00
G01 X60.5340 Y57.9984 F120.00
G01 X60.5591 Y58.0135 F120.00
G01 X60.5857 Y58.0260 F120.00
G01 X60.6133 Y58.0359 F120.00
G01 X60.6417 Y58.0431 F120.00
G01 X60.6707 Y58.0474 F120.00
G01 X60.7000 Y58.0488 F120.00
G01 X60.7293 Y58.0474 F120.00
G01 X60.7583 Y58.0431 F120.00
G01 X60.7867 Y58.0359 F120.00
G01 X60.8143 Y58.0260 F120.00
G01 X60.8409 Y58.0135 F120.00
G01 X60.8660 Y57.9984 F120.00
G01 X60.8896 Y57.9810 F120.00
G01 X60.9113 Y57.9613 F120.00
G01 X60.9310 Y57.9396 F120.00
G01 X60.9484 Y57.9160 F120.00
G01 X60.9635 Y57.8909 F120.00
G01 X60.9760 Y57.8643 F120.00
G01 X60.9859 Y57.8367 F120.00
G01 X60.9931 Y57.8083 F120.00
G01 X60.9974 Y57.7793 F120.00
G01 X60.9988 Y57.7500 F120.00
G00 X60.9988 Y57.7500
G01 F60.00
G01 Z-1.2000
G01 F120.00
G01 X60.9974 Y57.7207 F120.00
G01 X60.9931 Y57.6917 F120.00
G01 X60.9859 Y57.6633 F120.00
G01 X60.9760 Y57.6357 F120.00
G01 X60.9635 Y57.6091 F120.00
G01 X60.9484 Y57.5840 F120.00
G01 X60.9310 Y57.5604 F120.00
G01 X60.9113 Y57.5387 F120.00
G01 X60.8896 Y57.5190 F120.00
G01 X60.8660 Y57.5016 F120.00
G01 X60.8409 Y57.4865 F120.00
G01 X60.8143 Y57.4740 F120.00
G01 X60.7867 Y57.4641 F120.00
G01 X60.7583 Y57.4569 F120.00
G01 X60.7293 Y57.4526 F120.00
G01 X60.7000 Y57.4512 F120.00
G01 X60.6707 Y57.4526 F120.00
G01 X60.6417 Y57.4569 F120.00
G01 X60.6133 Y57.4641 F120.00
G01 X60.5857 Y57.4740 F120.00
G01 X60.5591 Y57.4865 F120.00
G01 X60.5340 Y57.5016 F120.00
G01 X60.5104 Y57.5190 F120.00
G01 X60.4887 Y57.5387 F120.00
G01 X60.4690 Y57.5604 F120.00
G01 X60.4516 Y57.5840 F120.00
G01 X60.4365 Y57.6091 F120.00
G01 X60.4240 Y57.6357 F120.00
G01 X60.4141 Y57.6633 F120.00
G01 X60.4069 Y57.6917 F120.00
G01 X60.4026 Y57.7207 F120.00
G01 X60.4012 Y57.7500 F120.00
G01 X60.4026 Y57.7793 F120.00
G01 X60.4069 Y57.8083 F120.00
G01 X60.4141 Y57.8367 F120.00
G01 X60.4240 Y57.8643 F120.00
G01 X60.4365 Y57.8909 F120.00
G01 X60.4516 Y57.9160 F120.00
G01 X60.4690 Y57.9396 F120.00
G01 X60.4887 Y57.9613 F120.00
G01 X60.5104 Y57.9810 F120.00
G01 X60.5340 Y57.9984 F120.00
G01 X60.5591 Y58.0135 F120.00
G01 X60.5857 Y58.0260 F120.00
G01 X60.6133 Y58.0359 F120.00
G01 X60.6417 Y58.0431 F120.00
G01 X60.6707 Y58.0474 F120.00
G01 X60.7000 Y58.0488 F120.00
G01 X60.7293 Y58.0474 F120.00
G01 X60.7583 Y58.0431 F120.00
G01 X60.7867 Y58.0359 F120.00
G01 X60.8143 Y58.0260 F120.00
G01 X60.8409 Y58.0135 F120.00
G01 X60.8660 Y57.9984 F120.00
G01 X60.8896 Y57.9810 F120.00
G01 X60.9113 Y57.9613 F120.00
G01 X60.9310 Y57.9396 F120.00
G01 X60.9484 Y57.9160 F120.00
G01 X60.9635 Y57.8909 F120.00
G01 X60.9760 Y57.8643 F120.00
G01 X60.9859 Y57.8367 F120.00
G01 X60.9931 Y57.8083 F120.00
G01 X60.9974 Y57.7793 F120.00
G01 X60.9988 Y57.7500 F120.00
G00 X60.9988 Y57.7500
G01 F60.00
G01 Z-1.6000
G01 F120.00
G01 X60.9974 Y57.7207 F120.00
G01 X60.9931 Y57.6917 F120.00
G01 X60.9859 Y57.6633 F120.00
G01 X60.9760 Y57.6357 F120.00
G01 X60.9635 Y57.6091 F120.00
G01 X60.9484 Y57.5840 F120.00
G01 X60.9310 Y57.5604 F120.00
G01 X60.9113 Y57.5387 F120.00
G01 X60.8896 Y57.5190 F120.00
G01 X60.8660 Y57.5016 F120.00
G01 X60.8409 Y57.4865 F120.00
G01 X60.8143 Y57.4740 F120.00
G01 X60.7867 Y57.4641 F120.00
G01 X60.7583 Y57.4569 F120.00
G01 X60.7293 Y57.4526 F120.00
G01 X60.7000 Y57.4512 F120.00
G01 X60.6707 Y57.4526 F120.00
G01 X60.6417 Y57.4569 F120.00
G01 X60.6133 Y57.4641 F120.00
G01 X60.5857 Y57.4740 F120.00
G01 X60.5591 Y57.4865 F120.00
G01 X60.5340 Y57.5016 F120.00
G01 X60.5104 Y57.5190 F120.00
G01 X60.4887 Y57.5387 F120.00
G01 X60.4690 Y57.5604 F120.00
G01 X60.4516 Y57.5840 F120.00
G01 X60.4365 Y57.6091 F120.00
G01 X60.4240 Y57.6357 F120.00
G01 X60.4141 Y57.6633 F120.00
G01 X60.4069 Y57.6917 F120.00
G01 X60.4026 Y57.7207 F120.00
G01 X60.4012 Y57.7500 F120.00
G01 X60.4026 Y57.7793 F120.00
G01 X60.4069 Y57.8083 F120.00
G01 X60.4141 Y57.8367 F120.00
G01 X60.4240 Y57.8643 F120.00
G01 X60.4365 Y57.8909 F120.00
G01 X60.4516 Y57.9160 F120.00
G01 X60.4690 Y57.9396 F120.00
G01 X60.4887 Y57.9613 F120.00
G01 X60.5104 Y57.9810 F120.00
G01 X60.5340 Y57.9984 F120.00
G01 X60.5591 Y58.0135 F120.00
G01 X60.5857 Y58.0260 F120.00
G01 X60.6133 Y58.0359 F120.00
G01 X60.6417 Y58.0431 F120.00
G01 X60.6707 Y58.0474 F120.00
G01 X60.7000 Y58.0488 F120.00
G01 X60.7293 Y58.0474 F120.00
G01 X60.7583 Y58.0431 F120.00
G01 X60.7867 Y58.0359 F120.00
G01 X60.8143 Y58.0260 F120.00
G01 X60.8409 Y58.0135 F120.00
G01 X60.8660 Y57.9984 F120.00
G01 X60.8896 Y57.9810 F120.00
G01 X60.9113 Y57.9613 F120.00
G01 X60.9310 Y57.9396 F120.00
G01 X60.9484 Y57.9160 F120.00
G01 X60.9635 Y57.8909 F120.00
G01 X60.9760 Y57.8643 F120.00
G01 X60.9859 Y57.8367 F120.00
G01 X60.9931 Y57.8083 F120.00
G01 X60.9974 Y57.7793 F120.00
G01 X60.9988 Y57.7500 F120.00
G00 X60.9988 Y57.7500
G01 F60.00
G01 Z-2.0000
G01 F120.00
G01 X60.9974 Y57.7207 F120.00
G01 X60.9931 Y57.6917 F120.00
G01 X60.9859 Y57.6633 F120.00
G01 X60.9760 Y57.6357 F120.00
G01 X60.9635 Y57.6091 F120.00
G01 X60.9484 Y57.5840 F120.00
G01 X60.9310 Y57.5604 F120.00
G01 X60.9113 Y57.5387 F120.00
G01 X60.8896 Y57.5190 F120.00
G01 X60.8660 Y57.5016 F120.00
G01 X60.8409 Y57.4865 F120.00
G01 X60.8143 Y57.4740 F120.00
G01 X60.7867 Y57.4641 F120.00
G01 X60.7583 Y57.4569 F120.00
G01 X60.7293 Y57.4526 F120.00
G01 X60.7000 Y57.4512 F120.00
G01 X60.6707 Y57.4526 F120.00
G01 X60.6417 Y57.4569 F120.00
G01 X60.6133 Y57.4641 F120.00
G01 X60.5857 Y57.4740 F120.00
G01 X60.5591 Y57.4865 F120.00
G01 X60.5340 Y57.5016 F120.00
G01 X60.5104 Y57.5190 F120.00
G01 X60.4887 Y57.5387 F120.00
G01 X60.4690 Y57.5604 F120.00
G01 X60.4516 Y57.5840 F120.00
G01 X60.4365 Y57.6091 F120.00
G01 X60.4240 Y57.6357 F120.00
G01 X60.4141 Y57.6633 F120.00
G01 X60.4069 Y57.6917 F120.00
G01 X60.4026 Y57.7207 F120.00
G01 X60.4012 Y57.7500 F120.00
G01 X60.4026 Y57.7793 F120.00
G01 X60.4069 Y57.8083 F120.00
G01 X60.4141 Y57.8367 F120.00
G01 X60.4240 Y57.8643 F120.00
G01 X60.4365 Y57.8909 F120.00
G01 X60.4516 Y57.9160 F120.00
G01 X60.4690 Y57.9396 F120.00
G01 X60.4887 Y57.9613 F120.00
G01 X60.5104 Y57.9810 F120.00
G01 X60.5340 Y57.9984 F120.00
G01 X60.5591 Y58.0135 F120.00
G01 X60.5857 Y58.0260 F120.00
G01 X60.6133 Y58.0359 F120.00
G01 X60.6417 Y58.0431 F120.00
G01 X60.6707 Y58.0474 F120.00
G01 X60.7000 Y58.0488 F120.00
G01 X60.7293 Y58.0474 F120.00
G01 X60.7583 Y58.0431 F120.00
G01 X60.7867 Y58.0359 F120.00
G01 X60.8143 Y58.0260 F120.00
G01 X60.8409 Y58.0135 F120.00
G01 X60.8660 Y57.9984 F120.00
G01 X60.8896 Y57.9810 F120.00
G01 X60.9113 Y57.9613 F120.00
G01 X60.9310 Y57.9396 F120.00
G01 X60.9484 Y57.9160 F120.00
G01 X60.9635 Y57.8909 F120.00
G01 X60.9760 Y57.8643 F120.00
G01 X60.9859 Y57.8367 F120.00
G01 X60.9931 Y57.8083 F120.00
G01 X60.9974 Y57.7793 F120.00
G01 X60.9988 Y57.7500 F120.00
G00 X60.9988 Y57.7500
G01 F60.00
G01 Z-2.4000
G01 F120.00
G01 X60.9974 Y57.7207 F120.00
G01 X60.9931 Y57.6917 F120.00
G01 X60.9859 Y57.6633 F120.00
G01 X60.9760 Y57.6357 F120.00
G01 X60.9635 Y57.6091 F120.00
G01 X60.9484 Y57.5840 F120.00
G01 X60.9310 Y57.5604 F120.00
G01 X60.9113 Y57.5387 F120.00
G01 X60.8896 Y57.5190 F120.00
G01 X60.8660 Y57.5016 F120.00
G01 X60.8409 Y57.4865 F120.00
G01 X60.8143 Y57.4740 F120.00
G01 X60.7867 Y57.4641 F120.00
G01 X60.7583 Y57.4569 F120.00
G01 X60.7293 Y57.4526 F120.00
G01 X60.7000 Y57.4512 F120.00
G01 X60.6707 Y57.4526 F120.00
G01 X60.6417 Y57.4569 F120.00
G01 X60.6133 Y57.4641 F120.00
G01 X60.5857 Y57.4740 F120.00
G01 X60.5591 Y57.4865 F120.00
G01 X60.5340 Y57.5016 F120.00
G01 X60.5104 Y57.5190 F120.00
G01 X60.4887 Y57.5387 F120.00
G01 X60.4690 Y57.5604 F120.00
G01 X60.4516 Y57.5840 F120.00
G01 X60.4365 Y57.6091 F120.00
G01 X60.4240 Y57.6357 F120.00
G01 X60.4141 Y57.6633 F120.00
G01 X60.4069 Y57.6917 F120.00
G01 X60.4026 Y57.7207 F120.00
G01 X60.4012 Y57.7500 F120.00
G01 X60.4026 Y57.7793 F120.00
G01 X60.4069 Y57.8083 F120.00
G01 X60.4141 Y57.8367 F120.00
G01 X60.4240 Y57.8643 F120.00
G01 X60.4365 Y57.8909 F120.00
G01 X60.4516 Y57.9160 F120.00
G01 X60.4690 Y57.9396 F120.00
G01 X60.4887 Y57.9613 F120.00
G01 X60.5104 Y57.9810 F120.00
G01 X60.5340 Y57.9984 F120.00
G01 X60.5591 Y58.0135 F120.00
G01 X60.5857 Y58.0260 F120.00
G01 X60.6133 Y58.0359 F120.00
G01 X60.6417 Y58.0431 F120.00
G01 X60.6707 Y58.0474 F120.00
G01 X60.7000 Y58.0488 F120.00
G01 X60.7293 Y58.0474 F120.00
G01 X60.7583 Y58.0431 F120.00
G01 X60.7867 Y58.0359 F120.00
G01 X60.8143 Y58.0260 F120.00
G01 X60.8409 Y58.0135 F120.00
G01 X60.8660 Y57.9984 F120.00
G01 X60.8896 Y57.9810 F120.00
G01 X60.9113 Y57.9613 F120.00
G01 X60.9310 Y57.9396 F120.00
G01 X60.9484 Y57.9160 F120.00
G01 X60.9635 Y57.8909 F120.00
G01 X60.9760 Y57.8643 F120.00
G01 X60.9859 Y57.8367 F120.00
G01 X60.9931 Y57.8083 F120.00
G01 X60.9974 Y57.7793 F120.00
G01 X60.9988 Y57.7500 F120.00
G00 Z2.0000
G00 X89.9488 Y13.7500
G01 F60.00
G01 Z-0.4000
G01 F120.00
G01 X89.9474 Y13.7207 F120.00
G01 X89.9431 Y13.6917 F120.00
G01 X89.9359 Y13.6633 F120.00
G01 X89.9260 Y13.6357 F120.00
G01 X89.9135 Y13.6091 F120.00
G01 X89.8984 Y13.5840 F120.00
G01 X89.8810 Y13.5604 F120.00
G01 X89.8613 Y13.5387 F120.00
G01 X89.8396 Y13.5190 F120.00
G01 X89.8160 Y13.5016 F120.00
G01 X89.7909 Y13.4865 F120.00
G01 X89.7643 Y13.4740 F120.00
G01 X89.7367 Y13.4641 F120.00
G01 X89.7083 Y13.4569 F120.00
G01 X89.6793 Y13.4526 F120.00
G01 X89.6500 Y13.4512 F120.00
G01 X89.6207 Y13.4526 F120.00
G01 X89.5917 Y13.4569 F120.00
G01 X89.5633 Y13.4641 F120.00
G01 X89.5357 Y13.4740 F120.00
G01 X89.5091 Y13.4865 F120.00
G01 X89.4840 Y13.5016 F120.00
G01 X89.4604 Y13.5190 F120.00
G01 X89.4387 Y13.5387 F120.00
G01 X89.4190 Y13.5604 F120.00
G01 X89.4016 Y13.5840 F120.00
G01 X89.3865 Y13.6091 F120.00
G01 X89.3740 Y13.6357 F120.00
G01 X89.3641 Y13.6633 F120.00
G01 X89.3569 Y13.6917 F120.00
G01 X89.3526 Y13.7207 F120.00
G01 X89.3512 Y13.7500 F120.00
G01 X89.3526 Y13.7793 F120.00
G01 X89.3569 Y13.8083 F120.00
G01 X89.3641 Y13.8367 F120.00
G01 X89.3740 Y13.8643 F120.00
G01 X89.3865 Y13.8909 F120.00
G01 X89.4016 Y13.9160 F120.00
G01 X89.4190 Y13.9396 F120.00
G01 X89.4387 Y13.9613 F120.00
G01 X89.4604 Y13.9810 F120.00
G01 X89.4840 Y13.9984 F120.00
G01 X89.5091 Y14.0135 F120.00
G01 X89.5357 Y14.0260 F120.00
G01 X89.5633 Y14.0359 F120.00
G01 X89.5917 Y14.0431 F120.00
G01 X89.6207 Y14.0474 F120.00
G01 X89.6500 Y14.0488 F120.00
G01 X89.6793 Y14.0474 F120.00
G01 X89.7083 Y14.0431 F120.00
G01 X89.7367 Y14.0359 F120.00
G01 X89.7643 Y14.0260 F120.00
G01 X89.7909 Y14.0135 F120.00
G01 X89.8160 Y13.9984 F120.00
G01 X89.8396 Y13.9810 F120.00
G01 X89.8613 Y13.9613 F120.00
G01 X89.8810 Y13.9396 F120.00
G01 X89.8984 Y13.9160 F120.00
G01 X89.9135 Y13.8909 F120.00
G01 X89.9260 Y13.8643 F120.00
G01 X89.9359 Y13.8367 F120.00
G01 X89.9431 Y13.8083 F120.00
G01 X89.9474 Y13.7793 F120.00
G01 X89.9488 Y13.7500 F120.00
G00 X89.9488 Y13.7500
G01 F60.00
G01 Z-0.8000
G01 F120.00
G01 X89.9474 Y13.7207 F120.00
G01 X89.9431 Y13.6917 F120.00
G01 X89.9359 Y13.6633 F120.00
G01 X89.9260 Y13.6357 F120.00
G01 X89.9135 Y13.6091 F120.00
G01 X89.8984 Y13.5840 F120.00
G01 X89.8810 Y13.5604 F120.00
G01 X89.8613 Y13.5387 F120.00
G01 X89.8396 Y13.5190 F120.00
G01 X89.8160 Y13.5016 F120.00
G01 X89.7909 Y13.4865 F120.00
G01 X89.7643 Y13.4740 F120.00
G01 X89.7367 Y13.4641 F120.00
G01 X89.7083 Y13.4569 F120.00
G01 X89.6793 Y13.4526 F120.00
G01 X89.6500 Y13.4512 F120.00
G01 X89.6207 Y13.4526 F120.00
G01 X89.5917 Y13.4569 F120.00
G01 X89.5633 Y13.4641 F120.00
G01 X89.5357 Y13.4740 F120.00
G01 X89.5091 Y13.4865 F120.00
G01 X89.4840 Y13.5016 F120.00
G01 X89.4604 Y13.5190 F120.00
G01 X89.4387 Y13.5387 F120.00
G01 X89.4190 Y13.5604 F120.00
G01 X89.4016 Y13.5840 F120.00
G01 X89.3865 Y13.6091 F120.00
G01 X89.3740 Y13.6357 F120.00
G01 X89.3641 Y13.6633 F120.00
G01 X89.3569 Y13.6917 F120.00
G01 X89.3526 Y13.7207 F120.00
G01 X89.3512 Y13.7500 F120.00
G01 X89.3526 Y13.7793 F120.00
G01 X89.3569 Y13.8083 F120.00
G01 X89.3641 Y13.8367 F120.00
G01 X89.3740 Y13.8643 F120.00
G01 X89.3865 Y13.8909 F120.00
G01 X89.4016 Y13.9160 F120.00
G01 X89.4190 Y13.9396 F120.00
G01 X89.4387 Y13.9613 F120.00
G01 X89.4604 Y13.9810 F120.00
G01 X89.4840 Y13.9984 F120.00
G01 X89.5091 Y14.0135 F120.00
G01 X89.5357 Y14.0260 F120.00
G01 X89.5633 Y14.0359 F120.00
G01 X89.5917 Y14.0431 F120.00
G01 X89.6207 Y14.0474 F120.00
G01 X89.6500 Y14.0488 F120.00
G01 X89.6793 Y14.0474 F120.00
G01 X89.7083 Y14.0431 F120.00
G01 X89.7367 Y14.0359 F120.00
G01 X89.7643 Y14.0260 F120.00
G01 X89.7909 Y14.0135 F120.00
G01 X89.8160 Y13.9984 F120.00
G01 X89.8396 Y13.9810 F120.00
G01 X89.8613 Y13.9613 F120.00
G01 X89.8810 Y13.9396 F120.00
G01 X89.8984 Y13.9160 F120.00
G01 X89.9135 Y13.8909 F120.00
G01 X89.9260 Y13.8643 F120.00
G01 X89.9359 Y13.8367 F120.00
G01 X89.9431 Y13.8083 F120.00
G01 X89.9474 Y13.7793 F120.00
G01 X89.9488 Y13.7500 F120.00
G00 X89.9488 Y13.7500
G01 F60.00
G01 Z-1.2000
G01 F120.00
G01 X89.9474 Y13.7207 F120.00
G01 X89.9431 Y13.6917 F120.00
G01 X89.9359 Y13.6633 F120.00
G01 X89.9260 Y13.6357 F120.00
G01 X89.9135 Y13.6091 F120.00
G01 X89.8984 Y13.5840 F120.00
G01 X89.8810 Y13.5604 F120.00
G01 X89.8613 Y13.5387 F120.00
G01 X89.8396 Y13.5190 F120.00
G01 X89.8160 Y13.5016 F120.00
G01 X89.7909 Y13.4865 F120.00
G01 X89.7643 Y13.4740 F120.00
G01 X89.7367 Y13.4641 F120.00
G01 X89.7083 Y13.4569 F120.00
G01 X89.6793 Y13.4526 F120.00
G01 X89.6500 Y13.4512 F120.00
G01 X89.6207 Y13.4526 F120.00
G01 X89.5917 Y13.4569 F120.00
G01 X89.5633 Y13.4641 F120.00
G01 X89.5357 Y13.4740 F120.00
G01 X89.5091 Y13.4865 F120.00
G01 X89.4840 Y13.5016 F120.00
G01 X89.4604 Y13.5190 F120.00
G01 X89.4387 Y13.5387 F120.00
G01 X89.4190 Y13.5604 F120.00
G01 X89.4016 Y13.5840 F120.00
G01 X89.3865 Y13.6091 F120.00
G01 X89.3740 Y13.6357 F120.00
G01 X89.3641 Y13.6633 F120.00
G01 X89.3569 Y13.6917 F120.00
G01 X89.3526 Y13.7207 F120.00
G01 X89.3512 Y13.7500 F120.00
G01 X89.3526 Y13.7793 F120.00
G01 X89.3569 Y13.8083 F120.00
G01 X89.3641 Y13.8367 F120.00
G01 X89.3740 Y13.8643 F120.00
G01 X89.3865 Y13.8909 F120.00
G01 X89.4016 Y13.9160 F120.00
G01 X89.4190 Y13.9396 F120.00
G01 X89.4387 Y13.9613 F120.00
G01 X89.4604 Y13.9810 F120.00
G01 X89.4840 Y13.9984 F120.00
G01 X89.5091 Y14.0135 F120.00
G01 X89.5357 Y14.0260 F120.00
G01 X89.5633 Y14.0359 F120.00
G01 X89.5917 Y14.0431 F120.00
G01 X89.6207 Y14.0474 F120.00
G01 X89.6500 Y14.0488 F120.00
G01 X89.6793 Y14.0474 F120.00
G01 X89.7083 Y14.0431 F120.00
G01 X89.7367 Y14.0359 F120.00
G01 X89.7643 Y14.0260 F120.00
G01 X89.7909 Y14.0135 F120.00
G01 X89.8160 Y13.9984 F120.00
G01 X89.8396 Y13.9810 F120.00
G01 X89.8613 Y13.9613 F120.00
G01 X89.8810 Y13.9396 F120.00
G01 X89.8984 Y13.9160 F120.00
G01 X89.9135 Y13.8909 F120.00
G01 X89.9260 Y13.8643 F120.00
G01 X89.9359 Y13.8367 F120.00
G01 X89.9431 Y13.8083 F120.00
G01 X89.9474 Y13.7793 F120.00
G01 X89.9488 Y13.7500 F120.00
G00 X89.9488 Y13.7500
G01 F60.00
G01 Z-1.6000
G01 F120.00
G01 X89.9474 Y13.7207 F120.00
G01 X89.9431 Y13.6917 F120.00
G01 X89.9359 Y13.6633 F120.00
G01 X89.9260 Y13.6357 F120.00
G01 X89.9135 Y13.6091 F120.00
G01 X89.8984 Y13.5840 F120.00
G01 X89.8810 Y13.5604 F120.00
G01 X89.8613 Y13.5387 F120.00
G01 X89.8396 Y13.5190 F120.00
G01 X89.8160 Y13.5016 F120.00
G01 X89.7909 Y13.4865 F120.00
G01 X89.7643 Y13.4740 F120.00
G01 X89.7367 Y13.4641 F120.00
G01 X89.7083 Y13.4569 F120.00
G01 X89.6793 Y13.4526 F120.00
G01 X89.6500 Y13.4512 F120.00
G01 X89.6207 Y13.4526 F120.00
G01 X89.5917 Y13.4569 F120.00
G01 X89.5633 Y13.4641 F120.00
G01 X89.5357 Y13.4740 F120.00
G01 X89.5091 Y13.4865 F120.00
G01 X89.4840 Y13.5016 F120.00
G01 X89.4604 Y13.5190 F120.00
G01 X89.4387 Y13.5387 F120.00
G01 X89.4190 Y13.5604 F120.00
G01 X89.4016 Y13.5840 F120.00
G01 X89.3865 Y13.6091 F120.00
G01 X89.3740 Y13.6357 F120.00
G01 X89.3641 Y13.6633 F120.00
G01 X89.3569 Y13.6917 F120.00
G01 X89.3526 Y13.7207 F120.00
G01 X89.3512 Y13.7500 F120.00
G01 X89.3526 Y13.7793 F120.00
G01 X89.3569 Y13.8083 F120.00
G01 X89.3641 Y13.8367 F120.00
G01 X89.3740 Y13.8643 F120.00
G01 X89.3865 Y13.8909 F120.00
G01 X89.4016 Y13.9160 F120.00
G01 X89.4190 Y13.9396 F120.00
G01 X89.4387 Y13.9613 F120.00
G01 X89.4604 Y13.9810 F120.00
G01 X89.4840 Y13.9984 F120.00
G01 X89.5091 Y14.0135 F120.00
G01 X89.5357 Y14.0260 F120.00
G01 X89.5633 Y14.0359 F120.00
G01 X89.5917 Y14.0431 F120.00
G01 X89.6207 Y14.0474 F120.00
G01 X89.6500 Y14.0488 F120.00
G01 X89.6793 Y14.0474 F120.00
G01 X89.7083 Y14.0431 F120.00
G01 X89.7367 Y14.0359 F120.00
G01 X89.7643 Y14.0260 F120.00
G01 X89.7909 Y14.0135 F120.00
G01 X89.8160 Y13.9984 F120.00
G01 X89.8396 Y13.9810 F120.00
G01 X89.8613 Y13.9613 F120.00
G01 X89.8810 Y13.9396 F120.00
G01 X89.8984 Y13.9160 F120.00
G01 X89.9135 Y13.8909 F120.00
G01 X89.9260 Y13.8643 F120.00
G01 X89.9359 Y13.8367 F120.00
G01 X89.9431 Y13.8083 F120.00
G01 X89.9474 Y13.7793 F120.00
G01 X89.9488 Y13.7500 F120.00
G00 X89.9488 Y13.7500
G01 F60.00
G01 Z-2.0000
G01 F120.00
G01 X89.9474 Y13.7207 F120.00
G01 X89.9431 Y13.6917 F120.00
G01 X89.9359 Y13.6633 F120.00
G01 X89.9260 Y13.6357 F120.00
G01 X89.9135 Y13.6091 F120.00
G01 X89.8984 Y13.5840 F120.00
G01 X89.8810 Y13.5604 F120.00
G01 X89.8613 Y13.5387 F120.00
G01 X89.8396 Y13.5190 F120.00
G01 X89.8160 Y13.5016 F120.00
G01 X89.7909 Y13.4865 F120.00
G01 X89.7643 Y13.4740 F120.00
G01 X89.7367 Y13.4641 F120.00
G01 X89.7083 Y13.4569 F120.00
G01 X89.6793 Y13.4526 F120.00
G01 X89.6500 Y13.4512 F120.00
G01 X89.6207 Y13.4526 F120.00
G01 X89.5917 Y13.4569 F120.00
G01 X89.5633 Y13.4641 F120.00
G01 X89.5357 Y13.4740 F120.00
G01 X89.5091 Y13.4865 F120.00
G01 X89.4840 Y13.5016 F120.00
G01 X89.4604 Y13.5190 F120.00
G01 X89.4387 Y13.5387 F120.00
G01 X89.4190 Y13.5604 F120.00
G01 X89.4016 Y13.5840 F120.00
G01 X89.3865 Y13.6091 F120.00
G01 X89.3740 Y13.6357 F120.00
G01 X89.3641 Y13.6633 F120.00
G01 X89.3569 Y13.6917 F120.00
G01 X89.3526 Y13.7207 F120.00
G01 X89.3512 Y13.7500 F120.00
G01 X89.3526 Y13.7793 F120.00
G01 X89.3569 Y13.8083 F120.00
G01 X89.3641 Y13.8367 F120.00
G01 X89.3740 Y13.8643 F120.00
G01 X89.3865 Y13.8909 F120.00
G01 X89.4016 Y13.9160 F120.00
G01 X89.4190 Y13.9396 F120.00
G01 X89.4387 Y13.9613 F120.00
G01 X89.4604 Y13.9810 F120.00
G01 X89.4840 Y13.9984 F120.00
G01 X89.5091 Y14.0135 F120.00
G01 X89.5357 Y14.0260 F120.00
G01 X89.5633 Y14.0359 F120.00
G01 X89.5917 Y14.0431 F120.00
G01 X89.6207 Y14.0474 F120.00
G01 X89.6500 Y14.0488 F120.00
G01 X89.6793 Y14.0474 F120.00
G01 X89.7083 Y14.0431 F120.00
G01 X89.7367 Y14.0359 F120.00
G01 X89.7643 Y14.0260 F120.00
G01 X89.7909 Y14.0135 F120.00
G01 X89.8160 Y13.9984 F120.00
G01 X89.8396 Y13.9810 F120.00
G01 X89.8613 Y13.9613 F120.00
G01 X89.8810 Y13.9396 F120.00
G01 X89.8984 Y13.9160 F120.00
G01 X89.9135 Y13.8909 F120.00
G01 X89.9260 Y13.8643 F120.00
G01 X89.9359 Y13.8367 F120.00
G01 X89.9431 Y13.8083 F120.00
G01 X89.9474 Y13.7793 F120.00
G01 X89.9488 Y13.7500 F120.00
G00 X89.9488 Y13.7500
G01 F60.00
G01 Z-2.4000
G01 F120.00
G01 X89.9474 Y13.7207 F120.00
G01 X89.9431 Y13.6917 F120.00
G01 X89.9359 Y13.6633 F120.00
G01 X89.9260 Y13.6357 F120.00
G01 X89.9135 Y13.6091 F120.00
G01 X89.8984 Y13.5840 F120.00
G01 X89.8810 Y13.5604 F120.00
G01 X89.8613 Y13.5387 F120.00
G01 X89.8396 Y13.5190 F120.00
G01 X89.8160 Y13.5016 F120.00
G01 X89.7909 Y13.4865 F120.00
G01 X89.7643 Y13.4740 F120.00
G01 X89.7367 Y13.4641 F120.00
G01 X89.7083 Y13.4569 F120.00
G01 X89.6793 Y13.4526 F120.00
G01 X89.6500 Y13.4512 F120.00
G01 X89.6207 Y13.4526 F120.00
G01 X89.5917 Y13.4569 F120.00
G01 X89.5633 Y13.4641 F120.00
G01 X89.5357 Y13.4740 F120.00
G01 X89.5091 Y13.4865 F120.00
G01 X89.4840 Y13.5016 F120.00
G01 X89.4604 Y13.5190 F120.00
G01 X89.4387 Y13.5387 F120.00
G01 X89.4190 Y13.5604 F120.00
G01 X89.4016 Y13.5840 F120.00
G01 X89.3865 Y13.6091 F120.00
G01 X89.3740 Y13.6357 F120.00
G01 X89.3641 Y13.6633 F120.00
G01 X89.3569 Y13.6917 F120.00
G01 X89.3526 Y13.7207 F120.00
G01 X89.3512 Y13.7500 F120.00
G01 X89.3526 Y13.7793 F120.00
G01 X89.3569 Y13.8083 F120.00
G01 X89.3641 Y13.8367 F120.00
G01 X89.3740 Y13.8643 F120.00
G01 X89.3865 Y13.8909 F120.00
G01 X89.4016 Y13.9160 F120.00
G01 X89.4190 Y13.9396 F120.00
G01 X89.4387 Y13.9613 F120.00
G01 X89.4604 Y13.9810 F120.00
G01 X89.4840 Y13.9984 F120.00
G01 X89.5091 Y14.0135 F120.00
G01 X89.5357 Y14.0260 F120.00
G01 X89.5633 Y14.0359 F120.00
G01 X89.5917 Y14.0431 F120.00
G01 X89.6207 Y14.0474 F120.00
G01 X89.6500 Y14.0488 F120.00
G01 X89.6793 Y14.0474 F120.00
G01 X89.7083 Y14.0431 F120.00
G01 X89.7367 Y14.0359 F120.00
G01 X89.7643 Y14.0260 F120.00
G01 X89.7909 Y14.0135 F120.00
G01 X89.8160 Y13.9984 F120.00
G01 X89.8396 Y13.9810 F120.00
G01 X89.8613 Y13.9613 F120.00
G01 X89.8810 Y13.9396 F120.00
G01 X89.8984 Y13.9160 F120.00
G01 X89.9135 Y13.8909 F120.00
G01 X89.9260 Y13.8643 F120.00
G01 X89.9359 Y13.8367 F120.00
G01 X89.9431 Y13.8083 F120.00
G01 X89.9474 Y13.7793 F120.00
G01 X89.9488 Y13.7500 F120.00
G00 Z2.0000
G00 X101.1488 Y13.7500
G01 F60.00
G01 Z-0.4000
G01 F120.00
G01 X101.1474 Y13.7207 F120.00
G01 X101.1431 Y13.6917 F120.00
G01 X101.1359 Y13.6633 F120.00
G01 X101.1260 Y13.6357 F120.00
G01 X101.1135 Y13.6091 F120.00
G01 X101.0984 Y13.5840 F120.00
G01 X101.0810 Y13.5604 F120.00
G01 X101.0613 Y13.5387 F120.00
G01 X101.0396 Y13.5190 F120.00
G01 X101.0160 Y13.5016 F120.00
G01 X100.9909 Y13.4865 F120.00
G01 X100.9643 Y13.4740 F120.00
G01 X100.9367 Y13.4641 F120.00
G01 X100.9083 Y13.4569 F120.00
G01 X100.8793 Y13.4526 F120.00
G01 X100.8500 Y13.4512 F120.00
G01 X100.8207 Y13.4526 F120.00
G01 X100.7917 Y13.4569 F120.00
G01 X100.7633 Y13.4641 F120.00
G01 X100.7357 Y13.4740 F120.00
G01 X100.7091 Y13.4865 F120.00
G01 X100.6840 Y13.5016 F120.00
G01 X100.6604 Y13.5190 F120.00
G01 X100.6387 Y13.5387 F120.00
G01 X100.6190 Y13.5604 F120.00
G01 X100.6016 Y13.5840 F120.00
G01 X100.5865 Y13.6091 F120.00
G01 X100.5740 Y13.6357 F120.00
G01 X100.5641 Y13.6633 F120.00
G01 X100.5569 Y13.6917 F120.00
G01 X100.5526 Y13.7207 F120.00
G01 X100.5512 Y13.7500 F120.00
G01 X100.5526 Y13.7793 F120.00
G01 X100.5569 Y13.8083 F120.00
G01 X100.5641 Y13.8367 F120.00
G01 X100.5740 Y13.8643 F120.00
G01 X100.5865 Y13.8909 F120.00
G01 X100.6016 Y13.9160 F120.00
G01 X100.6190 Y13.9396 F120.00
G01 X100.6387 Y13.9613 F120.00
G01 X100.6604 Y13.9810 F120.00
G01 X100.6840 Y13.9984 F120.00
G01 X100.7091 Y14.0135 F120.00
G01 X100.7357 Y14.0260 F120.00
G01 X100.7633 Y14.0359 F120.00
G01 X100.7917 Y14.0431 F120.00
G01 X100.8207 Y14.0474 F120.00
G01 X100.8500 Y14.0488 F120.00
G01 X100.8793 Y14.0474 F120.00
G01 X100.9083 Y14.0431 F120.00
G01 X100.9367 Y14.0359 F120.00
G01 X100.9643 Y14.0260 F120.00
G01 X100.9909 Y14.0135 F120.00
G01 X101.0160 Y13.9984 F120.00
G01 X101.0396 Y13.9810 F120.00
G01 X101.0613 Y13.9613 F120.00
G01 X101.0810 Y13.9396 F120.00
G01 X101.0984 Y13.9160 F120.00
G01 X101.1135 Y13.8909 F120.00
G01 X101.1260 Y13.8643 F120.00
G01 X101.1359 Y13.8367 F120.00
G01 X101.1431 Y13.8083 F120.00
G01 X101.1474 Y13.7793 F120.00
G01 X101.1488 Y13.7500 F120.00
G00 X101.1488 Y13.7500
G01 F60.00
G01 Z-0.8000
G01 F120.00
G01 X101.1474 Y13.7207 F120.00
G01 X101.1431 Y13.6917 F120.00
G01 X101.1359 Y13.6633 F120.00
G01 X101.1260 Y13.6357 F120.00
G01 X101.1135 Y13.6091 F120.00
G01 X101.0984 Y13.5840 F120.00
G01 X101.0810 Y13.5604 F120.00
G01 X101.0613 Y13.5387 F120.00
G01 X101.0396 Y13.5190 F120.00
G01 X101.0160 Y13.5016 F120.00
G01 X100.9909 Y13.4865 F120.00
G01 X100.9643 Y13.4740 F120.00
G01 X100.9367 Y13.4641 F120.00
G01 X100.9083 Y13.4569 F120.00
G01 X100.8793 Y13.4526 F120.00
G01 X100.8500 Y13.4512 F120.00
G01 X100.8207 Y13.4526 F120.00
G01 X100.7917 Y13.4569 F120.00
G01 X100.7633 Y13.4641 F120.00
G01 X100.7357 Y13.4740 F120.00
G01 X100.7091 Y13.4865 F120.00
G01 X100.6840 Y13.5016 F120.00
G01 X100.6604 Y13.5190 F120.00
G01 X100.6387 Y13.5387 F120.00
G01 X100.6190 Y13.5604 F120.00
G01 X100.6016 Y13.5840 F120.00
G01 X100.5865 Y13.6091 F120.00
G01 X100.5740 Y13.6357 F120.00
G01 X100.5641 Y13.6633 F120.00
G01 X100.5569 Y13.6917 F120.00
G01 X100.5526 Y13.7207 F120.00
G01 X100.5512 Y13.7500 F120.00
G01 X100.5526 Y13.7793 F120.00
G01 X100.5569 Y13.8083 F120.00
G01 X100.5641 Y13.8367 F120.00
G01 X100.5740 Y13.8643 F120.00
G01 X100.5865 Y13.8909 F120.00
G01 X100.6016 Y13.9160 F120.00
G01 X100.6190 Y13.9396 F120.00
G01 X100.6387 Y13.9613 F120.00
G01 X100.6604 Y13.9810 F120.00
G01 X100.6840 Y13.9984 F120.00
G01 X100.7091 Y14.0135 F120.00
G01 X100.7357 Y14.0260 F120.00
G01 X100.7633 Y14.0359 F120.00
G01 X100.7917 Y14.0431 F120.00
G01 X100.8207 Y14.0474 F120.00
G01 X100.8500 Y14.0488 F120.00
G01 X100.8793 Y14.0474 F120.00
G01 X100.9083 Y14.0431 F120.00
G01 X100.9367 Y14.0359 F120.00
G01 X100.9643 Y14.0260 F120.00
G01 X100.9909 Y14.0135 F120.00
G01 X101.0160 Y13.9984 F120.00
G01 X101.0396 Y13.9810 F120.00
G01 X101.0613 Y13.9613 F120.00
G01 X101.0810 Y13.9396 F120.00
G01 X101.0984 Y13.9160 F120.00
G01 X101.1135 Y13.8909 F120.00
G01 X101.1260 Y13.8643 F120.00
G01 X101.1359 Y13.8367 F120.00
G01 X101.1431 Y13.8083 F120.00
G01 X101.1474 Y13.7793 F120.00
G01 X101.1488 Y13.7500 F120.00
G00 X101.1488 Y13.7500
G01 F60.00
G01 Z-1.2000
G01 F120.00
G01 X101.1474 Y13.7207 F120.00
G01 X101.1431 Y13.6917 F120.00
G01 X101.1359 Y13.6633 F120.00
G01 X101.1260 Y13.6357 F120.00
G01 X101.1135 Y13.6091 F120.00
G01 X101.0984 Y13.5840 F120.00
G01 X101.0810 Y13.5604 F120.00
G01 X101.0613 Y13.5387 F120.00
G01 X101.0396 Y13.5190 F120.00
G01 X101.0160 Y13.5016 F120.00
G01 X100.9909 Y13.4865 F120.00
G01 X100.9643 Y13.4740 F120.00
G01 X100.9367 Y13.4641 F120.00
G01 X100.9083 Y13.4569 F120.00
G01 X100.8793 Y13.4526 F120.00
G01 X100.8500 Y13.4512 F120.00
G01 X100.8207 Y13.4526 F120.00
G01 X100.7917 Y13.4569 F120.00
G01 X100.7633 Y13.4641 F120.00
G01 X100.7357 Y13.4740 F120.00
G01 X100.7091 Y13.4865 F120.00
G01 X100.6840 Y13.5016 F120.00
G01 X100.6604 Y13.5190 F120.00
G01 X100.6387 Y13.5387 F120.00
G01 X100.6190 Y13.5604 F120.00
G01 X100.6016 Y13.5840 F120.00
G01 X100.5865 Y13.6091 F120.00
G01 X100.5740 Y13.6357 F120.00
G01 X100.5641 Y13.6633 F120.00
G01 X100.5569 Y13.6917 F120.00
G01 X100.5526 Y13.7207 F120.00
G01 X100.5512 Y13.7500 F120.00
G01 X100.5526 Y13.7793 F120.00
G01 X100.5569 Y13.8083 F120.00
G01 X100.5641 Y13.8367 F120.00
G01 X100.5740 Y13.8643 F120.00
G01 X100.5865 Y13.8909 F120.00
G01 X100.6016 Y13.9160 F120.00
G01 X100.6190 Y13.9396 F120.00
G01 X100.6387 Y13.9613 F120.00
G01 X100.6604 Y13.9810 F120.00
G01 X100.6840 Y13.9984 F120.00
G01 X100.7091 Y14.0135 F120.00
G01 X100.7357 Y14.0260 F120.00
G01 X100.7633 Y14.0359 F120.00
G01 X100.7917 Y14.0431 F120.00
G01 X100.8207 Y14.0474 F120.00
G01 X100.8500 Y14.0488 F120.00
G01 X100.8793 Y14.0474 F120.00
G01 X100.9083 Y14.0431 F120.00
G01 X100.9367 Y14.0359 F120.00
G01 X100.9643 Y14.0260 F120.00
G01 X100.9909 Y14.0135 F120.00
G01 X101.0160 Y13.9984 F120.00
G01 X101.0396 Y13.9810 F120.00
G01 X101.0613 Y13.9613 F120.00
G01 X101.0810 Y13.9396 F120.00
G01 X101.0984 Y13.9160 F120.00
G01 X101.1135 Y13.8909 F120.00
G01 X101.1260 Y13.8643 F120.00
G01 X101.1359 Y13.8367 F120.00
G01 X101.1431 Y13.8083 F120.00
G01 X101.1474 Y13.7793 F120.00
G01 X101.1488 Y13.7500 F120.00
G00 X101.1488 Y13.7500
G01 F60.00
G01 Z-1.6000
G01 F120.00
G01 X101.1474 Y13.7207 F120.00
G01 X101.1431 Y13.6917 F120.00
G01 X101.1359 Y13.6633 F120.00
G01 X101.1260 Y13.6357 F120.00
G01 X101.1135 Y13.6091 F120.00
G01 X101.0984 Y13.5840 F120.00
G01 X101.0810 Y13.5604 F120.00
G01 X101.0613 Y13.5387 F120.00
G01 X101.0396 Y13.5190 F120.00
G01 X101.0160 Y13.5016 F120.00
G01 X100.9909 Y13.4865 F120.00
G01 X100.9643 Y13.4740 F120.00
G01 X100.9367 Y13.4641 F120.00
G01 X100.9083 Y13.4569 F120.00
G01 X100.8793 Y13.4526 F120.00
G01 X100.8500 Y13.4512 F120.00
G01 X100.8207 Y13.4526 F120.00
G01 X100.7917 Y13.4569 F120.00
G01 X100.7633 Y13.4641 F120.00
G01 X100.7357 Y13.4740 F120.00
G01 X100.7091 Y13.4865 F120.00
G01 X100.6840 Y13.5016 F120.00
G01 X100.6604 Y13.5190 F120.00
G01 X100.6387 Y13.5387 F120.00
G01 X100.6190 Y13.5604 F120.00
G01 X100.6016 Y13.5840 F120.00
G01 X100.5865 Y13.6091 F120.00
G01 X100.5740 Y13.6357 F120.00
G01 X100.5641 Y13.6633 F120.00
G01 X100.5569 Y13.6917 F120.00
G01 X100.5526 Y13.7207 F120.00
G01 X100.5512 Y13.7500 F120.00
G01 X100.5526 Y13.7793 F120.00
G01 X100.5569 Y13.8083 F120.00
G01 X100.5641 Y13.8367 F120.00
G01 X100.5740 Y13.8643 F120.00
G01 X100.5865 Y13.8909 F120.00
G01 X100.6016 Y13.9160 F120.00
G01 X100.6190 Y13.9396 F120.00
G01 X100.6387 Y13.9613 F120.00
G01 X100.6604 Y13.9810 F120.00
G01 X100.6840 Y13.9984 F120.00
G01 X100.7091 Y14.0135 F120.00
G01 X100.7357 Y14.0260 F120.00
G01 X100.7633 Y14.0359 F120.00
G01 X100.7917 Y14.0431 F120.00
G01 X100.8207 Y14.0474 F120.00
G01 X100.8500 Y14.0488 F120.00
G01 X100.8793 Y14.0474 F120.00
G01 X100.9083 Y14.0431 F120.00
G01 X100.9367 Y14.0359 F120.00
G01 X100.9643 Y14.0260 F120.00
G01 X100.9909 Y14.0135 F120.00
G01 X101.0160 Y13.9984 F120.00
G01 X101.0396 Y13.9810 F120.00
G01 X101.0613 Y13.9613 F120.00
G01 X101.0810 Y13.9396 F120.00
G01 X101.0984 Y13.9160 F120.00
G01 X101.1135 Y13.8909 F120.00
G01 X101.1260 Y13.8643 F120.00
G01 X101.1359 Y13.8367 F120.00
G01 X101.1431 Y13.8083 F120.00
G01 X101.1474 Y13.7793 F120.00
G01 X101.1488 Y13.7500 F120.00
G00 X101.1488 Y13.7500
G01 F60.00
G01 Z-2.0000
G01 F120.00
G01 X101.1474 Y13.7207 F120.00
G01 X101.1431 Y13.6917 F120.00
G01 X101.1359 Y13.6633 F120.00
G01 X101.1260 Y13.6357 F120.00
G01 X101.1135 Y13.6091 F120.00
G01 X101.0984 Y13.5840 F120.00
G01 X101.0810 Y13.5604 F120.00
G01 X101.0613 Y13.5387 F120.00
G01 X101.0396 Y13.5190 F120.00
G01 X101.0160 Y13.5016 F120.00
G01 X100.9909 Y13.4865 F120.00
G01 X100.9643 Y13.4740 F120.00
G01 X100.9367 Y13.4641 F120.00
G01 X100.9083 Y13.4569 F120.00
G01 X100.8793 Y13.4526 F120.00
G01 X100.8500 Y13.4512 F120.00
G01 X100.8207 Y13.4526 F120.00
G01 X100.7917 Y13.4569 F120.00
G01 X100.7633 Y13.4641 F120.00
G01 X100.7357 Y13.4740 F120.00
G01 X100.7091 Y13.4865 F120.00
G01 X100.6840 Y13.5016 F120.00
G01 X100.6604 Y13.5190 F120.00
G01 X100.6387 Y13.5387 F120.00
G01 X100.6190 Y13.5604 F120.00
G01 X100.6016 Y13.5840 F120.00
G01 X100.5865 Y13.6091 F120.00
G01 X100.5740 Y13.6357 F120.00
G01 X100.5641 Y13.6633 F120.00
G01 X100.5569 Y13.6917 F120.00
G01 X100.5526 Y13.7207 F120.00
G01 X100.5512 Y13.7500 F120.00
G01 X100.5526 Y13.7793 F120.00
G01 X100.5569 Y13.8083 F120.00
G01 X100.5641 Y13.8367 F120.00
G01 X100.5740 Y13.8643 F120.00
G01 X100.5865 Y13.8909 F120.00
G01 X100.6016 Y13.9160 F120.00
G01 X100.6190 Y13.9396 F120.00
G01 X100.6387 Y13.9613 F120.00
G01 X100.6604 Y13.9810 F120.00
G01 X100.6840 Y13.9984 F120.00
G01 X100.7091 Y14.0135 F120.00
G01 X100.7357 Y14.0260 F120.00
G01 X100.7633 Y14.0359 F120.00
G01 X100.7917 Y14.0431 F120.00
G01 X100.8207 Y14.0474 F120.00
G01 X100.8500 Y14.0488 F120.00
G01 X100.8793 Y14.0474 F120.00
G01 X100.9083 Y14.0431 F120.00
G01 X100.9367 Y14.0359 F120.00
G01 X100.9643 Y14.0260 F120.00
G01 X100.9909 Y14.0135 F120.00
G01 X101.0160 Y13.9984 F120.00
G01 X101.0396 Y13.9810 F120.00
G01 X101.0613 Y13.9613 F120.00
G01 X101.0810 Y13.9396 F120.00
G01 X101.0984 Y13.9160 F120.00
G01 X101.1135 Y13.8909 F120.00
G01 X101.1260 Y13.8643 F120.00
G01 X101.1359 Y13.8367 F120.00
G01 X101.1431 Y13.8083 F120.00
G01 X101.1474 Y13.7793 F120.00
G01 X101.1488 Y13.7500 F120.00
G00 X101.1488 Y13.7500
G01 F60.00
G01 Z-2.4000
G01 F120.00
G01 X101.1474 Y13.7207 F120.00
G01 X101.1431 Y13.6917 F120.00
G01 X101.1359 Y13.6633 F120.00
G01 X101.1260 Y13.6357 F120.00
G01 X101.1135 Y13.6091 F120.00
G01 X101.0984 Y13.5840 F120.00
G01 X101.0810 Y13.5604 F120.00
G01 X101.0613 Y13.5387 F120.00
G01 X101.0396 Y13.5190 F120.00
G01 X101.0160 Y13.5016 F120.00
G01 X100.9909 Y13.4865 F120.00
G01 X100.9643 Y13.4740 F120.00
G01 X100.9367 Y13.4641 F120.00
G01 X100.9083 Y13.4569 F120.00
G01 X100.8793 Y13.4526 F120.00
G01 X100.8500 Y13.4512 F120.00
G01 X100.8207 Y13.4526 F120.00
G01 X100.7917 Y13.4569 F120.00
G01 X100.7633 Y13.4641 F120.00
G01 X100.7357 Y13.4740 F120.00
G01 X100.7091 Y13.4865 F120.00
G01 X100.6840 Y13.5016 F120.00
G01 X100.6604 Y13.5190 F120.00
G01 X100.6387 Y13.5387 F120.00
G01 X100.6190 Y13.5604 F120.00
G01 X100.6016 Y13.5840 F120.00
G01 X100.5865 Y13.6091 F120.00
G01 X100.5740 Y13.6357 F120.00
G01 X100.5641 Y13.6633 F120.00
G01 X100.5569 Y13.6917 F120.00
G01 X100.5526 Y13.7207 F120.00
G01 X100.5512 Y13.7500 F120.00
G01 X100.5526 Y13.7793 F120.00
G01 X100.5569 Y13.8083 F120.00
G01 X100.5641 Y13.8367 F120.00
G01 X100.5740 Y13.8643 F120.00
G01 X100.5865 Y13.8909 F120.00
G01 X100.6016 Y13.9160 F120.00
G01 X100.6190 Y13.9396 F120.00
G01 X100.6387 Y13.9613 F120.00
G01 X100.6604 Y13.9810 F120.00
G01 X100.6840 Y13.9984 F120.00
G01 X100.7091 Y14.0135 F120.00
G01 X100.7357 Y14.0260 F120.00
G01 X100.7633 Y14.0359 F120.00
G01 X100.7917 Y14.0431 F120.00
G01 X100.8207 Y14.0474 F120.00
G01 X100.8500 Y14.0488 F120.00
G01 X100.8793 Y14.0474 F120.00
G01 X100.9083 Y14.0431 F120.00
G01 X100.9367 Y14.0359 F120.00
G01 X100.9643 Y14.0260 F120.00
G01 X100.9909 Y14.0135 F120.00
G01 X101.0160 Y13.9984 F120.00
G01 X101.0396 Y13.9810 F120.00
G01 X101.0613 Y13.9613 F120.00
G01 X101.0810 Y13.9396 F120.00
G01 X101.0984 Y13.9160 F120.00
G01 X101.1135 Y13.8909 F120.00
G01 X101.1260 Y13.8643 F120.00
G01 X101.1359 Y13.8367 F120.00
G01 X101.1431 Y13.8083 F120.00
G01 X101.1474 Y13.7793 F120.00
G01 X101.1488 Y13.7500 F120.00
G00 Z2.0000
M05
G00 Z2.0000
G00 Z7.00


