(G-CODE GENERATED BY FLATCAM v8.994 - www.flatcam.org - Version Date: 2020/11/7)

(Name: Encoders-LCD-NPTH.drl_edit_conv_cnc)
(Type: G-code from Geometry)
(Units: MM)

(Created on Monday, 19 August 2024 at 10:05)

(This preprocessor is used with a motion controller loaded with GRBL firmware.)
(It is configured to be compatible with almost any version of GRBL firmware.)

(TOOL DIAMETER: 2.0 mm)
(Feedrate_XY: 120.0 mm/min)
(Feedrate_Z: 60.0 mm/min)
(Feedrate rapids 1500.0 mm/min)

(Z_Cut: -2.4 mm)
(DepthPerCut: 0.40000000000000013 mm <=>6 passes)
(Z_Move: 2.0 mm)
(Z Start: None mm)
(Z End: 7.0 mm)
(X,Y End: None mm)
(Steps per circle: 64)
(Steps per circle: 64)
(Preprocessor Geometry: GRBL_11_no_M6)

(X range:    0.0000 ...    0.0000  mm)
(Y range:    0.0000 ...    0.0000  mm)

(Spindle Speed: 1000.0 RPM)
G21
G90
G17
G94


G01 F120.00

M5             
G00 Z7.0000
G00 X0.0000 Y0.0000                
T1
(MSG, Change to Tool Dia = 2.0000)
M0
G00 Z7.0000
        
M03 S1000.0
G01 F120.00
G00 X32.5988 Y28.7500
G01 F60.00
G01 Z-0.4000
G01 F120.00
G01 X32.5959 Y28.6913 F120.00
G01 X32.5873 Y28.6332 F120.00
G01 X32.5730 Y28.5762 F120.00
G01 X32.5532 Y28.5209 F120.00
G01 X32.5281 Y28.4677 F120.00
G01 X32.4979 Y28.4173 F120.00
G01 X32.4629 Y28.3701 F120.00
G01 X32.4234 Y28.3266 F120.00
G01 X32.3799 Y28.2871 F120.00
G01 X32.3327 Y28.2521 F120.00
G01 X32.2823 Y28.2219 F120.00
G01 X32.2291 Y28.1968 F120.00
G01 X32.1738 Y28.1770 F120.00
G01 X32.1168 Y28.1627 F120.00
G01 X32.0587 Y28.1541 F120.00
G01 X32.0000 Y28.1512 F120.00
G01 X31.9413 Y28.1541 F120.00
G01 X31.8832 Y28.1627 F120.00
G01 X31.8262 Y28.1770 F120.00
G01 X31.7709 Y28.1968 F120.00
G01 X31.7177 Y28.2219 F120.00
G01 X31.6673 Y28.2521 F120.00
G01 X31.6201 Y28.2871 F120.00
G01 X31.5766 Y28.3266 F120.00
G01 X31.5371 Y28.3701 F120.00
G01 X31.5021 Y28.4173 F120.00
G01 X31.4719 Y28.4677 F120.00
G01 X31.4468 Y28.5209 F120.00
G01 X31.4270 Y28.5762 F120.00
G01 X31.4127 Y28.6332 F120.00
G01 X31.4041 Y28.6913 F120.00
G01 X31.4012 Y28.7500 F120.00
G01 X31.4041 Y28.8087 F120.00
G01 X31.4127 Y28.8668 F120.00
G01 X31.4270 Y28.9238 F120.00
G01 X31.4468 Y28.9791 F120.00
G01 X31.4719 Y29.0323 F120.00
G01 X31.5021 Y29.0827 F120.00
G01 X31.5371 Y29.1299 F120.00
G01 X31.5766 Y29.1734 F120.00
G01 X31.6201 Y29.2129 F120.00
G01 X31.6673 Y29.2479 F120.00
G01 X31.7177 Y29.2781 F120.00
G01 X31.7709 Y29.3032 F120.00
G01 X31.8262 Y29.3230 F120.00
G01 X31.8832 Y29.3373 F120.00
G01 X31.9413 Y29.3459 F120.00
G01 X32.0000 Y29.3488 F120.00
G01 X32.0587 Y29.3459 F120.00
G01 X32.1168 Y29.3373 F120.00
G01 X32.1738 Y29.3230 F120.00
G01 X32.2291 Y29.3032 F120.00
G01 X32.2823 Y29.2781 F120.00
G01 X32.3327 Y29.2479 F120.00
G01 X32.3799 Y29.2129 F120.00
G01 X32.4234 Y29.1734 F120.00
G01 X32.4629 Y29.1299 F120.00
G01 X32.4979 Y29.0827 F120.00
G01 X32.5281 Y29.0323 F120.00
G01 X32.5532 Y28.9791 F120.00
G01 X32.5730 Y28.9238 F120.00
G01 X32.5873 Y28.8668 F120.00
G01 X32.5959 Y28.8087 F120.00
G01 X32.5988 Y28.7500 F120.00
G00 X32.5988 Y28.7500
G01 F60.00
G01 Z-0.8000
G01 F120.00
G01 X32.5959 Y28.6913 F120.00
G01 X32.5873 Y28.6332 F120.00
G01 X32.5730 Y28.5762 F120.00
G01 X32.5532 Y28.5209 F120.00
G01 X32.5281 Y28.4677 F120.00
G01 X32.4979 Y28.4173 F120.00
G01 X32.4629 Y28.3701 F120.00
G01 X32.4234 Y28.3266 F120.00
G01 X32.3799 Y28.2871 F120.00
G01 X32.3327 Y28.2521 F120.00
G01 X32.2823 Y28.2219 F120.00
G01 X32.2291 Y28.1968 F120.00
G01 X32.1738 Y28.1770 F120.00
G01 X32.1168 Y28.1627 F120.00
G01 X32.0587 Y28.1541 F120.00
G01 X32.0000 Y28.1512 F120.00
G01 X31.9413 Y28.1541 F120.00
G01 X31.8832 Y28.1627 F120.00
G01 X31.8262 Y28.1770 F120.00
G01 X31.7709 Y28.1968 F120.00
G01 X31.7177 Y28.2219 F120.00
G01 X31.6673 Y28.2521 F120.00
G01 X31.6201 Y28.2871 F120.00
G01 X31.5766 Y28.3266 F120.00
G01 X31.5371 Y28.3701 F120.00
G01 X31.5021 Y28.4173 F120.00
G01 X31.4719 Y28.4677 F120.00
G01 X31.4468 Y28.5209 F120.00
G01 X31.4270 Y28.5762 F120.00
G01 X31.4127 Y28.6332 F120.00
G01 X31.4041 Y28.6913 F120.00
G01 X31.4012 Y28.7500 F120.00
G01 X31.4041 Y28.8087 F120.00
G01 X31.4127 Y28.8668 F120.00
G01 X31.4270 Y28.9238 F120.00
G01 X31.4468 Y28.9791 F120.00
G01 X31.4719 Y29.0323 F120.00
G01 X31.5021 Y29.0827 F120.00
G01 X31.5371 Y29.1299 F120.00
G01 X31.5766 Y29.1734 F120.00
G01 X31.6201 Y29.2129 F120.00
G01 X31.6673 Y29.2479 F120.00
G01 X31.7177 Y29.2781 F120.00
G01 X31.7709 Y29.3032 F120.00
G01 X31.8262 Y29.3230 F120.00
G01 X31.8832 Y29.3373 F120.00
G01 X31.9413 Y29.3459 F120.00
G01 X32.0000 Y29.3488 F120.00
G01 X32.0587 Y29.3459 F120.00
G01 X32.1168 Y29.3373 F120.00
G01 X32.1738 Y29.3230 F120.00
G01 X32.2291 Y29.3032 F120.00
G01 X32.2823 Y29.2781 F120.00
G01 X32.3327 Y29.2479 F120.00
G01 X32.3799 Y29.2129 F120.00
G01 X32.4234 Y29.1734 F120.00
G01 X32.4629 Y29.1299 F120.00
G01 X32.4979 Y29.0827 F120.00
G01 X32.5281 Y29.0323 F120.00
G01 X32.5532 Y28.9791 F120.00
G01 X32.5730 Y28.9238 F120.00
G01 X32.5873 Y28.8668 F120.00
G01 X32.5959 Y28.8087 F120.00
G01 X32.5988 Y28.7500 F120.00
G00 X32.5988 Y28.7500
G01 F60.00
G01 Z-1.2000
G01 F120.00
G01 X32.5959 Y28.6913 F120.00
G01 X32.5873 Y28.6332 F120.00
G01 X32.5730 Y28.5762 F120.00
G01 X32.5532 Y28.5209 F120.00
G01 X32.5281 Y28.4677 F120.00
G01 X32.4979 Y28.4173 F120.00
G01 X32.4629 Y28.3701 F120.00
G01 X32.4234 Y28.3266 F120.00
G01 X32.3799 Y28.2871 F120.00
G01 X32.3327 Y28.2521 F120.00
G01 X32.2823 Y28.2219 F120.00
G01 X32.2291 Y28.1968 F120.00
G01 X32.1738 Y28.1770 F120.00
G01 X32.1168 Y28.1627 F120.00
G01 X32.0587 Y28.1541 F120.00
G01 X32.0000 Y28.1512 F120.00
G01 X31.9413 Y28.1541 F120.00
G01 X31.8832 Y28.1627 F120.00
G01 X31.8262 Y28.1770 F120.00
G01 X31.7709 Y28.1968 F120.00
G01 X31.7177 Y28.2219 F120.00
G01 X31.6673 Y28.2521 F120.00
G01 X31.6201 Y28.2871 F120.00
G01 X31.5766 Y28.3266 F120.00
G01 X31.5371 Y28.3701 F120.00
G01 X31.5021 Y28.4173 F120.00
G01 X31.4719 Y28.4677 F120.00
G01 X31.4468 Y28.5209 F120.00
G01 X31.4270 Y28.5762 F120.00
G01 X31.4127 Y28.6332 F120.00
G01 X31.4041 Y28.6913 F120.00
G01 X31.4012 Y28.7500 F120.00
G01 X31.4041 Y28.8087 F120.00
G01 X31.4127 Y28.8668 F120.00
G01 X31.4270 Y28.9238 F120.00
G01 X31.4468 Y28.9791 F120.00
G01 X31.4719 Y29.0323 F120.00
G01 X31.5021 Y29.0827 F120.00
G01 X31.5371 Y29.1299 F120.00
G01 X31.5766 Y29.1734 F120.00
G01 X31.6201 Y29.2129 F120.00
G01 X31.6673 Y29.2479 F120.00
G01 X31.7177 Y29.2781 F120.00
G01 X31.7709 Y29.3032 F120.00
G01 X31.8262 Y29.3230 F120.00
G01 X31.8832 Y29.3373 F120.00
G01 X31.9413 Y29.3459 F120.00
G01 X32.0000 Y29.3488 F120.00
G01 X32.0587 Y29.3459 F120.00
G01 X32.1168 Y29.3373 F120.00
G01 X32.1738 Y29.3230 F120.00
G01 X32.2291 Y29.3032 F120.00
G01 X32.2823 Y29.2781 F120.00
G01 X32.3327 Y29.2479 F120.00
G01 X32.3799 Y29.2129 F120.00
G01 X32.4234 Y29.1734 F120.00
G01 X32.4629 Y29.1299 F120.00
G01 X32.4979 Y29.0827 F120.00
G01 X32.5281 Y29.0323 F120.00
G01 X32.5532 Y28.9791 F120.00
G01 X32.5730 Y28.9238 F120.00
G01 X32.5873 Y28.8668 F120.00
G01 X32.5959 Y28.8087 F120.00
G01 X32.5988 Y28.7500 F120.00
G00 X32.5988 Y28.7500
G01 F60.00
G01 Z-1.6000
G01 F120.00
G01 X32.5959 Y28.6913 F120.00
G01 X32.5873 Y28.6332 F120.00
G01 X32.5730 Y28.5762 F120.00
G01 X32.5532 Y28.5209 F120.00
G01 X32.5281 Y28.4677 F120.00
G01 X32.4979 Y28.4173 F120.00
G01 X32.4629 Y28.3701 F120.00
G01 X32.4234 Y28.3266 F120.00
G01 X32.3799 Y28.2871 F120.00
G01 X32.3327 Y28.2521 F120.00
G01 X32.2823 Y28.2219 F120.00
G01 X32.2291 Y28.1968 F120.00
G01 X32.1738 Y28.1770 F120.00
G01 X32.1168 Y28.1627 F120.00
G01 X32.0587 Y28.1541 F120.00
G01 X32.0000 Y28.1512 F120.00
G01 X31.9413 Y28.1541 F120.00
G01 X31.8832 Y28.1627 F120.00
G01 X31.8262 Y28.1770 F120.00
G01 X31.7709 Y28.1968 F120.00
G01 X31.7177 Y28.2219 F120.00
G01 X31.6673 Y28.2521 F120.00
G01 X31.6201 Y28.2871 F120.00
G01 X31.5766 Y28.3266 F120.00
G01 X31.5371 Y28.3701 F120.00
G01 X31.5021 Y28.4173 F120.00
G01 X31.4719 Y28.4677 F120.00
G01 X31.4468 Y28.5209 F120.00
G01 X31.4270 Y28.5762 F120.00
G01 X31.4127 Y28.6332 F120.00
G01 X31.4041 Y28.6913 F120.00
G01 X31.4012 Y28.7500 F120.00
G01 X31.4041 Y28.8087 F120.00
G01 X31.4127 Y28.8668 F120.00
G01 X31.4270 Y28.9238 F120.00
G01 X31.4468 Y28.9791 F120.00
G01 X31.4719 Y29.0323 F120.00
G01 X31.5021 Y29.0827 F120.00
G01 X31.5371 Y29.1299 F120.00
G01 X31.5766 Y29.1734 F120.00
G01 X31.6201 Y29.2129 F120.00
G01 X31.6673 Y29.2479 F120.00
G01 X31.7177 Y29.2781 F120.00
G01 X31.7709 Y29.3032 F120.00
G01 X31.8262 Y29.3230 F120.00
G01 X31.8832 Y29.3373 F120.00
G01 X31.9413 Y29.3459 F120.00
G01 X32.0000 Y29.3488 F120.00
G01 X32.0587 Y29.3459 F120.00
G01 X32.1168 Y29.3373 F120.00
G01 X32.1738 Y29.3230 F120.00
G01 X32.2291 Y29.3032 F120.00
G01 X32.2823 Y29.2781 F120.00
G01 X32.3327 Y29.2479 F120.00
G01 X32.3799 Y29.2129 F120.00
G01 X32.4234 Y29.1734 F120.00
G01 X32.4629 Y29.1299 F120.00
G01 X32.4979 Y29.0827 F120.00
G01 X32.5281 Y29.0323 F120.00
G01 X32.5532 Y28.9791 F120.00
G01 X32.5730 Y28.9238 F120.00
G01 X32.5873 Y28.8668 F120.00
G01 X32.5959 Y28.8087 F120.00
G01 X32.5988 Y28.7500 F120.00
G00 X32.5988 Y28.7500
G01 F60.00
G01 Z-2.0000
G01 F120.00
G01 X32.5959 Y28.6913 F120.00
G01 X32.5873 Y28.6332 F120.00
G01 X32.5730 Y28.5762 F120.00
G01 X32.5532 Y28.5209 F120.00
G01 X32.5281 Y28.4677 F120.00
G01 X32.4979 Y28.4173 F120.00
G01 X32.4629 Y28.3701 F120.00
G01 X32.4234 Y28.3266 F120.00
G01 X32.3799 Y28.2871 F120.00
G01 X32.3327 Y28.2521 F120.00
G01 X32.2823 Y28.2219 F120.00
G01 X32.2291 Y28.1968 F120.00
G01 X32.1738 Y28.1770 F120.00
G01 X32.1168 Y28.1627 F120.00
G01 X32.0587 Y28.1541 F120.00
G01 X32.0000 Y28.1512 F120.00
G01 X31.9413 Y28.1541 F120.00
G01 X31.8832 Y28.1627 F120.00
G01 X31.8262 Y28.1770 F120.00
G01 X31.7709 Y28.1968 F120.00
G01 X31.7177 Y28.2219 F120.00
G01 X31.6673 Y28.2521 F120.00
G01 X31.6201 Y28.2871 F120.00
G01 X31.5766 Y28.3266 F120.00
G01 X31.5371 Y28.3701 F120.00
G01 X31.5021 Y28.4173 F120.00
G01 X31.4719 Y28.4677 F120.00
G01 X31.4468 Y28.5209 F120.00
G01 X31.4270 Y28.5762 F120.00
G01 X31.4127 Y28.6332 F120.00
G01 X31.4041 Y28.6913 F120.00
G01 X31.4012 Y28.7500 F120.00
G01 X31.4041 Y28.8087 F120.00
G01 X31.4127 Y28.8668 F120.00
G01 X31.4270 Y28.9238 F120.00
G01 X31.4468 Y28.9791 F120.00
G01 X31.4719 Y29.0323 F120.00
G01 X31.5021 Y29.0827 F120.00
G01 X31.5371 Y29.1299 F120.00
G01 X31.5766 Y29.1734 F120.00
G01 X31.6201 Y29.2129 F120.00
G01 X31.6673 Y29.2479 F120.00
G01 X31.7177 Y29.2781 F120.00
G01 X31.7709 Y29.3032 F120.00
G01 X31.8262 Y29.3230 F120.00
G01 X31.8832 Y29.3373 F120.00
G01 X31.9413 Y29.3459 F120.00
G01 X32.0000 Y29.3488 F120.00
G01 X32.0587 Y29.3459 F120.00
G01 X32.1168 Y29.3373 F120.00
G01 X32.1738 Y29.3230 F120.00
G01 X32.2291 Y29.3032 F120.00
G01 X32.2823 Y29.2781 F120.00
G01 X32.3327 Y29.2479 F120.00
G01 X32.3799 Y29.2129 F120.00
G01 X32.4234 Y29.1734 F120.00
G01 X32.4629 Y29.1299 F120.00
G01 X32.4979 Y29.0827 F120.00
G01 X32.5281 Y29.0323 F120.00
G01 X32.5532 Y28.9791 F120.00
G01 X32.5730 Y28.9238 F120.00
G01 X32.5873 Y28.8668 F120.00
G01 X32.5959 Y28.8087 F120.00
G01 X32.5988 Y28.7500 F120.00
G00 X32.5988 Y28.7500
G01 F60.00
G01 Z-2.4000
G01 F120.00
G01 X32.5959 Y28.6913 F120.00
G01 X32.5873 Y28.6332 F120.00
G01 X32.5730 Y28.5762 F120.00
G01 X32.5532 Y28.5209 F120.00
G01 X32.5281 Y28.4677 F120.00
G01 X32.4979 Y28.4173 F120.00
G01 X32.4629 Y28.3701 F120.00
G01 X32.4234 Y28.3266 F120.00
G01 X32.3799 Y28.2871 F120.00
G01 X32.3327 Y28.2521 F120.00
G01 X32.2823 Y28.2219 F120.00
G01 X32.2291 Y28.1968 F120.00
G01 X32.1738 Y28.1770 F120.00
G01 X32.1168 Y28.1627 F120.00
G01 X32.0587 Y28.1541 F120.00
G01 X32.0000 Y28.1512 F120.00
G01 X31.9413 Y28.1541 F120.00
G01 X31.8832 Y28.1627 F120.00
G01 X31.8262 Y28.1770 F120.00
G01 X31.7709 Y28.1968 F120.00
G01 X31.7177 Y28.2219 F120.00
G01 X31.6673 Y28.2521 F120.00
G01 X31.6201 Y28.2871 F120.00
G01 X31.5766 Y28.3266 F120.00
G01 X31.5371 Y28.3701 F120.00
G01 X31.5021 Y28.4173 F120.00
G01 X31.4719 Y28.4677 F120.00
G01 X31.4468 Y28.5209 F120.00
G01 X31.4270 Y28.5762 F120.00
G01 X31.4127 Y28.6332 F120.00
G01 X31.4041 Y28.6913 F120.00
G01 X31.4012 Y28.7500 F120.00
G01 X31.4041 Y28.8087 F120.00
G01 X31.4127 Y28.8668 F120.00
G01 X31.4270 Y28.9238 F120.00
G01 X31.4468 Y28.9791 F120.00
G01 X31.4719 Y29.0323 F120.00
G01 X31.5021 Y29.0827 F120.00
G01 X31.5371 Y29.1299 F120.00
G01 X31.5766 Y29.1734 F120.00
G01 X31.6201 Y29.2129 F120.00
G01 X31.6673 Y29.2479 F120.00
G01 X31.7177 Y29.2781 F120.00
G01 X31.7709 Y29.3032 F120.00
G01 X31.8262 Y29.3230 F120.00
G01 X31.8832 Y29.3373 F120.00
G01 X31.9413 Y29.3459 F120.00
G01 X32.0000 Y29.3488 F120.00
G01 X32.0587 Y29.3459 F120.00
G01 X32.1168 Y29.3373 F120.00
G01 X32.1738 Y29.3230 F120.00
G01 X32.2291 Y29.3032 F120.00
G01 X32.2823 Y29.2781 F120.00
G01 X32.3327 Y29.2479 F120.00
G01 X32.3799 Y29.2129 F120.00
G01 X32.4234 Y29.1734 F120.00
G01 X32.4629 Y29.1299 F120.00
G01 X32.4979 Y29.0827 F120.00
G01 X32.5281 Y29.0323 F120.00
G01 X32.5532 Y28.9791 F120.00
G01 X32.5730 Y28.9238 F120.00
G01 X32.5873 Y28.8668 F120.00
G01 X32.5959 Y28.8087 F120.00
G01 X32.5988 Y28.7500 F120.00
G00 Z2.0000
G00 X79.5988 Y13.5000
G01 F60.00
G01 Z-0.4000
G01 F120.00
G01 X79.5959 Y13.4413 F120.00
G01 X79.5873 Y13.3832 F120.00
G01 X79.5730 Y13.3262 F120.00
G01 X79.5532 Y13.2709 F120.00
G01 X79.5281 Y13.2177 F120.00
G01 X79.4979 Y13.1673 F120.00
G01 X79.4629 Y13.1201 F120.00
G01 X79.4234 Y13.0766 F120.00
G01 X79.3799 Y13.0371 F120.00
G01 X79.3327 Y13.0021 F120.00
G01 X79.2823 Y12.9719 F120.00
G01 X79.2291 Y12.9468 F120.00
G01 X79.1738 Y12.9270 F120.00
G01 X79.1168 Y12.9127 F120.00
G01 X79.0587 Y12.9041 F120.00
G01 X79.0000 Y12.9012 F120.00
G01 X78.9413 Y12.9041 F120.00
G01 X78.8832 Y12.9127 F120.00
G01 X78.8262 Y12.9270 F120.00
G01 X78.7709 Y12.9468 F120.00
G01 X78.7177 Y12.9719 F120.00
G01 X78.6673 Y13.0021 F120.00
G01 X78.6201 Y13.0371 F120.00
G01 X78.5766 Y13.0766 F120.00
G01 X78.5371 Y13.1201 F120.00
G01 X78.5021 Y13.1673 F120.00
G01 X78.4719 Y13.2177 F120.00
G01 X78.4468 Y13.2709 F120.00
G01 X78.4270 Y13.3262 F120.00
G01 X78.4127 Y13.3832 F120.00
G01 X78.4041 Y13.4413 F120.00
G01 X78.4012 Y13.5000 F120.00
G01 X78.4041 Y13.5587 F120.00
G01 X78.4127 Y13.6168 F120.00
G01 X78.4270 Y13.6738 F120.00
G01 X78.4468 Y13.7291 F120.00
G01 X78.4719 Y13.7823 F120.00
G01 X78.5021 Y13.8327 F120.00
G01 X78.5371 Y13.8799 F120.00
G01 X78.5766 Y13.9234 F120.00
G01 X78.6201 Y13.9629 F120.00
G01 X78.6673 Y13.9979 F120.00
G01 X78.7177 Y14.0281 F120.00
G01 X78.7709 Y14.0532 F120.00
G01 X78.8262 Y14.0730 F120.00
G01 X78.8832 Y14.0873 F120.00
G01 X78.9413 Y14.0959 F120.00
G01 X79.0000 Y14.0988 F120.00
G01 X79.0587 Y14.0959 F120.00
G01 X79.1168 Y14.0873 F120.00
G01 X79.1738 Y14.0730 F120.00
G01 X79.2291 Y14.0532 F120.00
G01 X79.2823 Y14.0281 F120.00
G01 X79.3327 Y13.9979 F120.00
G01 X79.3799 Y13.9629 F120.00
G01 X79.4234 Y13.9234 F120.00
G01 X79.4629 Y13.8799 F120.00
G01 X79.4979 Y13.8327 F120.00
G01 X79.5281 Y13.7823 F120.00
G01 X79.5532 Y13.7291 F120.00
G01 X79.5730 Y13.6738 F120.00
G01 X79.5873 Y13.6168 F120.00
G01 X79.5959 Y13.5587 F120.00
G01 X79.5988 Y13.5000 F120.00
G00 X79.5988 Y13.5000
G01 F60.00
G01 Z-0.8000
G01 F120.00
G01 X79.5959 Y13.4413 F120.00
G01 X79.5873 Y13.3832 F120.00
G01 X79.5730 Y13.3262 F120.00
G01 X79.5532 Y13.2709 F120.00
G01 X79.5281 Y13.2177 F120.00
G01 X79.4979 Y13.1673 F120.00
G01 X79.4629 Y13.1201 F120.00
G01 X79.4234 Y13.0766 F120.00
G01 X79.3799 Y13.0371 F120.00
G01 X79.3327 Y13.0021 F120.00
G01 X79.2823 Y12.9719 F120.00
G01 X79.2291 Y12.9468 F120.00
G01 X79.1738 Y12.9270 F120.00
G01 X79.1168 Y12.9127 F120.00
G01 X79.0587 Y12.9041 F120.00
G01 X79.0000 Y12.9012 F120.00
G01 X78.9413 Y12.9041 F120.00
G01 X78.8832 Y12.9127 F120.00
G01 X78.8262 Y12.9270 F120.00
G01 X78.7709 Y12.9468 F120.00
G01 X78.7177 Y12.9719 F120.00
G01 X78.6673 Y13.0021 F120.00
G01 X78.6201 Y13.0371 F120.00
G01 X78.5766 Y13.0766 F120.00
G01 X78.5371 Y13.1201 F120.00
G01 X78.5021 Y13.1673 F120.00
G01 X78.4719 Y13.2177 F120.00
G01 X78.4468 Y13.2709 F120.00
G01 X78.4270 Y13.3262 F120.00
G01 X78.4127 Y13.3832 F120.00
G01 X78.4041 Y13.4413 F120.00
G01 X78.4012 Y13.5000 F120.00
G01 X78.4041 Y13.5587 F120.00
G01 X78.4127 Y13.6168 F120.00
G01 X78.4270 Y13.6738 F120.00
G01 X78.4468 Y13.7291 F120.00
G01 X78.4719 Y13.7823 F120.00
G01 X78.5021 Y13.8327 F120.00
G01 X78.5371 Y13.8799 F120.00
G01 X78.5766 Y13.9234 F120.00
G01 X78.6201 Y13.9629 F120.00
G01 X78.6673 Y13.9979 F120.00
G01 X78.7177 Y14.0281 F120.00
G01 X78.7709 Y14.0532 F120.00
G01 X78.8262 Y14.0730 F120.00
G01 X78.8832 Y14.0873 F120.00
G01 X78.9413 Y14.0959 F120.00
G01 X79.0000 Y14.0988 F120.00
G01 X79.0587 Y14.0959 F120.00
G01 X79.1168 Y14.0873 F120.00
G01 X79.1738 Y14.0730 F120.00
G01 X79.2291 Y14.0532 F120.00
G01 X79.2823 Y14.0281 F120.00
G01 X79.3327 Y13.9979 F120.00
G01 X79.3799 Y13.9629 F120.00
G01 X79.4234 Y13.9234 F120.00
G01 X79.4629 Y13.8799 F120.00
G01 X79.4979 Y13.8327 F120.00
G01 X79.5281 Y13.7823 F120.00
G01 X79.5532 Y13.7291 F120.00
G01 X79.5730 Y13.6738 F120.00
G01 X79.5873 Y13.6168 F120.00
G01 X79.5959 Y13.5587 F120.00
G01 X79.5988 Y13.5000 F120.00
G00 X79.5988 Y13.5000
G01 F60.00
G01 Z-1.2000
G01 F120.00
G01 X79.5959 Y13.4413 F120.00
G01 X79.5873 Y13.3832 F120.00
G01 X79.5730 Y13.3262 F120.00
G01 X79.5532 Y13.2709 F120.00
G01 X79.5281 Y13.2177 F120.00
G01 X79.4979 Y13.1673 F120.00
G01 X79.4629 Y13.1201 F120.00
G01 X79.4234 Y13.0766 F120.00
G01 X79.3799 Y13.0371 F120.00
G01 X79.3327 Y13.0021 F120.00
G01 X79.2823 Y12.9719 F120.00
G01 X79.2291 Y12.9468 F120.00
G01 X79.1738 Y12.9270 F120.00
G01 X79.1168 Y12.9127 F120.00
G01 X79.0587 Y12.9041 F120.00
G01 X79.0000 Y12.9012 F120.00
G01 X78.9413 Y12.9041 F120.00
G01 X78.8832 Y12.9127 F120.00
G01 X78.8262 Y12.9270 F120.00
G01 X78.7709 Y12.9468 F120.00
G01 X78.7177 Y12.9719 F120.00
G01 X78.6673 Y13.0021 F120.00
G01 X78.6201 Y13.0371 F120.00
G01 X78.5766 Y13.0766 F120.00
G01 X78.5371 Y13.1201 F120.00
G01 X78.5021 Y13.1673 F120.00
G01 X78.4719 Y13.2177 F120.00
G01 X78.4468 Y13.2709 F120.00
G01 X78.4270 Y13.3262 F120.00
G01 X78.4127 Y13.3832 F120.00
G01 X78.4041 Y13.4413 F120.00
G01 X78.4012 Y13.5000 F120.00
G01 X78.4041 Y13.5587 F120.00
G01 X78.4127 Y13.6168 F120.00
G01 X78.4270 Y13.6738 F120.00
G01 X78.4468 Y13.7291 F120.00
G01 X78.4719 Y13.7823 F120.00
G01 X78.5021 Y13.8327 F120.00
G01 X78.5371 Y13.8799 F120.00
G01 X78.5766 Y13.9234 F120.00
G01 X78.6201 Y13.9629 F120.00
G01 X78.6673 Y13.9979 F120.00
G01 X78.7177 Y14.0281 F120.00
G01 X78.7709 Y14.0532 F120.00
G01 X78.8262 Y14.0730 F120.00
G01 X78.8832 Y14.0873 F120.00
G01 X78.9413 Y14.0959 F120.00
G01 X79.0000 Y14.0988 F120.00
G01 X79.0587 Y14.0959 F120.00
G01 X79.1168 Y14.0873 F120.00
G01 X79.1738 Y14.0730 F120.00
G01 X79.2291 Y14.0532 F120.00
G01 X79.2823 Y14.0281 F120.00
G01 X79.3327 Y13.9979 F120.00
G01 X79.3799 Y13.9629 F120.00
G01 X79.4234 Y13.9234 F120.00
G01 X79.4629 Y13.8799 F120.00
G01 X79.4979 Y13.8327 F120.00
G01 X79.5281 Y13.7823 F120.00
G01 X79.5532 Y13.7291 F120.00
G01 X79.5730 Y13.6738 F120.00
G01 X79.5873 Y13.6168 F120.00
G01 X79.5959 Y13.5587 F120.00
G01 X79.5988 Y13.5000 F120.00
G00 X79.5988 Y13.5000
G01 F60.00
G01 Z-1.6000
G01 F120.00
G01 X79.5959 Y13.4413 F120.00
G01 X79.5873 Y13.3832 F120.00
G01 X79.5730 Y13.3262 F120.00
G01 X79.5532 Y13.2709 F120.00
G01 X79.5281 Y13.2177 F120.00
G01 X79.4979 Y13.1673 F120.00
G01 X79.4629 Y13.1201 F120.00
G01 X79.4234 Y13.0766 F120.00
G01 X79.3799 Y13.0371 F120.00
G01 X79.3327 Y13.0021 F120.00
G01 X79.2823 Y12.9719 F120.00
G01 X79.2291 Y12.9468 F120.00
G01 X79.1738 Y12.9270 F120.00
G01 X79.1168 Y12.9127 F120.00
G01 X79.0587 Y12.9041 F120.00
G01 X79.0000 Y12.9012 F120.00
G01 X78.9413 Y12.9041 F120.00
G01 X78.8832 Y12.9127 F120.00
G01 X78.8262 Y12.9270 F120.00
G01 X78.7709 Y12.9468 F120.00
G01 X78.7177 Y12.9719 F120.00
G01 X78.6673 Y13.0021 F120.00
G01 X78.6201 Y13.0371 F120.00
G01 X78.5766 Y13.0766 F120.00
G01 X78.5371 Y13.1201 F120.00
G01 X78.5021 Y13.1673 F120.00
G01 X78.4719 Y13.2177 F120.00
G01 X78.4468 Y13.2709 F120.00
G01 X78.4270 Y13.3262 F120.00
G01 X78.4127 Y13.3832 F120.00
G01 X78.4041 Y13.4413 F120.00
G01 X78.4012 Y13.5000 F120.00
G01 X78.4041 Y13.5587 F120.00
G01 X78.4127 Y13.6168 F120.00
G01 X78.4270 Y13.6738 F120.00
G01 X78.4468 Y13.7291 F120.00
G01 X78.4719 Y13.7823 F120.00
G01 X78.5021 Y13.8327 F120.00
G01 X78.5371 Y13.8799 F120.00
G01 X78.5766 Y13.9234 F120.00
G01 X78.6201 Y13.9629 F120.00
G01 X78.6673 Y13.9979 F120.00
G01 X78.7177 Y14.0281 F120.00
G01 X78.7709 Y14.0532 F120.00
G01 X78.8262 Y14.0730 F120.00
G01 X78.8832 Y14.0873 F120.00
G01 X78.9413 Y14.0959 F120.00
G01 X79.0000 Y14.0988 F120.00
G01 X79.0587 Y14.0959 F120.00
G01 X79.1168 Y14.0873 F120.00
G01 X79.1738 Y14.0730 F120.00
G01 X79.2291 Y14.0532 F120.00
G01 X79.2823 Y14.0281 F120.00
G01 X79.3327 Y13.9979 F120.00
G01 X79.3799 Y13.9629 F120.00
G01 X79.4234 Y13.9234 F120.00
G01 X79.4629 Y13.8799 F120.00
G01 X79.4979 Y13.8327 F120.00
G01 X79.5281 Y13.7823 F120.00
G01 X79.5532 Y13.7291 F120.00
G01 X79.5730 Y13.6738 F120.00
G01 X79.5873 Y13.6168 F120.00
G01 X79.5959 Y13.5587 F120.00
G01 X79.5988 Y13.5000 F120.00
G00 X79.5988 Y13.5000
G01 F60.00
G01 Z-2.0000
G01 F120.00
G01 X79.5959 Y13.4413 F120.00
G01 X79.5873 Y13.3832 F120.00
G01 X79.5730 Y13.3262 F120.00
G01 X79.5532 Y13.2709 F120.00
G01 X79.5281 Y13.2177 F120.00
G01 X79.4979 Y13.1673 F120.00
G01 X79.4629 Y13.1201 F120.00
G01 X79.4234 Y13.0766 F120.00
G01 X79.3799 Y13.0371 F120.00
G01 X79.3327 Y13.0021 F120.00
G01 X79.2823 Y12.9719 F120.00
G01 X79.2291 Y12.9468 F120.00
G01 X79.1738 Y12.9270 F120.00
G01 X79.1168 Y12.9127 F120.00
G01 X79.0587 Y12.9041 F120.00
G01 X79.0000 Y12.9012 F120.00
G01 X78.9413 Y12.9041 F120.00
G01 X78.8832 Y12.9127 F120.00
G01 X78.8262 Y12.9270 F120.00
G01 X78.7709 Y12.9468 F120.00
G01 X78.7177 Y12.9719 F120.00
G01 X78.6673 Y13.0021 F120.00
G01 X78.6201 Y13.0371 F120.00
G01 X78.5766 Y13.0766 F120.00
G01 X78.5371 Y13.1201 F120.00
G01 X78.5021 Y13.1673 F120.00
G01 X78.4719 Y13.2177 F120.00
G01 X78.4468 Y13.2709 F120.00
G01 X78.4270 Y13.3262 F120.00
G01 X78.4127 Y13.3832 F120.00
G01 X78.4041 Y13.4413 F120.00
G01 X78.4012 Y13.5000 F120.00
G01 X78.4041 Y13.5587 F120.00
G01 X78.4127 Y13.6168 F120.00
G01 X78.4270 Y13.6738 F120.00
G01 X78.4468 Y13.7291 F120.00
G01 X78.4719 Y13.7823 F120.00
G01 X78.5021 Y13.8327 F120.00
G01 X78.5371 Y13.8799 F120.00
G01 X78.5766 Y13.9234 F120.00
G01 X78.6201 Y13.9629 F120.00
G01 X78.6673 Y13.9979 F120.00
G01 X78.7177 Y14.0281 F120.00
G01 X78.7709 Y14.0532 F120.00
G01 X78.8262 Y14.0730 F120.00
G01 X78.8832 Y14.0873 F120.00
G01 X78.9413 Y14.0959 F120.00
G01 X79.0000 Y14.0988 F120.00
G01 X79.0587 Y14.0959 F120.00
G01 X79.1168 Y14.0873 F120.00
G01 X79.1738 Y14.0730 F120.00
G01 X79.2291 Y14.0532 F120.00
G01 X79.2823 Y14.0281 F120.00
G01 X79.3327 Y13.9979 F120.00
G01 X79.3799 Y13.9629 F120.00
G01 X79.4234 Y13.9234 F120.00
G01 X79.4629 Y13.8799 F120.00
G01 X79.4979 Y13.8327 F120.00
G01 X79.5281 Y13.7823 F120.00
G01 X79.5532 Y13.7291 F120.00
G01 X79.5730 Y13.6738 F120.00
G01 X79.5873 Y13.6168 F120.00
G01 X79.5959 Y13.5587 F120.00
G01 X79.5988 Y13.5000 F120.00
G00 X79.5988 Y13.5000
G01 F60.00
G01 Z-2.4000
G01 F120.00
G01 X79.5959 Y13.4413 F120.00
G01 X79.5873 Y13.3832 F120.00
G01 X79.5730 Y13.3262 F120.00
G01 X79.5532 Y13.2709 F120.00
G01 X79.5281 Y13.2177 F120.00
G01 X79.4979 Y13.1673 F120.00
G01 X79.4629 Y13.1201 F120.00
G01 X79.4234 Y13.0766 F120.00
G01 X79.3799 Y13.0371 F120.00
G01 X79.3327 Y13.0021 F120.00
G01 X79.2823 Y12.9719 F120.00
G01 X79.2291 Y12.9468 F120.00
G01 X79.1738 Y12.9270 F120.00
G01 X79.1168 Y12.9127 F120.00
G01 X79.0587 Y12.9041 F120.00
G01 X79.0000 Y12.9012 F120.00
G01 X78.9413 Y12.9041 F120.00
G01 X78.8832 Y12.9127 F120.00
G01 X78.8262 Y12.9270 F120.00
G01 X78.7709 Y12.9468 F120.00
G01 X78.7177 Y12.9719 F120.00
G01 X78.6673 Y13.0021 F120.00
G01 X78.6201 Y13.0371 F120.00
G01 X78.5766 Y13.0766 F120.00
G01 X78.5371 Y13.1201 F120.00
G01 X78.5021 Y13.1673 F120.00
G01 X78.4719 Y13.2177 F120.00
G01 X78.4468 Y13.2709 F120.00
G01 X78.4270 Y13.3262 F120.00
G01 X78.4127 Y13.3832 F120.00
G01 X78.4041 Y13.4413 F120.00
G01 X78.4012 Y13.5000 F120.00
G01 X78.4041 Y13.5587 F120.00
G01 X78.4127 Y13.6168 F120.00
G01 X78.4270 Y13.6738 F120.00
G01 X78.4468 Y13.7291 F120.00
G01 X78.4719 Y13.7823 F120.00
G01 X78.5021 Y13.8327 F120.00
G01 X78.5371 Y13.8799 F120.00
G01 X78.5766 Y13.9234 F120.00
G01 X78.6201 Y13.9629 F120.00
G01 X78.6673 Y13.9979 F120.00
G01 X78.7177 Y14.0281 F120.00
G01 X78.7709 Y14.0532 F120.00
G01 X78.8262 Y14.0730 F120.00
G01 X78.8832 Y14.0873 F120.00
G01 X78.9413 Y14.0959 F120.00
G01 X79.0000 Y14.0988 F120.00
G01 X79.0587 Y14.0959 F120.00
G01 X79.1168 Y14.0873 F120.00
G01 X79.1738 Y14.0730 F120.00
G01 X79.2291 Y14.0532 F120.00
G01 X79.2823 Y14.0281 F120.00
G01 X79.3327 Y13.9979 F120.00
G01 X79.3799 Y13.9629 F120.00
G01 X79.4234 Y13.9234 F120.00
G01 X79.4629 Y13.8799 F120.00
G01 X79.4979 Y13.8327 F120.00
G01 X79.5281 Y13.7823 F120.00
G01 X79.5532 Y13.7291 F120.00
G01 X79.5730 Y13.6738 F120.00
G01 X79.5873 Y13.6168 F120.00
G01 X79.5959 Y13.5587 F120.00
G01 X79.5988 Y13.5000 F120.00
G00 Z2.0000
G00 X105.5988 Y71.2500
G01 F60.00
G01 Z-0.4000
G01 F120.00
G01 X105.5959 Y71.1913 F120.00
G01 X105.5873 Y71.1332 F120.00
G01 X105.5730 Y71.0762 F120.00
G01 X105.5532 Y71.0209 F120.00
G01 X105.5281 Y70.9677 F120.00
G01 X105.4979 Y70.9173 F120.00
G01 X105.4629 Y70.8701 F120.00
G01 X105.4234 Y70.8266 F120.00
G01 X105.3799 Y70.7871 F120.00
G01 X105.3327 Y70.7521 F120.00
G01 X105.2823 Y70.7219 F120.00
G01 X105.2291 Y70.6968 F120.00
G01 X105.1738 Y70.6770 F120.00
G01 X105.1168 Y70.6627 F120.00
G01 X105.0587 Y70.6541 F120.00
G01 X105.0000 Y70.6512 F120.00
G01 X104.9413 Y70.6541 F120.00
G01 X104.8832 Y70.6627 F120.00
G01 X104.8262 Y70.6770 F120.00
G01 X104.7709 Y70.6968 F120.00
G01 X104.7177 Y70.7219 F120.00
G01 X104.6673 Y70.7521 F120.00
G01 X104.6201 Y70.7871 F120.00
G01 X104.5766 Y70.8266 F120.00
G01 X104.5371 Y70.8701 F120.00
G01 X104.5021 Y70.9173 F120.00
G01 X104.4719 Y70.9677 F120.00
G01 X104.4468 Y71.0209 F120.00
G01 X104.4270 Y71.0762 F120.00
G01 X104.4127 Y71.1332 F120.00
G01 X104.4041 Y71.1913 F120.00
G01 X104.4012 Y71.2500 F120.00
G01 X104.4041 Y71.3087 F120.00
G01 X104.4127 Y71.3668 F120.00
G01 X104.4270 Y71.4238 F120.00
G01 X104.4468 Y71.4791 F120.00
G01 X104.4719 Y71.5323 F120.00
G01 X104.5021 Y71.5827 F120.00
G01 X104.5371 Y71.6299 F120.00
G01 X104.5766 Y71.6734 F120.00
G01 X104.6201 Y71.7129 F120.00
G01 X104.6673 Y71.7479 F120.00
G01 X104.7177 Y71.7781 F120.00
G01 X104.7709 Y71.8032 F120.00
G01 X104.8262 Y71.8230 F120.00
G01 X104.8832 Y71.8373 F120.00
G01 X104.9413 Y71.8459 F120.00
G01 X105.0000 Y71.8488 F120.00
G01 X105.0587 Y71.8459 F120.00
G01 X105.1168 Y71.8373 F120.00
G01 X105.1738 Y71.8230 F120.00
G01 X105.2291 Y71.8032 F120.00
G01 X105.2823 Y71.7781 F120.00
G01 X105.3327 Y71.7479 F120.00
G01 X105.3799 Y71.7129 F120.00
G01 X105.4234 Y71.6734 F120.00
G01 X105.4629 Y71.6299 F120.00
G01 X105.4979 Y71.5827 F120.00
G01 X105.5281 Y71.5323 F120.00
G01 X105.5532 Y71.4791 F120.00
G01 X105.5730 Y71.4238 F120.00
G01 X105.5873 Y71.3668 F120.00
G01 X105.5959 Y71.3087 F120.00
G01 X105.5988 Y71.2500 F120.00
G00 X105.5988 Y71.2500
G01 F60.00
G01 Z-0.8000
G01 F120.00
G01 X105.5959 Y71.1913 F120.00
G01 X105.5873 Y71.1332 F120.00
G01 X105.5730 Y71.0762 F120.00
G01 X105.5532 Y71.0209 F120.00
G01 X105.5281 Y70.9677 F120.00
G01 X105.4979 Y70.9173 F120.00
G01 X105.4629 Y70.8701 F120.00
G01 X105.4234 Y70.8266 F120.00
G01 X105.3799 Y70.7871 F120.00
G01 X105.3327 Y70.7521 F120.00
G01 X105.2823 Y70.7219 F120.00
G01 X105.2291 Y70.6968 F120.00
G01 X105.1738 Y70.6770 F120.00
G01 X105.1168 Y70.6627 F120.00
G01 X105.0587 Y70.6541 F120.00
G01 X105.0000 Y70.6512 F120.00
G01 X104.9413 Y70.6541 F120.00
G01 X104.8832 Y70.6627 F120.00
G01 X104.8262 Y70.6770 F120.00
G01 X104.7709 Y70.6968 F120.00
G01 X104.7177 Y70.7219 F120.00
G01 X104.6673 Y70.7521 F120.00
G01 X104.6201 Y70.7871 F120.00
G01 X104.5766 Y70.8266 F120.00
G01 X104.5371 Y70.8701 F120.00
G01 X104.5021 Y70.9173 F120.00
G01 X104.4719 Y70.9677 F120.00
G01 X104.4468 Y71.0209 F120.00
G01 X104.4270 Y71.0762 F120.00
G01 X104.4127 Y71.1332 F120.00
G01 X104.4041 Y71.1913 F120.00
G01 X104.4012 Y71.2500 F120.00
G01 X104.4041 Y71.3087 F120.00
G01 X104.4127 Y71.3668 F120.00
G01 X104.4270 Y71.4238 F120.00
G01 X104.4468 Y71.4791 F120.00
G01 X104.4719 Y71.5323 F120.00
G01 X104.5021 Y71.5827 F120.00
G01 X104.5371 Y71.6299 F120.00
G01 X104.5766 Y71.6734 F120.00
G01 X104.6201 Y71.7129 F120.00
G01 X104.6673 Y71.7479 F120.00
G01 X104.7177 Y71.7781 F120.00
G01 X104.7709 Y71.8032 F120.00
G01 X104.8262 Y71.8230 F120.00
G01 X104.8832 Y71.8373 F120.00
G01 X104.9413 Y71.8459 F120.00
G01 X105.0000 Y71.8488 F120.00
G01 X105.0587 Y71.8459 F120.00
G01 X105.1168 Y71.8373 F120.00
G01 X105.1738 Y71.8230 F120.00
G01 X105.2291 Y71.8032 F120.00
G01 X105.2823 Y71.7781 F120.00
G01 X105.3327 Y71.7479 F120.00
G01 X105.3799 Y71.7129 F120.00
G01 X105.4234 Y71.6734 F120.00
G01 X105.4629 Y71.6299 F120.00
G01 X105.4979 Y71.5827 F120.00
G01 X105.5281 Y71.5323 F120.00
G01 X105.5532 Y71.4791 F120.00
G01 X105.5730 Y71.4238 F120.00
G01 X105.5873 Y71.3668 F120.00
G01 X105.5959 Y71.3087 F120.00
G01 X105.5988 Y71.2500 F120.00
G00 X105.5988 Y71.2500
G01 F60.00
G01 Z-1.2000
G01 F120.00
G01 X105.5959 Y71.1913 F120.00
G01 X105.5873 Y71.1332 F120.00
G01 X105.5730 Y71.0762 F120.00
G01 X105.5532 Y71.0209 F120.00
G01 X105.5281 Y70.9677 F120.00
G01 X105.4979 Y70.9173 F120.00
G01 X105.4629 Y70.8701 F120.00
G01 X105.4234 Y70.8266 F120.00
G01 X105.3799 Y70.7871 F120.00
G01 X105.3327 Y70.7521 F120.00
G01 X105.2823 Y70.7219 F120.00
G01 X105.2291 Y70.6968 F120.00
G01 X105.1738 Y70.6770 F120.00
G01 X105.1168 Y70.6627 F120.00
G01 X105.0587 Y70.6541 F120.00
G01 X105.0000 Y70.6512 F120.00
G01 X104.9413 Y70.6541 F120.00
G01 X104.8832 Y70.6627 F120.00
G01 X104.8262 Y70.6770 F120.00
G01 X104.7709 Y70.6968 F120.00
G01 X104.7177 Y70.7219 F120.00
G01 X104.6673 Y70.7521 F120.00
G01 X104.6201 Y70.7871 F120.00
G01 X104.5766 Y70.8266 F120.00
G01 X104.5371 Y70.8701 F120.00
G01 X104.5021 Y70.9173 F120.00
G01 X104.4719 Y70.9677 F120.00
G01 X104.4468 Y71.0209 F120.00
G01 X104.4270 Y71.0762 F120.00
G01 X104.4127 Y71.1332 F120.00
G01 X104.4041 Y71.1913 F120.00
G01 X104.4012 Y71.2500 F120.00
G01 X104.4041 Y71.3087 F120.00
G01 X104.4127 Y71.3668 F120.00
G01 X104.4270 Y71.4238 F120.00
G01 X104.4468 Y71.4791 F120.00
G01 X104.4719 Y71.5323 F120.00
G01 X104.5021 Y71.5827 F120.00
G01 X104.5371 Y71.6299 F120.00
G01 X104.5766 Y71.6734 F120.00
G01 X104.6201 Y71.7129 F120.00
G01 X104.6673 Y71.7479 F120.00
G01 X104.7177 Y71.7781 F120.00
G01 X104.7709 Y71.8032 F120.00
G01 X104.8262 Y71.8230 F120.00
G01 X104.8832 Y71.8373 F120.00
G01 X104.9413 Y71.8459 F120.00
G01 X105.0000 Y71.8488 F120.00
G01 X105.0587 Y71.8459 F120.00
G01 X105.1168 Y71.8373 F120.00
G01 X105.1738 Y71.8230 F120.00
G01 X105.2291 Y71.8032 F120.00
G01 X105.2823 Y71.7781 F120.00
G01 X105.3327 Y71.7479 F120.00
G01 X105.3799 Y71.7129 F120.00
G01 X105.4234 Y71.6734 F120.00
G01 X105.4629 Y71.6299 F120.00
G01 X105.4979 Y71.5827 F120.00
G01 X105.5281 Y71.5323 F120.00
G01 X105.5532 Y71.4791 F120.00
G01 X105.5730 Y71.4238 F120.00
G01 X105.5873 Y71.3668 F120.00
G01 X105.5959 Y71.3087 F120.00
G01 X105.5988 Y71.2500 F120.00
G00 X105.5988 Y71.2500
G01 F60.00
G01 Z-1.6000
G01 F120.00
G01 X105.5959 Y71.1913 F120.00
G01 X105.5873 Y71.1332 F120.00
G01 X105.5730 Y71.0762 F120.00
G01 X105.5532 Y71.0209 F120.00
G01 X105.5281 Y70.9677 F120.00
G01 X105.4979 Y70.9173 F120.00
G01 X105.4629 Y70.8701 F120.00
G01 X105.4234 Y70.8266 F120.00
G01 X105.3799 Y70.7871 F120.00
G01 X105.3327 Y70.7521 F120.00
G01 X105.2823 Y70.7219 F120.00
G01 X105.2291 Y70.6968 F120.00
G01 X105.1738 Y70.6770 F120.00
G01 X105.1168 Y70.6627 F120.00
G01 X105.0587 Y70.6541 F120.00
G01 X105.0000 Y70.6512 F120.00
G01 X104.9413 Y70.6541 F120.00
G01 X104.8832 Y70.6627 F120.00
G01 X104.8262 Y70.6770 F120.00
G01 X104.7709 Y70.6968 F120.00
G01 X104.7177 Y70.7219 F120.00
G01 X104.6673 Y70.7521 F120.00
G01 X104.6201 Y70.7871 F120.00
G01 X104.5766 Y70.8266 F120.00
G01 X104.5371 Y70.8701 F120.00
G01 X104.5021 Y70.9173 F120.00
G01 X104.4719 Y70.9677 F120.00
G01 X104.4468 Y71.0209 F120.00
G01 X104.4270 Y71.0762 F120.00
G01 X104.4127 Y71.1332 F120.00
G01 X104.4041 Y71.1913 F120.00
G01 X104.4012 Y71.2500 F120.00
G01 X104.4041 Y71.3087 F120.00
G01 X104.4127 Y71.3668 F120.00
G01 X104.4270 Y71.4238 F120.00
G01 X104.4468 Y71.4791 F120.00
G01 X104.4719 Y71.5323 F120.00
G01 X104.5021 Y71.5827 F120.00
G01 X104.5371 Y71.6299 F120.00
G01 X104.5766 Y71.6734 F120.00
G01 X104.6201 Y71.7129 F120.00
G01 X104.6673 Y71.7479 F120.00
G01 X104.7177 Y71.7781 F120.00
G01 X104.7709 Y71.8032 F120.00
G01 X104.8262 Y71.8230 F120.00
G01 X104.8832 Y71.8373 F120.00
G01 X104.9413 Y71.8459 F120.00
G01 X105.0000 Y71.8488 F120.00
G01 X105.0587 Y71.8459 F120.00
G01 X105.1168 Y71.8373 F120.00
G01 X105.1738 Y71.8230 F120.00
G01 X105.2291 Y71.8032 F120.00
G01 X105.2823 Y71.7781 F120.00
G01 X105.3327 Y71.7479 F120.00
G01 X105.3799 Y71.7129 F120.00
G01 X105.4234 Y71.6734 F120.00
G01 X105.4629 Y71.6299 F120.00
G01 X105.4979 Y71.5827 F120.00
G01 X105.5281 Y71.5323 F120.00
G01 X105.5532 Y71.4791 F120.00
G01 X105.5730 Y71.4238 F120.00
G01 X105.5873 Y71.3668 F120.00
G01 X105.5959 Y71.3087 F120.00
G01 X105.5988 Y71.2500 F120.00
G00 X105.5988 Y71.2500
G01 F60.00
G01 Z-2.0000
G01 F120.00
G01 X105.5959 Y71.1913 F120.00
G01 X105.5873 Y71.1332 F120.00
G01 X105.5730 Y71.0762 F120.00
G01 X105.5532 Y71.0209 F120.00
G01 X105.5281 Y70.9677 F120.00
G01 X105.4979 Y70.9173 F120.00
G01 X105.4629 Y70.8701 F120.00
G01 X105.4234 Y70.8266 F120.00
G01 X105.3799 Y70.7871 F120.00
G01 X105.3327 Y70.7521 F120.00
G01 X105.2823 Y70.7219 F120.00
G01 X105.2291 Y70.6968 F120.00
G01 X105.1738 Y70.6770 F120.00
G01 X105.1168 Y70.6627 F120.00
G01 X105.0587 Y70.6541 F120.00
G01 X105.0000 Y70.6512 F120.00
G01 X104.9413 Y70.6541 F120.00
G01 X104.8832 Y70.6627 F120.00
G01 X104.8262 Y70.6770 F120.00
G01 X104.7709 Y70.6968 F120.00
G01 X104.7177 Y70.7219 F120.00
G01 X104.6673 Y70.7521 F120.00
G01 X104.6201 Y70.7871 F120.00
G01 X104.5766 Y70.8266 F120.00
G01 X104.5371 Y70.8701 F120.00
G01 X104.5021 Y70.9173 F120.00
G01 X104.4719 Y70.9677 F120.00
G01 X104.4468 Y71.0209 F120.00
G01 X104.4270 Y71.0762 F120.00
G01 X104.4127 Y71.1332 F120.00
G01 X104.4041 Y71.1913 F120.00
G01 X104.4012 Y71.2500 F120.00
G01 X104.4041 Y71.3087 F120.00
G01 X104.4127 Y71.3668 F120.00
G01 X104.4270 Y71.4238 F120.00
G01 X104.4468 Y71.4791 F120.00
G01 X104.4719 Y71.5323 F120.00
G01 X104.5021 Y71.5827 F120.00
G01 X104.5371 Y71.6299 F120.00
G01 X104.5766 Y71.6734 F120.00
G01 X104.6201 Y71.7129 F120.00
G01 X104.6673 Y71.7479 F120.00
G01 X104.7177 Y71.7781 F120.00
G01 X104.7709 Y71.8032 F120.00
G01 X104.8262 Y71.8230 F120.00
G01 X104.8832 Y71.8373 F120.00
G01 X104.9413 Y71.8459 F120.00
G01 X105.0000 Y71.8488 F120.00
G01 X105.0587 Y71.8459 F120.00
G01 X105.1168 Y71.8373 F120.00
G01 X105.1738 Y71.8230 F120.00
G01 X105.2291 Y71.8032 F120.00
G01 X105.2823 Y71.7781 F120.00
G01 X105.3327 Y71.7479 F120.00
G01 X105.3799 Y71.7129 F120.00
G01 X105.4234 Y71.6734 F120.00
G01 X105.4629 Y71.6299 F120.00
G01 X105.4979 Y71.5827 F120.00
G01 X105.5281 Y71.5323 F120.00
G01 X105.5532 Y71.4791 F120.00
G01 X105.5730 Y71.4238 F120.00
G01 X105.5873 Y71.3668 F120.00
G01 X105.5959 Y71.3087 F120.00
G01 X105.5988 Y71.2500 F120.00
G00 X105.5988 Y71.2500
G01 F60.00
G01 Z-2.4000
G01 F120.00
G01 X105.5959 Y71.1913 F120.00
G01 X105.5873 Y71.1332 F120.00
G01 X105.5730 Y71.0762 F120.00
G01 X105.5532 Y71.0209 F120.00
G01 X105.5281 Y70.9677 F120.00
G01 X105.4979 Y70.9173 F120.00
G01 X105.4629 Y70.8701 F120.00
G01 X105.4234 Y70.8266 F120.00
G01 X105.3799 Y70.7871 F120.00
G01 X105.3327 Y70.7521 F120.00
G01 X105.2823 Y70.7219 F120.00
G01 X105.2291 Y70.6968 F120.00
G01 X105.1738 Y70.6770 F120.00
G01 X105.1168 Y70.6627 F120.00
G01 X105.0587 Y70.6541 F120.00
G01 X105.0000 Y70.6512 F120.00
G01 X104.9413 Y70.6541 F120.00
G01 X104.8832 Y70.6627 F120.00
G01 X104.8262 Y70.6770 F120.00
G01 X104.7709 Y70.6968 F120.00
G01 X104.7177 Y70.7219 F120.00
G01 X104.6673 Y70.7521 F120.00
G01 X104.6201 Y70.7871 F120.00
G01 X104.5766 Y70.8266 F120.00
G01 X104.5371 Y70.8701 F120.00
G01 X104.5021 Y70.9173 F120.00
G01 X104.4719 Y70.9677 F120.00
G01 X104.4468 Y71.0209 F120.00
G01 X104.4270 Y71.0762 F120.00
G01 X104.4127 Y71.1332 F120.00
G01 X104.4041 Y71.1913 F120.00
G01 X104.4012 Y71.2500 F120.00
G01 X104.4041 Y71.3087 F120.00
G01 X104.4127 Y71.3668 F120.00
G01 X104.4270 Y71.4238 F120.00
G01 X104.4468 Y71.4791 F120.00
G01 X104.4719 Y71.5323 F120.00
G01 X104.5021 Y71.5827 F120.00
G01 X104.5371 Y71.6299 F120.00
G01 X104.5766 Y71.6734 F120.00
G01 X104.6201 Y71.7129 F120.00
G01 X104.6673 Y71.7479 F120.00
G01 X104.7177 Y71.7781 F120.00
G01 X104.7709 Y71.8032 F120.00
G01 X104.8262 Y71.8230 F120.00
G01 X104.8832 Y71.8373 F120.00
G01 X104.9413 Y71.8459 F120.00
G01 X105.0000 Y71.8488 F120.00
G01 X105.0587 Y71.8459 F120.00
G01 X105.1168 Y71.8373 F120.00
G01 X105.1738 Y71.8230 F120.00
G01 X105.2291 Y71.8032 F120.00
G01 X105.2823 Y71.7781 F120.00
G01 X105.3327 Y71.7479 F120.00
G01 X105.3799 Y71.7129 F120.00
G01 X105.4234 Y71.6734 F120.00
G01 X105.4629 Y71.6299 F120.00
G01 X105.4979 Y71.5827 F120.00
G01 X105.5281 Y71.5323 F120.00
G01 X105.5532 Y71.4791 F120.00
G01 X105.5730 Y71.4238 F120.00
G01 X105.5873 Y71.3668 F120.00
G01 X105.5959 Y71.3087 F120.00
G01 X105.5988 Y71.2500 F120.00
G00 Z2.0000
G00 X5.8488 Y71.0000
G01 F60.00
G01 Z-0.4000
G01 F120.00
G01 X5.8459 Y70.9413 F120.00
G01 X5.8373 Y70.8832 F120.00
G01 X5.8230 Y70.8262 F120.00
G01 X5.8032 Y70.7709 F120.00
G01 X5.7781 Y70.7177 F120.00
G01 X5.7479 Y70.6673 F120.00
G01 X5.7129 Y70.6201 F120.00
G01 X5.6734 Y70.5766 F120.00
G01 X5.6299 Y70.5371 F120.00
G01 X5.5827 Y70.5021 F120.00
G01 X5.5323 Y70.4719 F120.00
G01 X5.4791 Y70.4468 F120.00
G01 X5.4238 Y70.4270 F120.00
G01 X5.3668 Y70.4127 F120.00
G01 X5.3087 Y70.4041 F120.00
G01 X5.2500 Y70.4012 F120.00
G01 X5.1913 Y70.4041 F120.00
G01 X5.1332 Y70.4127 F120.00
G01 X5.0762 Y70.4270 F120.00
G01 X5.0209 Y70.4468 F120.00
G01 X4.9677 Y70.4719 F120.00
G01 X4.9173 Y70.5021 F120.00
G01 X4.8701 Y70.5371 F120.00
G01 X4.8266 Y70.5766 F120.00
G01 X4.7871 Y70.6201 F120.00
G01 X4.7521 Y70.6673 F120.00
G01 X4.7219 Y70.7177 F120.00
G01 X4.6968 Y70.7709 F120.00
G01 X4.6770 Y70.8262 F120.00
G01 X4.6627 Y70.8832 F120.00
G01 X4.6541 Y70.9413 F120.00
G01 X4.6512 Y71.0000 F120.00
G01 X4.6541 Y71.0587 F120.00
G01 X4.6627 Y71.1168 F120.00
G01 X4.6770 Y71.1738 F120.00
G01 X4.6968 Y71.2291 F120.00
G01 X4.7219 Y71.2823 F120.00
G01 X4.7521 Y71.3327 F120.00
G01 X4.7871 Y71.3799 F120.00
G01 X4.8266 Y71.4234 F120.00
G01 X4.8701 Y71.4629 F120.00
G01 X4.9173 Y71.4979 F120.00
G01 X4.9677 Y71.5281 F120.00
G01 X5.0209 Y71.5532 F120.00
G01 X5.0762 Y71.5730 F120.00
G01 X5.1332 Y71.5873 F120.00
G01 X5.1913 Y71.5959 F120.00
G01 X5.2500 Y71.5988 F120.00
G01 X5.3087 Y71.5959 F120.00
G01 X5.3668 Y71.5873 F120.00
G01 X5.4238 Y71.5730 F120.00
G01 X5.4791 Y71.5532 F120.00
G01 X5.5323 Y71.5281 F120.00
G01 X5.5827 Y71.4979 F120.00
G01 X5.6299 Y71.4629 F120.00
G01 X5.6734 Y71.4234 F120.00
G01 X5.7129 Y71.3799 F120.00
G01 X5.7479 Y71.3327 F120.00
G01 X5.7781 Y71.2823 F120.00
G01 X5.8032 Y71.2291 F120.00
G01 X5.8230 Y71.1738 F120.00
G01 X5.8373 Y71.1168 F120.00
G01 X5.8459 Y71.0587 F120.00
G01 X5.8488 Y71.0000 F120.00
G00 X5.8488 Y71.0000
G01 F60.00
G01 Z-0.8000
G01 F120.00
G01 X5.8459 Y70.9413 F120.00
G01 X5.8373 Y70.8832 F120.00
G01 X5.8230 Y70.8262 F120.00
G01 X5.8032 Y70.7709 F120.00
G01 X5.7781 Y70.7177 F120.00
G01 X5.7479 Y70.6673 F120.00
G01 X5.7129 Y70.6201 F120.00
G01 X5.6734 Y70.5766 F120.00
G01 X5.6299 Y70.5371 F120.00
G01 X5.5827 Y70.5021 F120.00
G01 X5.5323 Y70.4719 F120.00
G01 X5.4791 Y70.4468 F120.00
G01 X5.4238 Y70.4270 F120.00
G01 X5.3668 Y70.4127 F120.00
G01 X5.3087 Y70.4041 F120.00
G01 X5.2500 Y70.4012 F120.00
G01 X5.1913 Y70.4041 F120.00
G01 X5.1332 Y70.4127 F120.00
G01 X5.0762 Y70.4270 F120.00
G01 X5.0209 Y70.4468 F120.00
G01 X4.9677 Y70.4719 F120.00
G01 X4.9173 Y70.5021 F120.00
G01 X4.8701 Y70.5371 F120.00
G01 X4.8266 Y70.5766 F120.00
G01 X4.7871 Y70.6201 F120.00
G01 X4.7521 Y70.6673 F120.00
G01 X4.7219 Y70.7177 F120.00
G01 X4.6968 Y70.7709 F120.00
G01 X4.6770 Y70.8262 F120.00
G01 X4.6627 Y70.8832 F120.00
G01 X4.6541 Y70.9413 F120.00
G01 X4.6512 Y71.0000 F120.00
G01 X4.6541 Y71.0587 F120.00
G01 X4.6627 Y71.1168 F120.00
G01 X4.6770 Y71.1738 F120.00
G01 X4.6968 Y71.2291 F120.00
G01 X4.7219 Y71.2823 F120.00
G01 X4.7521 Y71.3327 F120.00
G01 X4.7871 Y71.3799 F120.00
G01 X4.8266 Y71.4234 F120.00
G01 X4.8701 Y71.4629 F120.00
G01 X4.9173 Y71.4979 F120.00
G01 X4.9677 Y71.5281 F120.00
G01 X5.0209 Y71.5532 F120.00
G01 X5.0762 Y71.5730 F120.00
G01 X5.1332 Y71.5873 F120.00
G01 X5.1913 Y71.5959 F120.00
G01 X5.2500 Y71.5988 F120.00
G01 X5.3087 Y71.5959 F120.00
G01 X5.3668 Y71.5873 F120.00
G01 X5.4238 Y71.5730 F120.00
G01 X5.4791 Y71.5532 F120.00
G01 X5.5323 Y71.5281 F120.00
G01 X5.5827 Y71.4979 F120.00
G01 X5.6299 Y71.4629 F120.00
G01 X5.6734 Y71.4234 F120.00
G01 X5.7129 Y71.3799 F120.00
G01 X5.7479 Y71.3327 F120.00
G01 X5.7781 Y71.2823 F120.00
G01 X5.8032 Y71.2291 F120.00
G01 X5.8230 Y71.1738 F120.00
G01 X5.8373 Y71.1168 F120.00
G01 X5.8459 Y71.0587 F120.00
G01 X5.8488 Y71.0000 F120.00
G00 X5.8488 Y71.0000
G01 F60.00
G01 Z-1.2000
G01 F120.00
G01 X5.8459 Y70.9413 F120.00
G01 X5.8373 Y70.8832 F120.00
G01 X5.8230 Y70.8262 F120.00
G01 X5.8032 Y70.7709 F120.00
G01 X5.7781 Y70.7177 F120.00
G01 X5.7479 Y70.6673 F120.00
G01 X5.7129 Y70.6201 F120.00
G01 X5.6734 Y70.5766 F120.00
G01 X5.6299 Y70.5371 F120.00
G01 X5.5827 Y70.5021 F120.00
G01 X5.5323 Y70.4719 F120.00
G01 X5.4791 Y70.4468 F120.00
G01 X5.4238 Y70.4270 F120.00
G01 X5.3668 Y70.4127 F120.00
G01 X5.3087 Y70.4041 F120.00
G01 X5.2500 Y70.4012 F120.00
G01 X5.1913 Y70.4041 F120.00
G01 X5.1332 Y70.4127 F120.00
G01 X5.0762 Y70.4270 F120.00
G01 X5.0209 Y70.4468 F120.00
G01 X4.9677 Y70.4719 F120.00
G01 X4.9173 Y70.5021 F120.00
G01 X4.8701 Y70.5371 F120.00
G01 X4.8266 Y70.5766 F120.00
G01 X4.7871 Y70.6201 F120.00
G01 X4.7521 Y70.6673 F120.00
G01 X4.7219 Y70.7177 F120.00
G01 X4.6968 Y70.7709 F120.00
G01 X4.6770 Y70.8262 F120.00
G01 X4.6627 Y70.8832 F120.00
G01 X4.6541 Y70.9413 F120.00
G01 X4.6512 Y71.0000 F120.00
G01 X4.6541 Y71.0587 F120.00
G01 X4.6627 Y71.1168 F120.00
G01 X4.6770 Y71.1738 F120.00
G01 X4.6968 Y71.2291 F120.00
G01 X4.7219 Y71.2823 F120.00
G01 X4.7521 Y71.3327 F120.00
G01 X4.7871 Y71.3799 F120.00
G01 X4.8266 Y71.4234 F120.00
G01 X4.8701 Y71.4629 F120.00
G01 X4.9173 Y71.4979 F120.00
G01 X4.9677 Y71.5281 F120.00
G01 X5.0209 Y71.5532 F120.00
G01 X5.0762 Y71.5730 F120.00
G01 X5.1332 Y71.5873 F120.00
G01 X5.1913 Y71.5959 F120.00
G01 X5.2500 Y71.5988 F120.00
G01 X5.3087 Y71.5959 F120.00
G01 X5.3668 Y71.5873 F120.00
G01 X5.4238 Y71.5730 F120.00
G01 X5.4791 Y71.5532 F120.00
G01 X5.5323 Y71.5281 F120.00
G01 X5.5827 Y71.4979 F120.00
G01 X5.6299 Y71.4629 F120.00
G01 X5.6734 Y71.4234 F120.00
G01 X5.7129 Y71.3799 F120.00
G01 X5.7479 Y71.3327 F120.00
G01 X5.7781 Y71.2823 F120.00
G01 X5.8032 Y71.2291 F120.00
G01 X5.8230 Y71.1738 F120.00
G01 X5.8373 Y71.1168 F120.00
G01 X5.8459 Y71.0587 F120.00
G01 X5.8488 Y71.0000 F120.00
G00 X5.8488 Y71.0000
G01 F60.00
G01 Z-1.6000
G01 F120.00
G01 X5.8459 Y70.9413 F120.00
G01 X5.8373 Y70.8832 F120.00
G01 X5.8230 Y70.8262 F120.00
G01 X5.8032 Y70.7709 F120.00
G01 X5.7781 Y70.7177 F120.00
G01 X5.7479 Y70.6673 F120.00
G01 X5.7129 Y70.6201 F120.00
G01 X5.6734 Y70.5766 F120.00
G01 X5.6299 Y70.5371 F120.00
G01 X5.5827 Y70.5021 F120.00
G01 X5.5323 Y70.4719 F120.00
G01 X5.4791 Y70.4468 F120.00
G01 X5.4238 Y70.4270 F120.00
G01 X5.3668 Y70.4127 F120.00
G01 X5.3087 Y70.4041 F120.00
G01 X5.2500 Y70.4012 F120.00
G01 X5.1913 Y70.4041 F120.00
G01 X5.1332 Y70.4127 F120.00
G01 X5.0762 Y70.4270 F120.00
G01 X5.0209 Y70.4468 F120.00
G01 X4.9677 Y70.4719 F120.00
G01 X4.9173 Y70.5021 F120.00
G01 X4.8701 Y70.5371 F120.00
G01 X4.8266 Y70.5766 F120.00
G01 X4.7871 Y70.6201 F120.00
G01 X4.7521 Y70.6673 F120.00
G01 X4.7219 Y70.7177 F120.00
G01 X4.6968 Y70.7709 F120.00
G01 X4.6770 Y70.8262 F120.00
G01 X4.6627 Y70.8832 F120.00
G01 X4.6541 Y70.9413 F120.00
G01 X4.6512 Y71.0000 F120.00
G01 X4.6541 Y71.0587 F120.00
G01 X4.6627 Y71.1168 F120.00
G01 X4.6770 Y71.1738 F120.00
G01 X4.6968 Y71.2291 F120.00
G01 X4.7219 Y71.2823 F120.00
G01 X4.7521 Y71.3327 F120.00
G01 X4.7871 Y71.3799 F120.00
G01 X4.8266 Y71.4234 F120.00
G01 X4.8701 Y71.4629 F120.00
G01 X4.9173 Y71.4979 F120.00
G01 X4.9677 Y71.5281 F120.00
G01 X5.0209 Y71.5532 F120.00
G01 X5.0762 Y71.5730 F120.00
G01 X5.1332 Y71.5873 F120.00
G01 X5.1913 Y71.5959 F120.00
G01 X5.2500 Y71.5988 F120.00
G01 X5.3087 Y71.5959 F120.00
G01 X5.3668 Y71.5873 F120.00
G01 X5.4238 Y71.5730 F120.00
G01 X5.4791 Y71.5532 F120.00
G01 X5.5323 Y71.5281 F120.00
G01 X5.5827 Y71.4979 F120.00
G01 X5.6299 Y71.4629 F120.00
G01 X5.6734 Y71.4234 F120.00
G01 X5.7129 Y71.3799 F120.00
G01 X5.7479 Y71.3327 F120.00
G01 X5.7781 Y71.2823 F120.00
G01 X5.8032 Y71.2291 F120.00
G01 X5.8230 Y71.1738 F120.00
G01 X5.8373 Y71.1168 F120.00
G01 X5.8459 Y71.0587 F120.00
G01 X5.8488 Y71.0000 F120.00
G00 X5.8488 Y71.0000
G01 F60.00
G01 Z-2.0000
G01 F120.00
G01 X5.8459 Y70.9413 F120.00
G01 X5.8373 Y70.8832 F120.00
G01 X5.8230 Y70.8262 F120.00
G01 X5.8032 Y70.7709 F120.00
G01 X5.7781 Y70.7177 F120.00
G01 X5.7479 Y70.6673 F120.00
G01 X5.7129 Y70.6201 F120.00
G01 X5.6734 Y70.5766 F120.00
G01 X5.6299 Y70.5371 F120.00
G01 X5.5827 Y70.5021 F120.00
G01 X5.5323 Y70.4719 F120.00
G01 X5.4791 Y70.4468 F120.00
G01 X5.4238 Y70.4270 F120.00
G01 X5.3668 Y70.4127 F120.00
G01 X5.3087 Y70.4041 F120.00
G01 X5.2500 Y70.4012 F120.00
G01 X5.1913 Y70.4041 F120.00
G01 X5.1332 Y70.4127 F120.00
G01 X5.0762 Y70.4270 F120.00
G01 X5.0209 Y70.4468 F120.00
G01 X4.9677 Y70.4719 F120.00
G01 X4.9173 Y70.5021 F120.00
G01 X4.8701 Y70.5371 F120.00
G01 X4.8266 Y70.5766 F120.00
G01 X4.7871 Y70.6201 F120.00
G01 X4.7521 Y70.6673 F120.00
G01 X4.7219 Y70.7177 F120.00
G01 X4.6968 Y70.7709 F120.00
G01 X4.6770 Y70.8262 F120.00
G01 X4.6627 Y70.8832 F120.00
G01 X4.6541 Y70.9413 F120.00
G01 X4.6512 Y71.0000 F120.00
G01 X4.6541 Y71.0587 F120.00
G01 X4.6627 Y71.1168 F120.00
G01 X4.6770 Y71.1738 F120.00
G01 X4.6968 Y71.2291 F120.00
G01 X4.7219 Y71.2823 F120.00
G01 X4.7521 Y71.3327 F120.00
G01 X4.7871 Y71.3799 F120.00
G01 X4.8266 Y71.4234 F120.00
G01 X4.8701 Y71.4629 F120.00
G01 X4.9173 Y71.4979 F120.00
G01 X4.9677 Y71.5281 F120.00
G01 X5.0209 Y71.5532 F120.00
G01 X5.0762 Y71.5730 F120.00
G01 X5.1332 Y71.5873 F120.00
G01 X5.1913 Y71.5959 F120.00
G01 X5.2500 Y71.5988 F120.00
G01 X5.3087 Y71.5959 F120.00
G01 X5.3668 Y71.5873 F120.00
G01 X5.4238 Y71.5730 F120.00
G01 X5.4791 Y71.5532 F120.00
G01 X5.5323 Y71.5281 F120.00
G01 X5.5827 Y71.4979 F120.00
G01 X5.6299 Y71.4629 F120.00
G01 X5.6734 Y71.4234 F120.00
G01 X5.7129 Y71.3799 F120.00
G01 X5.7479 Y71.3327 F120.00
G01 X5.7781 Y71.2823 F120.00
G01 X5.8032 Y71.2291 F120.00
G01 X5.8230 Y71.1738 F120.00
G01 X5.8373 Y71.1168 F120.00
G01 X5.8459 Y71.0587 F120.00
G01 X5.8488 Y71.0000 F120.00
G00 X5.8488 Y71.0000
G01 F60.00
G01 Z-2.4000
G01 F120.00
G01 X5.8459 Y70.9413 F120.00
G01 X5.8373 Y70.8832 F120.00
G01 X5.8230 Y70.8262 F120.00
G01 X5.8032 Y70.7709 F120.00
G01 X5.7781 Y70.7177 F120.00
G01 X5.7479 Y70.6673 F120.00
G01 X5.7129 Y70.6201 F120.00
G01 X5.6734 Y70.5766 F120.00
G01 X5.6299 Y70.5371 F120.00
G01 X5.5827 Y70.5021 F120.00
G01 X5.5323 Y70.4719 F120.00
G01 X5.4791 Y70.4468 F120.00
G01 X5.4238 Y70.4270 F120.00
G01 X5.3668 Y70.4127 F120.00
G01 X5.3087 Y70.4041 F120.00
G01 X5.2500 Y70.4012 F120.00
G01 X5.1913 Y70.4041 F120.00
G01 X5.1332 Y70.4127 F120.00
G01 X5.0762 Y70.4270 F120.00
G01 X5.0209 Y70.4468 F120.00
G01 X4.9677 Y70.4719 F120.00
G01 X4.9173 Y70.5021 F120.00
G01 X4.8701 Y70.5371 F120.00
G01 X4.8266 Y70.5766 F120.00
G01 X4.7871 Y70.6201 F120.00
G01 X4.7521 Y70.6673 F120.00
G01 X4.7219 Y70.7177 F120.00
G01 X4.6968 Y70.7709 F120.00
G01 X4.6770 Y70.8262 F120.00
G01 X4.6627 Y70.8832 F120.00
G01 X4.6541 Y70.9413 F120.00
G01 X4.6512 Y71.0000 F120.00
G01 X4.6541 Y71.0587 F120.00
G01 X4.6627 Y71.1168 F120.00
G01 X4.6770 Y71.1738 F120.00
G01 X4.6968 Y71.2291 F120.00
G01 X4.7219 Y71.2823 F120.00
G01 X4.7521 Y71.3327 F120.00
G01 X4.7871 Y71.3799 F120.00
G01 X4.8266 Y71.4234 F120.00
G01 X4.8701 Y71.4629 F120.00
G01 X4.9173 Y71.4979 F120.00
G01 X4.9677 Y71.5281 F120.00
G01 X5.0209 Y71.5532 F120.00
G01 X5.0762 Y71.5730 F120.00
G01 X5.1332 Y71.5873 F120.00
G01 X5.1913 Y71.5959 F120.00
G01 X5.2500 Y71.5988 F120.00
G01 X5.3087 Y71.5959 F120.00
G01 X5.3668 Y71.5873 F120.00
G01 X5.4238 Y71.5730 F120.00
G01 X5.4791 Y71.5532 F120.00
G01 X5.5323 Y71.5281 F120.00
G01 X5.5827 Y71.4979 F120.00
G01 X5.6299 Y71.4629 F120.00
G01 X5.6734 Y71.4234 F120.00
G01 X5.7129 Y71.3799 F120.00
G01 X5.7479 Y71.3327 F120.00
G01 X5.7781 Y71.2823 F120.00
G01 X5.8032 Y71.2291 F120.00
G01 X5.8230 Y71.1738 F120.00
G01 X5.8373 Y71.1168 F120.00
G01 X5.8459 Y71.0587 F120.00
G01 X5.8488 Y71.0000 F120.00
G00 Z2.0000
M05
G00 Z2.0000
G00 Z7.00


