(G-CODE GENERATED BY FLATCAM v8.994 - www.flatcam.org - Version Date: 2020/11/7)

(Name: Encoders-LCD-B_Cu.gbr_iso_combined_cnc)
(Type: G-code from Geometry)
(Units: MM)

(Created on Monday, 19 August 2024 at 14:01)

(This preprocessor is used with a motion controller loaded with GRBL firmware.)
(It is configured to be compatible with almost any version of GRBL firmware.)

(TOOL DIAMETER: 0.1536 mm)
(Feedrate_XY: 100.0 mm/min)
(Feedrate_Z: 40.0 mm/min)
(Feedrate rapids 1500.0 mm/min)

(Z_Cut: -0.1 mm)
(Z_Move: 2.0 mm)
(Z Start: None mm)
(Z End: 7.0 mm)
(X,Y End: None mm)
(Steps per circle: 64)
(Steps per circle: 64)
(Preprocessor Geometry: GRBL_11_no_M6)

(X range:    0.2855 ...  109.7145  mm)
(Y range:    0.2855 ...   75.7145  mm)

(Spindle Speed: 900.0 RPM)
G21
G90
G17
G94


G01 F100.00

M5             
G00 Z7.0000
G00 X0.0000 Y0.0000                
T1
(MSG, Change to Tool Dia = 0.1536)
M0
G00 Z7.0000
        
M03 S900.0
G01 F100.00
G00 X11.0199 Y5.6988
G01 F40.00
G01 Z-0.1000
G01 F100.00
G01 X11.0199 Y4.2018 F100.00
G01 X10.8981 Y4.2018 F100.00
G01 X10.8680 Y4.2002 F100.00
G01 X10.8381 Y4.1959 F100.00
G01 X10.8051 Y4.1877 F100.00
G01 X10.7749 Y4.1769 F100.00
G01 X10.7459 Y4.1632 F100.00
G01 X10.7184 Y4.1467 F100.00
G01 X10.6927 Y4.1276 F100.00
G01 X10.6689 Y4.1061 F100.00
G01 X10.6474 Y4.0823 F100.00
G01 X10.6304 Y4.0596 F100.00
G01 X10.6263 Y4.0534 F100.00
G01 X10.6118 Y4.0291 F100.00
G01 X10.5996 Y4.0035 F100.00
G01 X10.5967 Y3.9965 F100.00
G01 X10.5885 Y3.9734 F100.00
G01 X10.5863 Y3.9662 F100.00
G01 X10.5795 Y3.9388 F100.00
G01 X10.5748 Y3.9070 F100.00
G01 X10.5732 Y3.8750 F100.00
G01 X10.5732 Y2.6250 F100.00
G01 X10.5746 Y2.5948 F100.00
G01 X10.5795 Y2.5612 F100.00
G01 X10.5863 Y2.5338 F100.00
G01 X10.5885 Y2.5266 F100.00
G01 X10.5967 Y2.5035 F100.00
G01 X10.5996 Y2.4965 F100.00
G01 X10.6118 Y2.4709 F100.00
G01 X10.6283 Y2.4434 F100.00
G01 X10.6474 Y2.4177 F100.00
G01 X10.6689 Y2.3939 F100.00
G01 X10.6927 Y2.3724 F100.00
G01 X10.7184 Y2.3533 F100.00
G01 X10.7459 Y2.3368 F100.00
G01 X10.7715 Y2.3246 F100.00
G01 X10.7785 Y2.3217 F100.00
G01 X10.8016 Y2.3135 F100.00
G01 X10.8088 Y2.3113 F100.00
G01 X10.8362 Y2.3045 F100.00
G01 X10.8698 Y2.2996 F100.00
G01 X10.9000 Y2.2982 F100.00
G01 X11.7000 Y2.2982 F100.00
G01 X11.7320 Y2.2998 F100.00
G01 X11.7656 Y2.3049 F100.00
G01 X11.7912 Y2.3113 F100.00
G01 X11.7984 Y2.3135 F100.00
G01 X11.8251 Y2.3231 F100.00
G01 X11.8507 Y2.3351 F100.00
G01 X11.8573 Y2.3386 F100.00
G01 X11.8816 Y2.3533 F100.00
G01 X11.9073 Y2.3724 F100.00
G01 X11.9284 Y2.3913 F100.00
G01 X11.9337 Y2.3966 F100.00
G01 X11.9526 Y2.4177 F100.00
G01 X11.9696 Y2.4404 F100.00
G01 X11.9737 Y2.4466 F100.00
G01 X11.9882 Y2.4709 F100.00
G01 X12.0026 Y2.5017 F100.00
G01 X12.0127 Y2.5301 F100.00
G01 X12.0197 Y2.5576 F100.00
G01 X12.0212 Y2.5650 F100.00
G01 X12.0248 Y2.5892 F100.00
G01 X12.0255 Y2.5967 F100.00
G01 X12.0268 Y2.6250 F100.00
G01 X12.0268 Y2.9699 F100.00
G01 X13.1982 Y2.9699 F100.00
G01 X13.1982 Y2.5981 F100.00
G01 X13.1995 Y2.5717 F100.00
G01 X13.2002 Y2.5642 F100.00
G01 X13.2045 Y2.5362 F100.00
G01 X13.2113 Y2.5088 F100.00
G01 X13.2135 Y2.5016 F100.00
G01 X13.2231 Y2.4749 F100.00
G01 X13.2368 Y2.4459 F100.00
G01 X13.2533 Y2.4184 F100.00
G01 X13.2724 Y2.3927 F100.00
G01 X13.2939 Y2.3689 F100.00
G01 X13.3177 Y2.3474 F100.00
G01 X13.3434 Y2.3283 F100.00
G01 X13.3709 Y2.3118 F100.00
G01 X13.3999 Y2.2981 F100.00
G01 X13.4266 Y2.2885 F100.00
G01 X13.4338 Y2.2863 F100.00
G01 X13.4612 Y2.2795 F100.00
G01 X13.4892 Y2.2752 F100.00
G01 X13.4967 Y2.2745 F100.00
G01 X13.5231 Y2.2732 F100.00
G01 X14.3519 Y2.2732 F100.00
G01 X14.3820 Y2.2748 F100.00
G01 X14.4138 Y2.2795 F100.00
G01 X14.4449 Y2.2873 F100.00
G01 X14.4715 Y2.2967 F100.00
G01 X14.4785 Y2.2996 F100.00
G01 X14.5007 Y2.3101 F100.00
G01 X14.5073 Y2.3136 F100.00
G01 X14.5316 Y2.3283 F100.00
G01 X14.5573 Y2.3474 F100.00
G01 X14.5811 Y2.3689 F100.00
G01 X14.6002 Y2.3898 F100.00
G01 X14.6049 Y2.3957 F100.00
G01 X14.6217 Y2.4184 F100.00
G01 X14.6382 Y2.4459 F100.00
G01 X14.6504 Y2.4715 F100.00
G01 X14.6533 Y2.4785 F100.00
G01 X14.6627 Y2.5051 F100.00
G01 X14.6697 Y2.5326 F100.00
G01 X14.6712 Y2.5400 F100.00
G01 X14.6752 Y2.5680 F100.00
G01 X14.6768 Y2.5981 F100.00
G01 X14.6768 Y3.9000 F100.00
G01 X14.6752 Y3.9320 F100.00
G01 X14.6705 Y3.9638 F100.00
G01 X14.6637 Y3.9912 F100.00
G01 X14.6615 Y3.9984 F100.00
G01 X14.6533 Y4.0215 F100.00
G01 X14.6504 Y4.0285 F100.00
G01 X14.6382 Y4.0541 F100.00
G01 X14.6237 Y4.0784 F100.00
G01 X14.6196 Y4.0846 F100.00
G01 X14.6026 Y4.1073 F100.00
G01 X14.5811 Y4.1311 F100.00
G01 X14.5573 Y4.1526 F100.00
G01 X14.5316 Y4.1717 F100.00
G01 X14.5041 Y4.1882 F100.00
G01 X14.4785 Y4.2004 F100.00
G01 X14.4715 Y4.2033 F100.00
G01 X14.4449 Y4.2127 F100.00
G01 X14.4174 Y4.2197 F100.00
G01 X14.4100 Y4.2212 F100.00
G01 X14.3820 Y4.2252 F100.00
G01 X14.3538 Y4.2267 F100.00
G01 X13.5231 Y4.2268 F100.00
G01 X13.4967 Y4.2255 F100.00
G01 X13.4892 Y4.2248 F100.00
G01 X13.4612 Y4.2205 F100.00
G01 X13.4338 Y4.2137 F100.00
G01 X13.4266 Y4.2115 F100.00
G01 X13.3999 Y4.2019 F100.00
G01 X13.3743 Y4.1899 F100.00
G01 X13.3677 Y4.1864 F100.00
G01 X13.3434 Y4.1717 F100.00
G01 X13.3207 Y4.1549 F100.00
G01 X13.3148 Y4.1502 F100.00
G01 X13.2939 Y4.1311 F100.00
G01 X13.2724 Y4.1073 F100.00
G01 X13.2554 Y4.0846 F100.00
G01 X13.2513 Y4.0784 F100.00
G01 X13.2368 Y4.0541 F100.00
G01 X13.2246 Y4.0285 F100.00
G01 X13.2217 Y4.0215 F100.00
G01 X13.2135 Y3.9984 F100.00
G01 X13.2113 Y3.9912 F100.00
G01 X13.2053 Y3.9674 F100.00
G01 X13.2038 Y3.9600 F100.00
G01 X13.1998 Y3.9320 F100.00
G01 X13.1982 Y3.9019 F100.00
G01 X13.1982 Y3.5301 F100.00
G01 X12.0268 Y3.5301 F100.00
G01 X12.0268 Y3.8750 F100.00
G01 X12.0252 Y3.9070 F100.00
G01 X12.0205 Y3.9388 F100.00
G01 X12.0137 Y3.9662 F100.00
G01 X12.0115 Y3.9734 F100.00
G01 X12.0019 Y4.0001 F100.00
G01 X11.9899 Y4.0257 F100.00
G01 X11.9864 Y4.0323 F100.00
G01 X11.9717 Y4.0566 F100.00
G01 X11.9549 Y4.0793 F100.00
G01 X11.9502 Y4.0852 F100.00
G01 X11.9311 Y4.1061 F100.00
G01 X11.9073 Y4.1276 F100.00
G01 X11.8816 Y4.1467 F100.00
G01 X11.8573 Y4.1614 F100.00
G01 X11.8507 Y4.1649 F100.00
G01 X11.8285 Y4.1754 F100.00
G01 X11.8215 Y4.1783 F100.00
G01 X11.7949 Y4.1877 F100.00
G01 X11.7674 Y4.1947 F100.00
G01 X11.7600 Y4.1962 F100.00
G01 X11.7320 Y4.2002 F100.00
G01 X11.7000 Y4.2018 F100.00
G01 X11.5801 Y4.2018 F100.00
G01 X11.5801 Y5.7257 F100.00
G01 X11.6621 Y5.7552 F100.00
G01 X11.7576 Y5.8003 F100.00
G01 X11.8482 Y5.8547 F100.00
G01 X11.9301 Y5.9153 F100.00
G01 X11.9360 Y5.9201 F100.00
G01 X12.0087 Y5.9860 F100.00
G01 X12.0140 Y5.9913 F100.00
G01 X12.0824 Y6.0669 F100.00
G01 X12.1432 Y6.1487 F100.00
G01 X12.1473 Y6.1549 F100.00
G01 X12.1978 Y6.2391 F100.00
G01 X12.2013 Y6.2458 F100.00
G01 X12.2448 Y6.3379 F100.00
G01 X12.2804 Y6.4374 F100.00
G01 X12.3061 Y6.5399 F100.00
G01 X12.3212 Y6.6407 F100.00
G01 X12.3219 Y6.6482 F100.00
G01 X12.3268 Y6.7500 F100.00
G01 X12.3216 Y6.8555 F100.00
G01 X12.3068 Y6.9564 F100.00
G01 X12.3053 Y6.9638 F100.00
G01 X12.2814 Y7.0589 F100.00
G01 X12.2793 Y7.0662 F100.00
G01 X12.2448 Y7.1621 F100.00
G01 X12.1997 Y7.2576 F100.00
G01 X12.1453 Y7.3482 F100.00
G01 X12.0836 Y7.4316 F100.00
G01 X12.0140 Y7.5087 F100.00
G01 X12.0087 Y7.5140 F100.00
G01 X11.9331 Y7.5824 F100.00
G01 X11.8467 Y7.6464 F100.00
G01 X11.7576 Y7.6997 F100.00
G01 X11.6638 Y7.7441 F100.00
G01 X11.5644 Y7.7799 F100.00
G01 X11.5301 Y7.7887 F100.00
G01 X11.5301 Y8.8840 F100.00
G01 X12.1160 Y9.4699 F100.00
G01 X22.2500 Y9.4699 F100.00
G01 X22.2737 Y9.4710 F100.00
G01 X22.2793 Y9.4715 F100.00
G01 X22.3009 Y9.4746 F100.00
G01 X22.3083 Y9.4761 F100.00
G01 X22.3313 Y9.4820 F100.00
G01 X22.3572 Y9.4912 F100.00
G01 X22.3820 Y9.5030 F100.00
G01 X22.4024 Y9.5151 F100.00
G01 X22.4087 Y9.5193 F100.00
G01 X22.4291 Y9.5347 F100.00
G01 X22.4481 Y9.5519 F100.00
G01 X22.9494 Y10.0533 F100.00
G01 X22.9665 Y10.0723 F100.00
G01 X22.9829 Y10.0944 F100.00
G01 X22.9970 Y10.1180 F100.00
G01 X23.0088 Y10.1428 F100.00
G01 X23.0180 Y10.1687 F100.00
G01 X23.0247 Y10.1954 F100.00
G01 X23.0288 Y10.2225 F100.00
G01 X23.0301 Y10.2500 F100.00
G01 X23.0301 Y18.6340 F100.00
G01 X23.6160 Y19.2199 F100.00
G01 X53.5000 Y19.2199 F100.00
G01 X53.5237 Y19.2210 F100.00
G01 X53.5312 Y19.2217 F100.00
G01 X53.5546 Y19.2253 F100.00
G01 X53.5777 Y19.2310 F100.00
G01 X53.5849 Y19.2331 F100.00
G01 X53.6072 Y19.2412 F100.00
G01 X53.6337 Y19.2539 F100.00
G01 X53.6556 Y19.2671 F100.00
G01 X53.6747 Y19.2812 F100.00
G01 X53.6805 Y19.2859 F100.00
G01 X53.6981 Y19.3019 F100.00
G01 X54.3157 Y19.9197 F100.00
G01 X54.3315 Y19.9373 F100.00
G01 X54.3479 Y19.9594 F100.00
G01 X54.3620 Y19.9830 F100.00
G01 X54.3723 Y20.0044 F100.00
G01 X54.3751 Y20.0113 F100.00
G01 X54.3825 Y20.0319 F100.00
G01 X54.3840 Y20.0373 F100.00
G01 X54.3897 Y20.0604 F100.00
G01 X54.3939 Y20.0894 F100.00
G01 X54.3951 Y20.1150 F100.00
G01 X54.3951 Y28.5393 F100.00
G01 X54.4089 Y28.5497 F100.00
G01 X54.4226 Y28.5620 F100.00
G01 X54.4267 Y28.5660 F100.00
G01 X54.4379 Y28.5783 F100.00
G01 X54.4426 Y28.5841 F100.00
G01 X54.4536 Y28.5990 F100.00
G01 X54.4650 Y28.6181 F100.00
G01 X54.4745 Y28.6382 F100.00
G01 X54.4809 Y28.6556 F100.00
G01 X54.4830 Y28.6628 F100.00
G01 X54.4874 Y28.6808 F100.00
G01 X54.4902 Y28.6990 F100.00
G01 X54.4909 Y28.7046 F100.00
G01 X54.4918 Y28.7231 F100.00
G01 X54.4918 Y30.4769 F100.00
G01 X54.4909 Y30.4954 F100.00
G01 X54.4902 Y30.5010 F100.00
G01 X54.4874 Y30.5192 F100.00
G01 X54.4830 Y30.5372 F100.00
G01 X54.4809 Y30.5444 F100.00
G01 X54.4745 Y30.5618 F100.00
G01 X54.4641 Y30.5836 F100.00
G01 X54.4536 Y30.6010 F100.00
G01 X54.4391 Y30.6203 F100.00
G01 X54.4240 Y30.6367 F100.00
G01 X54.4103 Y30.6491 F100.00
G01 X54.4059 Y30.6526 F100.00
G01 X54.3910 Y30.6636 F100.00
G01 X54.3752 Y30.6732 F100.00
G01 X54.3702 Y30.6759 F100.00
G01 X54.3552 Y30.6830 F100.00
G01 X54.3500 Y30.6852 F100.00
G01 X54.3326 Y30.6915 F100.00
G01 X54.3111 Y30.6971 F100.00
G01 X54.2872 Y30.7007 F100.00
G01 X54.2650 Y30.7018 F100.00
G01 X53.9650 Y30.7018 F100.00
G01 X53.9409 Y30.7005 F100.00
G01 X53.9208 Y30.6974 F100.00
G01 X53.8992 Y30.6920 F100.00
G01 X53.8782 Y30.6845 F100.00
G01 X53.8615 Y30.6767 F100.00
G01 X53.8548 Y30.6732 F100.00
G01 X53.8406 Y30.6646 F100.00
G01 X53.8359 Y30.6614 F100.00
G01 X53.8211 Y30.6503 F100.00
G01 X53.8046 Y30.6354 F100.00
G01 X53.7897 Y30.6189 F100.00
G01 X53.7786 Y30.6041 F100.00
G01 X53.7754 Y30.5994 F100.00
G01 X53.7668 Y30.5852 F100.00
G01 X53.7633 Y30.5785 F100.00
G01 X53.7555 Y30.5618 F100.00
G01 X53.7480 Y30.5408 F100.00
G01 X53.7426 Y30.5192 F100.00
G01 X53.7393 Y30.4972 F100.00
G01 X53.7382 Y30.4750 F100.00
G01 X53.7383 Y28.7212 F100.00
G01 X53.7391 Y28.7046 F100.00
G01 X53.7398 Y28.6990 F100.00
G01 X53.7426 Y28.6808 F100.00
G01 X53.7470 Y28.6628 F100.00
G01 X53.7491 Y28.6556 F100.00
G01 X53.7555 Y28.6382 F100.00
G01 X53.7650 Y28.6181 F100.00
G01 X53.7764 Y28.5990 F100.00
G01 X53.7874 Y28.5841 F100.00
G01 X53.7921 Y28.5783 F100.00
G01 X53.8033 Y28.5660 F100.00
G01 X53.8074 Y28.5620 F100.00
G01 X53.8211 Y28.5497 F100.00
G01 X53.8349 Y28.5393 F100.00
G01 X53.8349 Y20.2310 F100.00
G01 X53.3840 Y19.7801 F100.00
G01 X23.5000 Y19.7801 F100.00
G01 X23.4725 Y19.7788 F100.00
G01 X23.4491 Y19.7754 F100.00
G01 X23.4417 Y19.7739 F100.00
G01 X23.4169 Y19.7675 F100.00
G01 X23.3963 Y19.7601 F100.00
G01 X23.3894 Y19.7573 F100.00
G01 X23.3680 Y19.7470 F100.00
G01 X23.3476 Y19.7349 F100.00
G01 X23.3413 Y19.7307 F100.00
G01 X23.3223 Y19.7165 F100.00
G01 X23.3033 Y19.6994 F100.00
G01 X22.5506 Y18.9467 F100.00
G01 X22.5335 Y18.9277 F100.00
G01 X22.5171 Y18.9056 F100.00
G01 X22.5030 Y18.8820 F100.00
G01 X22.4927 Y18.8606 F100.00
G01 X22.4899 Y18.8537 F100.00
G01 X22.4825 Y18.8331 F100.00
G01 X22.4810 Y18.8277 F100.00
G01 X22.4753 Y18.8046 F100.00
G01 X22.4712 Y18.7775 F100.00
G01 X22.4699 Y18.7500 F100.00
G01 X22.4699 Y10.3660 F100.00
G01 X22.1340 Y10.0301 F100.00
G01 X12.0000 Y10.0301 F100.00
G01 X11.9725 Y10.0288 F100.00
G01 X11.9454 Y10.0247 F100.00
G01 X11.9187 Y10.0180 F100.00
G01 X11.8928 Y10.0088 F100.00
G01 X11.8680 Y9.9970 F100.00
G01 X11.8444 Y9.9829 F100.00
G01 X11.8223 Y9.9665 F100.00
G01 X11.8019 Y9.9481 F100.00
G01 X11.0519 Y9.1981 F100.00
G01 X11.0359 Y9.1805 F100.00
G01 X11.0312 Y9.1747 F100.00
G01 X11.0171 Y9.1556 F100.00
G01 X11.0039 Y9.1337 F100.00
G01 X10.9912 Y9.1072 F100.00
G01 X10.9831 Y9.0849 F100.00
G01 X10.9810 Y9.0777 F100.00
G01 X10.9753 Y9.0546 F100.00
G01 X10.9717 Y9.0312 F100.00
G01 X10.9710 Y9.0237 F100.00
G01 X10.9699 Y9.0019 F100.00
G01 X10.9699 Y7.7887 F100.00
G01 X10.9356 Y7.7799 F100.00
G01 X10.8397 Y7.7455 F100.00
G01 X10.7407 Y7.6987 F100.00
G01 X10.6518 Y7.6453 F100.00
G01 X10.5699 Y7.5847 F100.00
G01 X10.5640 Y7.5799 F100.00
G01 X10.4873 Y7.5101 F100.00
G01 X10.4176 Y7.4331 F100.00
G01 X10.3568 Y7.3513 F100.00
G01 X10.3527 Y7.3451 F100.00
G01 X10.3003 Y7.2576 F100.00
G01 X10.2567 Y7.1655 F100.00
G01 X10.2538 Y7.1586 F100.00
G01 X10.2196 Y7.0626 F100.00
G01 X10.1939 Y6.9601 F100.00
G01 X10.1784 Y6.8555 F100.00
G01 X10.1732 Y6.7500 F100.00
G01 X10.1784 Y6.6445 F100.00
G01 X10.1939 Y6.5399 F100.00
G01 X10.2196 Y6.4374 F100.00
G01 X10.2552 Y6.3379 F100.00
G01 X10.3003 Y6.2424 F100.00
G01 X10.3547 Y6.1518 F100.00
G01 X10.4176 Y6.0669 F100.00
G01 X10.4886 Y5.9886 F100.00
G01 X10.5669 Y5.9176 F100.00
G01 X10.6518 Y5.8547 F100.00
G01 X10.7424 Y5.8003 F100.00
G01 X10.8379 Y5.7552 F100.00
G01 X10.9374 Y5.7196 F100.00
G01 X11.0199 Y5.6988 F100.00
G00 Z2.0000
G00 X11.9526 Y5.6680
G01 F40.00
G01 Z-0.1000
G01 F100.00
G01 X11.9364 Y5.6564 F100.00
G01 X11.9246 Y5.6466 F100.00
G01 X11.8676 Y5.5903 F100.00
G01 X11.8603 Y5.5828 F100.00
G01 X11.8501 Y5.5707 F100.00
G01 X11.8439 Y5.5623 F100.00
G01 X11.8380 Y5.5536 F100.00
G01 X11.8300 Y5.5401 F100.00
G01 X11.8252 Y5.5307 F100.00
G01 X11.8209 Y5.5211 F100.00
G01 X11.8153 Y5.5064 F100.00
G01 X11.8108 Y5.4913 F100.00
G01 X11.7954 Y5.4314 F100.00
G01 X11.7930 Y5.4209 F100.00
G01 X11.7911 Y5.4102 F100.00
G01 X11.7893 Y5.3941 F100.00
G01 X11.7887 Y5.3779 F100.00
G01 X11.7887 Y4.6387 F100.00
G01 X11.7896 Y4.6182 F100.00
G01 X11.7916 Y4.6030 F100.00
G01 X11.7936 Y4.5930 F100.00
G01 X11.7974 Y4.5781 F100.00
G01 X11.8171 Y4.5110 F100.00
G01 X11.8220 Y4.4962 F100.00
G01 X11.8280 Y4.4818 F100.00
G01 X11.8326 Y4.4724 F100.00
G01 X11.8403 Y4.4588 F100.00
G01 X11.8490 Y4.4458 F100.00
G01 X11.8586 Y4.4335 F100.00
G01 X11.8691 Y4.4219 F100.00
G01 X11.9120 Y4.3797 F100.00
G01 X11.9238 Y4.3689 F100.00
G01 X11.9364 Y4.3590 F100.00
G01 X11.9452 Y4.3530 F100.00
G01 X12.0344 Y4.2979 F100.00
G01 X12.1229 Y4.2094 F100.00
G01 X12.1886 Y4.1028 F100.00
G01 X12.2339 Y3.9662 F100.00
G01 X12.2417 Y3.9473 F100.00
G01 X12.2463 Y3.9381 F100.00
G01 X12.2540 Y3.9248 F100.00
G01 X12.3025 Y3.8545 F100.00
G01 X12.3090 Y3.8460 F100.00
G01 X12.3195 Y3.8340 F100.00
G01 X12.3270 Y3.8264 F100.00
G01 X12.3349 Y3.8191 F100.00
G01 X12.3473 Y3.8091 F100.00
G01 X12.3605 Y3.8000 F100.00
G01 X12.3696 Y3.7944 F100.00
G01 X12.3791 Y3.7894 F100.00
G01 X12.3936 Y3.7827 F100.00
G01 X12.4630 Y3.7539 F100.00
G01 X12.4728 Y3.7504 F100.00
G01 X12.4828 Y3.7473 F100.00
G01 X12.4929 Y3.7448 F100.00
G01 X12.5031 Y3.7427 F100.00
G01 X12.5134 Y3.7411 F100.00
G01 X12.5238 Y3.7400 F100.00
G01 X12.5483 Y3.7387 F100.00
G01 X12.6635 Y3.7387 F100.00
G01 X12.6789 Y3.7392 F100.00
G01 X12.6941 Y3.7408 F100.00
G01 X12.7092 Y3.7436 F100.00
G01 X12.7241 Y3.7474 F100.00
G01 X12.7911 Y3.7671 F100.00
G01 X12.8063 Y3.7721 F100.00
G01 X12.8162 Y3.7761 F100.00
G01 X12.8259 Y3.7806 F100.00
G01 X12.8354 Y3.7856 F100.00
G01 X12.8446 Y3.7911 F100.00
G01 X12.8578 Y3.8000 F100.00
G01 X12.8704 Y3.8100 F100.00
G01 X12.8783 Y3.8171 F100.00
G01 X12.8895 Y3.8286 F100.00
G01 X12.9423 Y3.8894 F100.00
G01 X12.9488 Y3.8978 F100.00
G01 X12.9549 Y3.9064 F100.00
G01 X12.9633 Y3.9199 F100.00
G01 X12.9683 Y3.9293 F100.00
G01 X12.9728 Y3.9388 F100.00
G01 X12.9787 Y3.9536 F100.00
G01 X13.0364 Y4.1278 F100.00
G01 X13.1021 Y4.2344 F100.00
G01 X13.1906 Y4.3229 F100.00
G01 X13.2972 Y4.3886 F100.00
G01 X13.4175 Y4.4285 F100.00
G01 X13.4859 Y4.4355 F100.00
G01 X14.3890 Y4.4355 F100.00
G01 X14.4575 Y4.4285 F100.00
G01 X14.5778 Y4.3886 F100.00
G01 X14.6844 Y4.3229 F100.00
G01 X14.7729 Y4.2344 F100.00
G01 X14.8386 Y4.1278 F100.00
G01 X14.8785 Y4.0075 F100.00
G01 X14.8855 Y3.9391 F100.00
G01 X14.8855 Y2.5610 F100.00
G01 X14.8785 Y2.4925 F100.00
G01 X14.8562 Y2.4246 F100.00
G01 X14.8526 Y2.4096 F100.00
G01 X14.8501 Y2.3945 F100.00
G01 X14.8484 Y2.3741 F100.00
G01 X14.8459 Y2.2989 F100.00
G01 X14.8463 Y2.2829 F100.00
G01 X14.8480 Y2.2670 F100.00
G01 X14.8497 Y2.2564 F100.00
G01 X14.8520 Y2.2460 F100.00
G01 X14.8563 Y2.2306 F100.00
G01 X14.8619 Y2.2156 F100.00
G01 X14.8685 Y2.2010 F100.00
G01 X14.8761 Y2.1869 F100.00
G01 X14.9146 Y2.1223 F100.00
G01 X14.9206 Y2.1134 F100.00
G01 X14.9269 Y2.1048 F100.00
G01 X14.9372 Y2.0926 F100.00
G01 X14.9484 Y2.0811 F100.00
G01 X14.9604 Y2.0705 F100.00
G01 X14.9731 Y2.0608 F100.00
G01 X14.9866 Y2.0521 F100.00
G01 X15.0007 Y2.0444 F100.00
G01 X15.0680 Y2.0109 F100.00
G01 X15.0778 Y2.0066 F100.00
G01 X15.0929 Y2.0011 F100.00
G01 X15.1084 Y1.9967 F100.00
G01 X15.1189 Y1.9944 F100.00
G01 X15.1295 Y1.9927 F100.00
G01 X15.1620 Y1.9895 F100.00
G01 X15.1763 Y1.9887 F100.00
G01 X15.8297 Y1.9889 F100.00
G01 X15.8501 Y1.9908 F100.00
G01 X15.8702 Y1.9947 F100.00
G01 X15.9471 Y2.0171 F100.00
G01 X15.9573 Y2.0203 F100.00
G01 X15.9722 Y2.0261 F100.00
G01 X15.9867 Y2.0331 F100.00
G01 X16.0005 Y2.0411 F100.00
G01 X16.0095 Y2.0469 F100.00
G01 X16.0181 Y2.0533 F100.00
G01 X16.0304 Y2.0635 F100.00
G01 X16.0419 Y2.0747 F100.00
G01 X16.0948 Y2.1354 F100.00
G01 X16.1016 Y2.1436 F100.00
G01 X16.1080 Y2.1522 F100.00
G01 X16.1167 Y2.1656 F100.00
G01 X16.1220 Y2.1749 F100.00
G01 X16.1290 Y2.1893 F100.00
G01 X16.1331 Y2.1992 F100.00
G01 X16.1382 Y2.2143 F100.00
G01 X16.1411 Y2.2246 F100.00
G01 X16.1434 Y2.2351 F100.00
G01 X16.1451 Y2.2456 F100.00
G01 X16.1551 Y2.3147 F100.00
G01 X16.1568 Y2.3307 F100.00
G01 X16.1573 Y2.3468 F100.00
G01 X16.1566 Y2.3629 F100.00
G01 X16.1546 Y2.3789 F100.00
G01 X16.1515 Y2.3947 F100.00
G01 X16.1441 Y2.4252 F100.00
G01 X16.1220 Y2.4926 F100.00
G01 X16.1150 Y2.5610 F100.00
G01 X16.1150 Y2.7850 F100.00
G01 X16.1850 Y2.7850 F100.00
G01 X16.1850 Y2.5947 F100.00
G01 X16.1872 Y2.5544 F100.00
G01 X16.1885 Y2.5439 F100.00
G01 X16.1939 Y2.5093 F100.00
G01 X16.2022 Y2.4752 F100.00
G01 X16.2066 Y2.4600 F100.00
G01 X16.2184 Y2.4269 F100.00
G01 X16.2246 Y2.4124 F100.00
G01 X16.2374 Y2.3855 F100.00
G01 X16.2451 Y2.3716 F100.00
G01 X16.2633 Y2.3416 F100.00
G01 X16.2840 Y2.3133 F100.00
G01 X16.2939 Y2.3009 F100.00
G01 X16.3175 Y2.2749 F100.00
G01 X16.3288 Y2.2639 F100.00
G01 X16.3509 Y2.2439 F100.00
G01 X16.3633 Y2.2340 F100.00
G01 X16.3916 Y2.2133 F100.00
G01 X16.4262 Y2.1924 F100.00
G01 X16.4402 Y2.1851 F100.00
G01 X16.4720 Y2.1704 F100.00
G01 X16.4819 Y2.1666 F100.00
G01 X16.5150 Y2.1550 F100.00
G01 X16.5490 Y2.1462 F100.00
G01 X16.5593 Y2.1439 F100.00
G01 X16.5992 Y2.1378 F100.00
G01 X16.6149 Y2.1364 F100.00
G01 X16.6500 Y2.1350 F100.00
G01 X17.4803 Y2.1350 F100.00
G01 X17.5206 Y2.1372 F100.00
G01 X17.5553 Y2.1421 F100.00
G01 X17.5709 Y2.1450 F100.00
G01 X17.5998 Y2.1522 F100.00
G01 X17.6150 Y2.1566 F100.00
G01 X17.6481 Y2.1684 F100.00
G01 X17.6626 Y2.1746 F100.00
G01 X17.6942 Y2.1899 F100.00
G01 X17.7034 Y2.1951 F100.00
G01 X17.7334 Y2.2133 F100.00
G01 X17.7420 Y2.2194 F100.00
G01 X17.7700 Y2.2405 F100.00
G01 X17.7962 Y2.2639 F100.00
G01 X17.8038 Y2.2712 F100.00
G01 X17.8111 Y2.2788 F100.00
G01 X17.8311 Y2.3009 F100.00
G01 X17.8378 Y2.3091 F100.00
G01 X17.8617 Y2.3416 F100.00
G01 X17.8826 Y2.3762 F100.00
G01 X17.8899 Y2.3902 F100.00
G01 X17.9046 Y2.4220 F100.00
G01 X17.9184 Y2.4600 F100.00
G01 X17.9228 Y2.4752 F100.00
G01 X17.9300 Y2.5041 F100.00
G01 X17.9321 Y2.5145 F100.00
G01 X17.9365 Y2.5439 F100.00
G01 X17.9383 Y2.5597 F100.00
G01 X17.9400 Y2.5947 F100.00
G01 X17.9400 Y2.7850 F100.00
G01 X18.0100 Y2.7850 F100.00
G01 X18.0100 Y2.5610 F100.00
G01 X18.0030 Y2.4926 F100.00
G01 X17.9837 Y2.4343 F100.00
G01 X17.9794 Y2.4196 F100.00
G01 X17.9753 Y2.3996 F100.00
G01 X17.9731 Y2.3792 F100.00
G01 X17.9705 Y2.3043 F100.00
G01 X17.9705 Y2.2883 F100.00
G01 X17.9718 Y2.2723 F100.00
G01 X17.9733 Y2.2617 F100.00
G01 X17.9765 Y2.2460 F100.00
G01 X17.9792 Y2.2357 F100.00
G01 X17.9825 Y2.2255 F100.00
G01 X17.9863 Y2.2156 F100.00
G01 X17.9906 Y2.2058 F100.00
G01 X17.9954 Y2.1962 F100.00
G01 X18.0391 Y2.1223 F100.00
G01 X18.0450 Y2.1134 F100.00
G01 X18.0547 Y2.1006 F100.00
G01 X18.0653 Y2.0886 F100.00
G01 X18.0768 Y2.0775 F100.00
G01 X18.0849 Y2.0705 F100.00
G01 X18.0933 Y2.0639 F100.00
G01 X18.1020 Y2.0578 F100.00
G01 X18.1111 Y2.0521 F100.00
G01 X18.1251 Y2.0444 F100.00
G01 X18.1876 Y2.0132 F100.00
G01 X18.2023 Y2.0066 F100.00
G01 X18.2174 Y2.0011 F100.00
G01 X18.2329 Y1.9967 F100.00
G01 X18.2487 Y1.9935 F100.00
G01 X18.2593 Y1.9920 F100.00
G01 X18.2865 Y1.9895 F100.00
G01 X18.3055 Y1.9887 F100.00
G01 X22.6572 Y1.9887 F100.00
G01 X22.6776 Y1.9896 F100.00
G01 X22.6928 Y1.9916 F100.00
G01 X22.7029 Y1.9936 F100.00
G01 X22.7177 Y1.9974 F100.00
G01 X22.7948 Y2.0203 F100.00
G01 X22.8047 Y2.0240 F100.00
G01 X22.8192 Y2.0305 F100.00
G01 X22.8285 Y2.0353 F100.00
G01 X22.8421 Y2.0435 F100.00
G01 X22.8507 Y2.0495 F100.00
G01 X22.8591 Y2.0559 F100.00
G01 X22.8842 Y2.0763 F100.00
G01 X22.8928 Y2.0839 F100.00
G01 X23.4191 Y2.6105 F100.00
G01 X23.4321 Y2.6263 F100.00
G01 X23.4409 Y2.6389 F100.00
G01 X23.4462 Y2.6476 F100.00
G01 X23.4822 Y2.7134 F100.00
G01 X23.4870 Y2.7228 F100.00
G01 X23.4914 Y2.7324 F100.00
G01 X23.4953 Y2.7422 F100.00
G01 X23.4987 Y2.7522 F100.00
G01 X23.5016 Y2.7624 F100.00
G01 X23.5040 Y2.7727 F100.00
G01 X23.5066 Y2.7883 F100.00
G01 X23.5106 Y2.8256 F100.00
G01 X23.5113 Y2.8428 F100.00
G01 X23.5113 Y9.5018 F100.00
G01 X23.5104 Y9.5222 F100.00
G01 X23.5084 Y9.5374 F100.00
G01 X23.5064 Y9.5475 F100.00
G01 X23.5026 Y9.5623 F100.00
G01 X23.4797 Y9.6395 F100.00
G01 X23.4759 Y9.6495 F100.00
G01 X23.4717 Y9.6593 F100.00
G01 X23.4644 Y9.6736 F100.00
G01 X23.4589 Y9.6828 F100.00
G01 X23.4531 Y9.6917 F100.00
G01 X23.4467 Y9.7003 F100.00
G01 X23.4400 Y9.7086 F100.00
G01 X23.4329 Y9.7165 F100.00
G01 X23.4253 Y9.7241 F100.00
G01 X23.4174 Y9.7313 F100.00
G01 X23.3564 Y9.7839 F100.00
G01 X23.3478 Y9.7902 F100.00
G01 X23.3389 Y9.7962 F100.00
G01 X23.3298 Y9.8017 F100.00
G01 X23.3204 Y9.8067 F100.00
G01 X23.3107 Y9.8113 F100.00
G01 X23.2958 Y9.8172 F100.00
G01 X23.2805 Y9.8220 F100.00
G01 X23.2702 Y9.8245 F100.00
G01 X23.2544 Y9.8274 F100.00
G01 X23.1747 Y9.8386 F100.00
G01 X23.1640 Y9.8393 F100.00
G01 X23.1533 Y9.8395 F100.00
G01 X23.1426 Y9.8392 F100.00
G01 X23.1320 Y9.8383 F100.00
G01 X23.1214 Y9.8369 F100.00
G01 X23.1109 Y9.8350 F100.00
G01 X23.1005 Y9.8326 F100.00
G01 X23.0902 Y9.8297 F100.00
G01 X23.0801 Y9.8262 F100.00
G01 X23.0702 Y9.8223 F100.00
G01 X22.9922 Y9.7864 F100.00
G01 X22.9829 Y9.7813 F100.00
G01 X22.9694 Y9.7728 F100.00
G01 X22.9566 Y9.7633 F100.00
G01 X22.9485 Y9.7564 F100.00
G01 X22.9326 Y9.7415 F100.00
G01 X22.5615 Y9.3704 F100.00
G01 X22.4815 Y9.3170 F100.00
G01 X22.3925 Y9.2801 F100.00
G01 X22.2981 Y9.2613 F100.00
G01 X12.3428 Y9.2613 F100.00
G01 X12.3224 Y9.2604 F100.00
G01 X12.3072 Y9.2584 F100.00
G01 X12.2971 Y9.2564 F100.00
G01 X12.2823 Y9.2526 F100.00
G01 X12.2052 Y9.2297 F100.00
G01 X12.1953 Y9.2260 F100.00
G01 X12.1856 Y9.2218 F100.00
G01 X12.1715 Y9.2147 F100.00
G01 X12.1624 Y9.2093 F100.00
G01 X12.1536 Y9.2035 F100.00
G01 X12.1450 Y9.1973 F100.00
G01 X12.1115 Y9.1700 F100.00
G01 X12.1031 Y9.1620 F100.00
G01 X11.8344 Y8.8932 F100.00
G01 X11.8210 Y8.8778 F100.00
G01 X11.8149 Y8.8696 F100.00
G01 X11.8064 Y8.8568 F100.00
G01 X11.7678 Y8.7866 F100.00
G01 X11.7630 Y8.7772 F100.00
G01 X11.7586 Y8.7676 F100.00
G01 X11.7547 Y8.7578 F100.00
G01 X11.7513 Y8.7478 F100.00
G01 X11.7471 Y8.7325 F100.00
G01 X11.7450 Y8.7222 F100.00
G01 X11.7434 Y8.7117 F100.00
G01 X11.7399 Y8.6801 F100.00
G01 X11.7387 Y8.6629 F100.00
G01 X11.7387 Y8.1492 F100.00
G01 X11.7392 Y8.1339 F100.00
G01 X11.7408 Y8.1186 F100.00
G01 X11.7436 Y8.1035 F100.00
G01 X11.7474 Y8.0886 F100.00
G01 X11.7671 Y8.0216 F100.00
G01 X11.7703 Y8.0116 F100.00
G01 X11.7739 Y8.0017 F100.00
G01 X11.7804 Y7.9874 F100.00
G01 X11.7852 Y7.9780 F100.00
G01 X11.7905 Y7.9690 F100.00
G01 X11.7993 Y7.9559 F100.00
G01 X11.8090 Y7.9435 F100.00
G01 X11.8196 Y7.9318 F100.00
G01 X11.8271 Y7.9245 F100.00
G01 X11.8724 Y7.8825 F100.00
G01 X11.8848 Y7.8719 F100.00
G01 X11.8978 Y7.8623 F100.00
G01 X11.9069 Y7.8564 F100.00
G01 X11.9555 Y7.8298 F100.00
G01 X12.1236 Y7.6990 F100.00
G01 X12.2679 Y7.5423 F100.00
G01 X12.3844 Y7.3639 F100.00
G01 X12.4700 Y7.1688 F100.00
G01 X12.5223 Y6.9623 F100.00
G01 X12.5399 Y6.7500 F100.00
G01 X12.5223 Y6.5377 F100.00
G01 X12.4700 Y6.3312 F100.00
G01 X12.3844 Y6.1361 F100.00
G01 X12.2679 Y5.9578 F100.00
G01 X12.1236 Y5.8010 F100.00
G01 X11.9526 Y5.6680 F100.00
G00 Z2.0000
G00 X12.0313 Y5.5540
G01 F40.00
G01 Z-0.1000
G01 F100.00
G01 X12.0229 Y5.5486 F100.00
G01 X12.0146 Y5.5414 F100.00
G01 X11.9637 Y5.4909 F100.00
G01 X11.9588 Y5.4852 F100.00
G01 X11.9534 Y5.4775 F100.00
G01 X11.9491 Y5.4692 F100.00
G01 X11.9452 Y5.4586 F100.00
G01 X11.9293 Y5.3970 F100.00
G01 X11.9273 Y5.3856 F100.00
G01 X11.9269 Y5.3779 F100.00
G01 X11.9269 Y4.6387 F100.00
G01 X11.9274 Y4.6295 F100.00
G01 X11.9291 Y4.6206 F100.00
G01 X11.9515 Y4.5447 F100.00
G01 X11.9544 Y4.5379 F100.00
G01 X11.9580 Y4.5313 F100.00
G01 X11.9622 Y4.5252 F100.00
G01 X11.9670 Y4.5195 F100.00
G01 X12.0088 Y4.4783 F100.00
G01 X12.0175 Y4.4709 F100.00
G01 X12.1207 Y4.4071 F100.00
G01 X12.2321 Y4.2957 F100.00
G01 X12.3147 Y4.1617 F100.00
G01 X12.3635 Y4.0145 F100.00
G01 X12.3661 Y4.0077 F100.00
G01 X12.3694 Y4.0012 F100.00
G01 X12.3732 Y3.9950 F100.00
G01 X12.4130 Y3.9375 F100.00
G01 X12.4177 Y3.9315 F100.00
G01 X12.4243 Y3.9246 F100.00
G01 X12.4301 Y3.9198 F100.00
G01 X12.4381 Y3.9145 F100.00
G01 X12.4449 Y3.9111 F100.00
G01 X12.5112 Y3.8835 F100.00
G01 X12.5182 Y3.8810 F100.00
G01 X12.5254 Y3.8792 F100.00
G01 X12.5328 Y3.8780 F100.00
G01 X12.5541 Y3.8769 F100.00
G01 X12.6635 Y3.8769 F100.00
G01 X12.6745 Y3.8777 F100.00
G01 X12.6852 Y3.8800 F100.00
G01 X12.7540 Y3.9003 F100.00
G01 X12.7646 Y3.9045 F100.00
G01 X12.7745 Y3.9104 F100.00
G01 X12.7819 Y3.9163 F100.00
G01 X12.7886 Y3.9231 F100.00
G01 X12.8356 Y3.9773 F100.00
G01 X12.8401 Y3.9834 F100.00
G01 X12.8440 Y3.9899 F100.00
G01 X12.8465 Y3.9950 F100.00
G01 X12.8492 Y4.0021 F100.00
G01 X12.9103 Y4.1867 F100.00
G01 X12.9929 Y4.3207 F100.00
G01 X13.1043 Y4.4321 F100.00
G01 X13.2383 Y4.5147 F100.00
G01 X13.3884 Y4.5645 F100.00
G01 X13.4789 Y4.5737 F100.00
G01 X14.3961 Y4.5737 F100.00
G01 X14.4866 Y4.5645 F100.00
G01 X14.6367 Y4.5147 F100.00
G01 X14.7707 Y4.4321 F100.00
G01 X14.8821 Y4.3207 F100.00
G01 X14.9647 Y4.1867 F100.00
G01 X15.0145 Y4.0366 F100.00
G01 X15.0237 Y3.9461 F100.00
G01 X15.0237 Y2.5539 F100.00
G01 X15.0145 Y2.4634 F100.00
G01 X14.9899 Y2.3891 F100.00
G01 X14.9874 Y2.3784 F100.00
G01 X14.9866 Y2.3693 F100.00
G01 X14.9842 Y2.2995 F100.00
G01 X14.9846 Y2.2881 F100.00
G01 X14.9859 Y2.2806 F100.00
G01 X14.9873 Y2.2750 F100.00
G01 X14.9898 Y2.2678 F100.00
G01 X14.9931 Y2.2609 F100.00
G01 X15.0317 Y2.1959 F100.00
G01 X15.0360 Y2.1897 F100.00
G01 X15.0410 Y2.1839 F100.00
G01 X15.0495 Y2.1762 F100.00
G01 X15.0541 Y2.1729 F100.00
G01 X15.0607 Y2.1690 F100.00
G01 X15.1249 Y2.1369 F100.00
G01 X15.1355 Y2.1326 F100.00
G01 X15.1429 Y2.1306 F100.00
G01 X15.1505 Y2.1293 F100.00
G01 X15.1810 Y2.1269 F100.00
G01 X15.8232 Y2.1270 F100.00
G01 X15.8304 Y2.1277 F100.00
G01 X15.8394 Y2.1295 F100.00
G01 X15.9118 Y2.1509 F100.00
G01 X15.9189 Y2.1537 F100.00
G01 X15.9273 Y2.1583 F100.00
G01 X15.9335 Y2.1626 F100.00
G01 X15.9393 Y2.1676 F100.00
G01 X15.9446 Y2.1731 F100.00
G01 X15.9916 Y2.2274 F100.00
G01 X15.9972 Y2.2351 F100.00
G01 X16.0025 Y2.2452 F100.00
G01 X16.0058 Y2.2541 F100.00
G01 X16.0080 Y2.2634 F100.00
G01 X16.0183 Y2.3344 F100.00
G01 X16.0190 Y2.3420 F100.00
G01 X16.0189 Y2.3497 F100.00
G01 X16.0178 Y2.3592 F100.00
G01 X16.0111 Y2.3876 F100.00
G01 X15.9860 Y2.4635 F100.00
G01 X15.9768 Y2.5539 F100.00
G01 X15.9768 Y2.9232 F100.00
G01 X16.3232 Y2.9232 F100.00
G01 X16.3232 Y2.6000 F100.00
G01 X16.3245 Y2.5717 F100.00
G01 X16.3252 Y2.5642 F100.00
G01 X16.3288 Y2.5400 F100.00
G01 X16.3303 Y2.5326 F100.00
G01 X16.3373 Y2.5051 F100.00
G01 X16.3488 Y2.4732 F100.00
G01 X16.3618 Y2.4459 F100.00
G01 X16.3763 Y2.4216 F100.00
G01 X16.3804 Y2.4154 F100.00
G01 X16.3974 Y2.3927 F100.00
G01 X16.4163 Y2.3716 F100.00
G01 X16.4216 Y2.3663 F100.00
G01 X16.4427 Y2.3474 F100.00
G01 X16.4654 Y2.3304 F100.00
G01 X16.4716 Y2.3263 F100.00
G01 X16.4959 Y2.3118 F100.00
G01 X16.5215 Y2.2996 F100.00
G01 X16.5285 Y2.2967 F100.00
G01 X16.5551 Y2.2873 F100.00
G01 X16.5826 Y2.2803 F100.00
G01 X16.5900 Y2.2788 F100.00
G01 X16.6161 Y2.2750 F100.00
G01 X16.6500 Y2.2732 F100.00
G01 X17.4769 Y2.2732 F100.00
G01 X17.5070 Y2.2748 F100.00
G01 X17.5388 Y2.2795 F100.00
G01 X17.5699 Y2.2873 F100.00
G01 X17.6001 Y2.2981 F100.00
G01 X17.6291 Y2.3118 F100.00
G01 X17.6566 Y2.3283 F100.00
G01 X17.6823 Y2.3474 F100.00
G01 X17.7034 Y2.3663 F100.00
G01 X17.7087 Y2.3716 F100.00
G01 X17.7252 Y2.3898 F100.00
G01 X17.7299 Y2.3957 F100.00
G01 X17.7467 Y2.4184 F100.00
G01 X17.7614 Y2.4427 F100.00
G01 X17.7649 Y2.4493 F100.00
G01 X17.7769 Y2.4749 F100.00
G01 X17.7872 Y2.5033 F100.00
G01 X17.7947 Y2.5326 F100.00
G01 X17.7962 Y2.5400 F100.00
G01 X17.8002 Y2.5680 F100.00
G01 X17.8018 Y2.5981 F100.00
G01 X17.8018 Y2.9232 F100.00
G01 X18.1482 Y2.9232 F100.00
G01 X18.1482 Y2.5539 F100.00
G01 X18.1390 Y2.4635 F100.00
G01 X18.1143 Y2.3891 F100.00
G01 X18.1119 Y2.3784 F100.00
G01 X18.1110 Y2.3693 F100.00
G01 X18.1086 Y2.2995 F100.00
G01 X18.1088 Y2.2919 F100.00
G01 X18.1096 Y2.2843 F100.00
G01 X18.1112 Y2.2769 F100.00
G01 X18.1129 Y2.2714 F100.00
G01 X18.1150 Y2.2661 F100.00
G01 X18.1184 Y2.2593 F100.00
G01 X18.1561 Y2.1959 F100.00
G01 X18.1617 Y2.1882 F100.00
G01 X18.1682 Y2.1812 F100.00
G01 X18.1770 Y2.1740 F100.00
G01 X18.1851 Y2.1690 F100.00
G01 X18.2494 Y2.1369 F100.00
G01 X18.2600 Y2.1326 F100.00
G01 X18.2712 Y2.1299 F100.00
G01 X18.2987 Y2.1272 F100.00
G01 X18.3055 Y2.1269 F100.00
G01 X22.6572 Y2.1269 F100.00
G01 X22.6681 Y2.1277 F100.00
G01 X22.6770 Y2.1295 F100.00
G01 X22.7494 Y2.1508 F100.00
G01 X22.7598 Y2.1553 F100.00
G01 X22.7679 Y2.1602 F100.00
G01 X22.7930 Y2.1802 F100.00
G01 X22.7991 Y2.1857 F100.00
G01 X23.3168 Y2.7035 F100.00
G01 X23.3225 Y2.7106 F100.00
G01 X23.3265 Y2.7168 F100.00
G01 X23.3609 Y2.7797 F100.00
G01 X23.3642 Y2.7865 F100.00
G01 X23.3668 Y2.7935 F100.00
G01 X23.3690 Y2.8027 F100.00
G01 X23.3729 Y2.8367 F100.00
G01 X23.3731 Y9.5018 F100.00
G01 X23.3726 Y9.5109 F100.00
G01 X23.3705 Y9.5216 F100.00
G01 X23.3491 Y9.5941 F100.00
G01 X23.3455 Y9.6029 F100.00
G01 X23.3407 Y9.6111 F100.00
G01 X23.3362 Y9.6173 F100.00
G01 X23.3297 Y9.6243 F100.00
G01 X23.2726 Y9.6738 F100.00
G01 X23.2633 Y9.6804 F100.00
G01 X23.2548 Y9.6848 F100.00
G01 X23.2459 Y9.6881 F100.00
G01 X23.2366 Y9.6903 F100.00
G01 X23.1599 Y9.7011 F100.00
G01 X23.1504 Y9.7012 F100.00
G01 X23.1409 Y9.7001 F100.00
G01 X23.1316 Y9.6978 F100.00
G01 X23.1227 Y9.6944 F100.00
G01 X23.0558 Y9.6637 F100.00
G01 X23.0476 Y9.6588 F100.00
G01 X23.0388 Y9.6517 F100.00
G01 X23.0303 Y9.6437 F100.00
G01 X22.6496 Y9.2631 F100.00
G01 X22.5469 Y9.1944 F100.00
G01 X22.4329 Y9.1472 F100.00
G01 X22.3117 Y9.1231 F100.00
G01 X12.3428 Y9.1231 F100.00
G01 X12.3337 Y9.1226 F100.00
G01 X12.3230 Y9.1205 F100.00
G01 X12.2506 Y9.0992 F100.00
G01 X12.2402 Y9.0947 F100.00
G01 X12.2321 Y9.0898 F100.00
G01 X12.2023 Y9.0657 F100.00
G01 X11.9344 Y8.7978 F100.00
G01 X11.9285 Y8.7909 F100.00
G01 X11.9235 Y8.7832 F100.00
G01 X11.8891 Y8.7203 F100.00
G01 X11.8851 Y8.7118 F100.00
G01 X11.8827 Y8.7047 F100.00
G01 X11.8807 Y8.6955 F100.00
G01 X11.8773 Y8.6654 F100.00
G01 X11.8769 Y8.6572 F100.00
G01 X11.8769 Y8.1492 F100.00
G01 X11.8772 Y8.1419 F100.00
G01 X11.8783 Y8.1347 F100.00
G01 X11.8800 Y8.1276 F100.00
G01 X11.9015 Y8.0552 F100.00
G01 X11.9045 Y8.0483 F100.00
G01 X11.9071 Y8.0433 F100.00
G01 X11.9112 Y8.0371 F100.00
G01 X11.9159 Y8.0312 F100.00
G01 X11.9212 Y8.0259 F100.00
G01 X11.9665 Y7.9838 F100.00
G01 X11.9724 Y7.9789 F100.00
G01 X11.9804 Y7.9735 F100.00
G01 X12.0314 Y7.9460 F100.00
G01 X12.2175 Y7.8010 F100.00
G01 X12.3774 Y7.6274 F100.00
G01 X12.5064 Y7.4299 F100.00
G01 X12.6012 Y7.2139 F100.00
G01 X12.6591 Y6.9851 F100.00
G01 X12.6786 Y6.7500 F100.00
G01 X12.6591 Y6.5149 F100.00
G01 X12.6012 Y6.2861 F100.00
G01 X12.5064 Y6.0701 F100.00
G01 X12.3774 Y5.8726 F100.00
G01 X12.2176 Y5.6990 F100.00
G01 X12.0313 Y5.5540 F100.00
G00 Z2.0000
G00 X10.8317 Y7.8895
G01 F40.00
G01 Z-0.1000
G01 F100.00
G01 X10.7949 Y7.8763 F100.00
G01 X10.7802 Y7.8705 F100.00
G01 X10.6819 Y7.8240 F100.00
G01 X10.6681 Y7.8164 F100.00
G01 X10.5839 Y7.7659 F100.00
G01 X10.5706 Y7.7573 F100.00
G01 X10.4792 Y7.6892 F100.00
G01 X10.3985 Y7.6164 F100.00
G01 X10.3908 Y7.6092 F100.00
G01 X10.3836 Y7.6015 F100.00
G01 X10.3177 Y7.5288 F100.00
G01 X10.3075 Y7.5167 F100.00
G01 X10.2397 Y7.4250 F100.00
G01 X10.1836 Y7.3319 F100.00
G01 X10.1784 Y7.3228 F100.00
G01 X10.1737 Y7.3133 F100.00
G01 X10.1274 Y7.2150 F100.00
G01 X10.1237 Y7.2051 F100.00
G01 X10.0873 Y7.1027 F100.00
G01 X10.0606 Y6.9973 F100.00
G01 X10.0583 Y6.9870 F100.00
G01 X10.0565 Y6.9766 F100.00
G01 X10.0421 Y6.8796 F100.00
G01 X10.0408 Y6.8691 F100.00
G01 X10.0400 Y6.8586 F100.00
G01 X10.0350 Y6.7500 F100.00
G01 X10.0400 Y6.6414 F100.00
G01 X10.0408 Y6.6309 F100.00
G01 X10.0421 Y6.6204 F100.00
G01 X10.0583 Y6.5130 F100.00
G01 X10.0845 Y6.4075 F100.00
G01 X10.0873 Y6.3973 F100.00
G01 X10.0906 Y6.3873 F100.00
G01 X10.1237 Y6.2949 F100.00
G01 X10.1274 Y6.2850 F100.00
G01 X10.1317 Y6.2754 F100.00
G01 X10.1784 Y6.1772 F100.00
G01 X10.2341 Y6.0839 F100.00
G01 X10.2397 Y6.0750 F100.00
G01 X10.2458 Y6.0663 F100.00
G01 X10.3108 Y5.9792 F100.00
G01 X10.3836 Y5.8985 F100.00
G01 X10.3908 Y5.8908 F100.00
G01 X10.3985 Y5.8836 F100.00
G01 X10.4712 Y5.8177 F100.00
G01 X10.4792 Y5.8108 F100.00
G01 X10.4875 Y5.8043 F100.00
G01 X10.5750 Y5.7397 F100.00
G01 X10.5839 Y5.7341 F100.00
G01 X10.6772 Y5.6784 F100.00
G01 X10.7754 Y5.6317 F100.00
G01 X10.7850 Y5.6274 F100.00
G01 X10.8817 Y5.5926 F100.00
G01 X10.8817 Y4.3394 F100.00
G01 X10.8597 Y4.3383 F100.00
G01 X10.8492 Y4.3372 F100.00
G01 X10.8197 Y4.3329 F100.00
G01 X10.8041 Y4.3300 F100.00
G01 X10.7650 Y4.3200 F100.00
G01 X10.7319 Y4.3084 F100.00
G01 X10.7172 Y4.3026 F100.00
G01 X10.6808 Y4.2851 F100.00
G01 X10.6716 Y4.2799 F100.00
G01 X10.6416 Y4.2617 F100.00
G01 X10.6330 Y4.2556 F100.00
G01 X10.6050 Y4.2345 F100.00
G01 X10.5749 Y4.2075 F100.00
G01 X10.5639 Y4.1962 F100.00
G01 X10.5439 Y4.1741 F100.00
G01 X10.5372 Y4.1659 F100.00
G01 X10.5194 Y4.1420 F100.00
G01 X10.5133 Y4.1334 F100.00
G01 X10.5077 Y4.1244 F100.00
G01 X10.4924 Y4.0988 F100.00
G01 X10.4851 Y4.0848 F100.00
G01 X10.4704 Y4.0530 F100.00
G01 X10.4666 Y4.0431 F100.00
G01 X10.4550 Y4.0100 F100.00
G01 X10.4462 Y3.9760 F100.00
G01 X10.4439 Y3.9657 F100.00
G01 X10.4378 Y3.9258 F100.00
G01 X10.4364 Y3.9101 F100.00
G01 X10.4350 Y3.8750 F100.00
G01 X10.4350 Y2.6250 F100.00
G01 X10.4352 Y2.6144 F100.00
G01 X10.4372 Y2.5794 F100.00
G01 X10.4421 Y2.5447 F100.00
G01 X10.4450 Y2.5291 F100.00
G01 X10.4550 Y2.4900 F100.00
G01 X10.4684 Y2.4519 F100.00
G01 X10.4746 Y2.4374 F100.00
G01 X10.4899 Y2.4058 F100.00
G01 X10.4951 Y2.3966 F100.00
G01 X10.5133 Y2.3666 F100.00
G01 X10.5194 Y2.3580 F100.00
G01 X10.5405 Y2.3300 F100.00
G01 X10.5474 Y2.3220 F100.00
G01 X10.5712 Y2.2962 F100.00
G01 X10.5970 Y2.2724 F100.00
G01 X10.6050 Y2.2655 F100.00
G01 X10.6330 Y2.2444 F100.00
G01 X10.6416 Y2.2383 F100.00
G01 X10.6506 Y2.2327 F100.00
G01 X10.6808 Y2.2149 F100.00
G01 X10.6902 Y2.2101 F100.00
G01 X10.7220 Y2.1954 F100.00
G01 X10.7550 Y2.1833 F100.00
G01 X10.7701 Y2.1785 F100.00
G01 X10.8041 Y2.1700 F100.00
G01 X10.8197 Y2.1671 F100.00
G01 X10.8544 Y2.1622 F100.00
G01 X10.8649 Y2.1614 F100.00
G01 X10.9000 Y2.1600 F100.00
G01 X11.7000 Y2.1600 F100.00
G01 X11.7351 Y2.1614 F100.00
G01 X11.7456 Y2.1622 F100.00
G01 X11.7855 Y2.1679 F100.00
G01 X11.8010 Y2.1712 F100.00
G01 X11.8350 Y2.1800 F100.00
G01 X11.8450 Y2.1833 F100.00
G01 X11.8780 Y2.1954 F100.00
G01 X11.9098 Y2.2101 F100.00
G01 X11.9238 Y2.2174 F100.00
G01 X11.9539 Y2.2355 F100.00
G01 X11.9670 Y2.2444 F100.00
G01 X11.9909 Y2.2622 F100.00
G01 X12.0030 Y2.2724 F100.00
G01 X12.0288 Y2.2962 F100.00
G01 X12.0526 Y2.3220 F100.00
G01 X12.0628 Y2.3341 F100.00
G01 X12.0837 Y2.3623 F100.00
G01 X12.0923 Y2.3756 F100.00
G01 X12.1076 Y2.4012 F100.00
G01 X12.1149 Y2.4152 F100.00
G01 X12.1296 Y2.4470 F100.00
G01 X12.1334 Y2.4569 F100.00
G01 X12.1450 Y2.4900 F100.00
G01 X12.1538 Y2.5240 F100.00
G01 X12.1561 Y2.5343 F100.00
G01 X12.1622 Y2.5742 F100.00
G01 X12.1636 Y2.5899 F100.00
G01 X12.1650 Y2.6250 F100.00
G01 X12.1650 Y2.8317 F100.00
G01 X13.0600 Y2.8317 F100.00
G01 X13.0600 Y2.6000 F100.00
G01 X13.0614 Y2.5649 F100.00
G01 X13.0622 Y2.5544 F100.00
G01 X13.0635 Y2.5439 F100.00
G01 X13.0689 Y2.5093 F100.00
G01 X13.0772 Y2.4752 F100.00
G01 X13.0800 Y2.4650 F100.00
G01 X13.0833 Y2.4550 F100.00
G01 X13.0934 Y2.4269 F100.00
G01 X13.0974 Y2.4172 F100.00
G01 X13.1149 Y2.3808 F100.00
G01 X13.1201 Y2.3716 F100.00
G01 X13.1383 Y2.3416 F100.00
G01 X13.1444 Y2.3330 F100.00
G01 X13.1655 Y2.3050 F100.00
G01 X13.1724 Y2.2970 F100.00
G01 X13.1962 Y2.2712 F100.00
G01 X13.2220 Y2.2474 F100.00
G01 X13.2300 Y2.2405 F100.00
G01 X13.2580 Y2.2194 F100.00
G01 X13.2666 Y2.2133 F100.00
G01 X13.2756 Y2.2077 F100.00
G01 X13.3058 Y2.1899 F100.00
G01 X13.3374 Y2.1746 F100.00
G01 X13.3519 Y2.1684 F100.00
G01 X13.3900 Y2.1550 F100.00
G01 X13.4240 Y2.1462 F100.00
G01 X13.4343 Y2.1439 F100.00
G01 X13.4689 Y2.1385 F100.00
G01 X13.4794 Y2.1372 F100.00
G01 X13.5197 Y2.1350 F100.00
G01 X14.3553 Y2.1350 F100.00
G01 X14.3956 Y2.1372 F100.00
G01 X14.4303 Y2.1421 F100.00
G01 X14.4459 Y2.1450 F100.00
G01 X14.4850 Y2.1550 F100.00
G01 X14.5231 Y2.1684 F100.00
G01 X14.5376 Y2.1746 F100.00
G01 X14.5692 Y2.1899 F100.00
G01 X14.5784 Y2.1951 F100.00
G01 X14.6084 Y2.2133 F100.00
G01 X14.6367 Y2.2340 F100.00
G01 X14.6491 Y2.2439 F100.00
G01 X14.6751 Y2.2675 F100.00
G01 X14.6861 Y2.2788 F100.00
G01 X14.7095 Y2.3050 F100.00
G01 X14.7306 Y2.3330 F100.00
G01 X14.7395 Y2.3461 F100.00
G01 X14.7601 Y2.3808 F100.00
G01 X14.7776 Y2.4172 F100.00
G01 X14.7834 Y2.4319 F100.00
G01 X14.7950 Y2.4650 F100.00
G01 X14.8038 Y2.4990 F100.00
G01 X14.8071 Y2.5145 F100.00
G01 X14.8122 Y2.5492 F100.00
G01 X14.8136 Y2.5649 F100.00
G01 X14.8150 Y2.6000 F100.00
G01 X14.8150 Y3.9000 F100.00
G01 X14.8136 Y3.9351 F100.00
G01 X14.8122 Y3.9508 F100.00
G01 X14.8061 Y3.9907 F100.00
G01 X14.7978 Y4.0248 F100.00
G01 X14.7934 Y4.0400 F100.00
G01 X14.7834 Y4.0681 F100.00
G01 X14.7776 Y4.0828 F100.00
G01 X14.7626 Y4.1145 F100.00
G01 X14.7549 Y4.1284 F100.00
G01 X14.7367 Y4.1584 F100.00
G01 X14.7160 Y4.1867 F100.00
G01 X14.7061 Y4.1991 F100.00
G01 X14.6861 Y4.2212 F100.00
G01 X14.6751 Y4.2325 F100.00
G01 X14.6491 Y4.2561 F100.00
G01 X14.6409 Y4.2628 F100.00
G01 X14.6170 Y4.2806 F100.00
G01 X14.6084 Y4.2867 F100.00
G01 X14.5994 Y4.2923 F100.00
G01 X14.5738 Y4.3076 F100.00
G01 X14.5645 Y4.3126 F100.00
G01 X14.5280 Y4.3296 F100.00
G01 X14.4950 Y4.3417 F100.00
G01 X14.4799 Y4.3465 F100.00
G01 X14.4407 Y4.3561 F100.00
G01 X14.4008 Y4.3622 F100.00
G01 X14.3851 Y4.3636 F100.00
G01 X14.3500 Y4.3650 F100.00
G01 X13.5250 Y4.3650 F100.00
G01 X13.4899 Y4.3636 F100.00
G01 X13.4742 Y4.3622 F100.00
G01 X13.4395 Y4.3571 F100.00
G01 X13.4240 Y4.3538 F100.00
G01 X13.3900 Y4.3450 F100.00
G01 X13.3569 Y4.3334 F100.00
G01 X13.3422 Y4.3276 F100.00
G01 X13.3152 Y4.3149 F100.00
G01 X13.3012 Y4.3076 F100.00
G01 X13.2711 Y4.2895 F100.00
G01 X13.2623 Y4.2837 F100.00
G01 X13.2383 Y4.2660 F100.00
G01 X13.2259 Y4.2561 F100.00
G01 X13.1999 Y4.2325 F100.00
G01 X13.1889 Y4.2212 F100.00
G01 X13.1655 Y4.1950 F100.00
G01 X13.1444 Y4.1670 F100.00
G01 X13.1383 Y4.1584 F100.00
G01 X13.1327 Y4.1494 F100.00
G01 X13.1149 Y4.1192 F100.00
G01 X13.1101 Y4.1098 F100.00
G01 X13.0954 Y4.0780 F100.00
G01 X13.0916 Y4.0681 F100.00
G01 X13.0800 Y4.0350 F100.00
G01 X13.0712 Y4.0010 F100.00
G01 X13.0689 Y3.9907 F100.00
G01 X13.0628 Y3.9508 F100.00
G01 X13.0614 Y3.9351 F100.00
G01 X13.0600 Y3.9000 F100.00
G01 X13.0600 Y3.6683 F100.00
G01 X12.1650 Y3.6683 F100.00
G01 X12.1650 Y3.8803 F100.00
G01 X12.1628 Y3.9206 F100.00
G01 X12.1571 Y3.9605 F100.00
G01 X12.1538 Y3.9760 F100.00
G01 X12.1450 Y4.0100 F100.00
G01 X12.1417 Y4.0200 F100.00
G01 X12.1296 Y4.0530 F100.00
G01 X12.1149 Y4.0848 F100.00
G01 X12.1101 Y4.0942 F100.00
G01 X12.1049 Y4.1034 F100.00
G01 X12.0867 Y4.1334 F100.00
G01 X12.0660 Y4.1617 F100.00
G01 X12.0561 Y4.1741 F100.00
G01 X12.0325 Y4.2001 F100.00
G01 X12.0212 Y4.2111 F100.00
G01 X11.9950 Y4.2345 F100.00
G01 X11.9670 Y4.2556 F100.00
G01 X11.9539 Y4.2645 F100.00
G01 X11.9238 Y4.2826 F100.00
G01 X11.9098 Y4.2899 F100.00
G01 X11.8780 Y4.3046 F100.00
G01 X11.8450 Y4.3167 F100.00
G01 X11.8299 Y4.3215 F100.00
G01 X11.7959 Y4.3300 F100.00
G01 X11.7803 Y4.3329 F100.00
G01 X11.7456 Y4.3378 F100.00
G01 X11.7183 Y4.3394 F100.00
G01 X11.7183 Y5.6289 F100.00
G01 X11.8228 Y5.6784 F100.00
G01 X11.9161 Y5.7341 F100.00
G01 X11.9250 Y5.7397 F100.00
G01 X11.9337 Y5.7458 F100.00
G01 X12.0208 Y5.8108 F100.00
G01 X12.1015 Y5.8836 F100.00
G01 X12.1092 Y5.8908 F100.00
G01 X12.1164 Y5.8985 F100.00
G01 X12.1892 Y5.9792 F100.00
G01 X12.2542 Y6.0663 F100.00
G01 X12.2603 Y6.0750 F100.00
G01 X12.2659 Y6.0839 F100.00
G01 X12.3216 Y6.1772 F100.00
G01 X12.3683 Y6.2754 F100.00
G01 X12.3726 Y6.2850 F100.00
G01 X12.3763 Y6.2949 F100.00
G01 X12.4127 Y6.3973 F100.00
G01 X12.4155 Y6.4075 F100.00
G01 X12.4417 Y6.5130 F100.00
G01 X12.4579 Y6.6204 F100.00
G01 X12.4592 Y6.6309 F100.00
G01 X12.4600 Y6.6414 F100.00
G01 X12.4650 Y6.7500 F100.00
G01 X12.4600 Y6.8586 F100.00
G01 X12.4592 Y6.8691 F100.00
G01 X12.4579 Y6.8796 F100.00
G01 X12.4417 Y6.9870 F100.00
G01 X12.4155 Y7.0925 F100.00
G01 X12.4127 Y7.1027 F100.00
G01 X12.4094 Y7.1127 F100.00
G01 X12.3726 Y7.2150 F100.00
G01 X12.3263 Y7.3133 F100.00
G01 X12.3216 Y7.3228 F100.00
G01 X12.3164 Y7.3319 F100.00
G01 X12.2659 Y7.4161 F100.00
G01 X12.2573 Y7.4294 F100.00
G01 X12.1892 Y7.5208 F100.00
G01 X12.1164 Y7.6015 F100.00
G01 X12.1092 Y7.6092 F100.00
G01 X12.1015 Y7.6164 F100.00
G01 X12.0288 Y7.6823 F100.00
G01 X12.0167 Y7.6925 F100.00
G01 X11.9250 Y7.7603 F100.00
G01 X11.8274 Y7.8190 F100.00
G01 X11.8133 Y7.8263 F100.00
G01 X11.7198 Y7.8705 F100.00
G01 X11.7051 Y7.8763 F100.00
G01 X11.6683 Y7.8895 F100.00
G01 X11.6683 Y8.8267 F100.00
G01 X12.1733 Y9.3317 F100.00
G01 X22.2500 Y9.3317 F100.00
G01 X22.2606 Y9.3319 F100.00
G01 X22.2910 Y9.3337 F100.00
G01 X22.3212 Y9.3379 F100.00
G01 X22.3316 Y9.3397 F100.00
G01 X22.3419 Y9.3420 F100.00
G01 X22.3714 Y9.3497 F100.00
G01 X22.4002 Y9.3597 F100.00
G01 X22.4149 Y9.3656 F100.00
G01 X22.4378 Y9.3763 F100.00
G01 X22.4472 Y9.3811 F100.00
G01 X22.4564 Y9.3863 F100.00
G01 X22.4780 Y9.3993 F100.00
G01 X22.4868 Y9.4051 F100.00
G01 X22.5113 Y9.4233 F100.00
G01 X22.5194 Y9.4300 F100.00
G01 X22.5458 Y9.4542 F100.00
G01 X23.0458 Y9.9542 F100.00
G01 X23.0531 Y9.9618 F100.00
G01 X23.0734 Y9.9846 F100.00
G01 X23.0949 Y10.0132 F100.00
G01 X23.1035 Y10.0265 F100.00
G01 X23.1189 Y10.0528 F100.00
G01 X23.1237 Y10.0622 F100.00
G01 X23.1365 Y10.0899 F100.00
G01 X23.1487 Y10.1235 F100.00
G01 X23.1531 Y10.1387 F100.00
G01 X23.1603 Y10.1684 F100.00
G01 X23.1657 Y10.2037 F100.00
G01 X23.1671 Y10.2195 F100.00
G01 X23.1683 Y10.2500 F100.00
G01 X23.1683 Y18.5767 F100.00
G01 X23.6733 Y19.0817 F100.00
G01 X53.5000 Y19.0817 F100.00
G01 X53.5305 Y19.0829 F100.00
G01 X53.5463 Y19.0843 F100.00
G01 X53.5764 Y19.0887 F100.00
G01 X53.5919 Y19.0920 F100.00
G01 X53.6214 Y19.0997 F100.00
G01 X53.6502 Y19.1097 F100.00
G01 X53.6649 Y19.1156 F100.00
G01 X53.6972 Y19.1311 F100.00
G01 X53.7280 Y19.1493 F100.00
G01 X53.7410 Y19.1582 F100.00
G01 X53.7654 Y19.1766 F100.00
G01 X53.7920 Y19.2005 F100.00
G01 X54.4108 Y19.8192 F100.00
G01 X54.4350 Y19.8456 F100.00
G01 X54.4417 Y19.8537 F100.00
G01 X54.4568 Y19.8740 F100.00
G01 X54.4628 Y19.8826 F100.00
G01 X54.4685 Y19.8915 F100.00
G01 X54.4839 Y19.9178 F100.00
G01 X54.4972 Y19.9453 F100.00
G01 X54.5015 Y19.9549 F100.00
G01 X54.5053 Y19.9648 F100.00
G01 X54.5153 Y19.9936 F100.00
G01 X54.5230 Y20.0231 F100.00
G01 X54.5253 Y20.0334 F100.00
G01 X54.5271 Y20.0438 F100.00
G01 X54.5307 Y20.0687 F100.00
G01 X54.5318 Y20.0793 F100.00
G01 X54.5333 Y20.1150 F100.00
G01 X54.5333 Y28.4778 F100.00
G01 X54.5438 Y28.4894 F100.00
G01 X54.5505 Y28.4975 F100.00
G01 X54.5655 Y28.5178 F100.00
G01 X54.5714 Y28.5266 F100.00
G01 X54.5844 Y28.5483 F100.00
G01 X54.5894 Y28.5576 F100.00
G01 X54.6002 Y28.5805 F100.00
G01 X54.6042 Y28.5902 F100.00
G01 X54.6143 Y28.6190 F100.00
G01 X54.6207 Y28.6435 F100.00
G01 X54.6230 Y28.6538 F100.00
G01 X54.6248 Y28.6642 F100.00
G01 X54.6283 Y28.6892 F100.00
G01 X54.6291 Y28.6997 F100.00
G01 X54.6300 Y28.7250 F100.00
G01 X54.6300 Y30.4803 F100.00
G01 X54.6287 Y30.5055 F100.00
G01 X54.6270 Y30.5213 F100.00
G01 X54.6230 Y30.5462 F100.00
G01 X54.6171 Y30.5708 F100.00
G01 X54.6127 Y30.5860 F100.00
G01 X54.6042 Y30.6098 F100.00
G01 X54.5980 Y30.6243 F100.00
G01 X54.5869 Y30.6471 F100.00
G01 X54.5817 Y30.6563 F100.00
G01 X54.5685 Y30.6778 F100.00
G01 X54.5537 Y30.6983 F100.00
G01 X54.5472 Y30.7066 F100.00
G01 X54.5403 Y30.7146 F100.00
G01 X54.5231 Y30.7331 F100.00
G01 X54.5046 Y30.7503 F100.00
G01 X54.4966 Y30.7572 F100.00
G01 X54.4883 Y30.7637 F100.00
G01 X54.4678 Y30.7785 F100.00
G01 X54.4463 Y30.7917 F100.00
G01 X54.4371 Y30.7969 F100.00
G01 X54.4277 Y30.8017 F100.00
G01 X54.4047 Y30.8123 F100.00
G01 X54.3810 Y30.8210 F100.00
G01 X54.3659 Y30.8258 F100.00
G01 X54.3362 Y30.8330 F100.00
G01 X54.3113 Y30.8370 F100.00
G01 X54.2955 Y30.8387 F100.00
G01 X54.2703 Y30.8400 F100.00
G01 X53.9650 Y30.8400 F100.00
G01 X53.9397 Y30.8391 F100.00
G01 X53.9240 Y30.8377 F100.00
G01 X53.8938 Y30.8330 F100.00
G01 X53.8835 Y30.8307 F100.00
G01 X53.8590 Y30.8243 F100.00
G01 X53.8302 Y30.8142 F100.00
G01 X53.8205 Y30.8102 F100.00
G01 X53.8023 Y30.8017 F100.00
G01 X53.7929 Y30.7969 F100.00
G01 X53.7837 Y30.7917 F100.00
G01 X53.7666 Y30.7814 F100.00
G01 X53.7578 Y30.7755 F100.00
G01 X53.7334 Y30.7572 F100.00
G01 X53.7254 Y30.7503 F100.00
G01 X53.7069 Y30.7331 F100.00
G01 X53.6897 Y30.7146 F100.00
G01 X53.6828 Y30.7066 F100.00
G01 X53.6645 Y30.6822 F100.00
G01 X53.6586 Y30.6734 F100.00
G01 X53.6483 Y30.6563 F100.00
G01 X53.6431 Y30.6471 F100.00
G01 X53.6383 Y30.6377 F100.00
G01 X53.6298 Y30.6195 F100.00
G01 X53.6258 Y30.6098 F100.00
G01 X53.6157 Y30.5810 F100.00
G01 X53.6093 Y30.5565 F100.00
G01 X53.6070 Y30.5462 F100.00
G01 X53.6023 Y30.5160 F100.00
G01 X53.6009 Y30.5003 F100.00
G01 X53.6000 Y30.4750 F100.00
G01 X53.6000 Y28.7250 F100.00
G01 X53.6002 Y28.7144 F100.00
G01 X53.6013 Y28.6945 F100.00
G01 X53.6023 Y28.6840 F100.00
G01 X53.6060 Y28.6590 F100.00
G01 X53.6081 Y28.6486 F100.00
G01 X53.6157 Y28.6190 F100.00
G01 X53.6190 Y28.6090 F100.00
G01 X53.6277 Y28.5853 F100.00
G01 X53.6383 Y28.5623 F100.00
G01 X53.6431 Y28.5529 F100.00
G01 X53.6586 Y28.5266 F100.00
G01 X53.6645 Y28.5178 F100.00
G01 X53.6795 Y28.4975 F100.00
G01 X53.6862 Y28.4894 F100.00
G01 X53.6967 Y28.4778 F100.00
G01 X53.6967 Y20.2883 F100.00
G01 X53.3267 Y19.9183 F100.00
G01 X23.5000 Y19.9183 F100.00
G01 X23.4643 Y19.9168 F100.00
G01 X23.4485 Y19.9150 F100.00
G01 X23.4184 Y19.9103 F100.00
G01 X23.3836 Y19.9018 F100.00
G01 X23.3685 Y19.8970 F100.00
G01 X23.3399 Y19.8865 F100.00
G01 X23.3122 Y19.8737 F100.00
G01 X23.2982 Y19.8664 F100.00
G01 X23.2720 Y19.8507 F100.00
G01 X23.2590 Y19.8418 F100.00
G01 X23.2346 Y19.8234 F100.00
G01 X23.2118 Y19.8031 F100.00
G01 X23.2042 Y19.7958 F100.00
G01 X22.4505 Y19.0420 F100.00
G01 X22.4266 Y19.0154 F100.00
G01 X22.4051 Y18.9868 F100.00
G01 X22.3993 Y18.9780 F100.00
G01 X22.3863 Y18.9564 F100.00
G01 X22.3811 Y18.9472 F100.00
G01 X22.3763 Y18.9378 F100.00
G01 X22.3635 Y18.9101 F100.00
G01 X22.3597 Y18.9002 F100.00
G01 X22.3497 Y18.8714 F100.00
G01 X22.3420 Y18.8419 F100.00
G01 X22.3397 Y18.8316 F100.00
G01 X22.3343 Y18.7963 F100.00
G01 X22.3329 Y18.7805 F100.00
G01 X22.3317 Y18.7500 F100.00
G01 X22.3317 Y10.4233 F100.00
G01 X22.0767 Y10.1683 F100.00
G01 X12.0000 Y10.1683 F100.00
G01 X11.9894 Y10.1681 F100.00
G01 X11.9590 Y10.1663 F100.00
G01 X11.9288 Y10.1621 F100.00
G01 X11.9184 Y10.1603 F100.00
G01 X11.9081 Y10.1580 F100.00
G01 X11.8786 Y10.1503 F100.00
G01 X11.8498 Y10.1403 F100.00
G01 X11.8351 Y10.1344 F100.00
G01 X11.8028 Y10.1189 F100.00
G01 X11.7720 Y10.1007 F100.00
G01 X11.7590 Y10.0918 F100.00
G01 X11.7346 Y10.0734 F100.00
G01 X11.7080 Y10.0495 F100.00
G01 X10.9505 Y9.2920 F100.00
G01 X10.9266 Y9.2654 F100.00
G01 X10.9051 Y9.2368 F100.00
G01 X10.8993 Y9.2280 F100.00
G01 X10.8863 Y9.2064 F100.00
G01 X10.8811 Y9.1972 F100.00
G01 X10.8763 Y9.1878 F100.00
G01 X10.8656 Y9.1649 F100.00
G01 X10.8597 Y9.1502 F100.00
G01 X10.8497 Y9.1214 F100.00
G01 X10.8420 Y9.0919 F100.00
G01 X10.8387 Y9.0764 F100.00
G01 X10.8343 Y9.0463 F100.00
G01 X10.8332 Y9.0357 F100.00
G01 X10.8317 Y9.0053 F100.00
G01 X10.8317 Y7.8895 F100.00
G00 Z2.0000
G00 X15.0742 Y6.2318
G01 F40.00
G01 Z-0.1000
G01 F100.00
G01 X15.1274 Y6.2851 F100.00
G01 X15.0906 Y6.3873 F100.00
G01 X15.0873 Y6.3973 F100.00
G01 X15.0606 Y6.5027 F100.00
G01 X15.0583 Y6.5130 F100.00
G01 X15.0565 Y6.5234 F100.00
G01 X15.0421 Y6.6204 F100.00
G01 X15.0408 Y6.6309 F100.00
G01 X15.0400 Y6.6414 F100.00
G01 X15.0350 Y6.7500 F100.00
G01 X15.0400 Y6.8586 F100.00
G01 X15.0408 Y6.8691 F100.00
G01 X15.0421 Y6.8796 F100.00
G01 X15.0565 Y6.9766 F100.00
G01 X15.0583 Y6.9870 F100.00
G01 X15.0606 Y6.9973 F100.00
G01 X15.0873 Y7.1027 F100.00
G01 X15.0906 Y7.1127 F100.00
G01 X15.1274 Y7.2149 F100.00
G01 X15.0742 Y7.2682 F100.00
G01 X15.0305 Y7.1687 F100.00
G01 X14.9782 Y6.9622 F100.00
G01 X14.9606 Y6.7500 F100.00
G01 X14.9782 Y6.5378 F100.00
G01 X15.0305 Y6.3313 F100.00
G01 X15.0742 Y6.2318 F100.00
G00 Z2.0000
G00 X15.2938 Y6.2560
G01 F40.00
G01 Z-0.1000
G01 F100.00
G01 X15.2552 Y6.3379 F100.00
G01 X15.2207 Y6.4338 F100.00
G01 X15.2186 Y6.4411 F100.00
G01 X15.1947 Y6.5362 F100.00
G01 X15.1932 Y6.5436 F100.00
G01 X15.1784 Y6.6445 F100.00
G01 X15.1732 Y6.7500 F100.00
G01 X15.1784 Y6.8555 F100.00
G01 X15.1932 Y6.9564 F100.00
G01 X15.1947 Y6.9638 F100.00
G01 X15.2186 Y7.0589 F100.00
G01 X15.2207 Y7.0662 F100.00
G01 X15.2552 Y7.1621 F100.00
G01 X15.2938 Y7.2440 F100.00
G01 X15.0391 Y7.4987 F100.00
G01 X14.9940 Y7.4297 F100.00
G01 X14.8993 Y7.2137 F100.00
G01 X14.8414 Y6.9850 F100.00
G01 X14.8219 Y6.7500 F100.00
G01 X14.8414 Y6.5149 F100.00
G01 X14.8993 Y6.2863 F100.00
G01 X14.9940 Y6.0703 F100.00
G01 X15.0391 Y6.0013 F100.00
G01 X15.2938 Y6.2560 F100.00
G00 Z2.0000
G00 X15.4999 Y5.5377
G01 F40.00
G01 Z-0.1000
G01 F100.00
G01 X15.6764 Y5.4422 F100.00
G01 X15.8994 Y5.3656 F100.00
G01 X16.1321 Y5.3268 F100.00
G01 X16.3679 Y5.3268 F100.00
G01 X16.6006 Y5.3656 F100.00
G01 X16.8237 Y5.4422 F100.00
G01 X17.0001 Y5.5377 F100.00
G01 X16.7440 Y5.7938 F100.00
G01 X16.6621 Y5.7552 F100.00
G01 X16.5662 Y5.7207 F100.00
G01 X16.5589 Y5.7186 F100.00
G01 X16.4638 Y5.6947 F100.00
G01 X16.4564 Y5.6932 F100.00
G01 X16.3555 Y5.6784 F100.00
G01 X16.2500 Y5.6732 F100.00
G01 X16.1445 Y5.6784 F100.00
G01 X16.0436 Y5.6932 F100.00
G01 X16.0362 Y5.6947 F100.00
G01 X15.9411 Y5.7186 F100.00
G01 X15.9338 Y5.7207 F100.00
G01 X15.8379 Y5.7552 F100.00
G01 X15.7560 Y5.7938 F100.00
G01 X15.4999 Y5.5377 F100.00
G00 Z2.0000
G00 X15.7287 Y5.5711
G01 F40.00
G01 Z-0.1000
G01 F100.00
G01 X15.7321 Y5.5692 F100.00
G01 X15.9335 Y5.5001 F100.00
G01 X16.1435 Y5.4650 F100.00
G01 X16.3565 Y5.4650 F100.00
G01 X16.5665 Y5.5001 F100.00
G01 X16.7679 Y5.5692 F100.00
G01 X16.7713 Y5.5711 F100.00
G01 X16.7149 Y5.6274 F100.00
G01 X16.6127 Y5.5906 F100.00
G01 X16.6027 Y5.5873 F100.00
G01 X16.4973 Y5.5606 F100.00
G01 X16.4870 Y5.5583 F100.00
G01 X16.4766 Y5.5565 F100.00
G01 X16.3796 Y5.5421 F100.00
G01 X16.3691 Y5.5408 F100.00
G01 X16.3586 Y5.5400 F100.00
G01 X16.2500 Y5.5350 F100.00
G01 X16.1414 Y5.5400 F100.00
G01 X16.1309 Y5.5408 F100.00
G01 X16.1204 Y5.5421 F100.00
G01 X16.0234 Y5.5565 F100.00
G01 X16.0130 Y5.5583 F100.00
G01 X16.0027 Y5.5606 F100.00
G01 X15.8973 Y5.5873 F100.00
G01 X15.8873 Y5.5906 F100.00
G01 X15.7851 Y5.6274 F100.00
G01 X15.7287 Y5.5711 F100.00
G00 Z2.0000
G00 X16.5697 Y4.3579
G01 F40.00
G01 Z-0.1000
G01 F100.00
G01 X16.5975 Y4.3620 F100.00
G01 X16.5975 Y4.4336 F100.00
G01 X16.5426 Y4.4280 F100.00
G01 X16.4224 Y4.3881 F100.00
G01 X16.3159 Y4.3225 F100.00
G01 X16.2275 Y4.2341 F100.00
G01 X16.1619 Y4.1276 F100.00
G01 X16.1220 Y4.0074 F100.00
G01 X16.1150 Y3.9390 F100.00
G01 X16.1150 Y3.7150 F100.00
G01 X16.1850 Y3.7150 F100.00
G01 X16.1850 Y3.9053 F100.00
G01 X16.1872 Y3.9456 F100.00
G01 X16.1929 Y3.9855 F100.00
G01 X16.1962 Y4.0010 F100.00
G01 X16.2050 Y4.0350 F100.00
G01 X16.2166 Y4.0681 F100.00
G01 X16.2204 Y4.0780 F100.00
G01 X16.2351 Y4.1098 F100.00
G01 X16.2399 Y4.1192 F100.00
G01 X16.2577 Y4.1494 F100.00
G01 X16.2663 Y4.1627 F100.00
G01 X16.2905 Y4.1950 F100.00
G01 X16.2974 Y4.2030 F100.00
G01 X16.3212 Y4.2288 F100.00
G01 X16.3470 Y4.2526 F100.00
G01 X16.3550 Y4.2595 F100.00
G01 X16.3830 Y4.2806 F100.00
G01 X16.3961 Y4.2895 F100.00
G01 X16.4308 Y4.3101 F100.00
G01 X16.4624 Y4.3254 F100.00
G01 X16.4769 Y4.3316 F100.00
G01 X16.5050 Y4.3417 F100.00
G01 X16.5201 Y4.3465 F100.00
G01 X16.5541 Y4.3550 F100.00
G01 X16.5697 Y4.3579 F100.00
G00 Z2.0000
G00 X16.5900 Y4.2212
G01 F40.00
G01 Z-0.1000
G01 F100.00
G01 X16.6180 Y4.2252 F100.00
G01 X16.6462 Y4.2267 F100.00
G01 X16.7357 Y4.2268 F100.00
G01 X16.7357 Y4.5732 F100.00
G01 X16.6039 Y4.5732 F100.00
G01 X16.5135 Y4.5640 F100.00
G01 X16.3636 Y4.5143 F100.00
G01 X16.2296 Y4.4317 F100.00
G01 X16.1183 Y4.3204 F100.00
G01 X16.0357 Y4.1864 F100.00
G01 X15.9860 Y4.0365 F100.00
G01 X15.9768 Y3.9461 F100.00
G01 X15.9768 Y3.5768 F100.00
G01 X16.3232 Y3.5768 F100.00
G01 X16.3232 Y3.9000 F100.00
G01 X16.3245 Y3.9283 F100.00
G01 X16.3252 Y3.9358 F100.00
G01 X16.3288 Y3.9600 F100.00
G01 X16.3303 Y3.9674 F100.00
G01 X16.3373 Y3.9949 F100.00
G01 X16.3481 Y4.0251 F100.00
G01 X16.3618 Y4.0541 F100.00
G01 X16.3763 Y4.0784 F100.00
G01 X16.3804 Y4.0846 F100.00
G01 X16.3974 Y4.1073 F100.00
G01 X16.4163 Y4.1284 F100.00
G01 X16.4216 Y4.1337 F100.00
G01 X16.4427 Y4.1526 F100.00
G01 X16.4654 Y4.1696 F100.00
G01 X16.4716 Y4.1737 F100.00
G01 X16.4959 Y4.1882 F100.00
G01 X16.5215 Y4.2004 F100.00
G01 X16.5285 Y4.2033 F100.00
G01 X16.5551 Y4.2127 F100.00
G01 X16.5826 Y4.2197 F100.00
G01 X16.5900 Y4.2212 F100.00
G00 Z2.0000
G00 X17.5275 Y4.4336
G01 F40.00
G01 Z-0.1000
G01 F100.00
G01 X17.5275 Y4.3620 F100.00
G01 X17.5605 Y4.3571 F100.00
G01 X17.5709 Y4.3550 F100.00
G01 X17.6049 Y4.3465 F100.00
G01 X17.6200 Y4.3417 F100.00
G01 X17.6481 Y4.3316 F100.00
G01 X17.6626 Y4.3254 F100.00
G01 X17.6942 Y4.3101 F100.00
G01 X17.7244 Y4.2923 F100.00
G01 X17.7377 Y4.2837 F100.00
G01 X17.7659 Y4.2628 F100.00
G01 X17.7780 Y4.2526 F100.00
G01 X17.8038 Y4.2288 F100.00
G01 X17.8276 Y4.2030 F100.00
G01 X17.8345 Y4.1950 F100.00
G01 X17.8556 Y4.1670 F100.00
G01 X17.8617 Y4.1584 F100.00
G01 X17.8799 Y4.1284 F100.00
G01 X17.8851 Y4.1192 F100.00
G01 X17.8899 Y4.1098 F100.00
G01 X17.9046 Y4.0780 F100.00
G01 X17.9167 Y4.0450 F100.00
G01 X17.9200 Y4.0350 F100.00
G01 X17.9288 Y4.0010 F100.00
G01 X17.9321 Y3.9855 F100.00
G01 X17.9378 Y3.9456 F100.00
G01 X17.9400 Y3.9053 F100.00
G01 X17.9400 Y3.7150 F100.00
G01 X18.0100 Y3.7150 F100.00
G01 X18.0100 Y3.9390 F100.00
G01 X18.0030 Y4.0074 F100.00
G01 X17.9631 Y4.1276 F100.00
G01 X17.8975 Y4.2341 F100.00
G01 X17.8091 Y4.3225 F100.00
G01 X17.7026 Y4.3881 F100.00
G01 X17.5824 Y4.4280 F100.00
G01 X17.5275 Y4.4336 F100.00
G00 Z2.0000
G00 X17.7962 Y3.9600
G01 F40.00
G01 Z-0.1000
G01 F100.00
G01 X17.8002 Y3.9320 F100.00
G01 X17.8018 Y3.9019 F100.00
G01 X17.8018 Y3.5768 F100.00
G01 X18.1482 Y3.5768 F100.00
G01 X18.1482 Y3.9461 F100.00
G01 X18.1390 Y4.0365 F100.00
G01 X18.0893 Y4.1864 F100.00
G01 X18.0067 Y4.3204 F100.00
G01 X17.8954 Y4.4317 F100.00
G01 X17.7614 Y4.5143 F100.00
G01 X17.6115 Y4.5640 F100.00
G01 X17.5211 Y4.5732 F100.00
G01 X17.3893 Y4.5732 F100.00
G01 X17.3893 Y4.2268 F100.00
G01 X17.4788 Y4.2267 F100.00
G01 X17.5070 Y4.2252 F100.00
G01 X17.5388 Y4.2205 F100.00
G01 X17.5699 Y4.2127 F100.00
G01 X17.6001 Y4.2019 F100.00
G01 X17.6291 Y4.1882 F100.00
G01 X17.6566 Y4.1717 F100.00
G01 X17.6823 Y4.1526 F100.00
G01 X17.7061 Y4.1311 F100.00
G01 X17.7276 Y4.1073 F100.00
G01 X17.7467 Y4.0816 F100.00
G01 X17.7632 Y4.0541 F100.00
G01 X17.7769 Y4.0251 F100.00
G01 X17.7877 Y3.9949 F100.00
G01 X17.7947 Y3.9674 F100.00
G01 X17.7962 Y3.9600 F100.00
G00 Z2.0000
G00 X17.3726 Y7.2149
G01 F40.00
G01 Z-0.1000
G01 F100.00
G01 X17.4094 Y7.1127 F100.00
G01 X17.4127 Y7.1027 F100.00
G01 X17.4394 Y6.9973 F100.00
G01 X17.4417 Y6.9870 F100.00
G01 X17.4435 Y6.9766 F100.00
G01 X17.4579 Y6.8796 F100.00
G01 X17.4592 Y6.8691 F100.00
G01 X17.4600 Y6.8586 F100.00
G01 X17.4650 Y6.7500 F100.00
G01 X17.4600 Y6.6414 F100.00
G01 X17.4592 Y6.6309 F100.00
G01 X17.4579 Y6.6204 F100.00
G01 X17.4435 Y6.5234 F100.00
G01 X17.4417 Y6.5130 F100.00
G01 X17.4394 Y6.5027 F100.00
G01 X17.4127 Y6.3973 F100.00
G01 X17.4094 Y6.3873 F100.00
G01 X17.3726 Y6.2851 F100.00
G01 X17.4258 Y6.2318 F100.00
G01 X17.4695 Y6.3313 F100.00
G01 X17.5218 Y6.5378 F100.00
G01 X17.5394 Y6.7500 F100.00
G01 X17.5218 Y6.9622 F100.00
G01 X17.4695 Y7.1687 F100.00
G01 X17.4258 Y7.2682 F100.00
G01 X17.3726 Y7.2149 F100.00
G00 Z2.0000
G00 X17.2062 Y7.2440
G01 F40.00
G01 Z-0.1000
G01 F100.00
G01 X17.2448 Y7.1621 F100.00
G01 X17.2793 Y7.0662 F100.00
G01 X17.2814 Y7.0589 F100.00
G01 X17.3053 Y6.9638 F100.00
G01 X17.3068 Y6.9564 F100.00
G01 X17.3216 Y6.8555 F100.00
G01 X17.3268 Y6.7500 F100.00
G01 X17.3216 Y6.6445 F100.00
G01 X17.3068 Y6.5436 F100.00
G01 X17.3053 Y6.5362 F100.00
G01 X17.2814 Y6.4411 F100.00
G01 X17.2793 Y6.4338 F100.00
G01 X17.2448 Y6.3379 F100.00
G01 X17.2062 Y6.2560 F100.00
G01 X17.4609 Y6.0013 F100.00
G01 X17.5060 Y6.0703 F100.00
G01 X17.6007 Y6.2863 F100.00
G01 X17.6586 Y6.5150 F100.00
G01 X17.6781 Y6.7500 F100.00
G01 X17.6586 Y6.9851 F100.00
G01 X17.6007 Y7.2137 F100.00
G01 X17.5060 Y7.4297 F100.00
G01 X17.4609 Y7.4987 F100.00
G01 X17.2062 Y7.2440 F100.00
G00 Z2.0000
G00 X15.7287 Y7.9290
G01 F40.00
G01 Z-0.1000
G01 F100.00
G01 X15.7851 Y7.8726 F100.00
G01 X15.8873 Y7.9094 F100.00
G01 X15.8973 Y7.9127 F100.00
G01 X16.0027 Y7.9394 F100.00
G01 X16.0130 Y7.9417 F100.00
G01 X16.0234 Y7.9435 F100.00
G01 X16.1204 Y7.9579 F100.00
G01 X16.1309 Y7.9592 F100.00
G01 X16.1414 Y7.9600 F100.00
G01 X16.2500 Y7.9650 F100.00
G01 X16.3586 Y7.9600 F100.00
G01 X16.3691 Y7.9592 F100.00
G01 X16.3796 Y7.9579 F100.00
G01 X16.4766 Y7.9435 F100.00
G01 X16.4870 Y7.9417 F100.00
G01 X16.4973 Y7.9394 F100.00
G01 X16.6027 Y7.9127 F100.00
G01 X16.6127 Y7.9094 F100.00
G01 X16.7149 Y7.8726 F100.00
G01 X16.7713 Y7.9290 F100.00
G01 X16.7679 Y7.9308 F100.00
G01 X16.5665 Y7.9999 F100.00
G01 X16.3565 Y8.0350 F100.00
G01 X16.1435 Y8.0350 F100.00
G01 X15.9335 Y7.9999 F100.00
G01 X15.7321 Y7.9308 F100.00
G01 X15.7287 Y7.9290 F100.00
G00 Z2.0000
G00 X15.4999 Y7.9623
G01 F40.00
G01 Z-0.1000
G01 F100.00
G01 X15.7560 Y7.7062 F100.00
G01 X15.8379 Y7.7448 F100.00
G01 X15.9338 Y7.7793 F100.00
G01 X15.9411 Y7.7814 F100.00
G01 X16.0362 Y7.8053 F100.00
G01 X16.0436 Y7.8068 F100.00
G01 X16.1445 Y7.8216 F100.00
G01 X16.2500 Y7.8268 F100.00
G01 X16.3555 Y7.8216 F100.00
G01 X16.4564 Y7.8068 F100.00
G01 X16.4638 Y7.8053 F100.00
G01 X16.5589 Y7.7814 F100.00
G01 X16.5662 Y7.7793 F100.00
G01 X16.6621 Y7.7448 F100.00
G01 X16.7440 Y7.7062 F100.00
G01 X17.0001 Y7.9623 F100.00
G01 X16.8236 Y8.0578 F100.00
G01 X16.6006 Y8.1344 F100.00
G01 X16.3679 Y8.1732 F100.00
G01 X16.1321 Y8.1732 F100.00
G01 X15.8994 Y8.1344 F100.00
G01 X15.6763 Y8.0578 F100.00
G01 X15.4999 Y7.9623 F100.00
G00 Z2.0000
G00 X21.0183 Y13.5819
G01 F40.00
G01 Z-0.1000
G01 F100.00
G01 X21.0190 Y13.5894 F100.00
G01 X21.0268 Y13.7500 F100.00
G01 X21.0187 Y13.9144 F100.00
G01 X20.9946 Y14.0771 F100.00
G01 X20.9546 Y14.2367 F100.00
G01 X20.8992 Y14.3917 F100.00
G01 X20.8288 Y14.5404 F100.00
G01 X20.7442 Y14.6816 F100.00
G01 X20.6462 Y14.8138 F100.00
G01 X20.5357 Y14.9357 F100.00
G01 X20.4138 Y15.0462 F100.00
G01 X20.2816 Y15.1442 F100.00
G01 X20.1404 Y15.2288 F100.00
G01 X19.9917 Y15.2992 F100.00
G01 X19.8367 Y15.3546 F100.00
G01 X19.6771 Y15.3946 F100.00
G01 X19.5144 Y15.4187 F100.00
G01 X19.3500 Y15.4268 F100.00
G01 X19.1856 Y15.4187 F100.00
G01 X19.0229 Y15.3946 F100.00
G01 X18.8633 Y15.3546 F100.00
G01 X18.7083 Y15.2992 F100.00
G01 X18.5596 Y15.2288 F100.00
G01 X18.4184 Y15.1442 F100.00
G01 X18.2862 Y15.0462 F100.00
G01 X18.1643 Y14.9357 F100.00
G01 X18.0538 Y14.8138 F100.00
G01 X17.9558 Y14.6816 F100.00
G01 X17.8712 Y14.5404 F100.00
G01 X17.8008 Y14.3917 F100.00
G01 X17.7454 Y14.2367 F100.00
G01 X17.7054 Y14.0771 F100.00
G01 X17.6813 Y13.9144 F100.00
G01 X17.6732 Y13.7500 F100.00
G01 X17.6813 Y13.5856 F100.00
G01 X17.7054 Y13.4229 F100.00
G01 X17.7454 Y13.2633 F100.00
G01 X17.8008 Y13.1083 F100.00
G01 X17.8712 Y12.9596 F100.00
G01 X17.9558 Y12.8184 F100.00
G01 X18.0538 Y12.6862 F100.00
G01 X18.1643 Y12.5643 F100.00
G01 X18.2862 Y12.4538 F100.00
G01 X18.4184 Y12.3558 F100.00
G01 X18.5596 Y12.2712 F100.00
G01 X18.7083 Y12.2008 F100.00
G01 X18.8633 Y12.1454 F100.00
G01 X19.0229 Y12.1054 F100.00
G01 X19.1856 Y12.0813 F100.00
G01 X19.3500 Y12.0732 F100.00
G01 X19.5144 Y12.0813 F100.00
G01 X19.6771 Y12.1054 F100.00
G01 X19.8367 Y12.1454 F100.00
G01 X19.9917 Y12.2008 F100.00
G01 X20.1404 Y12.2712 F100.00
G01 X20.2816 Y12.3558 F100.00
G01 X20.4138 Y12.4538 F100.00
G01 X20.5357 Y12.5643 F100.00
G01 X20.6462 Y12.6862 F100.00
G01 X20.7442 Y12.8184 F100.00
G01 X20.8288 Y12.9596 F100.00
G01 X20.8992 Y13.1083 F100.00
G01 X20.9546 Y13.2633 F100.00
G01 X20.9946 Y13.4229 F100.00
G01 X21.0183 Y13.5819 F100.00
G00 Z2.0000
G00 X21.1550 Y13.5616
G01 F40.00
G01 Z-0.1000
G01 F100.00
G01 X21.1563 Y13.5721 F100.00
G01 X21.1571 Y13.5826 F100.00
G01 X21.1650 Y13.7500 F100.00
G01 X21.1571 Y13.9174 F100.00
G01 X21.1563 Y13.9279 F100.00
G01 X21.1320 Y14.0937 F100.00
G01 X21.1302 Y14.1041 F100.00
G01 X21.1279 Y14.1144 F100.00
G01 X21.0869 Y14.2769 F100.00
G01 X21.0307 Y14.4347 F100.00
G01 X21.0269 Y14.4446 F100.00
G01 X20.9555 Y14.5962 F100.00
G01 X20.9507 Y14.6056 F100.00
G01 X20.8648 Y14.7495 F100.00
G01 X20.8592 Y14.7584 F100.00
G01 X20.8531 Y14.7670 F100.00
G01 X20.7530 Y14.9014 F100.00
G01 X20.6407 Y15.0258 F100.00
G01 X20.6334 Y15.0334 F100.00
G01 X20.6258 Y15.0407 F100.00
G01 X20.5014 Y15.1530 F100.00
G01 X20.3670 Y15.2531 F100.00
G01 X20.3584 Y15.2592 F100.00
G01 X20.3495 Y15.2648 F100.00
G01 X20.2056 Y15.3507 F100.00
G01 X20.0542 Y15.4226 F100.00
G01 X20.0446 Y15.4269 F100.00
G01 X20.0347 Y15.4307 F100.00
G01 X19.8769 Y15.4869 F100.00
G01 X19.7144 Y15.5279 F100.00
G01 X19.7041 Y15.5302 F100.00
G01 X19.6937 Y15.5320 F100.00
G01 X19.5279 Y15.5563 F100.00
G01 X19.5174 Y15.5571 F100.00
G01 X19.3500 Y15.5650 F100.00
G01 X19.1826 Y15.5571 F100.00
G01 X19.1721 Y15.5563 F100.00
G01 X19.0063 Y15.5320 F100.00
G01 X18.9959 Y15.5302 F100.00
G01 X18.9856 Y15.5279 F100.00
G01 X18.8231 Y15.4869 F100.00
G01 X18.6653 Y15.4307 F100.00
G01 X18.6554 Y15.4269 F100.00
G01 X18.5038 Y15.3555 F100.00
G01 X18.4944 Y15.3507 F100.00
G01 X18.3505 Y15.2648 F100.00
G01 X18.3416 Y15.2592 F100.00
G01 X18.3330 Y15.2531 F100.00
G01 X18.1986 Y15.1530 F100.00
G01 X18.0742 Y15.0407 F100.00
G01 X18.0666 Y15.0334 F100.00
G01 X18.0593 Y15.0258 F100.00
G01 X17.9470 Y14.9014 F100.00
G01 X17.8469 Y14.7670 F100.00
G01 X17.8408 Y14.7584 F100.00
G01 X17.8352 Y14.7495 F100.00
G01 X17.7493 Y14.6056 F100.00
G01 X17.6774 Y14.4542 F100.00
G01 X17.6731 Y14.4446 F100.00
G01 X17.6693 Y14.4347 F100.00
G01 X17.6131 Y14.2769 F100.00
G01 X17.5721 Y14.1144 F100.00
G01 X17.5698 Y14.1041 F100.00
G01 X17.5680 Y14.0937 F100.00
G01 X17.5437 Y13.9279 F100.00
G01 X17.5429 Y13.9174 F100.00
G01 X17.5350 Y13.7500 F100.00
G01 X17.5429 Y13.5826 F100.00
G01 X17.5437 Y13.5721 F100.00
G01 X17.5680 Y13.4063 F100.00
G01 X17.5698 Y13.3959 F100.00
G01 X17.5721 Y13.3856 F100.00
G01 X17.6131 Y13.2231 F100.00
G01 X17.6693 Y13.0653 F100.00
G01 X17.6731 Y13.0554 F100.00
G01 X17.7445 Y12.9038 F100.00
G01 X17.7493 Y12.8944 F100.00
G01 X17.8352 Y12.7505 F100.00
G01 X17.8408 Y12.7416 F100.00
G01 X17.8469 Y12.7330 F100.00
G01 X17.9470 Y12.5986 F100.00
G01 X18.0593 Y12.4742 F100.00
G01 X18.0666 Y12.4666 F100.00
G01 X18.0742 Y12.4593 F100.00
G01 X18.1986 Y12.3470 F100.00
G01 X18.3330 Y12.2469 F100.00
G01 X18.3416 Y12.2408 F100.00
G01 X18.3505 Y12.2352 F100.00
G01 X18.4944 Y12.1493 F100.00
G01 X18.6458 Y12.0774 F100.00
G01 X18.6554 Y12.0731 F100.00
G01 X18.6653 Y12.0693 F100.00
G01 X18.8231 Y12.0131 F100.00
G01 X18.9856 Y11.9721 F100.00
G01 X18.9959 Y11.9698 F100.00
G01 X19.0063 Y11.9680 F100.00
G01 X19.1721 Y11.9437 F100.00
G01 X19.1826 Y11.9429 F100.00
G01 X19.3500 Y11.9350 F100.00
G01 X19.5174 Y11.9429 F100.00
G01 X19.5279 Y11.9437 F100.00
G01 X19.6937 Y11.9680 F100.00
G01 X19.7041 Y11.9698 F100.00
G01 X19.7144 Y11.9721 F100.00
G01 X19.8769 Y12.0131 F100.00
G01 X20.0347 Y12.0693 F100.00
G01 X20.0446 Y12.0731 F100.00
G01 X20.1962 Y12.1445 F100.00
G01 X20.2056 Y12.1493 F100.00
G01 X20.3495 Y12.2352 F100.00
G01 X20.3584 Y12.2408 F100.00
G01 X20.3670 Y12.2469 F100.00
G01 X20.5014 Y12.3470 F100.00
G01 X20.6258 Y12.4593 F100.00
G01 X20.6334 Y12.4666 F100.00
G01 X20.6407 Y12.4742 F100.00
G01 X20.7530 Y12.5986 F100.00
G01 X20.8531 Y12.7330 F100.00
G01 X20.8592 Y12.7416 F100.00
G01 X20.8648 Y12.7505 F100.00
G01 X20.9507 Y12.8944 F100.00
G01 X21.0226 Y13.0458 F100.00
G01 X21.0269 Y13.0554 F100.00
G01 X21.0307 Y13.0653 F100.00
G01 X21.0869 Y13.2231 F100.00
G01 X21.1279 Y13.3856 F100.00
G01 X21.1302 Y13.3959 F100.00
G01 X21.1550 Y13.5616 F100.00
G00 Z2.0000
G00 X24.5254 Y12.3269
G01 F40.00
G01 Z-0.1000
G01 F100.00
G01 X47.1132 Y12.3269 F100.00
G01 X47.1223 Y12.3277 F100.00
G01 X47.1312 Y12.3295 F100.00
G01 X47.2036 Y12.3508 F100.00
G01 X47.2105 Y12.3536 F100.00
G01 X47.2171 Y12.3570 F100.00
G01 X47.2233 Y12.3611 F100.00
G01 X47.2291 Y12.3657 F100.00
G01 X47.2717 Y12.4088 F100.00
G01 X47.2791 Y12.4175 F100.00
G01 X47.3429 Y12.5207 F100.00
G01 X47.4543 Y12.6321 F100.00
G01 X47.5883 Y12.7147 F100.00
G01 X47.7384 Y12.7645 F100.00
G01 X47.8289 Y12.7737 F100.00
G01 X49.1711 Y12.7737 F100.00
G01 X49.2616 Y12.7645 F100.00
G01 X49.4117 Y12.7147 F100.00
G01 X49.5457 Y12.6321 F100.00
G01 X49.6571 Y12.5207 F100.00
G01 X49.7397 Y12.3867 F100.00
G01 X49.7895 Y12.2366 F100.00
G01 X49.7987 Y12.1461 F100.00
G01 X49.7987 Y11.2539 F100.00
G01 X49.7895 Y11.1634 F100.00
G01 X49.7397 Y11.0133 F100.00
G01 X49.6571 Y10.8793 F100.00
G01 X49.5457 Y10.7679 F100.00
G01 X49.4117 Y10.6853 F100.00
G01 X49.2645 Y10.6365 F100.00
G01 X49.2577 Y10.6339 F100.00
G01 X49.2528 Y10.6315 F100.00
G01 X49.2465 Y10.6278 F100.00
G01 X49.1845 Y10.5847 F100.00
G01 X49.1773 Y10.5785 F100.00
G01 X49.1709 Y10.5714 F100.00
G01 X49.1665 Y10.5651 F100.00
G01 X49.1619 Y10.5568 F100.00
G01 X49.1328 Y10.4871 F100.00
G01 X49.1300 Y10.4782 F100.00
G01 X49.1280 Y10.4672 F100.00
G01 X49.1269 Y10.4459 F100.00
G01 X49.1271 Y5.0874 F100.00
G01 X49.1280 Y5.0801 F100.00
G01 X49.1295 Y5.0730 F100.00
G01 X49.1497 Y5.0042 F100.00
G01 X49.1529 Y4.9953 F100.00
G01 X49.1572 Y4.9869 F100.00
G01 X49.1613 Y4.9806 F100.00
G01 X49.1802 Y4.9570 F100.00
G01 X49.1857 Y4.9509 F100.00
G01 X49.7049 Y4.4320 F100.00
G01 X49.7106 Y4.4275 F100.00
G01 X49.7168 Y4.4235 F100.00
G01 X49.7797 Y4.3891 F100.00
G01 X49.7865 Y4.3858 F100.00
G01 X49.7953 Y4.3827 F100.00
G01 X49.8027 Y4.3810 F100.00
G01 X49.8346 Y4.3773 F100.00
G01 X49.8428 Y4.3769 F100.00
G01 X88.4477 Y4.3769 F100.00
G01 X88.4568 Y4.3777 F100.00
G01 X88.4658 Y4.3795 F100.00
G01 X88.5400 Y4.4015 F100.00
G01 X88.5487 Y4.4054 F100.00
G01 X88.5568 Y4.4104 F100.00
G01 X88.5629 Y4.4150 F100.00
G01 X88.5697 Y4.4217 F100.00
G01 X88.6179 Y4.4773 F100.00
G01 X88.6224 Y4.4833 F100.00
G01 X88.6263 Y4.4897 F100.00
G01 X88.6295 Y4.4964 F100.00
G01 X88.6365 Y4.5145 F100.00
G01 X88.6853 Y4.6617 F100.00
G01 X88.7679 Y4.7957 F100.00
G01 X88.8793 Y4.9071 F100.00
G01 X89.0133 Y4.9897 F100.00
G01 X89.1634 Y5.0395 F100.00
G01 X89.2539 Y5.0487 F100.00
G01 X90.1461 Y5.0487 F100.00
G01 X90.2366 Y5.0395 F100.00
G01 X90.3867 Y4.9897 F100.00
G01 X90.5207 Y4.9071 F100.00
G01 X90.6321 Y4.7957 F100.00
G01 X90.7147 Y4.6617 F100.00
G01 X90.7645 Y4.5116 F100.00
G01 X90.7737 Y4.4211 F100.00
G01 X90.7737 Y3.0789 F100.00
G01 X90.7645 Y2.9884 F100.00
G01 X90.7316 Y2.8891 F100.00
G01 X90.7298 Y2.8820 F100.00
G01 X90.7287 Y2.8748 F100.00
G01 X90.7259 Y2.7995 F100.00
G01 X90.7260 Y2.7919 F100.00
G01 X90.7269 Y2.7843 F100.00
G01 X90.7290 Y2.7750 F100.00
G01 X90.7323 Y2.7661 F100.00
G01 X90.7366 Y2.7576 F100.00
G01 X90.7744 Y2.6943 F100.00
G01 X90.7814 Y2.6853 F100.00
G01 X90.7882 Y2.6786 F100.00
G01 X90.7958 Y2.6729 F100.00
G01 X90.8024 Y2.6690 F100.00
G01 X90.8666 Y2.6369 F100.00
G01 X90.8772 Y2.6326 F100.00
G01 X90.8884 Y2.6299 F100.00
G01 X90.9160 Y2.6272 F100.00
G01 X90.9227 Y2.6269 F100.00
G01 X91.5791 Y2.6269 F100.00
G01 X91.5882 Y2.6277 F100.00
G01 X91.5971 Y2.6295 F100.00
G01 X91.6696 Y2.6509 F100.00
G01 X91.6784 Y2.6545 F100.00
G01 X91.6850 Y2.6583 F100.00
G01 X91.6928 Y2.6638 F100.00
G01 X91.6998 Y2.6703 F100.00
G01 X91.7493 Y2.7274 F100.00
G01 X91.7559 Y2.7367 F100.00
G01 X91.7603 Y2.7452 F100.00
G01 X91.7636 Y2.7541 F100.00
G01 X91.7658 Y2.7634 F100.00
G01 X91.7765 Y2.8382 F100.00
G01 X91.7768 Y2.8478 F100.00
G01 X91.7759 Y2.8573 F100.00
G01 X91.7690 Y2.8873 F100.00
G01 X91.7355 Y2.9884 F100.00
G01 X91.7263 Y3.0789 F100.00
G01 X91.7263 Y4.4211 F100.00
G01 X91.7355 Y4.5116 F100.00
G01 X91.7853 Y4.6617 F100.00
G01 X91.8679 Y4.7957 F100.00
G01 X91.9793 Y4.9071 F100.00
G01 X92.0793 Y4.9687 F100.00
G01 X92.0880 Y4.9754 F100.00
G01 X92.0945 Y4.9818 F100.00
G01 X92.1425 Y5.0351 F100.00
G01 X92.1481 Y5.0425 F100.00
G01 X92.1519 Y5.0489 F100.00
G01 X92.1558 Y5.0574 F100.00
G01 X92.1586 Y5.0662 F100.00
G01 X92.1712 Y5.1216 F100.00
G01 X92.1727 Y5.1311 F100.00
G01 X92.1731 Y5.1387 F100.00
G01 X92.1731 Y5.3237 F100.00
G01 X92.1726 Y5.3329 F100.00
G01 X92.1717 Y5.3383 F100.00
G01 X92.1700 Y5.3454 F100.00
G01 X92.1492 Y5.4160 F100.00
G01 X92.1464 Y5.4229 F100.00
G01 X92.1438 Y5.4280 F100.00
G01 X92.1399 Y5.4343 F100.00
G01 X92.1353 Y5.4403 F100.00
G01 X92.1288 Y5.4471 F100.00
G01 X92.0835 Y5.4891 F100.00
G01 X92.0761 Y5.4952 F100.00
G01 X92.0679 Y5.5003 F100.00
G01 X91.9686 Y5.5540 F100.00
G01 X91.7824 Y5.6990 F100.00
G01 X91.6226 Y5.8725 F100.00
G01 X91.5174 Y6.0336 F100.00
G01 X91.5118 Y6.0409 F100.00
G01 X91.5040 Y6.0485 F100.00
G01 X91.4493 Y6.0951 F100.00
G01 X91.4416 Y6.1006 F100.00
G01 X91.4349 Y6.1043 F100.00
G01 X91.4262 Y6.1080 F100.00
G01 X91.4189 Y6.1102 F100.00
G01 X91.3646 Y6.1218 F100.00
G01 X91.3539 Y6.1230 F100.00
G01 X65.4383 Y6.1231 F100.00
G01 X65.3171 Y6.1472 F100.00
G01 X65.2031 Y6.1944 F100.00
G01 X65.1004 Y6.2631 F100.00
G01 X64.5131 Y6.8504 F100.00
G01 X64.4444 Y6.9531 F100.00
G01 X64.3972 Y7.0671 F100.00
G01 X64.3731 Y7.1883 F100.00
G01 X64.3730 Y19.1608 F100.00
G01 X64.3723 Y19.1681 F100.00
G01 X64.3705 Y19.1770 F100.00
G01 X64.3503 Y19.2458 F100.00
G01 X64.3471 Y19.2547 F100.00
G01 X64.3428 Y19.2631 F100.00
G01 X64.3387 Y19.2694 F100.00
G01 X64.3198 Y19.2930 F100.00
G01 X64.3143 Y19.2991 F100.00
G01 X64.0491 Y19.5643 F100.00
G01 X64.0437 Y19.5692 F100.00
G01 X64.0379 Y19.5736 F100.00
G01 X64.0316 Y19.5774 F100.00
G01 X63.9703 Y19.6109 F100.00
G01 X63.9635 Y19.6142 F100.00
G01 X63.9547 Y19.6173 F100.00
G01 X63.9473 Y19.6190 F100.00
G01 X63.9154 Y19.6227 F100.00
G01 X63.9072 Y19.6231 F100.00
G01 X58.9615 Y19.6231 F100.00
G01 X58.9524 Y19.6223 F100.00
G01 X58.9434 Y19.6205 F100.00
G01 X58.8746 Y19.6003 F100.00
G01 X58.8692 Y19.5985 F100.00
G01 X58.8622 Y19.5955 F100.00
G01 X58.8524 Y19.5896 F100.00
G01 X58.8449 Y19.5837 F100.00
G01 X58.8395 Y19.5783 F100.00
G01 X58.7900 Y19.5212 F100.00
G01 X58.7856 Y19.5149 F100.00
G01 X58.7810 Y19.5066 F100.00
G01 X58.7781 Y19.4995 F100.00
G01 X58.7759 Y19.4922 F100.00
G01 X58.7745 Y19.4847 F100.00
G01 X58.7641 Y19.4119 F100.00
G01 X58.7639 Y19.4007 F100.00
G01 X58.7643 Y19.3952 F100.00
G01 X58.7656 Y19.3879 F100.00
G01 X58.7688 Y19.3772 F100.00
G01 X58.7892 Y19.3242 F100.00
G01 X58.7943 Y19.3140 F100.00
G01 X58.8056 Y19.2969 F100.00
G01 X58.8528 Y19.1829 F100.00
G01 X58.8769 Y19.0617 F100.00
G01 X58.8769 Y17.6474 F100.00
G01 X58.8777 Y17.6383 F100.00
G01 X58.8795 Y17.6293 F100.00
G01 X58.9002 Y17.5587 F100.00
G01 X58.9029 Y17.5517 F100.00
G01 X58.9062 Y17.5450 F100.00
G01 X58.9101 Y17.5386 F100.00
G01 X58.9159 Y17.5312 F100.00
G01 X58.9212 Y17.5259 F100.00
G01 X58.9709 Y17.4801 F100.00
G01 X58.9804 Y17.4735 F100.00
G01 X59.0314 Y17.4460 F100.00
G01 X59.2175 Y17.3010 F100.00
G01 X59.3774 Y17.1274 F100.00
G01 X59.5064 Y16.9299 F100.00
G01 X59.6012 Y16.7139 F100.00
G01 X59.6323 Y16.5909 F100.00
G01 X59.6338 Y16.5856 F100.00
G01 X59.6365 Y16.5788 F100.00
G01 X59.6406 Y16.5707 F100.00
G01 X59.6793 Y16.5057 F100.00
G01 X59.6839 Y16.4997 F100.00
G01 X59.6892 Y16.4941 F100.00
G01 X59.6934 Y16.4903 F100.00
G01 X59.6996 Y16.4858 F100.00
G01 X59.7078 Y16.4810 F100.00
G01 X59.7702 Y16.4496 F100.00
G01 X59.7773 Y16.4465 F100.00
G01 X59.7846 Y16.4441 F100.00
G01 X59.7940 Y16.4422 F100.00
G01 X59.8252 Y16.4394 F100.00
G01 X60.3323 Y16.4395 F100.00
G01 X60.3414 Y16.4405 F100.00
G01 X60.3485 Y16.4420 F100.00
G01 X60.4173 Y16.4622 F100.00
G01 X60.4261 Y16.4654 F100.00
G01 X60.4327 Y16.4686 F100.00
G01 X60.4391 Y16.4725 F100.00
G01 X60.4450 Y16.4770 F100.00
G01 X60.4505 Y16.4821 F100.00
G01 X60.4916 Y16.5241 F100.00
G01 X60.4952 Y16.5285 F100.00
G01 X60.4995 Y16.5348 F100.00
G01 X60.5679 Y16.6457 F100.00
G01 X60.6793 Y16.7571 F100.00
G01 X60.8133 Y16.8397 F100.00
G01 X60.9634 Y16.8895 F100.00
G01 X61.0539 Y16.8987 F100.00
G01 X62.4461 Y16.8987 F100.00
G01 X62.5366 Y16.8895 F100.00
G01 X62.6867 Y16.8397 F100.00
G01 X62.8207 Y16.7571 F100.00
G01 X62.9321 Y16.6457 F100.00
G01 X63.0147 Y16.5117 F100.00
G01 X63.0645 Y16.3616 F100.00
G01 X63.0737 Y16.2711 F100.00
G01 X63.0737 Y15.3539 F100.00
G01 X63.0645 Y15.2634 F100.00
G01 X63.0147 Y15.1133 F100.00
G01 X62.9321 Y14.9793 F100.00
G01 X62.8207 Y14.8679 F100.00
G01 X62.6867 Y14.7853 F100.00
G01 X62.5366 Y14.7355 F100.00
G01 X62.4461 Y14.7263 F100.00
G01 X61.0539 Y14.7263 F100.00
G01 X60.9634 Y14.7355 F100.00
G01 X60.8133 Y14.7853 F100.00
G01 X60.6793 Y14.8679 F100.00
G01 X60.5679 Y14.9793 F100.00
G01 X60.4995 Y15.0902 F100.00
G01 X60.4954 Y15.0962 F100.00
G01 X60.4907 Y15.1019 F100.00
G01 X60.4855 Y15.1070 F100.00
G01 X60.4293 Y15.1573 F100.00
G01 X60.4232 Y15.1616 F100.00
G01 X60.4150 Y15.1661 F100.00
G01 X60.4082 Y15.1689 F100.00
G01 X60.4010 Y15.1711 F100.00
G01 X60.3438 Y15.1841 F100.00
G01 X60.3362 Y15.1852 F100.00
G01 X60.3305 Y15.1856 F100.00
G01 X59.2657 Y15.1855 F100.00
G01 X59.2566 Y15.1845 F100.00
G01 X59.2477 Y15.1825 F100.00
G01 X59.1788 Y15.1622 F100.00
G01 X59.1715 Y15.1595 F100.00
G01 X59.1645 Y15.1560 F100.00
G01 X59.1595 Y15.1529 F100.00
G01 X59.1460 Y15.1433 F100.00
G01 X59.0314 Y15.0540 F100.00
G01 X58.8239 Y14.9417 F100.00
G01 X58.6007 Y14.8651 F100.00
G01 X58.3680 Y14.8263 F100.00
G01 X58.1320 Y14.8263 F100.00
G01 X57.8831 Y14.8681 F100.00
G01 X57.8718 Y14.8684 F100.00
G01 X57.8622 Y14.8673 F100.00
G01 X57.8111 Y14.8694 F100.00
G01 X57.8000 Y14.8683 F100.00
G01 X57.7927 Y14.8667 F100.00
G01 X57.7874 Y14.8650 F100.00
G01 X57.7772 Y14.8605 F100.00
G01 X57.7174 Y14.8268 F100.00
G01 X57.7110 Y14.8228 F100.00
G01 X57.7035 Y14.8168 F100.00
G01 X57.3996 Y14.5131 F100.00
G01 X57.2969 Y14.4444 F100.00
G01 X57.1829 Y14.3972 F100.00
G01 X57.0617 Y14.3731 F100.00
G01 X52.9383 Y14.3731 F100.00
G01 X52.8171 Y14.3972 F100.00
G01 X52.7031 Y14.4444 F100.00
G01 X52.6004 Y14.5131 F100.00
G01 X52.2966 Y14.8167 F100.00
G01 X52.2894 Y14.8225 F100.00
G01 X52.2817 Y14.8273 F100.00
G01 X52.2187 Y14.8617 F100.00
G01 X52.2137 Y14.8641 F100.00
G01 X52.2067 Y14.8666 F100.00
G01 X52.1958 Y14.8692 F100.00
G01 X52.1847 Y14.8702 F100.00
G01 X52.1364 Y14.8676 F100.00
G01 X52.1263 Y14.8685 F100.00
G01 X52.1150 Y14.8679 F100.00
G01 X52.1039 Y14.8657 F100.00
G01 X51.8680 Y14.8263 F100.00
G01 X51.6320 Y14.8263 F100.00
G01 X51.3962 Y14.8657 F100.00
G01 X51.3850 Y14.8679 F100.00
G01 X51.3737 Y14.8685 F100.00
G01 X51.3622 Y14.8673 F100.00
G01 X51.3167 Y14.8694 F100.00
G01 X51.3074 Y14.8692 F100.00
G01 X51.3000 Y14.8683 F100.00
G01 X51.2927 Y14.8667 F100.00
G01 X51.2857 Y14.8643 F100.00
G01 X51.2789 Y14.8613 F100.00
G01 X51.2158 Y14.8259 F100.00
G01 X51.2110 Y14.8228 F100.00
G01 X51.2050 Y14.8181 F100.00
G01 X50.6996 Y14.3131 F100.00
G01 X50.5969 Y14.2444 F100.00
G01 X50.4829 Y14.1972 F100.00
G01 X50.3617 Y14.1731 F100.00
G01 X49.8850 Y14.1730 F100.00
G01 X49.8777 Y14.1723 F100.00
G01 X49.8688 Y14.1705 F100.00
G01 X49.7947 Y14.1485 F100.00
G01 X49.7895 Y14.1464 F100.00
G01 X49.7829 Y14.1430 F100.00
G01 X49.7767 Y14.1389 F100.00
G01 X49.7709 Y14.1343 F100.00
G01 X49.7257 Y14.0884 F100.00
G01 X49.7221 Y14.0840 F100.00
G01 X49.7178 Y14.0777 F100.00
G01 X49.6571 Y13.9793 F100.00
G01 X49.5457 Y13.8679 F100.00
G01 X49.4117 Y13.7853 F100.00
G01 X49.2616 Y13.7355 F100.00
G01 X49.1711 Y13.7263 F100.00
G01 X47.8289 Y13.7263 F100.00
G01 X47.7384 Y13.7355 F100.00
G01 X47.5883 Y13.7853 F100.00
G01 X47.4543 Y13.8679 F100.00
G01 X47.3429 Y13.9793 F100.00
G01 X47.2603 Y14.1133 F100.00
G01 X47.2105 Y14.2634 F100.00
G01 X47.2013 Y14.3539 F100.00
G01 X47.2013 Y15.2461 F100.00
G01 X47.2105 Y15.3366 F100.00
G01 X47.2603 Y15.4867 F100.00
G01 X47.3429 Y15.6207 F100.00
G01 X47.4543 Y15.7321 F100.00
G01 X47.5883 Y15.8147 F100.00
G01 X47.7384 Y15.8645 F100.00
G01 X47.8289 Y15.8737 F100.00
G01 X49.1711 Y15.8737 F100.00
G01 X49.2616 Y15.8645 F100.00
G01 X49.4117 Y15.8147 F100.00
G01 X49.5457 Y15.7321 F100.00
G01 X49.6571 Y15.6207 F100.00
G01 X49.7178 Y15.5223 F100.00
G01 X49.7219 Y15.5163 F100.00
G01 X49.7266 Y15.5106 F100.00
G01 X49.7318 Y15.5055 F100.00
G01 X49.7851 Y15.4576 F100.00
G01 X49.7941 Y15.4509 F100.00
G01 X49.8022 Y15.4464 F100.00
G01 X49.8091 Y15.4436 F100.00
G01 X49.8162 Y15.4414 F100.00
G01 X49.8716 Y15.4288 F100.00
G01 X49.8792 Y15.4275 F100.00
G01 X49.8887 Y15.4269 F100.00
G01 X49.9608 Y15.4270 F100.00
G01 X49.9681 Y15.4277 F100.00
G01 X49.9770 Y15.4295 F100.00
G01 X50.0458 Y15.4497 F100.00
G01 X50.0547 Y15.4529 F100.00
G01 X50.0631 Y15.4572 F100.00
G01 X50.0709 Y15.4624 F100.00
G01 X50.0977 Y15.4843 F100.00
G01 X50.3208 Y15.7075 F100.00
G01 X50.3266 Y15.7146 F100.00
G01 X50.3305 Y15.7208 F100.00
G01 X50.3649 Y15.7837 F100.00
G01 X50.3689 Y15.7922 F100.00
G01 X50.3718 Y15.8012 F100.00
G01 X50.3736 Y15.8105 F100.00
G01 X50.3743 Y15.8199 F100.00
G01 X50.3733 Y15.8786 F100.00
G01 X50.3728 Y15.8865 F100.00
G01 X50.3710 Y15.8961 F100.00
G01 X50.3409 Y16.0149 F100.00
G01 X50.3214 Y16.2500 F100.00
G01 X50.3409 Y16.4851 F100.00
G01 X50.3988 Y16.7139 F100.00
G01 X50.4936 Y16.9299 F100.00
G01 X50.6226 Y17.1274 F100.00
G01 X50.6332 Y17.1391 F100.00
G01 X50.6396 Y17.1479 F100.00
G01 X50.6432 Y17.1543 F100.00
G01 X50.6749 Y17.2187 F100.00
G01 X50.6789 Y17.2294 F100.00
G01 X50.6813 Y17.2406 F100.00
G01 X50.6820 Y17.2501 F100.00
G01 X50.6817 Y17.2577 F100.00
G01 X50.6734 Y17.3309 F100.00
G01 X50.6724 Y17.3366 F100.00
G01 X50.6705 Y17.3439 F100.00
G01 X50.6662 Y17.3545 F100.00
G01 X50.6624 Y17.3612 F100.00
G01 X50.6581 Y17.3674 F100.00
G01 X50.6090 Y17.4274 F100.00
G01 X50.6020 Y17.4339 F100.00
G01 X50.5959 Y17.4384 F100.00
G01 X50.5893 Y17.4423 F100.00
G01 X50.5806 Y17.4463 F100.00
G01 X50.5069 Y17.4704 F100.00
G01 X50.4956 Y17.4725 F100.00
G01 X50.4831 Y17.4731 F100.00
G01 X42.4428 Y17.4731 F100.00
G01 X42.4319 Y17.4723 F100.00
G01 X42.4212 Y17.4700 F100.00
G01 X42.3542 Y17.4503 F100.00
G01 X42.3453 Y17.4471 F100.00
G01 X42.3385 Y17.4438 F100.00
G01 X42.3306 Y17.4387 F100.00
G01 X42.3023 Y17.4157 F100.00
G01 X41.4833 Y16.5967 F100.00
G01 X41.4783 Y16.5909 F100.00
G01 X41.4739 Y16.5846 F100.00
G01 X41.4445 Y16.5379 F100.00
G01 X41.4400 Y16.5295 F100.00
G01 X41.4371 Y16.5224 F100.00
G01 X41.4062 Y16.4340 F100.00
G01 X41.3194 Y16.2959 F100.00
G01 X41.2041 Y16.1806 F100.00
G01 X41.0660 Y16.0938 F100.00
G01 X40.9121 Y16.0400 F100.00
G01 X40.7500 Y16.0217 F100.00
G01 X40.5879 Y16.0400 F100.00
G01 X40.4340 Y16.0938 F100.00
G01 X40.2959 Y16.1806 F100.00
G01 X40.1806 Y16.2959 F100.00
G01 X40.0938 Y16.4340 F100.00
G01 X40.0400 Y16.5879 F100.00
G01 X40.0217 Y16.7500 F100.00
G01 X40.0400 Y16.9121 F100.00
G01 X40.0938 Y17.0660 F100.00
G01 X40.1806 Y17.2041 F100.00
G01 X40.2959 Y17.3194 F100.00
G01 X40.4340 Y17.4062 F100.00
G01 X40.5224 Y17.4371 F100.00
G01 X40.5295 Y17.4400 F100.00
G01 X40.5379 Y17.4445 F100.00
G01 X40.5846 Y17.4739 F100.00
G01 X40.5894 Y17.4771 F100.00
G01 X40.5953 Y17.4820 F100.00
G01 X41.6437 Y18.5303 F100.00
G01 X41.6509 Y18.5386 F100.00
G01 X41.6568 Y18.5478 F100.00
G01 X41.6912 Y18.6108 F100.00
G01 X41.6957 Y18.6213 F100.00
G01 X41.6982 Y18.6305 F100.00
G01 X41.6995 Y18.6400 F100.00
G01 X41.6996 Y18.6495 F100.00
G01 X41.6945 Y18.7211 F100.00
G01 X41.6929 Y18.7324 F100.00
G01 X41.6902 Y18.7416 F100.00
G01 X41.6856 Y18.7520 F100.00
G01 X41.6794 Y18.7617 F100.00
G01 X41.6364 Y18.8191 F100.00
G01 X41.6314 Y18.8249 F100.00
G01 X41.6243 Y18.8313 F100.00
G01 X41.6149 Y18.8378 F100.00
G01 X41.6047 Y18.8428 F100.00
G01 X41.5374 Y18.8679 F100.00
G01 X41.5302 Y18.8702 F100.00
G01 X41.5190 Y18.8723 F100.00
G01 X41.5018 Y18.8731 F100.00
G01 X23.8428 Y18.8731 F100.00
G01 X23.8355 Y18.8728 F100.00
G01 X23.8283 Y18.8717 F100.00
G01 X23.8212 Y18.8700 F100.00
G01 X23.7542 Y18.8503 F100.00
G01 X23.7453 Y18.8471 F100.00
G01 X23.7369 Y18.8428 F100.00
G01 X23.7306 Y18.8387 F100.00
G01 X23.7070 Y18.8198 F100.00
G01 X23.7009 Y18.8143 F100.00
G01 X23.4357 Y18.5491 F100.00
G01 X23.4297 Y18.5423 F100.00
G01 X23.4235 Y18.5332 F100.00
G01 X23.3891 Y18.4703 F100.00
G01 X23.3858 Y18.4635 F100.00
G01 X23.3827 Y18.4547 F100.00
G01 X23.3807 Y18.4455 F100.00
G01 X23.3770 Y18.4113 F100.00
G01 X23.3769 Y11.9982 F100.00
G01 X23.3774 Y11.9891 F100.00
G01 X23.3795 Y11.9784 F100.00
G01 X23.4015 Y11.9041 F100.00
G01 X23.4045 Y11.8971 F100.00
G01 X23.4093 Y11.8889 F100.00
G01 X23.4138 Y11.8827 F100.00
G01 X23.4203 Y11.8757 F100.00
G01 X23.4774 Y11.8262 F100.00
G01 X23.4867 Y11.8196 F100.00
G01 X23.4952 Y11.8152 F100.00
G01 X23.5041 Y11.8119 F100.00
G01 X23.5134 Y11.8097 F100.00
G01 X23.5882 Y11.7990 F100.00
G01 X23.5958 Y11.7987 F100.00
G01 X23.6053 Y11.7994 F100.00
G01 X23.6147 Y11.8012 F100.00
G01 X23.6220 Y11.8035 F100.00
G01 X23.6925 Y11.8355 F100.00
G01 X23.7008 Y11.8402 F100.00
G01 X23.7084 Y11.8458 F100.00
G01 X23.7197 Y11.8563 F100.00
G01 X24.0504 Y12.1869 F100.00
G01 X24.1531 Y12.2556 F100.00
G01 X24.2671 Y12.3028 F100.00
G01 X24.3883 Y12.3269 F100.00
G01 X24.5254 Y12.3269 F100.00
G00 Z2.0000
G00 X24.5254 Y12.1887
G01 F40.00
G01 Z-0.1000
G01 F100.00
G01 X47.1165 Y12.1887 F100.00
G01 X47.1369 Y12.1902 F100.00
G01 X47.1470 Y12.1916 F100.00
G01 X47.1620 Y12.1947 F100.00
G01 X47.2439 Y12.2186 F100.00
G01 X47.2587 Y12.2239 F100.00
G01 X47.2729 Y12.2303 F100.00
G01 X47.2867 Y12.2376 F100.00
G01 X47.2999 Y12.2460 F100.00
G01 X47.3125 Y12.2553 F100.00
G01 X47.3205 Y12.2620 F100.00
G01 X47.3281 Y12.2691 F100.00
G01 X47.3776 Y12.3198 F100.00
G01 X47.3878 Y12.3321 F100.00
G01 X47.3970 Y12.3452 F100.00
G01 X47.4521 Y12.4344 F100.00
G01 X47.5406 Y12.5229 F100.00
G01 X47.6472 Y12.5886 F100.00
G01 X47.7675 Y12.6285 F100.00
G01 X47.8359 Y12.6355 F100.00
G01 X49.1640 Y12.6355 F100.00
G01 X49.2325 Y12.6285 F100.00
G01 X49.3528 Y12.5886 F100.00
G01 X49.4594 Y12.5229 F100.00
G01 X49.5479 Y12.4344 F100.00
G01 X49.6136 Y12.3278 F100.00
G01 X49.6535 Y12.2075 F100.00
G01 X49.6605 Y12.1391 F100.00
G01 X49.6605 Y11.2610 F100.00
G01 X49.6535 Y11.1925 F100.00
G01 X49.6136 Y11.0722 F100.00
G01 X49.5479 Y10.9656 F100.00
G01 X49.4594 Y10.8771 F100.00
G01 X49.3528 Y10.8114 F100.00
G01 X49.2211 Y10.7677 F100.00
G01 X49.2114 Y10.7643 F100.00
G01 X49.1973 Y10.7583 F100.00
G01 X49.1836 Y10.7512 F100.00
G01 X49.1705 Y10.7433 F100.00
G01 X49.1088 Y10.7006 F100.00
G01 X49.1002 Y10.6943 F100.00
G01 X49.0919 Y10.6876 F100.00
G01 X49.0839 Y10.6805 F100.00
G01 X49.0764 Y10.6730 F100.00
G01 X49.0691 Y10.6651 F100.00
G01 X49.0623 Y10.6569 F100.00
G01 X49.0559 Y10.6484 F100.00
G01 X49.0500 Y10.6395 F100.00
G01 X49.0444 Y10.6304 F100.00
G01 X49.0394 Y10.6209 F100.00
G01 X49.0327 Y10.6064 F100.00
G01 X49.0021 Y10.5321 F100.00
G01 X48.9988 Y10.5222 F100.00
G01 X48.9948 Y10.5071 F100.00
G01 X48.9927 Y10.4969 F100.00
G01 X48.9905 Y10.4814 F100.00
G01 X48.9890 Y10.4576 F100.00
G01 X48.9887 Y10.4459 F100.00
G01 X48.9887 Y5.0928 F100.00
G01 X48.9892 Y5.0775 F100.00
G01 X48.9916 Y5.0572 F100.00
G01 X48.9960 Y5.0372 F100.00
G01 X49.0186 Y4.9602 F100.00
G01 X49.0221 Y4.9502 F100.00
G01 X49.0260 Y4.9404 F100.00
G01 X49.0305 Y4.9308 F100.00
G01 X49.0353 Y4.9215 F100.00
G01 X49.0407 Y4.9124 F100.00
G01 X49.0495 Y4.8993 F100.00
G01 X49.0763 Y4.8658 F100.00
G01 X49.0880 Y4.8531 F100.00
G01 X49.6031 Y4.3380 F100.00
G01 X49.6182 Y4.3242 F100.00
G01 X49.6346 Y4.3119 F100.00
G01 X49.6476 Y4.3038 F100.00
G01 X49.7134 Y4.2678 F100.00
G01 X49.7228 Y4.2630 F100.00
G01 X49.7324 Y4.2586 F100.00
G01 X49.7422 Y4.2547 F100.00
G01 X49.7522 Y4.2513 F100.00
G01 X49.7624 Y4.2484 F100.00
G01 X49.7727 Y4.2460 F100.00
G01 X49.7883 Y4.2434 F100.00
G01 X49.8199 Y4.2399 F100.00
G01 X49.8313 Y4.2390 F100.00
G01 X49.8428 Y4.2387 F100.00
G01 X88.4510 Y4.2387 F100.00
G01 X88.4663 Y4.2396 F100.00
G01 X88.4765 Y4.2408 F100.00
G01 X88.4966 Y4.2447 F100.00
G01 X88.5735 Y4.2671 F100.00
G01 X88.5887 Y4.2721 F100.00
G01 X88.5986 Y4.2761 F100.00
G01 X88.6083 Y4.2806 F100.00
G01 X88.6178 Y4.2856 F100.00
G01 X88.6269 Y4.2911 F100.00
G01 X88.6359 Y4.2969 F100.00
G01 X88.6487 Y4.3066 F100.00
G01 X88.6568 Y4.3135 F100.00
G01 X88.6645 Y4.3209 F100.00
G01 X88.6755 Y4.3326 F100.00
G01 X88.7246 Y4.3894 F100.00
G01 X88.7310 Y4.3976 F100.00
G01 X88.7371 Y4.4061 F100.00
G01 X88.7427 Y4.4149 F100.00
G01 X88.7479 Y4.4239 F100.00
G01 X88.7526 Y4.4332 F100.00
G01 X88.7569 Y4.4427 F100.00
G01 X88.7658 Y4.4655 F100.00
G01 X88.8114 Y4.6028 F100.00
G01 X88.8771 Y4.7094 F100.00
G01 X88.9656 Y4.7979 F100.00
G01 X89.0722 Y4.8636 F100.00
G01 X89.1925 Y4.9035 F100.00
G01 X89.2609 Y4.9105 F100.00
G01 X90.1390 Y4.9105 F100.00
G01 X90.2075 Y4.9035 F100.00
G01 X90.3278 Y4.8636 F100.00
G01 X90.4344 Y4.7979 F100.00
G01 X90.5229 Y4.7094 F100.00
G01 X90.5886 Y4.6028 F100.00
G01 X90.6285 Y4.4825 F100.00
G01 X90.6355 Y4.4141 F100.00
G01 X90.6355 Y3.0860 F100.00
G01 X90.6285 Y3.0175 F100.00
G01 X90.5994 Y2.9295 F100.00
G01 X90.5954 Y2.9146 F100.00
G01 X90.5925 Y2.8996 F100.00
G01 X90.5912 Y2.8894 F100.00
G01 X90.5901 Y2.8741 F100.00
G01 X90.5876 Y2.7936 F100.00
G01 X90.5881 Y2.7829 F100.00
G01 X90.5890 Y2.7723 F100.00
G01 X90.5905 Y2.7617 F100.00
G01 X90.5925 Y2.7512 F100.00
G01 X90.5965 Y2.7357 F100.00
G01 X90.5998 Y2.7255 F100.00
G01 X90.6036 Y2.7156 F100.00
G01 X90.6079 Y2.7058 F100.00
G01 X90.6152 Y2.6915 F100.00
G01 X90.6536 Y2.6269 F100.00
G01 X90.6623 Y2.6134 F100.00
G01 X90.6686 Y2.6048 F100.00
G01 X90.6754 Y2.5966 F100.00
G01 X90.6863 Y2.5848 F100.00
G01 X90.6940 Y2.5775 F100.00
G01 X90.7021 Y2.5705 F100.00
G01 X90.7105 Y2.5639 F100.00
G01 X90.7238 Y2.5549 F100.00
G01 X90.7329 Y2.5494 F100.00
G01 X90.7424 Y2.5444 F100.00
G01 X90.8049 Y2.5132 F100.00
G01 X90.8195 Y2.5066 F100.00
G01 X90.8296 Y2.5028 F100.00
G01 X90.8449 Y2.4980 F100.00
G01 X90.8606 Y2.4944 F100.00
G01 X90.8712 Y2.4927 F100.00
G01 X90.9085 Y2.4891 F100.00
G01 X90.9227 Y2.4887 F100.00
G01 X91.5824 Y2.4887 F100.00
G01 X91.5977 Y2.4896 F100.00
G01 X91.6079 Y2.4908 F100.00
G01 X91.6280 Y2.4947 F100.00
G01 X91.7049 Y2.5171 F100.00
G01 X91.7150 Y2.5203 F100.00
G01 X91.7250 Y2.5241 F100.00
G01 X91.7348 Y2.5283 F100.00
G01 X91.7491 Y2.5356 F100.00
G01 X91.7583 Y2.5411 F100.00
G01 X91.7672 Y2.5469 F100.00
G01 X91.7800 Y2.5566 F100.00
G01 X91.7881 Y2.5635 F100.00
G01 X91.7959 Y2.5709 F100.00
G01 X91.8068 Y2.5826 F100.00
G01 X91.8560 Y2.6394 F100.00
G01 X91.8657 Y2.6522 F100.00
G01 X91.8717 Y2.6611 F100.00
G01 X91.8772 Y2.6702 F100.00
G01 X91.8822 Y2.6796 F100.00
G01 X91.8888 Y2.6942 F100.00
G01 X91.8927 Y2.7042 F100.00
G01 X91.8960 Y2.7143 F100.00
G01 X91.8988 Y2.7246 F100.00
G01 X91.9011 Y2.7351 F100.00
G01 X91.9029 Y2.7456 F100.00
G01 X91.9141 Y2.8254 F100.00
G01 X91.9148 Y2.8361 F100.00
G01 X91.9150 Y2.8468 F100.00
G01 X91.9147 Y2.8575 F100.00
G01 X91.9138 Y2.8682 F100.00
G01 X91.9124 Y2.8789 F100.00
G01 X91.9105 Y2.8894 F100.00
G01 X91.9021 Y2.9243 F100.00
G01 X91.8715 Y3.0175 F100.00
G01 X91.8645 Y3.0859 F100.00
G01 X91.8645 Y4.4141 F100.00
G01 X91.8715 Y4.4825 F100.00
G01 X91.9114 Y4.6028 F100.00
G01 X91.9771 Y4.7094 F100.00
G01 X92.0656 Y4.7979 F100.00
G01 X92.1546 Y4.8528 F100.00
G01 X92.1672 Y4.8617 F100.00
G01 X92.1791 Y4.8714 F100.00
G01 X92.1938 Y4.8856 F100.00
G01 X92.2440 Y4.9413 F100.00
G01 X92.2540 Y4.9533 F100.00
G01 X92.2602 Y4.9617 F100.00
G01 X92.2687 Y4.9748 F100.00
G01 X92.2762 Y4.9885 F100.00
G01 X92.2828 Y5.0027 F100.00
G01 X92.2882 Y5.0173 F100.00
G01 X92.2926 Y5.0324 F100.00
G01 X92.3060 Y5.0910 F100.00
G01 X92.3081 Y5.1015 F100.00
G01 X92.3103 Y5.1173 F100.00
G01 X92.3111 Y5.1280 F100.00
G01 X92.3113 Y5.1387 F100.00
G01 X92.3113 Y5.3237 F100.00
G01 X92.3104 Y5.3442 F100.00
G01 X92.3084 Y5.3594 F100.00
G01 X92.3053 Y5.3744 F100.00
G01 X92.3026 Y5.3843 F100.00
G01 X92.2829 Y5.4514 F100.00
G01 X92.2797 Y5.4614 F100.00
G01 X92.2760 Y5.4712 F100.00
G01 X92.2696 Y5.4856 F100.00
G01 X92.2648 Y5.4949 F100.00
G01 X92.2595 Y5.5040 F100.00
G01 X92.2507 Y5.5170 F100.00
G01 X92.2410 Y5.5295 F100.00
G01 X92.2340 Y5.5373 F100.00
G01 X92.2229 Y5.5484 F100.00
G01 X92.1735 Y5.5941 F100.00
G01 X92.1610 Y5.6044 F100.00
G01 X92.1522 Y5.6107 F100.00
G01 X92.1384 Y5.6193 F100.00
G01 X92.0445 Y5.6702 F100.00
G01 X91.8764 Y5.8010 F100.00
G01 X91.7321 Y5.9577 F100.00
G01 X91.6341 Y6.1077 F100.00
G01 X91.6283 Y6.1162 F100.00
G01 X91.6189 Y6.1283 F100.00
G01 X91.6086 Y6.1397 F100.00
G01 X91.5975 Y6.1503 F100.00
G01 X91.5364 Y6.2025 F100.00
G01 X91.5237 Y6.2121 F100.00
G01 X91.5148 Y6.2179 F100.00
G01 X91.5056 Y6.2234 F100.00
G01 X91.4961 Y6.2283 F100.00
G01 X91.4864 Y6.2328 F100.00
G01 X91.4766 Y6.2368 F100.00
G01 X91.4665 Y6.2403 F100.00
G01 X91.4511 Y6.2446 F100.00
G01 X91.3903 Y6.2576 F100.00
G01 X91.3754 Y6.2599 F100.00
G01 X91.3603 Y6.2611 F100.00
G01 X65.4519 Y6.2613 F100.00
G01 X65.3575 Y6.2801 F100.00
G01 X65.2685 Y6.3170 F100.00
G01 X65.1885 Y6.3704 F100.00
G01 X64.6204 Y6.9385 F100.00
G01 X64.5670 Y7.0185 F100.00
G01 X64.5301 Y7.1075 F100.00
G01 X64.5113 Y7.2019 F100.00
G01 X64.5111 Y19.1674 F100.00
G01 X64.5104 Y19.1776 F100.00
G01 X64.5084 Y19.1928 F100.00
G01 X64.5040 Y19.2128 F100.00
G01 X64.4814 Y19.2898 F100.00
G01 X64.4779 Y19.2998 F100.00
G01 X64.4740 Y19.3096 F100.00
G01 X64.4672 Y19.3239 F100.00
G01 X64.4620 Y19.3331 F100.00
G01 X64.4565 Y19.3421 F100.00
G01 X64.4505 Y19.3507 F100.00
G01 X64.4237 Y19.3842 F100.00
G01 X64.4120 Y19.3969 F100.00
G01 X64.1469 Y19.6620 F100.00
G01 X64.1357 Y19.6725 F100.00
G01 X64.1237 Y19.6821 F100.00
G01 X64.1111 Y19.6909 F100.00
G01 X64.0979 Y19.6987 F100.00
G01 X64.0319 Y19.7347 F100.00
G01 X64.0224 Y19.7393 F100.00
G01 X64.0127 Y19.7434 F100.00
G01 X64.0028 Y19.7470 F100.00
G01 X63.9927 Y19.7502 F100.00
G01 X63.9773 Y19.7540 F100.00
G01 X63.9617 Y19.7566 F100.00
G01 X63.9301 Y19.7601 F100.00
G01 X63.9187 Y19.7610 F100.00
G01 X63.9072 Y19.7613 F100.00
G01 X58.9531 Y19.7611 F100.00
G01 X58.9327 Y19.7592 F100.00
G01 X58.9126 Y19.7553 F100.00
G01 X58.8306 Y19.7314 F100.00
G01 X58.8205 Y19.7279 F100.00
G01 X58.8106 Y19.7239 F100.00
G01 X58.7961 Y19.7169 F100.00
G01 X58.7823 Y19.7089 F100.00
G01 X58.7690 Y19.7000 F100.00
G01 X58.7605 Y19.6934 F100.00
G01 X58.7524 Y19.6865 F100.00
G01 X58.7447 Y19.6791 F100.00
G01 X58.7373 Y19.6714 F100.00
G01 X58.6880 Y19.6146 F100.00
G01 X58.6780 Y19.6021 F100.00
G01 X58.6718 Y19.5934 F100.00
G01 X58.6661 Y19.5844 F100.00
G01 X58.6608 Y19.5751 F100.00
G01 X58.6560 Y19.5656 F100.00
G01 X58.6497 Y19.5508 F100.00
G01 X58.6462 Y19.5408 F100.00
G01 X58.6431 Y19.5305 F100.00
G01 X58.6405 Y19.5202 F100.00
G01 X58.6377 Y19.5044 F100.00
G01 X58.6277 Y19.4353 F100.00
G01 X58.6260 Y19.4197 F100.00
G01 X58.6255 Y19.4041 F100.00
G01 X58.6261 Y19.3885 F100.00
G01 X58.6272 Y19.3781 F100.00
G01 X58.6296 Y19.3627 F100.00
G01 X58.6333 Y19.3475 F100.00
G01 X58.6379 Y19.3326 F100.00
G01 X58.6614 Y19.2715 F100.00
G01 X58.6657 Y19.2618 F100.00
G01 X58.6704 Y19.2522 F100.00
G01 X58.6757 Y19.2429 F100.00
G01 X58.6830 Y19.2315 F100.00
G01 X58.7199 Y19.1425 F100.00
G01 X58.7387 Y19.0481 F100.00
G01 X58.7387 Y17.6441 F100.00
G01 X58.7402 Y17.6237 F100.00
G01 X58.7416 Y17.6135 F100.00
G01 X58.7447 Y17.5985 F100.00
G01 X58.7671 Y17.5216 F100.00
G01 X58.7720 Y17.5066 F100.00
G01 X58.7781 Y17.4921 F100.00
G01 X58.7852 Y17.4780 F100.00
G01 X58.7905 Y17.4690 F100.00
G01 X58.7963 Y17.4602 F100.00
G01 X58.8057 Y17.4475 F100.00
G01 X58.8160 Y17.4356 F100.00
G01 X58.8233 Y17.4281 F100.00
G01 X58.8724 Y17.3825 F100.00
G01 X58.8806 Y17.3753 F100.00
G01 X58.8890 Y17.3686 F100.00
G01 X58.9024 Y17.3593 F100.00
G01 X58.9116 Y17.3537 F100.00
G01 X58.9555 Y17.3298 F100.00
G01 X59.1236 Y17.1990 F100.00
G01 X59.2679 Y17.0423 F100.00
G01 X59.3844 Y16.8639 F100.00
G01 X59.4700 Y16.6688 F100.00
G01 X59.4996 Y16.5520 F100.00
G01 X59.5043 Y16.5374 F100.00
G01 X59.5099 Y16.5231 F100.00
G01 X59.5191 Y16.5048 F100.00
G01 X59.5599 Y16.4357 F100.00
G01 X59.5689 Y16.4224 F100.00
G01 X59.5789 Y16.4098 F100.00
G01 X59.5860 Y16.4019 F100.00
G01 X59.5935 Y16.3943 F100.00
G01 X59.6014 Y16.3871 F100.00
G01 X59.6097 Y16.3803 F100.00
G01 X59.6182 Y16.3740 F100.00
G01 X59.6271 Y16.3680 F100.00
G01 X59.6409 Y16.3599 F100.00
G01 X59.7081 Y16.3261 F100.00
G01 X59.7228 Y16.3194 F100.00
G01 X59.7380 Y16.3138 F100.00
G01 X59.7483 Y16.3107 F100.00
G01 X59.7640 Y16.3071 F100.00
G01 X59.7800 Y16.3046 F100.00
G01 X59.8124 Y16.3017 F100.00
G01 X59.8270 Y16.3012 F100.00
G01 X60.3286 Y16.3012 F100.00
G01 X60.3389 Y16.3014 F100.00
G01 X60.3542 Y16.3027 F100.00
G01 X60.3693 Y16.3050 F100.00
G01 X60.3793 Y16.3072 F100.00
G01 X60.4612 Y16.3311 F100.00
G01 X60.4711 Y16.3345 F100.00
G01 X60.4808 Y16.3384 F100.00
G01 X60.4902 Y16.3428 F100.00
G01 X60.4995 Y16.3476 F100.00
G01 X60.5129 Y16.3556 F100.00
G01 X60.5257 Y16.3646 F100.00
G01 X60.5378 Y16.3745 F100.00
G01 X60.5491 Y16.3852 F100.00
G01 X60.5876 Y16.4245 F100.00
G01 X60.5984 Y16.4363 F100.00
G01 X60.6051 Y16.4446 F100.00
G01 X60.6114 Y16.4533 F100.00
G01 X60.6172 Y16.4622 F100.00
G01 X60.6771 Y16.5594 F100.00
G01 X60.7656 Y16.6479 F100.00
G01 X60.8722 Y16.7136 F100.00
G01 X60.9925 Y16.7535 F100.00
G01 X61.0609 Y16.7605 F100.00
G01 X62.4390 Y16.7605 F100.00
G01 X62.5075 Y16.7535 F100.00
G01 X62.6278 Y16.7136 F100.00
G01 X62.7344 Y16.6479 F100.00
G01 X62.8229 Y16.5594 F100.00
G01 X62.8886 Y16.4528 F100.00
G01 X62.9285 Y16.3325 F100.00
G01 X62.9355 Y16.2641 F100.00
G01 X62.9355 Y15.3610 F100.00
G01 X62.9285 Y15.2925 F100.00
G01 X62.8886 Y15.1722 F100.00
G01 X62.8229 Y15.0656 F100.00
G01 X62.7344 Y14.9771 F100.00
G01 X62.6278 Y14.9114 F100.00
G01 X62.5075 Y14.8715 F100.00
G01 X62.4391 Y14.8645 F100.00
G01 X61.0609 Y14.8645 F100.00
G01 X60.9925 Y14.8715 F100.00
G01 X60.8722 Y14.9114 F100.00
G01 X60.7656 Y14.9771 F100.00
G01 X60.6771 Y15.0656 F100.00
G01 X60.6116 Y15.1714 F100.00
G01 X60.5993 Y15.1877 F100.00
G01 X60.5854 Y15.2028 F100.00
G01 X60.5221 Y15.2599 F100.00
G01 X60.5140 Y15.2665 F100.00
G01 X60.5013 Y15.2757 F100.00
G01 X60.4925 Y15.2812 F100.00
G01 X60.4834 Y15.2863 F100.00
G01 X60.4694 Y15.2932 F100.00
G01 X60.4598 Y15.2972 F100.00
G01 X60.4499 Y15.3007 F100.00
G01 X60.4349 Y15.3051 F100.00
G01 X60.3658 Y15.3206 F100.00
G01 X60.3499 Y15.3228 F100.00
G01 X60.3340 Y15.3238 F100.00
G01 X59.2591 Y15.3236 F100.00
G01 X59.2387 Y15.3217 F100.00
G01 X59.2286 Y15.3200 F100.00
G01 X59.2137 Y15.3165 F100.00
G01 X59.1365 Y15.2938 F100.00
G01 X59.1261 Y15.2902 F100.00
G01 X59.1110 Y15.2838 F100.00
G01 X59.1013 Y15.2789 F100.00
G01 X59.0871 Y15.2707 F100.00
G01 X59.0650 Y15.2553 F100.00
G01 X58.9555 Y15.1702 F100.00
G01 X58.7681 Y15.0688 F100.00
G01 X58.5666 Y14.9996 F100.00
G01 X58.3565 Y14.9645 F100.00
G01 X58.1435 Y14.9645 F100.00
G01 X57.9239 Y15.0012 F100.00
G01 X57.9119 Y15.0036 F100.00
G01 X57.8954 Y15.0058 F100.00
G01 X57.8844 Y15.0065 F100.00
G01 X57.8167 Y15.0077 F100.00
G01 X57.7960 Y15.0070 F100.00
G01 X57.7806 Y15.0052 F100.00
G01 X57.7654 Y15.0023 F100.00
G01 X57.7504 Y14.9983 F100.00
G01 X57.7406 Y14.9951 F100.00
G01 X57.7262 Y14.9893 F100.00
G01 X57.7123 Y14.9825 F100.00
G01 X57.6496 Y14.9473 F100.00
G01 X57.6404 Y14.9418 F100.00
G01 X57.6316 Y14.9359 F100.00
G01 X57.6230 Y14.9296 F100.00
G01 X57.6148 Y14.9228 F100.00
G01 X57.6030 Y14.9120 F100.00
G01 X57.3115 Y14.6204 F100.00
G01 X57.2315 Y14.5670 F100.00
G01 X57.1425 Y14.5301 F100.00
G01 X57.0481 Y14.5113 F100.00
G01 X52.9519 Y14.5113 F100.00
G01 X52.8575 Y14.5301 F100.00
G01 X52.7685 Y14.5670 F100.00
G01 X52.6885 Y14.6204 F100.00
G01 X52.3970 Y14.9120 F100.00
G01 X52.3857 Y14.9224 F100.00
G01 X52.3738 Y14.9321 F100.00
G01 X52.3568 Y14.9435 F100.00
G01 X52.2866 Y14.9821 F100.00
G01 X52.2774 Y14.9869 F100.00
G01 X52.2679 Y14.9912 F100.00
G01 X52.2582 Y14.9951 F100.00
G01 X52.2433 Y15.0000 F100.00
G01 X52.2332 Y15.0026 F100.00
G01 X52.2178 Y15.0057 F100.00
G01 X52.2075 Y15.0071 F100.00
G01 X52.1919 Y15.0083 F100.00
G01 X52.1762 Y15.0083 F100.00
G01 X52.1393 Y15.0062 F100.00
G01 X52.1240 Y15.0067 F100.00
G01 X52.1135 Y15.0064 F100.00
G01 X52.1030 Y15.0056 F100.00
G01 X52.0925 Y15.0043 F100.00
G01 X52.0761 Y15.0012 F100.00
G01 X51.8565 Y14.9645 F100.00
G01 X51.6435 Y14.9645 F100.00
G01 X51.4009 Y15.0052 F100.00
G01 X51.3899 Y15.0062 F100.00
G01 X51.3788 Y15.0067 F100.00
G01 X51.3167 Y15.0077 F100.00
G01 X51.2960 Y15.0070 F100.00
G01 X51.2806 Y15.0052 F100.00
G01 X51.2603 Y15.0011 F100.00
G01 X51.2455 Y14.9967 F100.00
G01 X51.2262 Y14.9893 F100.00
G01 X51.2077 Y14.9800 F100.00
G01 X51.1450 Y14.9446 F100.00
G01 X51.1316 Y14.9359 F100.00
G01 X51.1188 Y14.9263 F100.00
G01 X51.1108 Y14.9193 F100.00
G01 X51.1030 Y14.9120 F100.00
G01 X50.6115 Y14.4204 F100.00
G01 X50.5315 Y14.3670 F100.00
G01 X50.4425 Y14.3301 F100.00
G01 X50.3481 Y14.3113 F100.00
G01 X49.8784 Y14.3111 F100.00
G01 X49.8581 Y14.3092 F100.00
G01 X49.8380 Y14.3053 F100.00
G01 X49.7610 Y14.2829 F100.00
G01 X49.7462 Y14.2780 F100.00
G01 X49.7318 Y14.2720 F100.00
G01 X49.7224 Y14.2674 F100.00
G01 X49.7133 Y14.2624 F100.00
G01 X49.7001 Y14.2540 F100.00
G01 X49.6875 Y14.2447 F100.00
G01 X49.6795 Y14.2380 F100.00
G01 X49.6719 Y14.2309 F100.00
G01 X49.6260 Y14.1842 F100.00
G01 X49.6189 Y14.1762 F100.00
G01 X49.6122 Y14.1679 F100.00
G01 X49.6030 Y14.1548 F100.00
G01 X49.5479 Y14.0656 F100.00
G01 X49.4594 Y13.9771 F100.00
G01 X49.3528 Y13.9114 F100.00
G01 X49.2325 Y13.8715 F100.00
G01 X49.1641 Y13.8645 F100.00
G01 X47.8359 Y13.8645 F100.00
G01 X47.7675 Y13.8715 F100.00
G01 X47.6472 Y13.9114 F100.00
G01 X47.5406 Y13.9771 F100.00
G01 X47.4521 Y14.0656 F100.00
G01 X47.3864 Y14.1722 F100.00
G01 X47.3465 Y14.2925 F100.00
G01 X47.3395 Y14.3609 F100.00
G01 X47.3395 Y15.2390 F100.00
G01 X47.3465 Y15.3075 F100.00
G01 X47.3864 Y15.4278 F100.00
G01 X47.4521 Y15.5344 F100.00
G01 X47.5406 Y15.6229 F100.00
G01 X47.6472 Y15.6886 F100.00
G01 X47.7675 Y15.7285 F100.00
G01 X47.8359 Y15.7355 F100.00
G01 X49.1640 Y15.7355 F100.00
G01 X49.2325 Y15.7285 F100.00
G01 X49.3528 Y15.6886 F100.00
G01 X49.4594 Y15.6229 F100.00
G01 X49.5479 Y15.5344 F100.00
G01 X49.6028 Y15.4454 F100.00
G01 X49.6148 Y15.4288 F100.00
G01 X49.6283 Y15.4134 F100.00
G01 X49.6393 Y15.4027 F100.00
G01 X49.6913 Y15.3560 F100.00
G01 X49.7033 Y15.3460 F100.00
G01 X49.7160 Y15.3368 F100.00
G01 X49.7293 Y15.3287 F100.00
G01 X49.7385 Y15.3238 F100.00
G01 X49.7527 Y15.3172 F100.00
G01 X49.7673 Y15.3118 F100.00
G01 X49.7823 Y15.3074 F100.00
G01 X49.8410 Y15.2940 F100.00
G01 X49.8515 Y15.2919 F100.00
G01 X49.8620 Y15.2903 F100.00
G01 X49.8727 Y15.2893 F100.00
G01 X49.8887 Y15.2887 F100.00
G01 X49.9572 Y15.2887 F100.00
G01 X49.9725 Y15.2892 F100.00
G01 X49.9878 Y15.2908 F100.00
G01 X50.0079 Y15.2947 F100.00
G01 X50.0898 Y15.3186 F100.00
G01 X50.0998 Y15.3221 F100.00
G01 X50.1144 Y15.3282 F100.00
G01 X50.1285 Y15.3353 F100.00
G01 X50.1421 Y15.3435 F100.00
G01 X50.1507 Y15.3495 F100.00
G01 X50.1591 Y15.3559 F100.00
G01 X50.1842 Y15.3763 F100.00
G01 X50.1928 Y15.3839 F100.00
G01 X50.4161 Y15.6071 F100.00
G01 X50.4298 Y15.6223 F100.00
G01 X50.4421 Y15.6386 F100.00
G01 X50.4502 Y15.6517 F100.00
