(G-CODE GENERATED BY FLATCAM v8.994 - www.flatcam.org - Version Date: 2020/11/7)

(Name: Encoders-LCD-Edge_Cuts.gbr_cutout_cnc)
(Type: G-code from Geometry)
(Units: MM)

(Created on Monday, 19 August 2024 at 09:54)

(This preprocessor is used with a motion controller loaded with GRBL firmware.)
(It is configured to be compatible with almost any version of GRBL firmware.)

(TOOL DIAMETER: 2.0 mm)
(Feedrate_XY: 120.0 mm/min)
(Feedrate_Z: 60.0 mm/min)
(Feedrate rapids 1500.0 mm/min)

(Z_Cut: -2.4 mm)
(DepthPerCut: 0.4 mm <=>6 passes)
(Z_Move: 2.0 mm)
(Z Start: None mm)
(Z End: 7.0 mm)
(X,Y End: None mm)
(Steps per circle: 64)
(Steps per circle: 64)
(Preprocessor Geometry: GRBL_11_no_M6)

(X range:   -1.1251 ...  111.1251  mm)
(Y range:   -1.1251 ...   77.1251  mm)

(Spindle Speed: 1000.0 RPM)
G21
G90
G17
G94


G01 F120.00

M5             
G00 Z7.0000
G00 X0.0000 Y0.0000                
T1
(MSG, Change to Tool Dia = 2.0000)
M0
G00 Z7.0000
        
M03 S1000.0
G01 F120.00
G00 X-1.1251 Y35.0000
G01 F60.00
G01 Z-0.4000
G01 F120.00
G01 X-1.1251 Y3.0000 F120.00
G01 X-1.1248 Y2.9755 F120.00
G01 X-1.1237 Y2.9448 F120.00
G01 X-1.1093 Y2.6507 F120.00
G01 X-1.1044 Y2.5896 F120.00
G01 X-1.0984 Y2.5409 F120.00
G01 X-1.0552 Y2.2496 F120.00
G01 X-1.0468 Y2.2013 F120.00
G01 X-1.0337 Y2.1414 F120.00
G01 X-0.9622 Y1.8558 F120.00
G01 X-0.9455 Y1.7967 F120.00
G01 X-0.9301 Y1.7501 F120.00
G01 X-0.8309 Y1.4729 F120.00
G01 X-0.8086 Y1.4158 F120.00
G01 X-0.7887 Y1.3709 F120.00
G01 X-0.6628 Y1.1048 F120.00
G01 X-0.6350 Y1.0501 F120.00
G01 X-0.6108 Y1.0074 F120.00
G01 X-0.4594 Y0.7549 F120.00
G01 X-0.4263 Y0.7032 F120.00
G01 X-0.3981 Y0.6631 F120.00
G01 X-0.2227 Y0.4266 F120.00
G01 X-0.1847 Y0.3784 F120.00
G01 X-0.1526 Y0.3413 F120.00
G01 X0.0451 Y0.1231 F120.00
G01 X0.0876 Y0.0789 F120.00
G01 X0.1231 Y0.0451 F120.00
G01 X0.3413 Y-0.1526 F120.00
G01 X0.3784 Y-0.1847 F120.00
G01 X0.4266 Y-0.2227 F120.00
G01 X0.6631 Y-0.3981 F120.00
G01 X0.7032 Y-0.4263 F120.00
G01 X0.7549 Y-0.4594 F120.00
G01 X1.0074 Y-0.6108 F120.00
G01 X1.0609 Y-0.6407 F120.00
G01 X1.1048 Y-0.6628 F120.00
G01 X1.3709 Y-0.7887 F120.00
G01 X1.4271 Y-0.8133 F120.00
G01 X1.4729 Y-0.8309 F120.00
G01 X1.7501 Y-0.9301 F120.00
G01 X1.7967 Y-0.9455 F120.00
G01 X1.8558 Y-0.9622 F120.00
G01 X2.1414 Y-1.0337 F120.00
G01 X2.2013 Y-1.0468 F120.00
G01 X2.2496 Y-1.0552 F120.00
G01 X2.5409 Y-1.0984 F120.00
G01 X2.6018 Y-1.1057 F120.00
G01 X2.6507 Y-1.1093 F120.00
G01 X2.9448 Y-1.1237 F120.00
G01 X2.9755 Y-1.1248 F120.00
G01 X3.0000 Y-1.1251 F120.00
G01 X52.0000 Y-1.1251 F120.00
G00 X52.0000 Y-1.1251
G01 F60.00
G01 Z-0.8000
G01 F120.00
G01 X3.0000 Y-1.1251 F120.00
G01 X2.9755 Y-1.1248 F120.00
G01 X2.9448 Y-1.1237 F120.00
G01 X2.6507 Y-1.1093 F120.00
G01 X2.6018 Y-1.1057 F120.00
G01 X2.5409 Y-1.0984 F120.00
G01 X2.2496 Y-1.0552 F120.00
G01 X2.2013 Y-1.0468 F120.00
G01 X2.1414 Y-1.0337 F120.00
G01 X1.8558 Y-0.9622 F120.00
G01 X1.7967 Y-0.9455 F120.00
G01 X1.7501 Y-0.9301 F120.00
G01 X1.4729 Y-0.8309 F120.00
G01 X1.4271 Y-0.8133 F120.00
G01 X1.3709 Y-0.7887 F120.00
G01 X1.1048 Y-0.6628 F120.00
G01 X1.0609 Y-0.6407 F120.00
G01 X1.0074 Y-0.6108 F120.00
G01 X0.7549 Y-0.4594 F120.00
G01 X0.7032 Y-0.4263 F120.00
G01 X0.6631 Y-0.3981 F120.00
G01 X0.4266 Y-0.2227 F120.00
G01 X0.3784 Y-0.1847 F120.00
G01 X0.3413 Y-0.1526 F120.00
G01 X0.1231 Y0.0451 F120.00
G01 X0.0876 Y0.0789 F120.00
G01 X0.0451 Y0.1231 F120.00
G01 X-0.1526 Y0.3413 F120.00
G01 X-0.1847 Y0.3784 F120.00
G01 X-0.2227 Y0.4266 F120.00
G01 X-0.3981 Y0.6631 F120.00
G01 X-0.4263 Y0.7032 F120.00
G01 X-0.4594 Y0.7549 F120.00
G01 X-0.6108 Y1.0074 F120.00
G01 X-0.6350 Y1.0501 F120.00
G01 X-0.6628 Y1.1048 F120.00
G01 X-0.7887 Y1.3709 F120.00
G01 X-0.8086 Y1.4158 F120.00
G01 X-0.8309 Y1.4729 F120.00
G01 X-0.9301 Y1.7501 F120.00
G01 X-0.9455 Y1.7967 F120.00
G01 X-0.9622 Y1.8558 F120.00
G01 X-1.0337 Y2.1414 F120.00
G01 X-1.0468 Y2.2013 F120.00
G01 X-1.0552 Y2.2496 F120.00
G01 X-1.0984 Y2.5409 F120.00
G01 X-1.1044 Y2.5896 F120.00
G01 X-1.1093 Y2.6507 F120.00
G01 X-1.1237 Y2.9448 F120.00
G01 X-1.1248 Y2.9755 F120.00
G01 X-1.1251 Y3.0000 F120.00
G01 X-1.1251 Y35.0000 F120.00
G00 X-1.1251 Y35.0000
G01 F60.00
G01 Z-1.2000
G01 F120.00
G01 X-1.1251 Y3.0000 F120.00
G01 X-1.1248 Y2.9755 F120.00
G01 X-1.1237 Y2.9448 F120.00
G01 X-1.1093 Y2.6507 F120.00
G01 X-1.1044 Y2.5896 F120.00
G01 X-1.0984 Y2.5409 F120.00
G01 X-1.0552 Y2.2496 F120.00
G01 X-1.0468 Y2.2013 F120.00
G01 X-1.0337 Y2.1414 F120.00
G01 X-0.9622 Y1.8558 F120.00
G01 X-0.9455 Y1.7967 F120.00
G01 X-0.9301 Y1.7501 F120.00
G01 X-0.8309 Y1.4729 F120.00
G01 X-0.8086 Y1.4158 F120.00
G01 X-0.7887 Y1.3709 F120.00
G01 X-0.6628 Y1.1048 F120.00
G01 X-0.6350 Y1.0501 F120.00
G01 X-0.6108 Y1.0074 F120.00
G01 X-0.4594 Y0.7549 F120.00
G01 X-0.4263 Y0.7032 F120.00
G01 X-0.3981 Y0.6631 F120.00
G01 X-0.2227 Y0.4266 F120.00
G01 X-0.1847 Y0.3784 F120.00
G01 X-0.1526 Y0.3413 F120.00
G01 X0.0451 Y0.1231 F120.00
G01 X0.0876 Y0.0789 F120.00
G01 X0.1231 Y0.0451 F120.00
G01 X0.3413 Y-0.1526 F120.00
G01 X0.3784 Y-0.1847 F120.00
G01 X0.4266 Y-0.2227 F120.00
G01 X0.6631 Y-0.3981 F120.00
G01 X0.7032 Y-0.4263 F120.00
G01 X0.7549 Y-0.4594 F120.00
G01 X1.0074 Y-0.6108 F120.00
G01 X1.0609 Y-0.6407 F120.00
G01 X1.1048 Y-0.6628 F120.00
G01 X1.3709 Y-0.7887 F120.00
G01 X1.4271 Y-0.8133 F120.00
G01 X1.4729 Y-0.8309 F120.00
G01 X1.7501 Y-0.9301 F120.00
G01 X1.7967 Y-0.9455 F120.00
G01 X1.8558 Y-0.9622 F120.00
G01 X2.1414 Y-1.0337 F120.00
G01 X2.2013 Y-1.0468 F120.00
G01 X2.2496 Y-1.0552 F120.00
G01 X2.5409 Y-1.0984 F120.00
G01 X2.6018 Y-1.1057 F120.00
G01 X2.6507 Y-1.1093 F120.00
G01 X2.9448 Y-1.1237 F120.00
G01 X2.9755 Y-1.1248 F120.00
G01 X3.0000 Y-1.1251 F120.00
G01 X52.0000 Y-1.1251 F120.00
G00 X52.0000 Y-1.1251
G01 F60.00
G01 Z-1.6000
G01 F120.00
G01 X3.0000 Y-1.1251 F120.00
G01 X2.9755 Y-1.1248 F120.00
G01 X2.9448 Y-1.1237 F120.00
G01 X2.6507 Y-1.1093 F120.00
G01 X2.6018 Y-1.1057 F120.00
G01 X2.5409 Y-1.0984 F120.00
G01 X2.2496 Y-1.0552 F120.00
G01 X2.2013 Y-1.0468 F120.00
G01 X2.1414 Y-1.0337 F120.00
G01 X1.8558 Y-0.9622 F120.00
G01 X1.7967 Y-0.9455 F120.00
G01 X1.7501 Y-0.9301 F120.00
G01 X1.4729 Y-0.8309 F120.00
G01 X1.4271 Y-0.8133 F120.00
G01 X1.3709 Y-0.7887 F120.00
G01 X1.1048 Y-0.6628 F120.00
G01 X1.0609 Y-0.6407 F120.00
G01 X1.0074 Y-0.6108 F120.00
G01 X0.7549 Y-0.4594 F120.00
G01 X0.7032 Y-0.4263 F120.00
G01 X0.6631 Y-0.3981 F120.00
G01 X0.4266 Y-0.2227 F120.00
G01 X0.3784 Y-0.1847 F120.00
G01 X0.3413 Y-0.1526 F120.00
G01 X0.1231 Y0.0451 F120.00
G01 X0.0876 Y0.0789 F120.00
G01 X0.0451 Y0.1231 F120.00
G01 X-0.1526 Y0.3413 F120.00
G01 X-0.1847 Y0.3784 F120.00
G01 X-0.2227 Y0.4266 F120.00
G01 X-0.3981 Y0.6631 F120.00
G01 X-0.4263 Y0.7032 F120.00
G01 X-0.4594 Y0.7549 F120.00
G01 X-0.6108 Y1.0074 F120.00
G01 X-0.6350 Y1.0501 F120.00
G01 X-0.6628 Y1.1048 F120.00
G01 X-0.7887 Y1.3709 F120.00
G01 X-0.8086 Y1.4158 F120.00
G01 X-0.8309 Y1.4729 F120.00
G01 X-0.9301 Y1.7501 F120.00
G01 X-0.9455 Y1.7967 F120.00
G01 X-0.9622 Y1.8558 F120.00
G01 X-1.0337 Y2.1414 F120.00
G01 X-1.0468 Y2.2013 F120.00
G01 X-1.0552 Y2.2496 F120.00
G01 X-1.0984 Y2.5409 F120.00
G01 X-1.1044 Y2.5896 F120.00
G01 X-1.1093 Y2.6507 F120.00
G01 X-1.1237 Y2.9448 F120.00
G01 X-1.1248 Y2.9755 F120.00
G01 X-1.1251 Y3.0000 F120.00
G01 X-1.1251 Y35.0000 F120.00
G00 X-1.1251 Y35.0000
G01 F60.00
G01 Z-2.0000
G01 F120.00
G01 X-1.1251 Y3.0000 F120.00
G01 X-1.1248 Y2.9755 F120.00
G01 X-1.1237 Y2.9448 F120.00
G01 X-1.1093 Y2.6507 F120.00
G01 X-1.1044 Y2.5896 F120.00
G01 X-1.0984 Y2.5409 F120.00
G01 X-1.0552 Y2.2496 F120.00
G01 X-1.0468 Y2.2013 F120.00
G01 X-1.0337 Y2.1414 F120.00
G01 X-0.9622 Y1.8558 F120.00
G01 X-0.9455 Y1.7967 F120.00
G01 X-0.9301 Y1.7501 F120.00
G01 X-0.8309 Y1.4729 F120.00
G01 X-0.8086 Y1.4158 F120.00
G01 X-0.7887 Y1.3709 F120.00
G01 X-0.6628 Y1.1048 F120.00
G01 X-0.6350 Y1.0501 F120.00
G01 X-0.6108 Y1.0074 F120.00
G01 X-0.4594 Y0.7549 F120.00
G01 X-0.4263 Y0.7032 F120.00
G01 X-0.3981 Y0.6631 F120.00
G01 X-0.2227 Y0.4266 F120.00
G01 X-0.1847 Y0.3784 F120.00
G01 X-0.1526 Y0.3413 F120.00
G01 X0.0451 Y0.1231 F120.00
G01 X0.0876 Y0.0789 F120.00
G01 X0.1231 Y0.0451 F120.00
G01 X0.3413 Y-0.1526 F120.00
G01 X0.3784 Y-0.1847 F120.00
G01 X0.4266 Y-0.2227 F120.00
G01 X0.6631 Y-0.3981 F120.00
G01 X0.7032 Y-0.4263 F120.00
G01 X0.7549 Y-0.4594 F120.00
G01 X1.0074 Y-0.6108 F120.00
G01 X1.0609 Y-0.6407 F120.00
G01 X1.1048 Y-0.6628 F120.00
G01 X1.3709 Y-0.7887 F120.00
G01 X1.4271 Y-0.8133 F120.00
G01 X1.4729 Y-0.8309 F120.00
G01 X1.7501 Y-0.9301 F120.00
G01 X1.7967 Y-0.9455 F120.00
G01 X1.8558 Y-0.9622 F120.00
G01 X2.1414 Y-1.0337 F120.00
G01 X2.2013 Y-1.0468 F120.00
G01 X2.2496 Y-1.0552 F120.00
G01 X2.5409 Y-1.0984 F120.00
G01 X2.6018 Y-1.1057 F120.00
G01 X2.6507 Y-1.1093 F120.00
G01 X2.9448 Y-1.1237 F120.00
G01 X2.9755 Y-1.1248 F120.00
G01 X3.0000 Y-1.1251 F120.00
G01 X52.0000 Y-1.1251 F120.00
G00 X52.0000 Y-1.1251
G01 F60.00
G01 Z-2.4000
G01 F120.00
G01 X3.0000 Y-1.1251 F120.00
G01 X2.9755 Y-1.1248 F120.00
G01 X2.9448 Y-1.1237 F120.00
G01 X2.6507 Y-1.1093 F120.00
G01 X2.6018 Y-1.1057 F120.00
G01 X2.5409 Y-1.0984 F120.00
G01 X2.2496 Y-1.0552 F120.00
G01 X2.2013 Y-1.0468 F120.00
G01 X2.1414 Y-1.0337 F120.00
G01 X1.8558 Y-0.9622 F120.00
G01 X1.7967 Y-0.9455 F120.00
G01 X1.7501 Y-0.9301 F120.00
G01 X1.4729 Y-0.8309 F120.00
G01 X1.4271 Y-0.8133 F120.00
G01 X1.3709 Y-0.7887 F120.00
G01 X1.1048 Y-0.6628 F120.00
G01 X1.0609 Y-0.6407 F120.00
G01 X1.0074 Y-0.6108 F120.00
G01 X0.7549 Y-0.4594 F120.00
G01 X0.7032 Y-0.4263 F120.00
G01 X0.6631 Y-0.3981 F120.00
G01 X0.4266 Y-0.2227 F120.00
G01 X0.3784 Y-0.1847 F120.00
G01 X0.3413 Y-0.1526 F120.00
G01 X0.1231 Y0.0451 F120.00
G01 X0.0876 Y0.0789 F120.00
G01 X0.0451 Y0.1231 F120.00
G01 X-0.1526 Y0.3413 F120.00
G01 X-0.1847 Y0.3784 F120.00
G01 X-0.2227 Y0.4266 F120.00
G01 X-0.3981 Y0.6631 F120.00
G01 X-0.4263 Y0.7032 F120.00
G01 X-0.4594 Y0.7549 F120.00
G01 X-0.6108 Y1.0074 F120.00
G01 X-0.6350 Y1.0501 F120.00
G01 X-0.6628 Y1.1048 F120.00
G01 X-0.7887 Y1.3709 F120.00
G01 X-0.8086 Y1.4158 F120.00
G01 X-0.8309 Y1.4729 F120.00
G01 X-0.9301 Y1.7501 F120.00
G01 X-0.9455 Y1.7967 F120.00
G01 X-0.9622 Y1.8558 F120.00
G01 X-1.0337 Y2.1414 F120.00
G01 X-1.0468 Y2.2013 F120.00
G01 X-1.0552 Y2.2496 F120.00
G01 X-1.0984 Y2.5409 F120.00
G01 X-1.1044 Y2.5896 F120.00
G01 X-1.1093 Y2.6507 F120.00
G01 X-1.1237 Y2.9448 F120.00
G01 X-1.1248 Y2.9755 F120.00
G01 X-1.1251 Y3.0000 F120.00
G01 X-1.1251 Y35.0000 F120.00
G00 Z2.0000
G00 X-1.1251 Y41.0000
G01 F60.00
G01 Z-0.4000
G01 F120.00
G01 X-1.1251 Y73.0000 F120.00
G01 X-1.1246 Y73.0307 F120.00
G01 X-1.1237 Y73.0552 F120.00
G01 X-1.1093 Y73.3493 F120.00
G01 X-1.1057 Y73.3982 F120.00
G01 X-1.0984 Y73.4591 F120.00
G01 X-1.0552 Y73.7504 F120.00
G01 X-1.0468 Y73.7987 F120.00
G01 X-1.0337 Y73.8586 F120.00
G01 X-0.9622 Y74.1442 F120.00
G01 X-0.9491 Y74.1915 F120.00
G01 X-0.9301 Y74.2499 F120.00
G01 X-0.8309 Y74.5271 F120.00
G01 X-0.8086 Y74.5842 F120.00
G01 X-0.7887 Y74.6291 F120.00
G01 X-0.6628 Y74.8952 F120.00
G01 X-0.6407 Y74.9391 F120.00
G01 X-0.6108 Y74.9926 F120.00
G01 X-0.4594 Y75.2451 F120.00
G01 X-0.4331 Y75.2866 F120.00
G01 X-0.3981 Y75.3369 F120.00
G01 X-0.2227 Y75.5734 F120.00
G01 X-0.1925 Y75.6121 F120.00
G01 X-0.1526 Y75.6587 F120.00
G01 X0.0451 Y75.8769 F120.00
G01 X0.0789 Y75.9124 F120.00
G01 X0.1231 Y75.9549 F120.00
G01 X0.3413 Y76.1526 F120.00
G01 X0.3784 Y76.1847 F120.00
G01 X0.4266 Y76.2227 F120.00
G01 X0.6631 Y76.3981 F120.00
G01 X0.7032 Y76.4263 F120.00
G01 X0.7549 Y76.4594 F120.00
G01 X1.0074 Y76.6108 F120.00
G01 X1.0501 Y76.6350 F120.00
G01 X1.1048 Y76.6628 F120.00
G01 X1.3709 Y76.7887 F120.00
G01 X1.4271 Y76.8133 F120.00
G01 X1.4729 Y76.8309 F120.00
G01 X1.7501 Y76.9301 F120.00
G01 X1.7967 Y76.9455 F120.00
G01 X1.8558 Y76.9622 F120.00
G01 X2.1414 Y77.0337 F120.00
G01 X2.1893 Y77.0445 F120.00
G01 X2.2496 Y77.0552 F120.00
G01 X2.5409 Y77.0984 F120.00
G01 X2.6018 Y77.1057 F120.00
G01 X2.6507 Y77.1093 F120.00
G01 X2.9448 Y77.1237 F120.00
G01 X2.9755 Y77.1248 F120.00
G01 X3.0000 Y77.1251 F120.00
G01 X52.0000 Y77.1251 F120.00
G00 X52.0000 Y77.1251
G01 F60.00
G01 Z-0.8000
G01 F120.00
G01 X3.0000 Y77.1251 F120.00
G01 X2.9755 Y77.1248 F120.00
G01 X2.9448 Y77.1237 F120.00
G01 X2.6507 Y77.1093 F120.00
G01 X2.6018 Y77.1057 F120.00
G01 X2.5409 Y77.0984 F120.00
G01 X2.2496 Y77.0552 F120.00
G01 X2.1893 Y77.0445 F120.00
G01 X2.1414 Y77.0337 F120.00
G01 X1.8558 Y76.9622 F120.00
G01 X1.7967 Y76.9455 F120.00
G01 X1.7501 Y76.9301 F120.00
G01 X1.4729 Y76.8309 F120.00
G01 X1.4271 Y76.8133 F120.00
G01 X1.3709 Y76.7887 F120.00
G01 X1.1048 Y76.6628 F120.00
G01 X1.0501 Y76.6350 F120.00
G01 X1.0074 Y76.6108 F120.00
G01 X0.7549 Y76.4594 F120.00
G01 X0.7032 Y76.4263 F120.00
G01 X0.6631 Y76.3981 F120.00
G01 X0.4266 Y76.2227 F120.00
G01 X0.3784 Y76.1847 F120.00
G01 X0.3413 Y76.1526 F120.00
G01 X0.1231 Y75.9549 F120.00
G01 X0.0789 Y75.9124 F120.00
G01 X0.0451 Y75.8769 F120.00
G01 X-0.1526 Y75.6587 F120.00
G01 X-0.1925 Y75.6121 F120.00
G01 X-0.2227 Y75.5734 F120.00
G01 X-0.3981 Y75.3369 F120.00
G01 X-0.4331 Y75.2866 F120.00
G01 X-0.4594 Y75.2451 F120.00
G01 X-0.6108 Y74.9926 F120.00
G01 X-0.6407 Y74.9391 F120.00
G01 X-0.6628 Y74.8952 F120.00
G01 X-0.7887 Y74.6291 F120.00
G01 X-0.8086 Y74.5842 F120.00
G01 X-0.8309 Y74.5271 F120.00
G01 X-0.9301 Y74.2499 F120.00
G01 X-0.9491 Y74.1915 F120.00
G01 X-0.9622 Y74.1442 F120.00
G01 X-1.0337 Y73.8586 F120.00
G01 X-1.0468 Y73.7987 F120.00
G01 X-1.0552 Y73.7504 F120.00
G01 X-1.0984 Y73.4591 F120.00
G01 X-1.1057 Y73.3982 F120.00
G01 X-1.1093 Y73.3493 F120.00
G01 X-1.1237 Y73.0552 F120.00
G01 X-1.1246 Y73.0307 F120.00
G01 X-1.1251 Y73.0000 F120.00
G01 X-1.1251 Y41.0000 F120.00
G00 X-1.1251 Y41.0000
G01 F60.00
G01 Z-1.2000
G01 F120.00
G01 X-1.1251 Y73.0000 F120.00
G01 X-1.1246 Y73.0307 F120.00
G01 X-1.1237 Y73.0552 F120.00
G01 X-1.1093 Y73.3493 F120.00
G01 X-1.1057 Y73.3982 F120.00
G01 X-1.0984 Y73.4591 F120.00
G01 X-1.0552 Y73.7504 F120.00
G01 X-1.0468 Y73.7987 F120.00
G01 X-1.0337 Y73.8586 F120.00
G01 X-0.9622 Y74.1442 F120.00
G01 X-0.9491 Y74.1915 F120.00
G01 X-0.9301 Y74.2499 F120.00
G01 X-0.8309 Y74.5271 F120.00
G01 X-0.8086 Y74.5842 F120.00
G01 X-0.7887 Y74.6291 F120.00
G01 X-0.6628 Y74.8952 F120.00
G01 X-0.6407 Y74.9391 F120.00
G01 X-0.6108 Y74.9926 F120.00
G01 X-0.4594 Y75.2451 F120.00
G01 X-0.4331 Y75.2866 F120.00
G01 X-0.3981 Y75.3369 F120.00
G01 X-0.2227 Y75.5734 F120.00
G01 X-0.1925 Y75.6121 F120.00
G01 X-0.1526 Y75.6587 F120.00
G01 X0.0451 Y75.8769 F120.00
G01 X0.0789 Y75.9124 F120.00
G01 X0.1231 Y75.9549 F120.00
G01 X0.3413 Y76.1526 F120.00
G01 X0.3784 Y76.1847 F120.00
G01 X0.4266 Y76.2227 F120.00
G01 X0.6631 Y76.3981 F120.00
G01 X0.7032 Y76.4263 F120.00
G01 X0.7549 Y76.4594 F120.00
G01 X1.0074 Y76.6108 F120.00
G01 X1.0501 Y76.6350 F120.00
G01 X1.1048 Y76.6628 F120.00
G01 X1.3709 Y76.7887 F120.00
G01 X1.4271 Y76.8133 F120.00
G01 X1.4729 Y76.8309 F120.00
G01 X1.7501 Y76.9301 F120.00
G01 X1.7967 Y76.9455 F120.00
G01 X1.8558 Y76.9622 F120.00
G01 X2.1414 Y77.0337 F120.00
G01 X2.1893 Y77.0445 F120.00
G01 X2.2496 Y77.0552 F120.00
G01 X2.5409 Y77.0984 F120.00
G01 X2.6018 Y77.1057 F120.00
G01 X2.6507 Y77.1093 F120.00
G01 X2.9448 Y77.1237 F120.00
G01 X2.9755 Y77.1248 F120.00
G01 X3.0000 Y77.1251 F120.00
G01 X52.0000 Y77.1251 F120.00
G00 X52.0000 Y77.1251
G01 F60.00
G01 Z-1.6000
G01 F120.00
G01 X3.0000 Y77.1251 F120.00
G01 X2.9755 Y77.1248 F120.00
G01 X2.9448 Y77.1237 F120.00
G01 X2.6507 Y77.1093 F120.00
G01 X2.6018 Y77.1057 F120.00
G01 X2.5409 Y77.0984 F120.00
G01 X2.2496 Y77.0552 F120.00
G01 X2.1893 Y77.0445 F120.00
G01 X2.1414 Y77.0337 F120.00
G01 X1.8558 Y76.9622 F120.00
G01 X1.7967 Y76.9455 F120.00
G01 X1.7501 Y76.9301 F120.00
G01 X1.4729 Y76.8309 F120.00
G01 X1.4271 Y76.8133 F120.00
G01 X1.3709 Y76.7887 F120.00
G01 X1.1048 Y76.6628 F120.00
G01 X1.0501 Y76.6350 F120.00
G01 X1.0074 Y76.6108 F120.00
G01 X0.7549 Y76.4594 F120.00
G01 X0.7032 Y76.4263 F120.00
G01 X0.6631 Y76.3981 F120.00
G01 X0.4266 Y76.2227 F120.00
G01 X0.3784 Y76.1847 F120.00
G01 X0.3413 Y76.1526 F120.00
G01 X0.1231 Y75.9549 F120.00
G01 X0.0789 Y75.9124 F120.00
G01 X0.0451 Y75.8769 F120.00
G01 X-0.1526 Y75.6587 F120.00
G01 X-0.1925 Y75.6121 F120.00
G01 X-0.2227 Y75.5734 F120.00
G01 X-0.3981 Y75.3369 F120.00
G01 X-0.4331 Y75.2866 F120.00
G01 X-0.4594 Y75.2451 F120.00
G01 X-0.6108 Y74.9926 F120.00
G01 X-0.6407 Y74.9391 F120.00
G01 X-0.6628 Y74.8952 F120.00
G01 X-0.7887 Y74.6291 F120.00
G01 X-0.8086 Y74.5842 F120.00
G01 X-0.8309 Y74.5271 F120.00
G01 X-0.9301 Y74.2499 F120.00
G01 X-0.9491 Y74.1915 F120.00
G01 X-0.9622 Y74.1442 F120.00
G01 X-1.0337 Y73.8586 F120.00
G01 X-1.0468 Y73.7987 F120.00
G01 X-1.0552 Y73.7504 F120.00
G01 X-1.0984 Y73.4591 F120.00
G01 X-1.1057 Y73.3982 F120.00
G01 X-1.1093 Y73.3493 F120.00
G01 X-1.1237 Y73.0552 F120.00
G01 X-1.1246 Y73.0307 F120.00
G01 X-1.1251 Y73.0000 F120.00
G01 X-1.1251 Y41.0000 F120.00
G00 X-1.1251 Y41.0000
G01 F60.00
G01 Z-2.0000
G01 F120.00
G01 X-1.1251 Y73.0000 F120.00
G01 X-1.1246 Y73.0307 F120.00
G01 X-1.1237 Y73.0552 F120.00
G01 X-1.1093 Y73.3493 F120.00
G01 X-1.1057 Y73.3982 F120.00
G01 X-1.0984 Y73.4591 F120.00
G01 X-1.0552 Y73.7504 F120.00
G01 X-1.0468 Y73.7987 F120.00
G01 X-1.0337 Y73.8586 F120.00
G01 X-0.9622 Y74.1442 F120.00
G01 X-0.9491 Y74.1915 F120.00
G01 X-0.9301 Y74.2499 F120.00
G01 X-0.8309 Y74.5271 F120.00
G01 X-0.8086 Y74.5842 F120.00
G01 X-0.7887 Y74.6291 F120.00
G01 X-0.6628 Y74.8952 F120.00
G01 X-0.6407 Y74.9391 F120.00
G01 X-0.6108 Y74.9926 F120.00
G01 X-0.4594 Y75.2451 F120.00
G01 X-0.4331 Y75.2866 F120.00
G01 X-0.3981 Y75.3369 F120.00
G01 X-0.2227 Y75.5734 F120.00
G01 X-0.1925 Y75.6121 F120.00
G01 X-0.1526 Y75.6587 F120.00
G01 X0.0451 Y75.8769 F120.00
G01 X0.0789 Y75.9124 F120.00
G01 X0.1231 Y75.9549 F120.00
G01 X0.3413 Y76.1526 F120.00
G01 X0.3784 Y76.1847 F120.00
G01 X0.4266 Y76.2227 F120.00
G01 X0.6631 Y76.3981 F120.00
G01 X0.7032 Y76.4263 F120.00
G01 X0.7549 Y76.4594 F120.00
G01 X1.0074 Y76.6108 F120.00
G01 X1.0501 Y76.6350 F120.00
G01 X1.1048 Y76.6628 F120.00
G01 X1.3709 Y76.7887 F120.00
G01 X1.4271 Y76.8133 F120.00
G01 X1.4729 Y76.8309 F120.00
G01 X1.7501 Y76.9301 F120.00
G01 X1.7967 Y76.9455 F120.00
G01 X1.8558 Y76.9622 F120.00
G01 X2.1414 Y77.0337 F120.00
G01 X2.1893 Y77.0445 F120.00
G01 X2.2496 Y77.0552 F120.00
G01 X2.5409 Y77.0984 F120.00
G01 X2.6018 Y77.1057 F120.00
G01 X2.6507 Y77.1093 F120.00
G01 X2.9448 Y77.1237 F120.00
G01 X2.9755 Y77.1248 F120.00
G01 X3.0000 Y77.1251 F120.00
G01 X52.0000 Y77.1251 F120.00
G00 X52.0000 Y77.1251
G01 F60.00
G01 Z-2.4000
G01 F120.00
G01 X3.0000 Y77.1251 F120.00
G01 X2.9755 Y77.1248 F120.00
G01 X2.9448 Y77.1237 F120.00
G01 X2.6507 Y77.1093 F120.00
G01 X2.6018 Y77.1057 F120.00
G01 X2.5409 Y77.0984 F120.00
G01 X2.2496 Y77.0552 F120.00
G01 X2.1893 Y77.0445 F120.00
G01 X2.1414 Y77.0337 F120.00
G01 X1.8558 Y76.9622 F120.00
G01 X1.7967 Y76.9455 F120.00
G01 X1.7501 Y76.9301 F120.00
G01 X1.4729 Y76.8309 F120.00
G01 X1.4271 Y76.8133 F120.00
G01 X1.3709 Y76.7887 F120.00
G01 X1.1048 Y76.6628 F120.00
G01 X1.0501 Y76.6350 F120.00
G01 X1.0074 Y76.6108 F120.00
G01 X0.7549 Y76.4594 F120.00
G01 X0.7032 Y76.4263 F120.00
G01 X0.6631 Y76.3981 F120.00
G01 X0.4266 Y76.2227 F120.00
G01 X0.3784 Y76.1847 F120.00
G01 X0.3413 Y76.1526 F120.00
G01 X0.1231 Y75.9549 F120.00
G01 X0.0789 Y75.9124 F120.00
G01 X0.0451 Y75.8769 F120.00
G01 X-0.1526 Y75.6587 F120.00
G01 X-0.1925 Y75.6121 F120.00
G01 X-0.2227 Y75.5734 F120.00
G01 X-0.3981 Y75.3369 F120.00
G01 X-0.4331 Y75.2866 F120.00
G01 X-0.4594 Y75.2451 F120.00
G01 X-0.6108 Y74.9926 F120.00
G01 X-0.6407 Y74.9391 F120.00
G01 X-0.6628 Y74.8952 F120.00
G01 X-0.7887 Y74.6291 F120.00
G01 X-0.8086 Y74.5842 F120.00
G01 X-0.8309 Y74.5271 F120.00
G01 X-0.9301 Y74.2499 F120.00
G01 X-0.9491 Y74.1915 F120.00
G01 X-0.9622 Y74.1442 F120.00
G01 X-1.0337 Y73.8586 F120.00
G01 X-1.0468 Y73.7987 F120.00
G01 X-1.0552 Y73.7504 F120.00
G01 X-1.0984 Y73.4591 F120.00
G01 X-1.1057 Y73.3982 F120.00
G01 X-1.1093 Y73.3493 F120.00
G01 X-1.1237 Y73.0552 F120.00
G01 X-1.1246 Y73.0307 F120.00
G01 X-1.1251 Y73.0000 F120.00
G01 X-1.1251 Y41.0000 F120.00
G00 Z2.0000
G00 X58.0000 Y77.1251
G01 F60.00
G01 Z-0.4000
G01 F120.00
G01 X107.0000 Y77.1251 F120.00
G01 X107.0245 Y77.1248 F120.00
G01 X107.0552 Y77.1237 F120.00
G01 X107.3493 Y77.1093 F120.00
G01 X107.3982 Y77.1057 F120.00
G01 X107.4591 Y77.0984 F120.00
G01 X107.7504 Y77.0552 F120.00
G01 X107.7987 Y77.0468 F120.00
G01 X107.8586 Y77.0337 F120.00
G01 X108.1442 Y76.9622 F120.00
G01 X108.2033 Y76.9455 F120.00
G01 X108.2499 Y76.9301 F120.00
G01 X108.5271 Y76.8309 F120.00
G01 X108.5729 Y76.8133 F120.00
G01 X108.6291 Y76.7887 F120.00
G01 X108.8952 Y76.6628 F120.00
G01 X108.9391 Y76.6407 F120.00
G01 X108.9926 Y76.6108 F120.00
G01 X109.2451 Y76.4594 F120.00
G01 X109.2968 Y76.4263 F120.00
G01 X109.3369 Y76.3981 F120.00
G01 X109.5734 Y76.2227 F120.00
G01 X109.6216 Y76.1847 F120.00
G01 X109.6587 Y76.1526 F120.00
G01 X109.8769 Y75.9549 F120.00
G01 X109.9124 Y75.9211 F120.00
G01 X109.9549 Y75.8769 F120.00
G01 X110.1526 Y75.6587 F120.00
G01 X110.1847 Y75.6216 F120.00
G01 X110.2227 Y75.5734 F120.00
G01 X110.3981 Y75.3369 F120.00
G01 X110.4263 Y75.2968 F120.00
G01 X110.4594 Y75.2451 F120.00
G01 X110.6108 Y74.9926 F120.00
G01 X110.6350 Y74.9499 F120.00
G01 X110.6628 Y74.8952 F120.00
G01 X110.7887 Y74.6291 F120.00
G01 X110.8086 Y74.5842 F120.00
G01 X110.8309 Y74.5271 F120.00
G01 X110.9301 Y74.2499 F120.00
G01 X110.9455 Y74.2033 F120.00
G01 X110.9622 Y74.1442 F120.00
G01 X111.0337 Y73.8586 F120.00
G01 X111.0468 Y73.7987 F120.00
G01 X111.0552 Y73.7504 F120.00
G01 X111.0984 Y73.4591 F120.00
G01 X111.1044 Y73.4104 F120.00
G01 X111.1093 Y73.3493 F120.00
G01 X111.1237 Y73.0552 F120.00
G01 X111.1251 Y73.0000 F120.00
G01 X111.1251 Y41.0000 F120.00
G00 X111.1251 Y41.0000
G01 F60.00
G01 Z-0.8000
G01 F120.00
G01 X111.1251 Y73.0000 F120.00
G01 X111.1237 Y73.0552 F120.00
G01 X111.1093 Y73.3493 F120.00
G01 X111.1044 Y73.4104 F120.00
G01 X111.0984 Y73.4591 F120.00
G01 X111.0552 Y73.7504 F120.00
G01 X111.0468 Y73.7987 F120.00
G01 X111.0337 Y73.8586 F120.00
G01 X110.9622 Y74.1442 F120.00
G01 X110.9455 Y74.2033 F120.00
G01 X110.9301 Y74.2499 F120.00
G01 X110.8309 Y74.5271 F120.00
G01 X110.8086 Y74.5842 F120.00
G01 X110.7887 Y74.6291 F120.00
G01 X110.6628 Y74.8952 F120.00
G01 X110.6350 Y74.9499 F120.00
G01 X110.6108 Y74.9926 F120.00
G01 X110.4594 Y75.2451 F120.00
G01 X110.4263 Y75.2968 F120.00
G01 X110.3981 Y75.3369 F120.00
G01 X110.2227 Y75.5734 F120.00
G01 X110.1847 Y75.6216 F120.00
G01 X110.1526 Y75.6587 F120.00
G01 X109.9549 Y75.8769 F120.00
G01 X109.9124 Y75.9211 F120.00
G01 X109.8769 Y75.9549 F120.00
G01 X109.6587 Y76.1526 F120.00
G01 X109.6216 Y76.1847 F120.00
G01 X109.5734 Y76.2227 F120.00
G01 X109.3369 Y76.3981 F120.00
G01 X109.2968 Y76.4263 F120.00
G01 X109.2451 Y76.4594 F120.00
G01 X108.9926 Y76.6108 F120.00
G01 X108.9391 Y76.6407 F120.00
G01 X108.8952 Y76.6628 F120.00
G01 X108.6291 Y76.7887 F120.00
G01 X108.5729 Y76.8133 F120.00
G01 X108.5271 Y76.8309 F120.00
G01 X108.2499 Y76.9301 F120.00
G01 X108.2033 Y76.9455 F120.00
G01 X108.1442 Y76.9622 F120.00
G01 X107.8586 Y77.0337 F120.00
G01 X107.7987 Y77.0468 F120.00
G01 X107.7504 Y77.0552 F120.00
G01 X107.4591 Y77.0984 F120.00
G01 X107.3982 Y77.1057 F120.00
G01 X107.3493 Y77.1093 F120.00
G01 X107.0552 Y77.1237 F120.00
G01 X107.0245 Y77.1248 F120.00
G01 X107.0000 Y77.1251 F120.00
G01 X58.0000 Y77.1251 F120.00
G00 X58.0000 Y77.1251
G01 F60.00
G01 Z-1.2000
G01 F120.00
G01 X107.0000 Y77.1251 F120.00
G01 X107.0245 Y77.1248 F120.00
G01 X107.0552 Y77.1237 F120.00
G01 X107.3493 Y77.1093 F120.00
G01 X107.3982 Y77.1057 F120.00
G01 X107.4591 Y77.0984 F120.00
G01 X107.7504 Y77.0552 F120.00
G01 X107.7987 Y77.0468 F120.00
G01 X107.8586 Y77.0337 F120.00
G01 X108.1442 Y76.9622 F120.00
G01 X108.2033 Y76.9455 F120.00
G01 X108.2499 Y76.9301 F120.00
G01 X108.5271 Y76.8309 F120.00
G01 X108.5729 Y76.8133 F120.00
G01 X108.6291 Y76.7887 F120.00
G01 X108.8952 Y76.6628 F120.00
G01 X108.9391 Y76.6407 F120.00
G01 X108.9926 Y76.6108 F120.00
G01 X109.2451 Y76.4594 F120.00
G01 X109.2968 Y76.4263 F120.00
G01 X109.3369 Y76.3981 F120.00
G01 X109.5734 Y76.2227 F120.00
G01 X109.6216 Y76.1847 F120.00
G01 X109.6587 Y76.1526 F120.00
G01 X109.8769 Y75.9549 F120.00
G01 X109.9124 Y75.9211 F120.00
G01 X109.9549 Y75.8769 F120.00
G01 X110.1526 Y75.6587 F120.00
G01 X110.1847 Y75.6216 F120.00
G01 X110.2227 Y75.5734 F120.00
G01 X110.3981 Y75.3369 F120.00
G01 X110.4263 Y75.2968 F120.00
G01 X110.4594 Y75.2451 F120.00
G01 X110.6108 Y74.9926 F120.00
G01 X110.6350 Y74.9499 F120.00
G01 X110.6628 Y74.8952 F120.00
G01 X110.7887 Y74.6291 F120.00
G01 X110.8086 Y74.5842 F120.00
G01 X110.8309 Y74.5271 F120.00
G01 X110.9301 Y74.2499 F120.00
G01 X110.9455 Y74.2033 F120.00
G01 X110.9622 Y74.1442 F120.00
G01 X111.0337 Y73.8586 F120.00
G01 X111.0468 Y73.7987 F120.00
G01 X111.0552 Y73.7504 F120.00
G01 X111.0984 Y73.4591 F120.00
G01 X111.1044 Y73.4104 F120.00
G01 X111.1093 Y73.3493 F120.00
G01 X111.1237 Y73.0552 F120.00
G01 X111.1251 Y73.0000 F120.00
G01 X111.1251 Y41.0000 F120.00
G00 X111.1251 Y41.0000
G01 F60.00
G01 Z-1.6000
G01 F120.00
G01 X111.1251 Y73.0000 F120.00
G01 X111.1237 Y73.0552 F120.00
G01 X111.1093 Y73.3493 F120.00
G01 X111.1044 Y73.4104 F120.00
G01 X111.0984 Y73.4591 F120.00
G01 X111.0552 Y73.7504 F120.00
G01 X111.0468 Y73.7987 F120.00
G01 X111.0337 Y73.8586 F120.00
G01 X110.9622 Y74.1442 F120.00
G01 X110.9455 Y74.2033 F120.00
G01 X110.9301 Y74.2499 F120.00
G01 X110.8309 Y74.5271 F120.00
G01 X110.8086 Y74.5842 F120.00
G01 X110.7887 Y74.6291 F120.00
G01 X110.6628 Y74.8952 F120.00
G01 X110.6350 Y74.9499 F120.00
G01 X110.6108 Y74.9926 F120.00
G01 X110.4594 Y75.2451 F120.00
G01 X110.4263 Y75.2968 F120.00
G01 X110.3981 Y75.3369 F120.00
G01 X110.2227 Y75.5734 F120.00
G01 X110.1847 Y75.6216 F120.00
G01 X110.1526 Y75.6587 F120.00
G01 X109.9549 Y75.8769 F120.00
G01 X109.9124 Y75.9211 F120.00
G01 X109.8769 Y75.9549 F120.00
G01 X109.6587 Y76.1526 F120.00
G01 X109.6216 Y76.1847 F120.00
G01 X109.5734 Y76.2227 F120.00
G01 X109.3369 Y76.3981 F120.00
G01 X109.2968 Y76.4263 F120.00
G01 X109.2451 Y76.4594 F120.00
G01 X108.9926 Y76.6108 F120.00
G01 X108.9391 Y76.6407 F120.00
G01 X108.8952 Y76.6628 F120.00
G01 X108.6291 Y76.7887 F120.00
G01 X108.5729 Y76.8133 F120.00
G01 X108.5271 Y76.8309 F120.00
G01 X108.2499 Y76.9301 F120.00
G01 X108.2033 Y76.9455 F120.00
G01 X108.1442 Y76.9622 F120.00
G01 X107.8586 Y77.0337 F120.00
G01 X107.7987 Y77.0468 F120.00
G01 X107.7504 Y77.0552 F120.00
G01 X107.4591 Y77.0984 F120.00
G01 X107.3982 Y77.1057 F120.00
G01 X107.3493 Y77.1093 F120.00
G01 X107.0552 Y77.1237 F120.00
G01 X107.0245 Y77.1248 F120.00
G01 X107.0000 Y77.1251 F120.00
G01 X58.0000 Y77.1251 F120.00
G00 X58.0000 Y77.1251
G01 F60.00
G01 Z-2.0000
G01 F120.00
G01 X107.0000 Y77.1251 F120.00
G01 X107.0245 Y77.1248 F120.00
G01 X107.0552 Y77.1237 F120.00
G01 X107.3493 Y77.1093 F120.00
G01 X107.3982 Y77.1057 F120.00
G01 X107.4591 Y77.0984 F120.00
G01 X107.7504 Y77.0552 F120.00
G01 X107.7987 Y77.0468 F120.00
G01 X107.8586 Y77.0337 F120.00
G01 X108.1442 Y76.9622 F120.00
G01 X108.2033 Y76.9455 F120.00
G01 X108.2499 Y76.9301 F120.00
G01 X108.5271 Y76.8309 F120.00
G01 X108.5729 Y76.8133 F120.00
G01 X108.6291 Y76.7887 F120.00
G01 X108.8952 Y76.6628 F120.00
G01 X108.9391 Y76.6407 F120.00
G01 X108.9926 Y76.6108 F120.00
G01 X109.2451 Y76.4594 F120.00
G01 X109.2968 Y76.4263 F120.00
G01 X109.3369 Y76.3981 F120.00
G01 X109.5734 Y76.2227 F120.00
G01 X109.6216 Y76.1847 F120.00
G01 X109.6587 Y76.1526 F120.00
G01 X109.8769 Y75.9549 F120.00
G01 X109.9124 Y75.9211 F120.00
G01 X109.9549 Y75.8769 F120.00
G01 X110.1526 Y75.6587 F120.00
G01 X110.1847 Y75.6216 F120.00
G01 X110.2227 Y75.5734 F120.00
G01 X110.3981 Y75.3369 F120.00
G01 X110.4263 Y75.2968 F120.00
G01 X110.4594 Y75.2451 F120.00
G01 X110.6108 Y74.9926 F120.00
G01 X110.6350 Y74.9499 F120.00
G01 X110.6628 Y74.8952 F120.00
G01 X110.7887 Y74.6291 F120.00
G01 X110.8086 Y74.5842 F120.00
G01 X110.8309 Y74.5271 F120.00
G01 X110.9301 Y74.2499 F120.00
G01 X110.9455 Y74.2033 F120.00
G01 X110.9622 Y74.1442 F120.00
G01 X111.0337 Y73.8586 F120.00
G01 X111.0468 Y73.7987 F120.00
G01 X111.0552 Y73.7504 F120.00
G01 X111.0984 Y73.4591 F120.00
G01 X111.1044 Y73.4104 F120.00
G01 X111.1093 Y73.3493 F120.00
G01 X111.1237 Y73.0552 F120.00
G01 X111.1251 Y73.0000 F120.00
G01 X111.1251 Y41.0000 F120.00
G00 X111.1251 Y41.0000
G01 F60.00
G01 Z-2.4000
G01 F120.00
G01 X111.1251 Y73.0000 F120.00
G01 X111.1237 Y73.0552 F120.00
G01 X111.1093 Y73.3493 F120.00
G01 X111.1044 Y73.4104 F120.00
G01 X111.0984 Y73.4591 F120.00
G01 X111.0552 Y73.7504 F120.00
G01 X111.0468 Y73.7987 F120.00
G01 X111.0337 Y73.8586 F120.00
G01 X110.9622 Y74.1442 F120.00
G01 X110.9455 Y74.2033 F120.00
G01 X110.9301 Y74.2499 F120.00
G01 X110.8309 Y74.5271 F120.00
G01 X110.8086 Y74.5842 F120.00
G01 X110.7887 Y74.6291 F120.00
G01 X110.6628 Y74.8952 F120.00
G01 X110.6350 Y74.9499 F120.00
G01 X110.6108 Y74.9926 F120.00
G01 X110.4594 Y75.2451 F120.00
G01 X110.4263 Y75.2968 F120.00
G01 X110.3981 Y75.3369 F120.00
G01 X110.2227 Y75.5734 F120.00
G01 X110.1847 Y75.6216 F120.00
G01 X110.1526 Y75.6587 F120.00
G01 X109.9549 Y75.8769 F120.00
G01 X109.9124 Y75.9211 F120.00
G01 X109.8769 Y75.9549 F120.00
G01 X109.6587 Y76.1526 F120.00
G01 X109.6216 Y76.1847 F120.00
G01 X109.5734 Y76.2227 F120.00
G01 X109.3369 Y76.3981 F120.00
G01 X109.2968 Y76.4263 F120.00
G01 X109.2451 Y76.4594 F120.00
G01 X108.9926 Y76.6108 F120.00
G01 X108.9391 Y76.6407 F120.00
G01 X108.8952 Y76.6628 F120.00
G01 X108.6291 Y76.7887 F120.00
G01 X108.5729 Y76.8133 F120.00
G01 X108.5271 Y76.8309 F120.00
G01 X108.2499 Y76.9301 F120.00
G01 X108.2033 Y76.9455 F120.00
G01 X108.1442 Y76.9622 F120.00
G01 X107.8586 Y77.0337 F120.00
G01 X107.7987 Y77.0468 F120.00
G01 X107.7504 Y77.0552 F120.00
G01 X107.4591 Y77.0984 F120.00
G01 X107.3982 Y77.1057 F120.00
G01 X107.3493 Y77.1093 F120.00
G01 X107.0552 Y77.1237 F120.00
G01 X107.0245 Y77.1248 F120.00
G01 X107.0000 Y77.1251 F120.00
G01 X58.0000 Y77.1251 F120.00
G00 Z2.0000
G00 X111.1251 Y35.0000
G01 F60.00
G01 Z-0.4000
G01 F120.00
G01 X111.1251 Y3.0000 F120.00
G01 X111.1246 Y2.9693 F120.00
G01 X111.1237 Y2.9448 F120.00
G01 X111.1093 Y2.6507 F120.00
G01 X111.1057 Y2.6018 F120.00
G01 X111.0984 Y2.5409 F120.00
G01 X111.0552 Y2.2496 F120.00
G01 X111.0468 Y2.2013 F120.00
G01 X111.0337 Y2.1414 F120.00
G01 X110.9622 Y1.8558 F120.00
G01 X110.9491 Y1.8085 F120.00
G01 X110.9301 Y1.7501 F120.00
G01 X110.8309 Y1.4729 F120.00
G01 X110.8086 Y1.4158 F120.00
G01 X110.7887 Y1.3709 F120.00
G01 X110.6628 Y1.1048 F120.00
G01 X110.6407 Y1.0609 F120.00
G01 X110.6108 Y1.0074 F120.00
G01 X110.4594 Y0.7549 F120.00
G01 X110.4331 Y0.7134 F120.00
G01 X110.3981 Y0.6631 F120.00
G01 X110.2227 Y0.4266 F120.00
G01 X110.1925 Y0.3879 F120.00
G01 X110.1526 Y0.3413 F120.00
G01 X109.9549 Y0.1231 F120.00
G01 X109.9211 Y0.0876 F120.00
G01 X109.8769 Y0.0451 F120.00
G01 X109.6587 Y-0.1526 F120.00
G01 X109.6216 Y-0.1847 F120.00
G01 X109.5734 Y-0.2227 F120.00
G01 X109.3369 Y-0.3981 F120.00
G01 X109.2968 Y-0.4263 F120.00
G01 X109.2451 Y-0.4594 F120.00
G01 X108.9926 Y-0.6108 F120.00
G01 X108.9499 Y-0.6350 F120.00
G01 X108.8952 Y-0.6628 F120.00
G01 X108.6291 Y-0.7887 F120.00
G01 X108.5729 Y-0.8133 F120.00
G01 X108.5271 Y-0.8309 F120.00
G01 X108.2499 Y-0.9301 F120.00
G01 X108.2033 Y-0.9455 F120.00
G01 X108.1442 Y-0.9622 F120.00
G01 X107.8586 Y-1.0337 F120.00
G01 X107.8107 Y-1.0445 F120.00
G01 X107.7504 Y-1.0552 F120.00
G01 X107.4591 Y-1.0984 F120.00
G01 X107.3982 Y-1.1057 F120.00
G01 X107.3493 Y-1.1093 F120.00
G01 X107.0552 Y-1.1237 F120.00
G01 X107.0245 Y-1.1248 F120.00
G01 X107.0000 Y-1.1251 F120.00
G01 X58.0000 Y-1.1251 F120.00
G00 X58.0000 Y-1.1251
G01 F60.00
G01 Z-0.8000
G01 F120.00
G01 X107.0000 Y-1.1251 F120.00
G01 X107.0245 Y-1.1248 F120.00
G01 X107.0552 Y-1.1237 F120.00
G01 X107.3493 Y-1.1093 F120.00
G01 X107.3982 Y-1.1057 F120.00
G01 X107.4591 Y-1.0984 F120.00
G01 X107.7504 Y-1.0552 F120.00
G01 X107.8107 Y-1.0445 F120.00
G01 X107.8586 Y-1.0337 F120.00
G01 X108.1442 Y-0.9622 F120.00
G01 X108.2033 Y-0.9455 F120.00
G01 X108.2499 Y-0.9301 F120.00
G01 X108.5271 Y-0.8309 F120.00
G01 X108.5729 Y-0.8133 F120.00
G01 X108.6291 Y-0.7887 F120.00
G01 X108.8952 Y-0.6628 F120.00
G01 X108.9499 Y-0.6350 F120.00
G01 X108.9926 Y-0.6108 F120.00
G01 X109.2451 Y-0.4594 F120.00
G01 X109.2968 Y-0.4263 F120.00
G01 X109.3369 Y-0.3981 F120.00
G01 X109.5734 Y-0.2227 F120.00
G01 X109.6216 Y-0.1847 F120.00
G01 X109.6587 Y-0.1526 F120.00
G01 X109.8769 Y0.0451 F120.00
G01 X109.9211 Y0.0876 F120.00
G01 X109.9549 Y0.1231 F120.00
G01 X110.1526 Y0.3413 F120.00
G01 X110.1925 Y0.3879 F120.00
G01 X110.2227 Y0.4266 F120.00
G01 X110.3981 Y0.6631 F120.00
G01 X110.4331 Y0.7134 F120.00
G01 X110.4594 Y0.7549 F120.00
G01 X110.6108 Y1.0074 F120.00
G01 X110.6407 Y1.0609 F120.00
G01 X110.6628 Y1.1048 F120.00
G01 X110.7887 Y1.3709 F120.00
G01 X110.8086 Y1.4158 F120.00
G01 X110.8309 Y1.4729 F120.00
G01 X110.9301 Y1.7501 F120.00
G01 X110.9491 Y1.8085 F120.00
G01 X110.9622 Y1.8558 F120.00
G01 X111.0337 Y2.1414 F120.00
G01 X111.0468 Y2.2013 F120.00
G01 X111.0552 Y2.2496 F120.00
G01 X111.0984 Y2.5409 F120.00
G01 X111.1057 Y2.6018 F120.00
G01 X111.1093 Y2.6507 F120.00
G01 X111.1237 Y2.9448 F120.00
G01 X111.1246 Y2.9693 F120.00
G01 X111.1251 Y3.0000 F120.00
G01 X111.1251 Y35.0000 F120.00
G00 X111.1251 Y35.0000
G01 F60.00
G01 Z-1.2000
G01 F120.00
G01 X111.1251 Y3.0000 F120.00
G01 X111.1246 Y2.9693 F120.00
G01 X111.1237 Y2.9448 F120.00
G01 X111.1093 Y2.6507 F120.00
G01 X111.1057 Y2.6018 F120.00
G01 X111.0984 Y2.5409 F120.00
G01 X111.0552 Y2.2496 F120.00
G01 X111.0468 Y2.2013 F120.00
G01 X111.0337 Y2.1414 F120.00
G01 X110.9622 Y1.8558 F120.00
G01 X110.9491 Y1.8085 F120.00
G01 X110.9301 Y1.7501 F120.00
G01 X110.8309 Y1.4729 F120.00
G01 X110.8086 Y1.4158 F120.00
G01 X110.7887 Y1.3709 F120.00
G01 X110.6628 Y1.1048 F120.00
G01 X110.6407 Y1.0609 F120.00
G01 X110.6108 Y1.0074 F120.00
G01 X110.4594 Y0.7549 F120.00
G01 X110.4331 Y0.7134 F120.00
G01 X110.3981 Y0.6631 F120.00
G01 X110.2227 Y0.4266 F120.00
G01 X110.1925 Y0.3879 F120.00
G01 X110.1526 Y0.3413 F120.00
G01 X109.9549 Y0.1231 F120.00
G01 X109.9211 Y0.0876 F120.00
G01 X109.8769 Y0.0451 F120.00
G01 X109.6587 Y-0.1526 F120.00
G01 X109.6216 Y-0.1847 F120.00
G01 X109.5734 Y-0.2227 F120.00
G01 X109.3369 Y-0.3981 F120.00
G01 X109.2968 Y-0.4263 F120.00
G01 X109.2451 Y-0.4594 F120.00
G01 X108.9926 Y-0.6108 F120.00
G01 X108.9499 Y-0.6350 F120.00
G01 X108.8952 Y-0.6628 F120.00
G01 X108.6291 Y-0.7887 F120.00
G01 X108.5729 Y-0.8133 F120.00
G01 X108.5271 Y-0.8309 F120.00
G01 X108.2499 Y-0.9301 F120.00
G01 X108.2033 Y-0.9455 F120.00
G01 X108.1442 Y-0.9622 F120.00
G01 X107.8586 Y-1.0337 F120.00
G01 X107.8107 Y-1.0445 F120.00
G01 X107.7504 Y-1.0552 F120.00
G01 X107.4591 Y-1.0984 F120.00
G01 X107.3982 Y-1.1057 F120.00
G01 X107.3493 Y-1.1093 F120.00
G01 X107.0552 Y-1.1237 F120.00
G01 X107.0245 Y-1.1248 F120.00
G01 X107.0000 Y-1.1251 F120.00
G01 X58.0000 Y-1.1251 F120.00
G00 X58.0000 Y-1.1251
G01 F60.00
G01 Z-1.6000
G01 F120.00
G01 X107.0000 Y-1.1251 F120.00
G01 X107.0245 Y-1.1248 F120.00
G01 X107.0552 Y-1.1237 F120.00
G01 X107.3493 Y-1.1093 F120.00
G01 X107.3982 Y-1.1057 F120.00
G01 X107.4591 Y-1.0984 F120.00
G01 X107.7504 Y-1.0552 F120.00
G01 X107.8107 Y-1.0445 F120.00
G01 X107.8586 Y-1.0337 F120.00
G01 X108.1442 Y-0.9622 F120.00
G01 X108.2033 Y-0.9455 F120.00
G01 X108.2499 Y-0.9301 F120.00
G01 X108.5271 Y-0.8309 F120.00
G01 X108.5729 Y-0.8133 F120.00
G01 X108.6291 Y-0.7887 F120.00
G01 X108.8952 Y-0.6628 F120.00
G01 X108.9499 Y-0.6350 F120.00
G01 X108.9926 Y-0.6108 F120.00
G01 X109.2451 Y-0.4594 F120.00
G01 X109.2968 Y-0.4263 F120.00
G01 X109.3369 Y-0.3981 F120.00
G01 X109.5734 Y-0.2227 F120.00
G01 X109.6216 Y-0.1847 F120.00
G01 X109.6587 Y-0.1526 F120.00
G01 X109.8769 Y0.0451 F120.00
G01 X109.9211 Y0.0876 F120.00
G01 X109.9549 Y0.1231 F120.00
G01 X110.1526 Y0.3413 F120.00
G01 X110.1925 Y0.3879 F120.00
G01 X110.2227 Y0.4266 F120.00
G01 X110.3981 Y0.6631 F120.00
G01 X110.4331 Y0.7134 F120.00
G01 X110.4594 Y0.7549 F120.00
G01 X110.6108 Y1.0074 F120.00
G01 X110.6407 Y1.0609 F120.00
G01 X110.6628 Y1.1048 F120.00
G01 X110.7887 Y1.3709 F120.00
G01 X110.8086 Y1.4158 F120.00
G01 X110.8309 Y1.4729 F120.00
G01 X110.9301 Y1.7501 F120.00
G01 X110.9491 Y1.8085 F120.00
G01 X110.9622 Y1.8558 F120.00
G01 X111.0337 Y2.1414 F120.00
G01 X111.0468 Y2.2013 F120.00
G01 X111.0552 Y2.2496 F120.00
G01 X111.0984 Y2.5409 F120.00
G01 X111.1057 Y2.6018 F120.00
G01 X111.1093 Y2.6507 F120.00
G01 X111.1237 Y2.9448 F120.00
G01 X111.1246 Y2.9693 F120.00
G01 X111.1251 Y3.0000 F120.00
G01 X111.1251 Y35.0000 F120.00
G00 X111.1251 Y35.0000
G01 F60.00
G01 Z-2.0000
G01 F120.00
G01 X111.1251 Y3.0000 F120.00
G01 X111.1246 Y2.9693 F120.00
G01 X111.1237 Y2.9448 F120.00
G01 X111.1093 Y2.6507 F120.00
G01 X111.1057 Y2.6018 F120.00
G01 X111.0984 Y2.5409 F120.00
G01 X111.0552 Y2.2496 F120.00
G01 X111.0468 Y2.2013 F120.00
G01 X111.0337 Y2.1414 F120.00
G01 X110.9622 Y1.8558 F120.00
G01 X110.9491 Y1.8085 F120.00
G01 X110.9301 Y1.7501 F120.00
G01 X110.8309 Y1.4729 F120.00
G01 X110.8086 Y1.4158 F120.00
G01 X110.7887 Y1.3709 F120.00
G01 X110.6628 Y1.1048 F120.00
G01 X110.6407 Y1.0609 F120.00
G01 X110.6108 Y1.0074 F120.00
G01 X110.4594 Y0.7549 F120.00
G01 X110.4331 Y0.7134 F120.00
G01 X110.3981 Y0.6631 F120.00
G01 X110.2227 Y0.4266 F120.00
G01 X110.1925 Y0.3879 F120.00
G01 X110.1526 Y0.3413 F120.00
G01 X109.9549 Y0.1231 F120.00
G01 X109.9211 Y0.0876 F120.00
G01 X109.8769 Y0.0451 F120.00
G01 X109.6587 Y-0.1526 F120.00
G01 X109.6216 Y-0.1847 F120.00
G01 X109.5734 Y-0.2227 F120.00
G01 X109.3369 Y-0.3981 F120.00
G01 X109.2968 Y-0.4263 F120.00
G01 X109.2451 Y-0.4594 F120.00
G01 X108.9926 Y-0.6108 F120.00
G01 X108.9499 Y-0.6350 F120.00
G01 X108.8952 Y-0.6628 F120.00
G01 X108.6291 Y-0.7887 F120.00
G01 X108.5729 Y-0.8133 F120.00
G01 X108.5271 Y-0.8309 F120.00
G01 X108.2499 Y-0.9301 F120.00
G01 X108.2033 Y-0.9455 F120.00
G01 X108.1442 Y-0.9622 F120.00
G01 X107.8586 Y-1.0337 F120.00
G01 X107.8107 Y-1.0445 F120.00
G01 X107.7504 Y-1.0552 F120.00
G01 X107.4591 Y-1.0984 F120.00
G01 X107.3982 Y-1.1057 F120.00
G01 X107.3493 Y-1.1093 F120.00
G01 X107.0552 Y-1.1237 F120.00
G01 X107.0245 Y-1.1248 F120.00
G01 X107.0000 Y-1.1251 F120.00
G01 X58.0000 Y-1.1251 F120.00
G00 X58.0000 Y-1.1251
G01 F60.00
G01 Z-2.4000
G01 F120.00
G01 X107.0000 Y-1.1251 F120.00
G01 X107.0245 Y-1.1248 F120.00
G01 X107.0552 Y-1.1237 F120.00
G01 X107.3493 Y-1.1093 F120.00
G01 X107.3982 Y-1.1057 F120.00
G01 X107.4591 Y-1.0984 F120.00
G01 X107.7504 Y-1.0552 F120.00
G01 X107.8107 Y-1.0445 F120.00
G01 X107.8586 Y-1.0337 F120.00
G01 X108.1442 Y-0.9622 F120.00
G01 X108.2033 Y-0.9455 F120.00
G01 X108.2499 Y-0.9301 F120.00
G01 X108.5271 Y-0.8309 F120.00
G01 X108.5729 Y-0.8133 F120.00
G01 X108.6291 Y-0.7887 F120.00
G01 X108.8952 Y-0.6628 F120.00
G01 X108.9499 Y-0.6350 F120.00
G01 X108.9926 Y-0.6108 F120.00
G01 X109.2451 Y-0.4594 F120.00
G01 X109.2968 Y-0.4263 F120.00
G01 X109.3369 Y-0.3981 F120.00
G01 X109.5734 Y-0.2227 F120.00
G01 X109.6216 Y-0.1847 F120.00
G01 X109.6587 Y-0.1526 F120.00
G01 X109.8769 Y0.0451 F120.00
G01 X109.9211 Y0.0876 F120.00
G01 X109.9549 Y0.1231 F120.00
G01 X110.1526 Y0.3413 F120.00
G01 X110.1925 Y0.3879 F120.00
G01 X110.2227 Y0.4266 F120.00
G01 X110.3981 Y0.6631 F120.00
G01 X110.4331 Y0.7134 F120.00
G01 X110.4594 Y0.7549 F120.00
G01 X110.6108 Y1.0074 F120.00
G01 X110.6407 Y1.0609 F120.00
G01 X110.6628 Y1.1048 F120.00
G01 X110.7887 Y1.3709 F120.00
G01 X110.8086 Y1.4158 F120.00
G01 X110.8309 Y1.4729 F120.00
G01 X110.9301 Y1.7501 F120.00
G01 X110.9491 Y1.8085 F120.00
G01 X110.9622 Y1.8558 F120.00
G01 X111.0337 Y2.1414 F120.00
G01 X111.0468 Y2.2013 F120.00
G01 X111.0552 Y2.2496 F120.00
G01 X111.0984 Y2.5409 F120.00
G01 X111.1057 Y2.6018 F120.00
G01 X111.1093 Y2.6507 F120.00
G01 X111.1237 Y2.9448 F120.00
G01 X111.1246 Y2.9693 F120.00
G01 X111.1251 Y3.0000 F120.00
G01 X111.1251 Y35.0000 F120.00
G00 Z2.0000
M05
G00 Z2.0000
G00 Z7.00


