(G-code generated by FlatCAM Evo vUnstable - Version Date: 2023/6/31)

(Name: global_vu-Edge_Cuts_cutout_cnc)
(Type: G-code from Geometry)
(Units: MM)

(Created on domingo, 11 agosto 2024 at 22:33)

(This preprocessor is used with a motion controller loaded with GRBL firmware.)
(It is configured to be compatible with almost any version of GRBL firmware. No M6 command.)

(TOOL DIAMETER: 2.0 mm)
(Feedrate_XY: 120.0 mm/min)
(Feedrate_Z: 60.0 mm/min)
(Feedrate rapids 1500.0 mm/min)

(Z_Cut: -1.8 mm)
(DepthPerCut: 0.6 mm <=>3 passes)
(Z_Move: 2.0 mm)
(Z Start: None mm)
(Z End: 7.0 mm)
(X,Y End: None mm)
(Steps per circle: 16)
(Steps per circle: 16)
(Preprocessor Geometry: GRBL_11_no_M6)

(X range: -101.2251 ...    1.2251  mm)
(Y range:   -1.2251 ...   50.2251  mm)

(Spindle Speed: 1000.0 RPM)
G21
G90
G17
G94


G01 F120.00
G00 Z2.0000

M03 S1000.0
G01 F120.00
G00 X1.2251 Y21.5000
G01 F60.00
G01 Z-0.6000
G01 F120.00
G01 X1.2251 Y3.0000 F120.00
G01 X1.2155 Y2.8477 F120.00
G01 X1.0583 Y1.8529 F120.00
G01 X1.0161 Y1.6882 F120.00
G01 X0.9447 Y1.5168 F120.00
G01 X0.5186 Y0.6805 F120.00
G01 X0.4219 Y0.5220 F120.00
G01 X0.2933 Y0.3704 F120.00
G01 X-0.3704 Y-0.2933 F120.00
G01 X-0.5114 Y-0.4142 F120.00
G01 X-0.6550 Y-0.5052 F120.00
G01 X-1.5426 Y-0.9574 F120.00
G01 X-1.7007 Y-1.0201 F120.00
G01 X-1.8529 Y-1.0583 F120.00
G01 X-2.8351 Y-1.2139 F120.00
G01 X-3.0000 Y-1.2251 F120.00
G01 X-47.0000 Y-1.2251 F120.00
G00 X-47.0000 Y-1.2251
G01 F60.00
G01 Z-1.2000
G01 F120.00
G01 X-3.0000 Y-1.2251 F120.00
G01 X-2.8351 Y-1.2139 F120.00
G01 X-1.8529 Y-1.0583 F120.00
G01 X-1.7007 Y-1.0201 F120.00
G01 X-1.5426 Y-0.9574 F120.00
G01 X-0.6550 Y-0.5052 F120.00
G01 X-0.5114 Y-0.4142 F120.00
G01 X-0.3704 Y-0.2933 F120.00
G01 X0.2933 Y0.3704 F120.00
G01 X0.4219 Y0.5220 F120.00
G01 X0.5186 Y0.6805 F120.00
G01 X0.9447 Y1.5168 F120.00
G01 X1.0161 Y1.6882 F120.00
G01 X1.0583 Y1.8529 F120.00
G01 X1.2155 Y2.8477 F120.00
G01 X1.2251 Y3.0000 F120.00
G01 X1.2251 Y21.5000 F120.00
G00 X1.2251 Y21.5000
G01 F60.00
G01 Z-1.8000
G01 F120.00
G01 X1.2251 Y3.0000 F120.00
G01 X1.2155 Y2.8477 F120.00
G01 X1.0583 Y1.8529 F120.00
G01 X1.0161 Y1.6882 F120.00
G01 X0.9447 Y1.5168 F120.00
G01 X0.5186 Y0.6805 F120.00
G01 X0.4219 Y0.5220 F120.00
G01 X0.2933 Y0.3704 F120.00
G01 X-0.3704 Y-0.2933 F120.00
G01 X-0.5114 Y-0.4142 F120.00
G01 X-0.6550 Y-0.5052 F120.00
G01 X-1.5426 Y-0.9574 F120.00
G01 X-1.7007 Y-1.0201 F120.00
G01 X-1.8529 Y-1.0583 F120.00
G01 X-2.8351 Y-1.2139 F120.00
G01 X-3.0000 Y-1.2251 F120.00
G01 X-47.0000 Y-1.2251 F120.00
G00 Z2.0000
G00 X-53.0000 Y-1.2251
G01 F60.00
G01 Z-0.6000
G01 F120.00
G01 X-97.0000 Y-1.2251 F120.00
G01 X-97.1655 Y-1.2138 F120.00
G01 X-98.1471 Y-1.0583 F120.00
G01 X-98.3118 Y-1.0161 F120.00
G01 X-98.4574 Y-0.9574 F120.00
G01 X-99.3450 Y-0.5052 F120.00
G01 X-99.4886 Y-0.4142 F120.00
G01 X-99.6296 Y-0.2933 F120.00
G01 X-100.2933 Y0.3704 F120.00
G01 X-100.4219 Y0.5220 F120.00
G01 X-100.5186 Y0.6805 F120.00
G01 X-100.9447 Y1.5168 F120.00
G01 X-101.0161 Y1.6882 F120.00
G01 X-101.0583 Y1.8529 F120.00
G01 X-101.2155 Y2.8479 F120.00
G01 X-101.2251 Y3.0000 F120.00
G01 X-101.2251 Y21.5000 F120.00
G00 X-101.2251 Y21.5000
G01 F60.00
G01 Z-1.2000
G01 F120.00
G01 X-101.2251 Y3.0000 F120.00
G01 X-101.2155 Y2.8479 F120.00
G01 X-101.0583 Y1.8529 F120.00
G01 X-101.0161 Y1.6882 F120.00
G01 X-100.9447 Y1.5168 F120.00
G01 X-100.5186 Y0.6805 F120.00
G01 X-100.4219 Y0.5220 F120.00
G01 X-100.2933 Y0.3704 F120.00
G01 X-99.6296 Y-0.2933 F120.00
G01 X-99.4886 Y-0.4142 F120.00
G01 X-99.3450 Y-0.5052 F120.00
G01 X-98.4574 Y-0.9574 F120.00
G01 X-98.3118 Y-1.0161 F120.00
G01 X-98.1471 Y-1.0583 F120.00
G01 X-97.1655 Y-1.2138 F120.00
G01 X-97.0000 Y-1.2251 F120.00
G01 X-53.0000 Y-1.2251 F120.00
G00 X-53.0000 Y-1.2251
G01 F60.00
G01 Z-1.8000
G01 F120.00
G01 X-97.0000 Y-1.2251 F120.00
G01 X-97.1655 Y-1.2138 F120.00
G01 X-98.1471 Y-1.0583 F120.00
G01 X-98.3118 Y-1.0161 F120.00
G01 X-98.4574 Y-0.9574 F120.00
G01 X-99.3450 Y-0.5052 F120.00
G01 X-99.4886 Y-0.4142 F120.00
G01 X-99.6296 Y-0.2933 F120.00
G01 X-100.2933 Y0.3704 F120.00
G01 X-100.4219 Y0.5220 F120.00
G01 X-100.5186 Y0.6805 F120.00
G01 X-100.9447 Y1.5168 F120.00
G01 X-101.0161 Y1.6882 F120.00
G01 X-101.0583 Y1.8529 F120.00
G01 X-101.2155 Y2.8479 F120.00
G01 X-101.2251 Y3.0000 F120.00
G01 X-101.2251 Y21.5000 F120.00
G00 Z2.0000
G00 X-101.2251 Y27.5000
G01 F60.00
G01 Z-0.6000
G01 F120.00
G01 X-101.2251 Y46.0000 F120.00
G01 X-101.2155 Y46.1523 F120.00
G01 X-101.0583 Y47.1471 F120.00
G01 X-101.0161 Y47.3118 F120.00
G01 X-100.9447 Y47.4832 F120.00
G01 X-100.5186 Y48.3195 F120.00
G01 X-100.4219 Y48.4780 F120.00
G01 X-100.2933 Y48.6296 F120.00
G01 X-99.6296 Y49.2933 F120.00
G01 X-99.4886 Y49.4142 F120.00
G01 X-99.3450 Y49.5052 F120.00
G01 X-98.4574 Y49.9574 F120.00
G01 X-98.3118 Y50.0161 F120.00
G01 X-98.1471 Y50.0583 F120.00
G01 X-97.1649 Y50.2139 F120.00
G01 X-97.0000 Y50.2251 F120.00
G01 X-53.0000 Y50.2251 F120.00
G00 X-53.0000 Y50.2251
G01 F60.00
G01 Z-1.2000
G01 F120.00
G01 X-97.0000 Y50.2251 F120.00
G01 X-97.1649 Y50.2139 F120.00
G01 X-98.1471 Y50.0583 F120.00
G01 X-98.3118 Y50.0161 F120.00
G01 X-98.4574 Y49.9574 F120.00
G01 X-99.3450 Y49.5052 F120.00
G01 X-99.4886 Y49.4142 F120.00
G01 X-99.6296 Y49.2933 F120.00
G01 X-100.2933 Y48.6296 F120.00
G01 X-100.4219 Y48.4780 F120.00
G01 X-100.5186 Y48.3195 F120.00
G01 X-100.9447 Y47.4832 F120.00
G01 X-101.0161 Y47.3118 F120.00
G01 X-101.0583 Y47.1471 F120.00
G01 X-101.2155 Y46.1523 F120.00
G01 X-101.2251 Y46.0000 F120.00
G01 X-101.2251 Y27.5000 F120.00
G00 X-101.2251 Y27.5000
G01 F60.00
G01 Z-1.8000
G01 F120.00
G01 X-101.2251 Y46.0000 F120.00
G01 X-101.2155 Y46.1523 F120.00
G01 X-101.0583 Y47.1471 F120.00
G01 X-101.0161 Y47.3118 F120.00
G01 X-100.9447 Y47.4832 F120.00
G01 X-100.5186 Y48.3195 F120.00
G01 X-100.4219 Y48.4780 F120.00
G01 X-100.2933 Y48.6296 F120.00
G01 X-99.6296 Y49.2933 F120.00
G01 X-99.4886 Y49.4142 F120.00
G01 X-99.3450 Y49.5052 F120.00
G01 X-98.4574 Y49.9574 F120.00
G01 X-98.3118 Y50.0161 F120.00
G01 X-98.1471 Y50.0583 F120.00
G01 X-97.1649 Y50.2139 F120.00
G01 X-97.0000 Y50.2251 F120.00
G01 X-53.0000 Y50.2251 F120.00
G00 Z2.0000
G00 X-47.0000 Y50.2251
G01 F60.00
G01 Z-0.6000
G01 F120.00
G01 X-3.0000 Y50.2251 F120.00
G01 X-2.8351 Y50.2139 F120.00
G01 X-1.8529 Y50.0583 F120.00
G01 X-1.6882 Y50.0161 F120.00
G01 X-1.5426 Y49.9575 F120.00
G01 X-0.6550 Y49.5052 F120.00
G01 X-0.5114 Y49.4142 F120.00
G01 X-0.3704 Y49.2933 F120.00
G01 X0.2933 Y48.6296 F120.00
G01 X0.4219 Y48.4780 F120.00
G01 X0.5186 Y48.3195 F120.00
G01 X0.9447 Y47.4832 F120.00
G01 X1.0161 Y47.3118 F120.00
G01 X1.0583 Y47.1471 F120.00
G01 X1.2155 Y46.1521 F120.00
G01 X1.2251 Y46.0000 F120.00
G01 X1.2251 Y27.5000 F120.00
G00 X1.2251 Y27.5000
G01 F60.00
G01 Z-1.2000
G01 F120.00
G01 X1.2251 Y46.0000 F120.00
G01 X1.2155 Y46.1521 F120.00
G01 X1.0583 Y47.1471 F120.00
G01 X1.0161 Y47.3118 F120.00
G01 X0.9447 Y47.4832 F120.00
G01 X0.5186 Y48.3195 F120.00
G01 X0.4219 Y48.4780 F120.00
G01 X0.2933 Y48.6296 F120.00
G01 X-0.3704 Y49.2933 F120.00
G01 X-0.5114 Y49.4142 F120.00
G01 X-0.6550 Y49.5052 F120.00
G01 X-1.5426 Y49.9575 F120.00
G01 X-1.6882 Y50.0161 F120.00
G01 X-1.8529 Y50.0583 F120.00
G01 X-2.8351 Y50.2139 F120.00
G01 X-3.0000 Y50.2251 F120.00
G01 X-47.0000 Y50.2251 F120.00
G00 X-47.0000 Y50.2251
G01 F60.00
G01 Z-1.8000
G01 F120.00
G01 X-3.0000 Y50.2251 F120.00
G01 X-2.8351 Y50.2139 F120.00
G01 X-1.8529 Y50.0583 F120.00
G01 X-1.6882 Y50.0161 F120.00
G01 X-1.5426 Y49.9575 F120.00
G01 X-0.6550 Y49.5052 F120.00
G01 X-0.5114 Y49.4142 F120.00
G01 X-0.3704 Y49.2933 F120.00
G01 X0.2933 Y48.6296 F120.00
G01 X0.4219 Y48.4780 F120.00
G01 X0.5186 Y48.3195 F120.00
G01 X0.9447 Y47.4832 F120.00
G01 X1.0161 Y47.3118 F120.00
G01 X1.0583 Y47.1471 F120.00
G01 X1.2155 Y46.1521 F120.00
G01 X1.2251 Y46.0000 F120.00
G01 X1.2251 Y27.5000 F120.00
G00 Z2.0000
M05
G00 Z2.0000
G00 Z7.00


